Ethan-CYM/ros_catkin_ws/test/servol_正常操作2/ur_joint_target_degree.txt
time  shoulder_pan_joint  shoulder_lift_joint  elbow_joint  wrist_1_joint  wrist_2_joint  wrist_3_joint
0.149230957031  1.57000005245  -1.22109806538  2.09333586693  -3.14934685042  -1.57116210096  0.18977717774  
0.157143115997  1.57000005245  -1.22109806538  2.09333586693  -3.14950812397  -1.57112898825  0.189773790687  
0.165405035019  1.57000005245  -1.22109806538  2.09333586693  -3.14967061312  -1.57109354618  0.18976918518  
0.173412084579  1.57000005245  -1.22109806538  2.09333586693  -3.14984114949  -1.5710547123  0.1897634844  
0.181501150131  1.57000005245  -1.22109806538  2.09333586693  -3.1500159677  -1.57101549549  0.189756808761  
0.18957400322  1.57000005245  -1.22109806538  2.09333586693  -3.15019072418  -1.57097763218  0.189749275382  
0.197675943375  1.57000005245  -1.22109806538  2.09333586693  -3.15036433894  -1.57094125232  0.189740997614  
0.205785036087  1.57000005245  -1.22109806538  2.09333586693  -3.15054083097  -1.57090646659  0.189732084627  
0.213855028152  1.57000005245  -1.22109806538  2.09333586693  -3.15072180735  -1.57087086266  0.189726648281  
0.221893072128  1.57000005245  -1.22109806538  2.09333586693  -3.15090579657  -1.57083075774  0.189722786465  
0.230007171631  1.57000005245  -1.22109806538  2.09333586693  -3.15108641458  -1.57079029573  0.189718059656  
0.23818397522  1.57000005245  -1.22109806538  2.09333586693  -3.15143066745  -1.57071542382  0.189706394311  
0.246369123459  1.57000005245  -1.22109806538  2.09333586693  -3.15159585425  -1.57067976667  0.189699640225  
0.254354953766  1.57000005245  -1.22109806538  2.09333586693  -3.15175192003  -1.57064727068  0.189696396575  
0.262447118759  1.57000005245  -1.22109806538  2.09333586693  -3.15189860409  -1.57061789217  0.189694745019  
0.27051615715  1.57000005245  -1.22109806538  2.09333586693  -3.15203572424  -1.57059157148  0.189692230948  
0.278591156006  1.57000005245  -1.22109806538  2.09333586693  -3.15216317176  -1.5705707391  0.189688936928  
0.286699056625  1.57000005245  -1.22109806538  2.09333586693  -3.15228090646  -1.57055405708  0.189684943954  
0.29480099678  1.57000005245  -1.22109806538  2.09333586693  -3.15238895152  -1.57053984348  0.189680331074  
0.302873134613  1.57000206651  -1.22112804131  2.09333110923  -3.15249239655  -1.5705279949  0.189675175046  
0.310934066772  1.5700091161  -1.22124496022  2.09331127444  -3.15259889152  -1.5705158968  0.189669550042  
0.31914806366  1.57002798518  -1.22151382756  2.09327147192  -3.1527054562  -1.57050218036  0.189663527385  
0.327399015427  1.57006922504  -1.22200115906  2.09321424719  -3.15279347108  -1.57048204785  0.189657175331  
0.335376977921  1.57014360544  -1.22277727924  2.09314393295  -3.15282499773  -1.57045319603  0.189650558881  
0.343599081039  1.57026286795  -1.22390393521  2.09306460518  -3.15275661298  -1.57041397639  0.189643739633  
0.35170507431  1.57043874095  -1.2254264072  2.09296889364  -3.15254888525  -1.5703614695  0.189636775659  
0.360162973404  1.57067967713  -1.22738050037  2.09284197132  -3.15215629163  -1.57029556951  0.189629721423  
0.368096113205  1.57099189237  -1.22978856715  2.09267101171  -3.15153714663  -1.57021522072  0.189622627721  
0.376369953156  1.57138269115  -1.23266573494  2.09244538765  -3.15064731579  -1.5701180758  0.189615541649  
0.384399175644  1.5718595  -1.23602221396  2.09215563463  -3.14944191797  -1.57000457841  0.189608506603  
0.39240694046  1.57242662125  -1.23985928243  2.09179660854  -3.14788652412  -1.56987419805  0.1896055695  
0.400519132614  1.57308427181  -1.24416880394  2.09136425775  -3.14594946903  -1.56972258289  0.189604764499  
0.40864109993  1.5738288995  -1.24893201052  2.09085435884  -3.14361100587  -1.56954689178  0.189603589811  
0.416639089584  1.57465148338  -1.25412327417  2.09026668491  -3.14086126414  -1.56934611659  0.189602081426  
0.424755096436  1.57553885142  -1.25971313321  2.0896033711  -3.13769369297  -1.56911948316  0.189604281823  
0.432887077332  1.57647526121  -1.26567276979  2.08886845398  -3.13410484424  -1.56886643795  0.189612230691  
0.440984010696  1.57744471173  -1.27197047878  2.08806862836  -3.13010417051  -1.56858913881  0.189625432426  
0.449120044708  1.57843425294  -1.27855659491  2.08721298159  -3.125728835  -1.56829118993  0.18964339729  
0.457343101501  1.57943500594  -1.28537018085  2.08631116067  -3.1210321563  -1.56797604387  0.189665643997  
0.465350151062  1.58043988825  -1.29235527982  2.08537075636  -3.11606322608  -1.56764699193  0.189691702045  
0.473405122757  1.58142824415  -1.29950351594  2.08439333308  -3.11079095549  -1.56730214722  0.1897211138  
0.481538057327  1.58238497079  -1.30678670587  2.08338253409  -3.10521477945  -1.56694194979  0.189753436338  
0.489559173584  1.58329533873  -1.3141703145  2.08233034889  -3.09935198881  -1.56656732335  0.189788243049  
0.497674942017  1.58415141269  -1.32161238883  2.08123720601  -3.09324074069  -1.56618025051  0.189825125025  
0.505748033524  1.58495209362  -1.32906419271  2.08010987955  -3.08693825831  -1.56578410022  0.189863692216  
0.51390004158  1.58568261417  -1.33650785941  2.07892585048  -3.08045343066  -1.56538454027  0.189903574394  
0.521954059601  1.58632960757  -1.34392615131  2.07766800043  -3.07380431146  -1.5649857786  0.189940414705  
0.530079126358  1.58688999822  -1.35129398601  2.07633058529  -3.06701903969  -1.56458772449  0.189975886542  
0.538166046143  1.58736384015  -1.35858854148  2.07490946487  -3.06012357177  -1.5641963394  0.190012217229  
0.546352148056  1.58775373421  -1.36578722363  2.07340227142  -3.0531454593  -1.56381395689  0.190045107368  
0.554442167282  1.5880637772  -1.37287061845  2.0718041622  -3.0461056194  -1.56344329288  0.190076285821  
0.562461137772  1.58829824354  -1.37982070377  2.07010936787  -3.03902080157  -1.56308970629  0.190104026004  
0.570532083511  1.58846154495  -1.38662251496  2.0683115724  -3.03190673462  -1.56275302502  0.19013008857  
0.578631162643  1.58855819242  -1.39326433721  2.06640465736  -3.02477810745  -1.56243506779  0.190156783248  
0.586770057678  1.58859276046  -1.39973835649  2.06438525541  -3.01764855942  -1.56213531352  0.190183895262  
0.594862937927  1.58856985386  -1.40603757626  2.06224869751  -3.01053568533  -1.56185274648  0.190211223919  
0.60294008255  1.58849407665  -1.41215546075  2.05999113362  -3.00345352857  -1.56158778641  0.19023858276  
0.611036062241  1.58837000365  -1.41808710718  2.05760910096  -2.99641192467  -1.56134071117  0.190265799614  
0.619084119797  1.58820215433  -1.42382914943  2.05509924501  -2.98942470324  -1.56111166602  0.190292716559  
0.627334117889  1.58799698308  -1.42937766104  2.05245766625  -2.98250219991  -1.5609031775  0.190319189791  
0.635426044464  1.58776185117  -1.43472106031  2.04969501206  -2.97566564602  -1.56071390276  0.190345089427  
0.643356084824  1.58750977628  -1.43985925651  2.04680311848  -2.96892283592  -1.56054206181  0.190370299227  
0.651445150375  1.58725640089  -1.4447936195  2.04377217229  -2.9622686712  -1.5603898724  0.190394716256  
0.659554004669  1.58701616121  -1.44952200764  2.04060463571  -2.95570290704  -1.56025571246  0.190422257633  
0.667683124542  1.58680430525  -1.45404372412  2.0373070902  -2.94923270387  -1.56013755182  0.190454851094  
0.675774097443  1.58663791144  -1.45835940913  2.03388734636  -2.94286199163  -1.56003488189  0.190487894976  
0.683845996857  1.58653161304  -1.46247093159  2.03035336696  -2.93659585956  -1.55994463295  0.190522815087  
0.69194817543  1.58650138546  -1.46638128289  2.0267148022  -2.93044127963  -1.55986243361  0.190557583119  
0.700054168701  1.58656183087  -1.47009646981  2.0229837339  -2.92440398972  -1.55978420174  0.190593660948  
0.708268165588  1.58672669274  -1.4736224134  2.01917281244  -2.9184885546  -1.55970614715  0.190629057054  
0.716303110123  1.58700917606  -1.47696458156  2.01529260375  -2.91269842786  -1.55962477284  0.190661263392  
0.724316120148  1.58742073026  -1.48012915866  2.01135394706  -2.90703100765  -1.55953436938  0.190690327674  
0.732412099838  1.58797111474  -1.48312095344  2.00736653736  -2.90148521572  -1.55942826334  0.190720320544  
0.74054312706  1.5886684695  -1.48594630459  2.00333868761  -2.89605721976  -1.55930039731  0.190749317851  
0.748584032059  1.58951737624  -1.48861126069  1.9992783157  -2.89074483652  -1.55914531898  0.190778882769  
0.756721019745  1.59052195803  -1.49111923053  1.99518813338  -2.88554826082  -1.55895816798  0.190811128962  
0.764832019806  1.59168622803  -1.49347316525  1.9910696239  -2.88046695384  -1.55873466034  0.190845648114  
0.772911071777  1.59301491042  -1.49567674306  1.98692366732  -2.87549970269  -1.5584710708  0.19087804236  
0.781002044678  1.59451251831  -1.49773428994  1.98275190964  -2.87064468012  -1.55816421194  0.19090994146  
0.789062976837  1.59618619417  -1.49964870388  1.97855695996  -2.865899505  -1.55781141206  0.190939519961  
0.79717206955  1.59804580039  -1.50142437727  1.97434456271  -2.86126129881  -1.55740548359  0.190964433156  
0.805361032486  1.60010247012  -1.50306739047  1.97012199159  -2.85673175088  -1.55694220887  0.190984888576  
0.813374996185  1.60234225856  -1.5045801785  1.96590878733  -2.85232468946  -1.55642598896  0.191001105311  
0.8214199543  1.60474308827  -1.5059654591  1.96172718476  -2.8480529541  -1.55586163398  0.191013311752  
0.829533100128  1.60733143226  -1.50723369279  1.95757647889  -2.84390458474  -1.55523738973  0.191021743457  
0.837641000748  1.61013830626  -1.5083947611  1.95345261665  -2.83986108703  -1.55453901575  0.191026641126  
0.845738172531  1.61320252487  -1.50946010486  1.94935156912  -2.83588764266  -1.55374173694  0.19102824871  
0.853853940964  1.61654102615  -1.51043920928  1.94527785366  -2.83197004794  -1.55283206704  0.191026811645  
0.862039089203  1.62016015042  -1.51134102221  1.94124040089  -2.82810239718  -1.55180349808  0.191022575214  
0.87019109726  1.62821419745  -1.51294103102  1.93331534798  -2.82050371283  -1.54938713061  0.191006675673  
0.878361940384  1.63270424355  -1.51367672274  1.92943647052  -2.81672192966  -1.54795920557  0.190995489397  
0.8863530159  1.63750517745  -1.51438774472  1.92562533039  -2.81294137938  -1.54637531328  0.190982455033  
0.894384145737  1.64261594556  -1.51509308682  1.92189369356  -2.80915453628  -1.54462795942  0.190967796961  
0.90247797966  1.64804173118  -1.51581530668  1.91825099135  -2.80534571853  -1.54270601228  0.190943717848  
0.910534143448  1.65377981545  -1.51657393874  1.91470377346  -2.80149558973  -1.54060071021  0.190898401637  
0.918637990952  1.65983263146  -1.5173967669  1.9112565662  -2.79757863545  -1.53829613365  0.190813067882  
0.926768064499  1.66619107891  -1.51830486584  1.90791611191  -2.7935788272  -1.53578947265  0.190673973889  
0.934919118881  1.67284669953  -1.51931930055  1.90468664202  -2.78948273975  -1.53308316037  0.190461438939  
0.942926168442  1.67977357747  -1.52044952205  1.90157588116  -2.78529068853  -1.53018777127  0.190162763412  
0.951096057892  1.68695936215  -1.52171334085  1.89858757256  -2.78098729522  -1.52710255506  0.189761770956  
0.959213972092  1.69441037945  -1.52314285976  1.89572069554  -2.7765444335  -1.52381775504  0.189233145555  
0.967406988144  1.70211303225  -1.52475817322  1.89297833534  -2.77195205218  -1.52033562846  0.188560001105  
0.975420951843  1.71007165855  -1.52660163079  1.89036060011  -2.76717552697  -1.51664029114  0.187704292226  
0.983494997025  1.71827812589  -1.5287055792  1.88786401193  -2.76218361435  -1.51272632257  0.186627693263  
0.991615056992  1.726698866  -1.53107823033  1.88549097565  -2.75696554808  -1.50860825857  0.185311263159  
0.999712944031  1.73527674054  -1.53369800738  1.88324664487  -2.75155078986  -1.50431872639  0.183767744791  
1.00783205032  1.74394630451  -1.53652946348  1.88113495941  -2.74598822084  -1.49989766428  0.182024348672  
1.01594209671  1.75265266606  -1.53954458458  1.879155543  -2.74031382707  -1.49537771753  0.18009940009  
1.02398610115  1.76143912251  -1.54283779855  1.87729750739  -2.73441038615  -1.49071155246  0.177898054747  
1.0322239399  1.77031347883  -1.54645345466  1.87555492784  -2.72822156706  -1.48588264284  0.175375517819  
1.04033708572  1.77925713531  -1.55040221033  1.87393038359  -2.72173612846  -1.48090270035  0.172533302469  
1.04824113846  1.78825252868  -1.55469685709  1.87242898836  -2.71494216586  -1.47578219888  0.169371096681  
1.05634307861  1.79726281722  -1.55931972082  1.87105240549  -2.70786235626  -1.47054357504  0.165903295089  
1.06450510025  1.80625492273  -1.56425794045  1.86980432421  -2.70051607018  -1.46520513337  0.162137733203  
1.07256793976  1.81520516837  -1.56952302331  1.86869336805  -2.69290403077  -1.45977247368  0.158068448851  
1.08063411713  1.82408509652  -1.57511690866  1.86772849876  -2.68503271939  -1.45425697388  0.153695159777  
1.08869409561  1.83285411902  -1.58101001963  1.86691225434  -2.67694062062  -1.44868551345  0.149048217478  
1.09683394432  1.84148168642  -1.58719951067  1.86625286243  -2.6686391638  -1.44307405913  0.144139306667  
1.10502409935  1.84993748987  -1.59368112  1.86575774557  -2.66014182298  -1.43743882471  0.138982137022  
1.11312603951  1.85819077026  -1.60043825824  1.86542832366  -2.65147186623  -1.43180327012  0.133594587088  
1.12126994133  1.86621156239  -1.60746107641  1.86526554946  -2.64264389119  -1.42618549059  0.127989894197  
1.1292591095  1.87397131721  -1.61473634807  1.86526860088  -2.63367943352  -1.42060414839  0.122185623405  
1.13751006126  1.88144330833  -1.6222488023  1.86543635253  -2.62459503993  -1.41507915762  0.116197549598  
1.14539813995  1.88860147962  -1.62998404899  1.86576608121  -2.61540587336  -1.40962853645  0.110035015527  
1.15350604057  1.89542458304  -1.63792743236  1.86625653004  -2.60612949659  -1.40427094677  0.103713393866  
1.16165494919  1.9018942627  -1.64606414222  1.86690581142  -2.59678765833  -1.39902448759  0.0972445199857  
1.16969799995  1.9079925912  -1.65437931826  1.8677102651  -2.58739373435  -1.393902659  0.0906395495194  
1.17789506912  1.91370416109  -1.66285614762  1.86866874303  -2.57795954164  -1.38891818038  0.0839119581638  
1.18598103523  1.91901716195  -1.67147894965  1.86978109682  -2.56849414742  -1.38408339415  0.0770749366346  
1.19421100616  1.92392317415  -1.68023152417  1.87104623363  -2.55900819106  -1.37940875582  0.0701333166059  
1.20223617554  1.92841494415  -1.68909695614  1.87246219601  -2.5495045223  -1.37490041047  0.0630915285138  
1.21036195755  1.93248919047  -1.69805694426  1.87402623987  -2.53999505322  -1.3705665392  0.0559646354771  
1.21831297874  1.93614464036  -1.7070928535  1.87573331714  -2.53048956817  -1.36641653162  0.0487637281076  
1.22638201714  1.9393795289  -1.71618902265  1.87757695283  -2.52099121434  -1.36245790707  0.0414908061777  
1.23467516899  1.94219366279  -1.72533179927  1.87955192453  -2.5115028509  -1.35869390915  0.034141812792  
1.24259710312  1.94458746127  -1.73451030029  1.88165353558  -2.50202204409  -1.35512736252  0.0267111376818  
1.25069713593  1.94656072964  -1.74371143699  1.8838750683  -2.49254357558  -1.35176110989  0.0191981199796  
1.25881814957  1.94811270773  -1.75292265917  1.88621024496  -2.48306261762  -1.34859653003  0.0116009949614  
1.26695799828  1.94924413293  -1.76212949904  1.88865030649  -2.47357974165  -1.34563364276  0.00392032284066  
1.27506613731  1.9499582962  -1.77131030898  1.89118464863  -2.46410843111  -1.34287371887  -0.00383250547746  
1.28333115578  1.95025276747  -1.78045377065  1.8938093005  -2.4546418595  -1.34031562946  -0.0116498671796  
1.29132604599  1.9501272318  -1.78954668993  1.89651738062  -2.44517409456  -1.33795812154  -0.0195169925334  
1.29935598373  1.94958233085  -1.79857137325  1.89929988262  -2.43570344289  -1.33579775316  -0.0274169324652  
1.30734300613  1.94862293439  -1.80750792721  1.90214736946  -2.42624046064  -1.33383367148  -0.035328176524  
1.31541895866  1.94725241874  -1.8163362143  1.9050497981  -2.4167986078  -1.33206679802  -0.0432261321829  
1.32351207733  1.94547896196  -1.82503633425  1.90799756176  -2.40739725857  -1.33049675864  -0.0510801847061  
1.33162307739  1.9433141242  -1.83358955978  1.91098311361  -2.39805988531  -1.32912198642  -0.0588576851798  
1.33977007866  1.94076377945  -1.84198152741  1.91399859659  -2.38880273174  -1.32794232842  -0.066528994847  
1.34788513184  1.93783623653  -1.85020115722  1.91703883906  -2.37964737422  -1.32696039974  -0.0740674354491  
1.35599899292  1.93454385394  -1.85824129782  1.92010238199  -2.37061392612  -1.32617884858  -0.0814452173804  
1.36421704292  1.93090230901  -1.86609363768  1.92318547133  -2.36172226535  -1.32559636956  -0.0886393708187  
1.37229514122  1.92693142042  -1.87374734262  1.92628265271  -2.35299277274  -1.32520905911  -0.0956241763183  
1.3803460598  1.9226426195  -1.88120047903  1.92939360489  -2.34442821391  -1.32501711434  -0.102376535513  
1.38830494881  1.91804858187  -1.88845318196  1.93251914896  -2.33603135355  -1.3250224308  -0.108878927428  
1.39642810822  1.91316441008  -1.89550448464  1.93565901645  -2.32780955437  -1.32522052362  -0.115116742957  
1.40447902679  1.90801070058  -1.90234875059  1.93880967134  -2.3197735294  -1.32560563762  -0.121074142295  
1.41258311272  1.90259755653  -1.90898655687  1.94197231005  -2.31192992487  -1.32617777523  -0.126739921756  
1.42074108124  1.89693169817  -1.91542039059  1.94514850064  -2.30428074963  -1.32693619966  -0.132103891794  
1.42886304855  1.89102324626  -1.92165347501  1.9483393361  -2.29683165898  -1.32787761211  -0.137156186072  
1.43688797951  1.88487901369  -1.92768919937  1.951543473  -2.28958955343  -1.3289978338  -0.141889638889  
1.44497609138  1.87850439452  -1.93353274536  1.95476091778  -2.2825595124  -1.33029440506  -0.14629962001  
1.4531929493  1.87190579413  -1.93919325071  1.95799505877  -2.27574991446  -1.33176292118  -0.150387873736  
1.46117115021  1.86509051149  -1.9446794493  1.96124665671  -2.26916002777  -1.33340179737  -0.154156340201  
1.46937894821  1.85806662375  -1.94999931196  1.96451603515  -2.26279197844  -1.33520643255  -0.157606452657  
1.47739601135  1.85084287565  -1.95516322169  1.96780591359  -2.25665220334  -1.33717113157  -0.160741509242  
1.48547410965  1.84342857414  -1.96018089234  1.97111641128  -2.25074021321  -1.33928860683  -0.163566507733  
1.4935669899  1.83583147227  -1.96506102368  1.97444724041  -2.24505622508  -1.34155723802  -0.166091989681  
1.50163197517  1.82805867936  -1.96981049571  1.97779574596  -2.23960195141  -1.34397146864  -0.168327871677  
1.5097219944  1.82011381562  -1.97443529789  1.98115750252  -2.23437253648  -1.34652338472  -0.170282756855  
1.51782512665  1.81200094834  -1.9789417286  1.98452834647  -2.22935917855  -1.34920879958  -0.17196632473  
1.52604293823  1.80372403535  -1.98333833017  1.98790438384  -2.22455742789  -1.35202448592  -0.173389187557  
1.53415703773  1.78668571617  -1.99184782014  1.99465782352  -2.21554261088  -1.35803104062  -0.175499086876  
1.54228305817  1.77793465985  -1.99598244991  1.99803039263  -2.21131766488  -1.3612129297  -0.176210796399  
1.55035209656  1.76904412107  -2.00004864384  2.00139609082  -2.20727074895  -1.3645047535  -0.176710900807  
1.55836796761  1.76002503794  -2.00405579896  2.00475296047  -2.20339436539  -1.36789988649  -0.177012723029  
1.56634306908  1.75088594408  -2.00801528438  2.00810111812  -2.19967845869  -1.37139554401  -0.177129782531  
1.57450199127  1.74163545556  -2.01193788291  2.01144072571  -2.19611483969  -1.37498749288  -0.177075696136  
1.58253598213  1.73228221062  -2.01583376885  2.01477198532  -2.19269292685  -1.37866976733  -0.176864085939  
1.59058904648  1.72283280088  -2.01971249191  2.01809513553  -2.18940416366  -1.38243880822  -0.176508494345  
1.59868097305  1.71329071314  -2.02358296701  2.02141044728  -2.18623774871  -1.38629225743  -0.176022306186  
1.60676217079  1.70365654779  -2.02745147094  2.02471502342  -2.18318003338  -1.39022741596  -0.175418677874  
1.6148481369  1.69393226765  -2.03132263758  2.02800279467  -2.18021775351  -1.39424629604  -0.174710473461  
1.62301516533  1.68413954443  -2.03519273048  2.03126413216  -2.17734309061  -1.39833813436  -0.17391020749  
1.63115096092  1.67432146557  -2.03904764406  2.03448524906  -2.17455622483  -1.40248126575  -0.173029994439  
1.63931012154  1.66445047673  -2.04290293398  2.03766461589  -2.17183466036  -1.40668648239  -0.172085510974  
1.64734315872  1.65452239849  -2.0467636498  2.04079895401  -2.16916264448  -1.41095482809  -0.171089950196  
1.65542817116  1.64459152353  -2.05061007524  2.04387510624  -2.16654706367  -1.41526075995  -0.170053457179  
1.66351413727  1.63470964428  -2.05442344059  2.04688009588  -2.16399476382  -1.41957964032  -0.168985643496  
1.67157006264  1.62480758028  -2.05822694251  2.04982412596  -2.16146867053  -1.42393416484  -0.167895568982  
1.67963409424  1.61487776283  -2.06202225686  2.05270673991  -2.15895609115  -1.42832233834  -0.166791728318  
1.68770813942  1.60497190166  -2.0657904565  2.05551800963  -2.15647157316  -1.43272182279  -0.165682042182  
1.69583106041  1.59497944038  -2.06956055171  2.05827827732  -2.15397326347  -1.43717894351  -0.164573852643  
1.7039270401  1.5848274972  -2.07335300293  2.06100331538  -2.15144053935  -1.44172507047  -0.163473922497  
1.71206212044  1.57451607261  -2.07716386415  2.06369347865  -2.14887384167  -1.44635827908  -0.162388438268  
1.72034406662  1.56404900802  -2.08098904499  2.06634904182  -2.14627294319  -1.45107979873  -0.161327023683  
1.72832894325  1.55343115228  -2.0848278499  2.06897460227  -2.1436357638  -1.45589314202  -0.160300747223  
1.73643898964  1.54266472303  -2.08867872116  2.07157485412  -2.14096269236  -1.46079597024  -0.159323607159  
1.74456715584  1.53174949769  -2.09253698185  2.07415175237  -2.13825723791  -1.4657851486  -0.158410551344  
1.7526781559  1.52068300406  -2.09639910251  2.07670790925  -2.13552283769  -1.47086121741  -0.157578975764  
1.76072001457  1.50946272408  -2.10026297161  2.07924679724  -2.13276284125  -1.47602810298  -0.156846761786  
1.76884698868  1.49808728978  -2.10412463212  2.08177012771  -2.12998049792  -1.48128782215  -0.156233792608  
1.77697610855  1.48655438849  -2.10797928086  2.08427864225  -2.12717393421  -1.48664269986  -0.155760009332  
1.78517103195  1.47486370177  -2.11182053249  2.08677151814  -2.12434365412  -1.49209575341  -0.155442940672  
1.79320907593  1.46301507809  -2.11564141249  2.08924715824  -2.1214982053  -1.49764915669  -0.155297782106  
1.80135202408  1.4510021397  -2.11943361613  2.09170259842  -2.11864348466  -1.50330679592  -0.155341489151  
1.80930304527  1.43882857754  -2.12318649573  2.0941326975  -2.11578707075  -1.50906806319  -0.15558285605  
1.81735396385  1.42650182541  -2.1268893059  2.09653193624  -2.11293388148  -1.51492632372  -0.156024084437  
1.8255109787  1.41402733738  -2.13053244754  2.0988954164  -2.11009552413  -1.52087840081  -0.156665964662  
1.83355617523  1.40140904712  -2.13410543823  2.10121724231  -2.10728846611  -1.52692120441  -0.157511987044  
1.84166502953  1.38865231283  -2.13759587803  2.10348970216  -2.10451768434  -1.53304985814  -0.158558431146  
1.84981012344  1.37576411289  -2.14099167459  2.10570665241  -2.1017917087  -1.53925933081  -0.159795939033  
1.85784816742  1.3627517  -2.14428026362  2.10786050809  -2.09911897315  -1.54554448031  -0.16121469329  
1.86603999138  1.34962052083  -2.14744955424  2.10994279748  -2.09650900867  -1.55190009426  -0.162800506409  
1.87411904335  1.3363771737  -2.15048913471  2.11194774723  -2.09396813444  -1.55832343149  -0.164540920354  
1.88228917122  1.32302961774  -2.15339020676  2.11386984863  -2.09150884134  -1.56481050232  -0.166421819043  
1.89035701752  1.30958584106  -2.1561455149  2.11570519853  -2.08914298858  -1.5713582721  -0.168426969338  
1.89841008186  1.29605582294  -2.15874927174  2.11745326456  -2.08687800801  -1.57796252408  -0.170540627002  
1.90650415421  1.28244846558  -2.16119707989  2.1191134338  -2.0847301462  -1.58461755517  -0.172747596527  
1.91467499733  1.26877128356  -2.16348585139  2.1206863502  -2.08271450586  -1.59132029381  -0.17502927573  
1.92274594307  1.25503164183  -2.16561172706  2.12217248382  -2.08083626097  -1.59806656982  -0.177365701456  
1.9308359623  1.24123672127  -2.16757099099  2.12357187301  -2.07910141319  -1.60485330791  -0.179742127632  
1.93891310692  1.22739550246  -2.16936324809  2.12488668993  -2.0775175348  -1.61167387478  -0.182143038849  
1.94700813293  1.21351773297  -2.17098833907  2.1261172022  -2.0760906731  -1.61852151943  -0.184555637179  
1.95522999763  1.19961263007  -2.17244598847  2.12726390975  -2.07483043924  -1.62539131039  -0.186966380215  
1.96337604523  1.18569087936  -2.17373698084  2.12832872671  -2.07373757315  -1.63227605739  -0.189360447527  
1.97132706642  1.17176160279  -2.17486107509  2.12931392412  -2.07281087452  -1.63916757218  -0.191724272733  
1.97939801216  1.1578522231  -2.17581991643  2.13022049567  -2.07205113144  -1.64605074683  -0.19404553036  
1.9874920845  1.14401176126  -2.17661721619  2.13104891481  -2.07145803441  -1.6529048036  -0.19631712315  
1.99574804306  1.1303101901  -2.17725939845  2.13180010522  -2.07102525468  -1.65969677343  -0.198531147318  
2.00393104553  1.11681573693  -2.17775252085  2.13247380011  -2.07074303296  -1.66639182017  -0.200678328669  
2.01191616058  1.10342540506  -2.1780799462  2.13306448821  -2.07063148543  -1.67305504361  -0.202750527905  
2.02002501488  1.09008434187  -2.17823249842  2.13356800054  -2.07070062309  -1.67972215206  -0.204740703039  
2.02811813354  1.07680034755  -2.17820931162  2.13397971313  -2.07095895113  -1.68639175394  -0.206642867921  
2.03631711006  1.06361078693  -2.17801633647  2.13429886139  -2.07140188493  -1.69304482304  -0.208452047435  
2.04426813126  1.05051584593  -2.17765079735  2.13451692595  -2.0720323793  -1.69968434137  -0.210164229889  
2.05235505104  1.03754945665  -2.17711901869  2.1346329272  -2.07284366649  -1.70629355947  -0.211776317124  
2.06043100357  1.02477407168  -2.17643520877  2.13465247011  -2.07381667524  -1.71283881239  -0.21328607283  
2.06854009628  1.01214674974  -2.17558427146  2.13455960371  -2.07496787224  -1.71934245982  -0.214692069519  
2.07665109634  0.999636103336  -2.17455495883  2.13434255682  -2.07631179122  -1.72581958846  -0.215993634596  
2.08465409279  0.987254140024  -2.1733485116  2.13400124656  -2.07784893431  -1.73225878342  -0.217186788797  
2.0927670002  0.975017517285  -2.17196517598  2.13353570232  -2.0795785656  -1.73864432079  -0.218266194199  
2.10085105896  0.96294305088  -2.17040510919  2.13294898044  -2.08149380313  -1.74496056689  -0.219223625885  
2.1089861393  0.951047258386  -2.16866755459  2.13224491987  -2.08358922836  -1.75119854045  -0.22005391996  
2.11708903313  0.939347456511  -2.16674975041  2.13142525732  -2.08586666083  -1.75734836106  -0.220751436855  
2.12526607513  0.927861591838  -2.16464710251  2.13049297238  -2.08831955754  -1.76339853636  -0.221309458367  
2.13342404366  0.916606066044  -2.16235335422  2.12945084489  -2.09094495909  -1.76933908451  -0.221722653453  
2.14141917229  0.905596591916  -2.15986075468  2.12830278089  -2.09373991  -1.77516398325  -0.221987003513  
2.14951300621  0.894849325689  -2.15716022341  2.12705237412  -2.09670271307  -1.78086735506  -0.222099725863  
2.15759205818  0.884394829187  -2.15426349227  2.12570904806  -2.09981365242  -1.7864330518  -0.222067209253  
2.16574406624  0.874258818751  -2.15117828899  2.12428260544  -2.10305694378  -1.79184618927  -0.22189291719  
2.17381000519  0.864443056815  -2.14787159673  2.12277430812  -2.10645603804  -1.79710693  -0.221564220077  
2.18192410469  0.854955055343  -2.14431763634  2.12118688941  -2.11002912374  -1.80221220566  -0.221067410696  
2.19000196457  0.845813149853  -2.14051500192  2.11952618298  -2.11377518194  -1.80715179317  -0.220401244657  
2.1980919838  0.837024388006  -2.1364486277  2.11779641112  -2.11770930743  -1.81191582845  -0.219554280055  
2.20632410049  0.820554330599  -2.12754848335  2.11416261337  -2.12613620272  -1.82087194126  -0.21732561865  
2.21434116364  0.812887948318  -2.12271984243  2.11227133664  -2.13062473266  -1.825050091  -0.215941201821  
2.22241306305  0.805622045825  -2.11769374131  2.1103488969  -2.13524980088  -1.82901552827  -0.214400945297  
2.23049211502  0.798768621555  -2.11250871476  2.10840804187  -2.13997710687  -1.83276015125  -0.212722501119  
2.23861598969  0.792312852777  -2.10705673731  2.10642603042  -2.14489250633  -1.83628787503  -0.210852548137  
2.2466609478  0.786249821929  -2.10130597061  2.1043977463  -2.15002112389  -1.83959949294  -0.208775417818  
2.25477004051  0.78058667576  -2.09531530757  2.10233937211  -2.15531457163  -1.8426912251  -0.206520087296  
2.26286911964  0.775327523961  -2.08914055822  2.10026602098  -2.16072719492  -1.84556095  -0.204114390319  
2.27095603943  0.770473649422  -2.08283434268  2.09819172571  -2.16621614361  -1.84820808892  -0.201584933239  
2.27927899361  0.76602371972  -2.07644601216  2.0961294356  -2.17174142028  -1.85063348972  -0.198957025138  
2.28728795052  0.761971984409  -2.07001160475  2.09408941247  -2.17727091504  -1.85283931089  -0.196246607249  
2.29532694817  0.758305463365  -2.06333299476  2.09202073242  -2.18300831416  -1.85483141079  -0.19328389856  
2.30338215828  0.755015495006  -2.05630084265  2.08989484948  -2.18907948389  -1.85661547855  -0.189976800094  
2.31147694588  0.752094445695  -2.04886964481  2.0877006641  -2.19555944093  -1.8581890768  -0.18628072953  
2.31959795952  0.749531807732  -2.04101333214  2.08543501438  -2.20249863531  -1.85954687364  -0.182165937811  
2.32762002945  0.747317678119  -2.03275084865  2.08310479815  -2.20989561303  -1.86069029928  -0.177641352602  
2.33573698997  0.745439922184  -2.02412601237  2.08072159388  -2.21771529363  -1.86162493024  -0.172738462578  
2.34384298325  0.743884082636  -2.01516801673  2.07829280767  -2.22593811596  -1.86235470178  -0.167481997479  
2.35193800926  0.742634826264  -2.00589384395  2.07582340578  -2.23456109503  -1.86288305244  -0.161887597087  
2.36004304886  0.741676107113  -1.99633028159  2.07331756749  -2.24356897497  -1.86321440391  -0.155979798929  
2.36827397346  0.740991321423  -1.98650850476  2.07077844684  -2.25293443412  -1.8633540572  -0.149787862966  
2.37634706497  0.740563453997  -1.97645687289  2.0682091564  -2.26263213455  -1.86331059618  -0.143340541723  
2.38440203667  0.740375215761  -1.96621179493  2.06561436082  -2.27262454254  -1.86309453834  -0.136669948426  
2.3925280571  0.74040917235  -1.95579390881  2.06299145617  -2.28289147308  -1.86271665654  -0.129805422743  
2.40061903  0.740647863602  -1.94524561807  2.06034634604  -2.29338716659  -1.86218789162  -0.122788917057  
2.40870714188  0.741075927958  -1.93459671862  2.05768089041  -2.30407463558  -1.86151676695  -0.11565340808  
2.41680216789  0.741681211452  -1.92386179982  2.05499198312  -2.31492611591  -1.86071557343  -0.108420686233  
2.42489314079  0.742452580228  -1.91305718786  2.05227783973  -2.3259091283  -1.85979938186  -0.101115460092  
2.43300294876  0.743380747588  -1.90220237063  2.04954016852  -2.33698788917  -1.85877779807  -0.0937713259684  
2.44102501869  0.744457351348  -1.89132596373  2.04678416442  -2.34812086337  -1.85766241853  -0.0864201888432  
2.44934606552  0.745673756996  -1.88046116379  2.04401726982  -2.35927148546  -1.85646494395  -0.0790891785428  
2.45729613304  0.747031201957  -1.86961770428  2.04123934488  -2.3704288807  -1.85519521342  -0.071803194569  
2.46537709236  0.74853180799  -1.85880757372  2.03845045795  -2.38157965668  -1.8538602461  -0.064584923623  
2.47344994545  0.750174290038  -1.84805296239  2.03565674366  -2.39269771281  -1.85246545757  -0.0574548704381  
2.48158597946  0.751950540338  -1.83738715046  2.03286736566  -2.4037462344  -1.85102122318  -0.0504434215949  
2.48964715004  0.753858789531  -1.82682330901  2.03008527866  -2.41471088691  -1.84953283316  -0.0435648578403  
2.49771904945  0.755898442135  -1.81637093237  2.02731102564  -2.42557857552  -1.84800606044  -0.0368318406097  
2.50584602356  0.758059737996  -1.80605908005  2.02455240035  -2.43631401819  -1.84644939453  -0.0302621693054  
2.5139040947  0.760335431125  -1.79590986701  2.02181543212  -2.44689674775  -1.84486834673  -0.0238672401741  
2.52198314667  0.762719643931  -1.78593967248  2.01910434256  -2.45730551448  -1.84326668853  -0.017658145361  
2.53008413315  0.765209132806  -1.77615883307  2.01641900409  -2.46752303541  -1.84164552256  -0.0116422973722  
2.53830099106  0.76779253661  -1.76659218833  2.0137659378  -2.47752037477  -1.84001203672  -0.00583100621347  
2.54641199112  0.770483117998  -1.75722103902  2.01113256398  -2.48731559922  -1.8383597966  -0.000206060436398  
2.55430793762  0.773293984271  -1.74802654034  2.00850433942  -2.49693377665  -1.83668025338  0.00524918930645  
2.56242513657  0.77622907816  -1.73901172568  2.00587916119  -2.50636946933  -1.83497008164  0.0105434542834  
2.57055997849  0.77928841439  -1.73018460938  2.00325787587  -2.51561502282  -1.83323141286  0.0156800956562  
2.5785779953  0.782474923933  -1.72154975679  2.00064123812  -2.52466748427  -1.83146430756  0.0206665238601  
2.58669900894  0.785792037035  -1.713115844  1.99803311448  -2.53352031942  -1.82966607181  0.0255151888804  
2.59476208687  0.789242943685  -1.70489029993  1.99543569172  -2.54217082203  -1.82783441387  0.0302424359686  
2.60289311409  0.792830932703  -1.69687834636  1.99285065084  -2.55062067957  -1.82596492316  0.0348704436066  
2.61096596718  0.796554158928  -1.68908663978  1.99027880511  -2.55886267587  -1.82405731164  0.0394146124839  
2.61907410622  0.800395644067  -1.68153311038  1.98772629032  -2.56687557457  -1.82211948602  0.0438729646178  
2.62714314461  0.804350058327  -1.67422583561  1.98519598393  -2.5746503837  -1.82015183552  0.0482572188476  
2.63529014587  0.80844050022  -1.66714857507  1.98267706736  -2.5821940753  -1.81813402501  0.0526103852481  
2.64337396622  0.812661771553  -1.66030472469  1.98016988078  -2.58949740648  -1.81606387316  0.0569399578572  
2.65164399147  0.81701729286  -1.65369233186  1.97767281401  -2.59656668098  -1.81393679529  0.0612673106493  
2.65962100029  0.821518980562  -1.64730447556  1.97518417141  -2.60340877337  -1.81174368172  0.0656235642881  
2.66760516167  0.826186309295  -1.64113005562  1.97270127515  -2.61003267198  -1.80947445768  0.0700382346281  
2.67572116852  0.831038409043  -1.63516083089  1.97022361375  -2.6164488667  -1.80711988074  0.0745308449835  
2.68374109268  0.8360862336  -1.62939059866  1.96775029107  -2.62266038644  -1.80467592308  0.0791159022376  
2.69186496735  0.841339508802  -1.62381323387  1.9652817823  -2.62867337802  -1.80214088793  0.0838085545961  
2.69994497299  0.846809120462  -1.61842105848  1.96281716789  -2.63449766971  -1.79951127147  0.0886221063962  
2.70809698105  0.852504943176  -1.61320667148  1.96035530685  -2.64013848968  -1.79678547004  0.093568078664  
2.71618294716  0.858436694676  -1.6081633111  1.95789446711  -2.64560388086  -1.79396156048  0.0986602831427  
2.72448897362  0.864613050676  -1.60328367863  1.95543370838  -2.65090527787  -1.79103441014  0.10391690004  
2.73252415657  0.871040494922  -1.59856202398  1.95297469443  -2.65605925404  -1.78799846234  0.109352011167  
2.7406001091  0.877725463073  -1.59399123204  1.95051828445  -2.66107992946  -1.78484926711  0.114975156068  
2.74868512154  0.884671455649  -1.58956463388  1.94806751627  -2.66597321953  -1.78157841408  0.120793966981  
2.75678110123  0.891880918009  -1.5852763517  1.94562542722  -2.67074745373  -1.7781784787  0.126814269039  
2.76492214203  0.899355646733  -1.58112010503  1.94319223543  -2.67541398023  -1.77463986902  0.133040184446  
2.7729780674  0.907095652779  -1.57709127941  1.94076875238  -2.67997892635  -1.77095167164  0.139478245383  
2.78111100197  0.915091243845  -1.57318799401  1.93835819942  -2.68444063928  -1.76710975753  0.146123481289  
2.78917312622  0.923315103291  -1.56941289925  1.93596600219  -2.68879530771  -1.76312171234  0.152954983265  
2.79736804962  0.931789946665  -1.56575399207  1.93358519738  -2.69306011549  -1.75896226459  0.159987696316  
2.80537509918  0.940535893873  -1.56220212909  1.93120981421  -2.69725316033  -1.75460975777  0.16723352765  
2.81365394592  0.949548979049  -1.55875321989  1.92883898115  -2.70138071874  -1.75005858507  0.174696102823  
2.82165694237  0.958826736789  -1.5554056819  1.92647346582  -2.70545106768  -1.7453073124  0.182374089486  
2.82982897758  0.968343437074  -1.55216375797  1.92411967231  -2.70946510608  -1.74036984426  0.190244211026  
2.83774900436  0.978083910265  -1.54903104243  1.92178463737  -2.71342316767  -1.73524994782  0.198286460896  
2.84584403038  0.988058979115  -1.54600700677  1.91947220235  -2.71733384368  -1.72993948257  0.206500362469  
2.85395312309  0.998292285714  -1.54309131996  1.9171848378  -2.72120827884  -1.72441813746  0.214887427698  
2.86199307442  1.00878256013  -1.54029016671  1.91493106071  -2.72504696037  -1.71867870139  0.223429606571  
2.87010598183  1.01950569684  -1.53761004536  1.91272065542  -2.72884470675  -1.7127311287  0.232091907879  
2.87816596031  1.03045865267  -1.53505702905  1.91056304188  -2.73259699278  -1.70656878452  0.240844643391  
2.88638615608  1.05302485217  -1.5303549421  1.90643667262  -2.73993268894  -1.69359162674  0.258503708479  
2.89463996887  1.0646105181  -1.52821403185  1.90448263241  -2.74350325946  -1.68678560286  0.267340180237  
2.90251612663  1.07639443117  -1.5262166916  1.90260689576  -2.74699260826  -1.67976195768  0.276137013059  
2.91071605682  1.0883436522  -1.52436417406  1.90081156521  -2.75039038977  -1.67254420827  0.28484970276  
2.91869115829  1.10040056898  -1.52265673573  1.89910061022  -2.75368554781  -1.66517342927  0.293430698325  
2.9267809391  1.11260702012  -1.5210937126  1.89746692516  -2.75686559484  -1.65762376551  0.301860999304  
2.93488001823  1.12499422366  -1.51967359578  1.89590013946  -2.75992473614  -1.6498780485  0.310114021849  
2.94293904305  1.13753692303  -1.51839610457  1.89439533304  -2.76285128638  -1.64195551221  0.318160312726  
2.95112299919  1.15020261981  -1.51725926411  1.89294944785  -2.76563444584  -1.63388188922  0.325970657063  
2.95921707153  1.16299883857  -1.51626121038  1.89155131613  -2.76826806999  -1.62565326361  0.333522903197  
2.9673230648  1.17592184577  -1.51540252866  1.89019206573  -2.77074741956  -1.61727446959  0.340794890191  
2.97557616234  1.18893448576  -1.51468206287  1.88887019557  -2.773064072  -1.60877053989  0.347767241975  
2.98357796669  1.20196549955  -1.51409472282  1.88758914459  -2.77521335065  -1.60019080639  0.354422280934  
2.99162912369  1.2149426415  -1.51363381957  1.88635050305  -2.77719490759  -1.59158689851  0.3607433301  
2.99962306023  1.22791424134  -1.51330838587  1.88514564259  -2.77899944537  -1.58292957139  0.366721087466  
3.00771808624  1.24087970523  -1.51312326285  1.88397450044  -2.78061864252  -1.57422237241  0.372347438405  
3.01583695412  1.25381928568  -1.5130830322  1.88283948357  -2.78204389292  -1.56548377165  0.377614738179  
3.02386403084  1.26673074762  -1.51319569145  1.88174139065  -2.78327054417  -1.55672241632  0.382522171387  
3.03199100494  1.27958014027  -1.51346367148  1.88068485137  -2.78429846399  -1.54796834433  0.387069554069  
3.0400929451  1.29235748602  -1.51389590655  1.87967415492  -2.78512375516  -1.53923692022  0.391252603048  
3.0481710434  1.30505507112  -1.51450145917  1.87871363852  -2.78574115409  -1.53054152704  0.395075302011  
3.05628013611  1.31765450876  -1.51528727574  1.87781111707  -2.78615210604  -1.52190410642  0.398544237914  
3.06431698799  1.33014146257  -1.51625981221  1.87697370934  -2.78635714308  -1.51334600015  0.401661333831  
3.07257795334  1.3425025699  -1.51742386431  1.87620664444  -2.7863551069  -1.50488389645  0.404432213253  
3.08057403564  1.35472712433  -1.51878466475  1.87551590721  -2.7861462145  -1.49653363313  0.406870560691  
3.08853816986  1.36677908077  -1.52033299807  1.87490267373  -2.78573695983  -1.48832310922  0.408989396772  
3.09663414955  1.37866617744  -1.52207500632  1.87436795906  -2.78512748514  -1.48025445496  0.410800373251  
3.10473299026  1.39037313541  -1.52400518495  1.87391087413  -2.7843233281  -1.47234124684  0.412316148348  
3.11293005943  1.4019104198  -1.52612725653  1.8735298585  -2.7833216329  -1.46458255023  0.413550230037  
3.12090802193  1.41329349086  -1.52844548524  1.87322233901  -2.78212723752  -1.45697401013  0.41451682623  
3.12896704674  1.42452109216  -1.53095757903  1.87298614431  -2.78074957135  -1.44952196187  0.415230702242  
3.13709115982  1.43558497423  -1.53365739123  1.87282135533  -2.77919554264  -1.44223524535  0.415703038788  
3.14518713951  1.44645974004  -1.53652775838  1.87272533253  -2.77747762695  -1.43513246842  0.415951320706  
3.15333199501  1.45716122003  -1.53956910215  1.87269496367  -2.77559624982  -1.42821046263  0.415981720715  
3.16134595871  1.46772007317  -1.54278759927  1.8727279105  -2.77354403789  -1.42145806305  0.415787912974  
3.16965794563  1.47814833393  -1.5461783494  1.87282001648  -2.77132025982  -1.41487582171  0.415363112862  
3.1775560379  1.48844195989  -1.54972826383  1.87296613968  -2.76892823239  -1.40847259003  0.41470650369  
3.18560910225  1.49857404995  -1.55341395327  1.87316119117  -2.76638207637  -1.40226586075  0.413829126254  
3.19368600845  1.50857464715  -1.55723430892  1.87339859958  -2.76367658334  -1.39624739139  0.412707147199  
3.20180916786  1.51846361482  -1.5611806701  1.8736695038  -2.76081333954  -1.390414853  0.411320730629  
3.20993804932  1.52823290229  -1.56523342025  1.87396777161  -2.75780649459  -1.3847756091  0.409671277455  
3.21800017357  1.53785770227  -1.56936897799  1.87428943773  -2.75466999065  -1.37933879697  0.407772067296  
3.22608304024  1.54736384177  -1.5735815592  1.87462912027  -2.75140246631  -1.37409698401  0.405609525749  
3.23417305946  1.55678986556  -1.57787103201  1.87498241307  -2.74799970739  -1.36903686975  0.40315804338  
3.24237203598  1.56615200089  -1.58222929769  1.8753460922  -2.7444666013  -1.36415549832  0.400402140862  
3.2505800724  1.57543069719  -1.5866341343  1.87571550821  -2.74082141047  -1.35945843223  0.397355813771  
3.25870609283  1.58464314858  -1.59107573459  1.87608381884  -2.73706749314  -1.3549350542  0.394007751806  
3.26675105095  1.59379392984  -1.59554134536  1.87644538014  -2.73321694955  -1.35057927617  0.39036204536  
3.27475094795  1.60292536184  -1.60002686743  1.87679117986  -2.72926820416  -1.34637569169  0.386397302782  
3.28281497955  1.61207078723  -1.60452574723  1.87711339458  -2.72522581451  -1.34231142364  0.382099733138  
3.29092597961  1.62123414826  -1.60902285297  1.87740521415  -2.72110627298  -1.33838104678  0.377477413213  
3.29901099205  1.63041779327  -1.61350307104  1.87765961203  -2.71692026128  -1.33457872622  0.372531794557  
3.30715513229  1.63962376239  -1.61795056737  1.87787033742  -2.71267511724  -1.33089578072  0.367265547964  
3.315294981  1.64885984026  -1.62235177102  1.87802870303  -2.70838298584  -1.32732199815  0.361685468222  
3.32329106331  1.65813050899  -1.62669162307  1.87812515244  -2.70406329605  -1.32384728174  0.35580778357  
3.33143210411  1.66743615782  -1.63095627771  1.87815125561  -2.69972704816  -1.32046170386  0.349649985842  
3.33970808983  1.67677894266  -1.63513459813  1.87810127139  -2.69538865543  -1.3171580587  0.343231613819  
3.34773206711  1.68615978433  -1.63921484962  1.87797130713  -2.69106227111  -1.31392814973  0.336570641235  
3.35571503639  1.69558013266  -1.64318564968  1.87775667058  -2.68675794803  -1.31076500026  0.329682811068  
3.36384510994  1.70503420121  -1.64703717888  1.87745582003  -2.68248982993  -1.30766322445  0.322588059385  
3.37190914154  1.71451777823  -1.65076112042  1.87706813795  -2.67827366453  -1.30461496872  0.315304393383  
3.38000416756  1.72403032594  -1.65435059516  1.87659106372  -2.67412365457  -1.30161119381  0.307847252868  
3.3881380558  1.73357116846  -1.65780209079  1.87602505299  -2.6700524895  -1.29864328632  0.30023195611  
3.39619112015  1.74313749277  -1.66111439168  1.87537134895  -2.6660713843  -1.29570558331  0.292465601019  
3.40430808067  1.75272134171  -1.66428524299  1.87463070746  -2.66219012517  -1.29279413687  0.284559002454  
3.41252613068  1.76232096876  -1.66731827  1.87380915982  -2.65840710081  -1.28990013396  0.276523682614  
3.42065811157  1.77192728922  -1.67021717801  1.8729155699  -2.65472437882  -1.2870224286  0.26837273327  
3.42865896225  1.78154294652  -1.67298987712  1.87195856451  -2.65113908047  -1.28415820239  0.260089233218  
3.43674015999  1.79116077247  -1.67564395323  1.87094809018  -2.6476521095  -1.28131039979  0.251671723042  
3.44469094276  1.80078049928  -1.6781927977  1.86989459195  -2.64425451565  -1.27847997476  0.243118384734  
3.45278000832  1.81040440342  -1.68064809095  1.86880477658  -2.64093371821  -1.27566330946  0.234424691334  
3.46087813377  1.82002582425  -1.68302168086  1.86768638365  -2.63768056277  -1.27286449447  0.225588014619  
3.46914601326  1.82963829423  -1.68532733803  1.86655019412  -2.63448618518  -1.27008657355  0.216604476276  
3.47718405724  1.83923506584  -1.68758018429  1.86540719762  -2.63134204548  -1.26732929749  0.207475417284  
3.48527908325  1.84880883621  -1.68979766173  1.86427076898  -2.62824496328  -1.26459230851  0.198209326268  
3.49340200424  1.85835301247  -1.69199724528  1.86315507118  -2.62518462249  -1.26187765486  0.188809211543  
3.50143504143  1.86785968326  -1.69419716214  1.86207463755  -2.62215043474  -1.25918855071  0.179278003771  
3.50968194008  1.8773226214  -1.69641539045  1.8610419918  -2.61913539751  -1.2565252975  0.16961354746  
3.5177090168  1.88673753093  -1.69867039738  1.86006905466  -2.61612792515  -1.25389155799  0.159809998471  
3.52570509911  1.89610074773  -1.70098415235  1.85916898566  -2.61311435735  -1.25128844577  0.14985882304  
3.53377795219  1.90540719929  -1.70337489374  1.85835280456  -2.61008213247  -1.24871637535  0.139754732345  
3.54183697701  1.9146473545  -1.70585263395  1.85762442637  -2.6070247883  -1.24617950385  0.129504152084  
3.54992103577  1.92381652198  -1.70842972723  1.85698571848  -2.60392942975  -1.24367790223  0.119118600802  
3.55802202225  1.9329103177  -1.71111645869  1.85643877908  -2.6007885625  -1.24121349885  0.108609541397  
3.56607604027  1.9419167712  -1.7139133041  1.85598177225  -2.59760141038  -1.23878826402  0.0980003336051  
3.57424807549  1.95965454149  -1.71985595315  1.85533366754  -2.59106932609  -1.23405298594  0.0765282908281  
3.58237600327  1.96838372811  -1.7230091447  1.85513891736  -2.58771762727  -1.23173866959  0.0656823709559  
3.59034109116  1.97702242306  -1.72628355314  1.8550282663  -2.58431106055  -1.22945659992  0.0547756645449  
3.59846615791  1.98557306327  -1.72967793675  1.85500255799  -2.58085415238  -1.22720507306  0.0438211171633  
3.60662603378  1.99403927931  -1.73319040531  1.85506457275  -2.57735347201  -1.2249812866  0.032833307327  
3.61471509933  2.00242410718  -1.73681648392  1.85521885818  -2.57381827657  -1.22278102033  0.0218339023482  
3.62274813652  2.0107316901  -1.74055017235  1.85546837092  -2.57025731977  -1.22060023544  0.0108436352102  
3.630849123  2.01896750598  -1.74438526772  1.85581750671  -2.56668384404  -1.21843759036  -0.000124775763735  
3.63905715942  2.02712899793  -1.74830942464  1.85626677198  -2.56311306771  -1.21629319821  -0.0110500555892  
3.64705610275  2.03522567221  -1.75231519356  1.85681800791  -2.55955400214  -1.21416454585  -0.0219178455629  
3.65516614914  2.04326000195  -1.75639387179  1.85747188381  -2.55601696846  -1.21205025835  -0.0327102616379  
3.66330695152  2.05124538016  -1.76054147035  1.85823130856  -2.55250926869  -1.20994793752  -0.0434202799086  
3.67130208015  2.05919213468  -1.76475455641  1.85909791666  -2.54903953753  -1.2078588423  -0.0540432847717  
3.67939710617  2.06710380818  -1.76902522318  1.86006908304  -2.54561842989  -1.20578447388  -0.0645668692091  
3.68747615814  2.07496089696  -1.77333466108  1.8611375998  -2.54226048049  -1.20373217529  -0.0749578299984  
3.69563913345  2.08276989238  -1.77768142371  1.86230234859  -2.5389766216  -1.20170545995  -0.0852107210099  
3.70368003845  2.09052117453  -1.78205480791  1.86355677575  -2.53577355013  -1.19971053255  -0.0953063861158  
3.71174716949  2.09824428671  -1.78646390449  1.86489987858  -2.53265193285  -1.19774228231  -0.105247128856  
3.71988606453  2.10594556782  -1.79090558463  1.86632552388  -2.52961896993  -1.19579957174  -0.115019379956  
3.72793412209  2.11363832774  -1.795381227  1.86782899947  -2.52668159704  -1.19387849228  -0.124616304764  
3.73602795601  2.12133225173  -1.79989074848  1.86940534995  -2.52384269219  -1.19197696434  -0.134037055872  
3.74419808388  2.12903707895  -1.80443767819  1.87105314336  -2.52109928957  -1.19009232961  -0.143282935053  
3.75229001045  2.13676106927  -1.80902405228  1.87276955642  -2.51845014228  -1.18822160862  -0.152356904281  
3.76040315628  2.14450583885  -1.81365082975  1.87455354963  -2.51590145069  -1.18636343069  -0.161256414283  
3.76863408089  2.15227073449  -1.81831898086  1.87640494667  -2.51345622821  -1.1845164535  -0.16997384895  
3.77665114403  2.1600558663  -1.82302797638  1.87832223253  -2.51110867651  -1.18268187352  -0.178500971957  
3.78471398354  2.16786842956  -1.82778107156  1.88030520167  -2.50885993191  -1.18085967683  -0.1868393813  
3.79277205467  2.17571237917  -1.83258133199  1.88235099694  -2.50671127392  -1.17905081455  -0.194988391018  
3.80086803436  2.18358965079  -1.83743012467  1.88445312953  -2.50466033561  -1.17725754431  -0.202943862052  
3.80897903442  2.19150098619  -1.84232641114  1.88660432949  -2.50270432685  -1.17548185214  -0.210703177815  
3.81713199615  2.19945373774  -1.84727176739  1.88879918642  -2.50084008427  -1.17372546058  -0.218269148989  
3.82513594627  2.20745510834  -1.85226767991  1.89103177573  -2.49905911168  -1.17198983838  -0.225643903351  
3.83324599266  2.21550908666  -1.85731403825  1.8932986572  -2.49735513758  -1.17027621135  -0.232828248806  
3.84135198593  2.22361701174  -1.86241042711  1.89559831046  -2.49571981831  -1.16858306965  -0.239828119009  
3.84962797165  2.2317745781  -1.86755215621  1.89792912603  -2.49414711339  -1.16690993434  -0.246652473562  
3.8576900959  2.23997716707  -1.87273627927  1.90029421719  -2.49263398884  -1.16525770256  -0.253310666781  
3.86563611031  2.24822141644  -1.8779621509  1.90270064019  -2.49117226756  -1.16362707253  -0.259808350767  
3.87368917465  2.2565039664  -1.88322691858  1.90515398141  -2.48975617021  -1.16201855396  -0.266153400444  
3.88181710243  2.26481946626  -1.88852854035  1.90765976673  -2.48838300966  -1.16042997511  -0.272352362  
3.88986301422  2.27316361332  -1.89386407346  1.91022369905  -2.48704503303  -1.15886025048  -0.278413845474  
3.89798998833  2.28152940996  -1.89923142363  1.91284908218  -2.4857419613  -1.15730722066  -0.284348986825  
3.90607500076  2.28990791377  -1.90462763114  1.91553764864  -2.48447416465  -1.15577233533  -0.290164834832  
3.91414308548  2.29828274272  -1.91004462223  1.9182890021  -2.48323883879  -1.1542572414  -0.295862283864  
3.92230701447  2.30664618552  -1.91548447571  1.92111104371  -2.48203319558  -1.15276187214  -0.301448566178  
3.93046617508  2.31499221864  -1.92095197632  1.92401302989  -2.48085447908  -1.151283539  -0.306927711694  
3.93849611282  2.32330984985  -1.92645302723  1.92700433131  -2.4797049889  -1.14982320149  -0.312299419376  
3.94669103622  2.3315899546  -1.93199320259  1.93009490284  -2.47858458274  -1.14838455971  -0.317564077938  
3.95468997955  2.33982351213  -1.93758222725  1.9332981052  -2.47749503079  -1.14696588354  -0.322722711281  
3.96285009384  2.34800131354  -1.94323426925  1.93662996365  -2.47644070107  -1.14556753503  -0.327768908305  
3.97096014023  2.35611319789  -1.94896317365  1.94010379828  -2.47542039511  -1.14419014406  -0.33269677696  
3.97903394699  2.36414701198  -1.95478323262  1.94373327704  -2.47442986947  -1.14283269815  -0.33750395896  
3.98712015152  2.372086825  -1.96071222629  1.94753350752  -2.47347003408  -1.14149664396  -0.342189028609  
3.99523305893  2.37991214612  -1.96676821377  1.95151829992  -2.47253945665  -1.14018214257  -0.346747421079  
4.00332307816  2.38760243243  -1.97296706445  1.95569924726  -2.47163871608  -1.13889024954  -0.351173371229  
4.011521101  2.39513957349  -1.97932652513  1.9600890215  -2.47076607855  -1.13762326128  -0.355462383961  
4.0196390152  2.40250378845  -1.98586230491  1.96469828417  -2.46992185243  -1.1363856457  -0.359611162512  
4.02767801285  2.40967555145  -1.99258862944  1.96953617195  -2.46910406377  -1.13517779616  -0.363609522821  
4.03560113907  2.41663603348  -1.99951860476  1.97461062755  -2.46830780097  -1.1340019727  -0.367448329605  
4.04371213913  2.4233680016  -2.00666505342  1.97992750952  -2.46753841767  -1.1328629879  -0.371126495706  
4.05177617073  2.42985496556  -2.01403762915  1.98549071637  -2.46679652104  -1.13176505204  -0.374638342947  
4.05986499786  2.43608205983  -2.02164466279  1.99130391266  -2.46608165572  -1.13071179376  -0.377978990537  
4.06807112694  2.44203517209  -2.02948156056  1.99736026812  -2.46539115191  -1.12970377827  -0.381143333693  
4.07609605789  2.4476997955  -2.03755763348  2.0036623575  -2.46472447784  -1.12874729584  -0.384129423917  
4.08426904678  2.45306316333  -2.04588083972  2.01021237729  -2.46407390435  -1.12784720991  -0.386934904864  
4.09236812592  2.45811537  -2.0544479826  2.01700454478  -2.46343636632  -1.1270072339  -0.389560389718  
4.10060715675  2.4628492104  -2.06325143243  2.0240294895  -2.46280980143  -1.12623188323  -0.392001888892  
4.10869312286  2.467260015  -2.07228151729  2.03127618942  -2.46218931214  -1.1255249216  -0.394256188776  
4.11673998833  2.47134346803  -2.0815239127  2.03872990467  -2.46157535164  -1.12488939602  -0.396327835547  
4.12478995323  2.47509845789  -2.09096175363  2.04637388625  -2.46097122419  -1.12432767307  -0.39822049071  
4.13290405273  2.47852516104  -2.1005742736  2.05418830685  -2.46037490774  -1.12383897326  -0.399936301221  
4.14100313187  2.48162460123  -2.11033090542  2.06214555793  -2.45978657068  -1.12342066124  -0.401478345111  
4.1490521431  2.48439371228  -2.1202098796  2.07022514294  -2.45920423686  -1.1230723737  -0.402850540097  
4.15714001656  2.48682818698  -2.13018936978  2.07840660682  -2.45862812823  -1.12279480426  -0.40405755408  
4.16531515121  2.48892613028  -2.14024195124  2.08666671138  -2.45806133765  -1.12258564931  -0.405104717926  
4.17342996597  2.49068385528  -2.15033870988  2.09498033852  -2.45750666005  -1.12244089604  -0.405997940913  
4.18168115616  2.49209771859  -2.16045153316  2.10332212108  -2.45696659818  -1.12235894774  -0.406743629143  
4.18964195251  2.49316246661  -2.1705543911  2.11167008285  -2.45643836102  -1.12233940523  -0.40734860721  
4.19761610031  2.4938730685  -2.18061933975  2.12000005424  -2.45591637403  -1.1223815129  -0.407820043348  
4.20569801331  2.494227081  -2.19061450801  2.12828385493  -2.45539044787  -1.12248419115  -0.408165378256  
4.21380496025  2.49422245081  -2.20050859705  2.13649391045  -2.45485829941  -1.1226485721  -0.408392257759  
4.22193098068  2.4938583336  -2.21027336525  2.14460684121  -2.45431870713  -1.12287427616  -0.408508469428  
4.22997808456  2.4931321536  -2.21988556429  2.1526026211  -2.45377267213  -1.12316411823  -0.408521883225  
4.23807406425  2.49204545768  -2.22931987006  2.16045871085  -2.45321907528  -1.12351821454  -0.408440396267  
4.246322155  2.48879618088  -2.24756603178  2.17567248661  -2.45207893126  -1.12441994093  -0.408024141631  
4.25443100929  2.48663204709  -2.25634478421  2.18299993321  -2.45149820188  -1.12497172055  -0.407704864333  
4.26249504089  2.48410774431  -2.26487467534  2.1901234011  -2.4509108515  -1.12559294897  -0.407321585239  
4.27066898346  2.48122542507  -2.27314623579  2.19703383547  -2.45031811323  -1.12628377722  -0.406881652089  
4.27869415283  2.47798728321  -2.28115350279  2.20372514075  -2.44971907597  -1.12704244943  -0.406392193879  
4.28667116165  2.47439838718  -2.2888946157  2.21019465405  -2.44912002915  -1.12786692492  -0.40586410062  
4.29473304749  2.47046676645  -2.29636867989  2.21644063119  -2.44852261006  -1.12875741687  -0.405301984125  
4.30285310745  2.46620195514  -2.30357536035  2.22246191651  -2.44792747398  -1.12971267134  -0.404709633516  
4.31091213226  2.46161481545  -2.31051800587  2.2282604371  -2.44733312917  -1.13073467489  -0.404093072879  
4.3190600872  2.45671736621  -2.31720051374  2.23383868981  -2.44674027674  -1.13182276374  -0.403458008922  
4.32712101936  2.45152060589  -2.32362892401  2.23920100893  -2.44615248091  -1.13297799767  -0.402809820189  
4.33524608612  2.44603133281  -2.32981155265  2.24435366695  -2.44557299782  -1.13420386371  -0.40214954224  
4.34334301949  2.4402572936  -2.33575759666  2.24930375051  -2.44499977046  -1.13550063558  -0.401479870812  
4.3513841629  2.434204551  -2.34147301013  2.25405106626  -2.44442793591  -1.13686916636  -0.400797678008  
4.35962605476  2.42788210099  -2.34695838422  2.25858563822  -2.44385800884  -1.13830875672  -0.400099480606  
4.36766314507  2.42130629545  -2.3522113589  2.2628942527  -2.44329838769  -1.13981685691  -0.399384506589  
4.37573504448  2.41449412963  -2.35723003245  2.26696678633  -2.44274966424  -1.14139069005  -0.398640127874  
4.38387012482  2.40745754237  -2.36200611189  2.27079629153  -2.44221147184  -1.14302227833  -0.397847854504  
4.39191794395  2.40020859904  -2.36652878317  2.27437786375  -2.44168132589  -1.14470598671  -0.396982915573  
4.39996409416  2.39275890942  -2.37079164284  2.27771011646  -2.44115896632  -1.14643671604  -0.396022238796  
4.40805697441  2.38512126618  -2.37478956681  2.28079265407  -2.44064703115  -1.14821051232  -0.394947477999  
4.41614413261  2.37730779803  -2.37851830575  2.28362572785  -2.44014788891  -1.15002492436  -0.393742419825  
4.42429304123  2.36932557827  -2.38197561118  2.28621111807  -2.43966364484  -1.15187743935  -0.392388911736  
4.4323580265  2.36117982582  -2.38516109408  2.28855040787  -2.43920115607  -1.15376800768  -0.390876803719  
4.44039916992  2.3528763692  -2.38807608292  2.2906472487  -2.43875952301  -1.15569781031  -0.389194387489  
4.44873905182  2.34441954886  -2.39072348211  2.29250744636  -2.43833694173  -1.15767019707  -0.387331245342  
4.45664095879  2.33581515837  -2.39310763164  2.29413622847  -2.43793455633  -1.15969196166  -0.38527722464  
4.46480703354  2.32707466189  -2.39523416865  2.29553892045  -2.43755329675  -1.1617655183  -0.383025810588  
4.47279715538  2.31820981766  -2.39710989178  2.29672343416  -2.43719388958  -1.16389234961  -0.380570554106  
4.48089694977  2.30923710801  -2.39874262878  2.29769775801  -2.43685686937  -1.16607495628  -0.377912445207  
4.48904800415  2.30017392184  -2.40014110803  2.29846963118  -2.4365425902  -1.16831529845  -0.375054331379  
4.49712610245  2.29103568289  -2.40131283637  2.29904744728  -2.43625123749  -1.17061232153  -0.371997739335  
4.50528717041  2.28183909739  -2.40226697592  2.29944015422  -2.43597783124  -1.17296323735  -0.368745309705  
4.5133099556  2.27259708573  -2.40301449575  2.29965715542  -2.43571473981  -1.17536513987  -0.365304700089  
4.52161598206  2.26331949356  -2.40356679594  2.29970821493  -2.43545486003  -1.17781503194  -0.361686483467  
4.52976799011  2.25401361004  -2.40393360532  2.2996001733  -2.43519162018  -1.18030985142  -0.357901514209  
4.53774595261  2.24468717082  -2.40412587937  2.2993416559  -2.43491897962  -1.1828439904  -0.353968852767  
4.54581904411  2.23535062886  -2.40415597405  2.2989434199  -2.43463142498  -1.18541307344  -0.349907673281  
4.55388307571  2.22601687914  -2.40403629282  2.29841465731  -2.43431895567  -1.1880118067  -0.345738124283  
4.56202316284  2.21668487737  -2.40377920596  2.29776372434  -2.4339645662  -1.19063866877  -0.341473790598  
4.57010316849  2.20738770289  -2.40339697634  2.2970022802  -2.43356493033  -1.19328248699  -0.337139135611  
4.57822299004  2.19818036332  -2.40290169168  2.29614363065  -2.4331260413  -1.19592553379  -0.33276652544  
4.58628106117  2.18910296944  -2.40230520306  2.29519905551  -2.43265367078  -1.19855396648  -0.328382042157  
4.59464812279  2.18006298395  -2.40161707169  2.29416738178  -2.43211328121  -1.20120164905  -0.323951378946  
4.60267901421  2.17100574379  -2.40084751592  2.29305111788  -2.4314750673  -1.2038909774  -0.319454474989  
4.61061906815  2.16192886865  -2.4000076338  2.29185710487  -2.43072677927  -1.20662687161  -0.314898993756  
4.61868309975  2.15284134816  -2.39910809838  2.29059279801  -2.42986781866  -1.20940899491  -0.310304388033  
4.62680602074  2.14372185519  -2.39815912443  2.28926165411  -2.42888914829  -1.21224488118  -0.305679839346  
4.63482999802  2.1345535608  -2.39717044062  2.28786767042  -2.42777940352  -1.2151434537  -0.301036658185  
4.64295506477  2.12536473717  -2.39615126684  2.28641998283  -2.42654185934  -1.21809460134  -0.296396423688  
4.65110707283  2.11615577305  -2.39511029652  2.28492283198  -2.42518117472  -1.22109992542  -0.291765334539  
4.65917396545  2.10692862002  -2.39405568348  2.28337989681  -2.4236994854  -1.2241647612  -0.287147700343  
4.66735100746  2.09767028147  -2.39299503324  2.28179352816  -2.42209450336  -1.22729678326  -0.282532061023  
4.67540311813  2.0883714502  -2.39193339935  2.28016269867  -2.4203669649  -1.23049953022  -0.277912153698  
4.68345212936  2.07903153282  -2.39087428198  2.27848739903  -2.41852123671  -1.23377143675  -0.273287587331  
4.69164800644  2.06966399454  -2.38982289258  2.27677202572  -2.41656708983  -1.23710311708  -0.268663702379  
4.69970417023  2.0602505639  -2.38878116053  2.27501156954  -2.41450210996  -1.24049868273  -0.26403808278  
4.70771503448  2.05080551105  -2.38775246689  2.27320793366  -2.41233100344  -1.24394923443  -0.259421521027  
4.71578907967  2.04133771833  -2.386742185  2.27136262463  -2.41005753393  -1.24744557368  -0.254823602125  
4.7238919735  2.03179808881  -2.38575315959  2.2694598519  -2.40766993682  -1.25100127482  -0.250238013433  
4.73197698593  2.02215685004  -2.38478871277  2.26748592788  -2.40515722475  -1.25462224416  -0.245658179157  
4.74003911018  2.01244863011  -2.38385292315  2.26544770369  -2.40253300131  -1.2582947269  -0.241100374184  
4.74817299843  2.00266084939  -2.38294937486  2.26333155674  -2.39978715276  -1.26202490565  -0.236559125355  
4.75629115105  1.99280481758  -2.38208117364  2.26113415674  -2.39692567849  -1.26580771573  -0.232038599306  
4.76449608803  1.98287349674  -2.38125096469  2.25884391542  -2.3939452656  -1.26964105547  -0.227542872083  
4.77264809608  1.97287339403  -2.38046095207  2.25645748136  -2.39084607032  -1.27351789013  -0.223078204074  
4.78076100349  1.96282675797  -2.37971092018  2.2539765041  -2.38763567206  -1.27742768982  -0.218657201939  
4.78882694244  1.95268407249  -2.37899325966  2.25136808566  -2.38428877387  -1.28138850726  -0.214271188168  
4.79682993889  1.94241295088  -2.37830124533  2.24860889605  -2.38078536449  -1.28540877178  -0.209920268617  
4.8049390316  1.93201373701  -2.37762885158  2.2456891533  -2.37711966497  -1.28948522327  -0.205612022913  
4.81302309036  1.9214875432  -2.37696923158  2.24259577127  -2.37328735148  -1.29361346496  -0.201350836659  
4.82114195824  1.91083819758  -2.37631798846  2.23931749019  -2.36929047919  -1.29779016089  -0.197140462563  
4.82924294472  1.90007520029  -2.37567218167  2.23584600699  -2.36512988291  -1.30201339718  -0.192980039905  
4.83734798431  1.88921037268  -2.37502706808  2.2321716674  -2.36081443998  -1.30628111943  -0.188870129988  
4.84538602829  1.87825726413  -2.37437710052  2.22828495853  -2.3563491365  -1.31059115632  -0.184809271751  
4.85348510742  1.86723412494  -2.37371919011  2.22418321531  -2.35173364715  -1.31493372935  -0.18079747825  
4.8617041111  1.85615856255  -2.3730497075  2.21986332293  -2.34696860454  -1.31930023563  -0.176832791053  
4.86968994141  1.84504395233  -2.37236420895  2.21532096291  -2.3420505123  -1.32368551891  -0.172910770616  
4.87784194946  1.83390371106  -2.37165869461  2.21055353295  -2.33696916001  -1.32808220207  -0.169031063845  
4.88586997986  1.82275356387  -2.37092960029  2.20556162628  -2.331723233  -1.3324794419  -0.165195424191  
4.89396810532  1.81161126689  -2.37017378448  2.20034651993  -2.32631338555  -1.33687077928  -0.161405195152  
4.90204501152  1.8004943257  -2.36939051298  2.19491144271  -2.32073330368  -1.34124821109  -0.157661334349  
4.91015911102  1.78941872993  -2.36858044746  2.18926326858  -2.31498030217  -1.34559901081  -0.153964436931  
4.91820311546  1.76743396959  -2.36688314345  2.17735143897  -2.30296257645  -1.35419612479  -0.146712247811  
4.92650604248  1.7565539639  -2.36599974619  2.17111189064  -2.29670364704  -1.35842789323  -0.143156556614  
4.93444013596  1.74577268546  -2.36509621386  2.16470246516  -2.2902832112  -1.36260765102  -0.139647077801  
4.9426419735  1.73510472548  -2.36417538443  2.15813632423  -2.28370604939  -1.36672936123  -0.136182964021  
4.95067214966  1.72456485251  -2.36324115102  2.15142525514  -2.2769775429  -1.37079032004  -0.132767158739  
4.95871305466  1.71416908401  -2.36229518874  2.14457756482  -2.27010359507  -1.37478736992  -0.129404418092  
4.96682906151  1.70393247679  -2.36133994634  2.13760083075  -2.26309055435  -1.37871653156  -0.12609880034  
4.97491407394  1.6938679306  -2.36037890819  2.13050284525  -2.25594513972  -1.38257455617  -0.122857700775  
4.9830160141  1.68399030286  -2.35941332607  2.12328835326  -2.24867436935  -1.38635387983  -0.119685874155  
4.991106987  1.67431449119  -2.35844521237  2.11596218551  -2.24128048635  -1.39004759209  -0.116588941589  
4.99924397469  1.66485298419  -2.3574776069  2.10853202223  -2.23376840637  -1.39364880971  -0.113573964385  
5.00736403465  1.65561597023  -2.3565133109  2.10100492945  -2.22614632396  -1.39715279842  -0.110642940724  
5.0153901577  1.6466114534  -2.35555688565  2.09338869198  -2.21842248032  -1.40055475431  -0.107802864691  
5.02347517014  1.63784335954  -2.35461365704  2.08568878457  -2.21059509115  -1.40384941658  -0.105060298398  
5.03157711029  1.62931669272  -2.35368845561  2.07791050676  -2.20266230846  -1.40703009453  -0.102418347779  
5.03970193863  1.62103893776  -2.35278562497  2.07006495565  -2.19463602525  -1.41008986097  -0.0998792530919  
5.0477950573  1.61301260206  -2.35190903266  2.0621623905  -2.18652863699  -1.41302558093  -0.0974484491704  
5.05585098267  1.60523809817  -2.35106208313  2.05420916547  -2.17834915405  -1.41583409209  -0.0951286112316  
5.06396412849  1.59771743396  -2.35024773251  2.04621052276  -2.1701013261  -1.41851180408  -0.0929231834976  
5.07205915451  1.59045206236  -2.34947050316  2.03817317826  -2.16179111784  -1.42105872157  -0.0908329670929  
5.08015704155  1.5834437527  -2.34873350544  2.03010290223  -2.15342734404  -1.42347461981  -0.0888556443324  
5.08830595016  1.57669573164  -2.34803819093  2.02200588405  -2.14501345935  -1.42575864138  -0.0869923836592  
5.09631800652  1.57020650875  -2.34738763787  2.01388733718  -2.13654502629  -1.42791081354  -0.0852418892842  
5.10440611839  1.56397477732  -2.34678557615  2.00575446504  -2.12802037235  -1.42993198011  -0.0836039315205  
5.11259007454  1.55800008743  -2.34623514473  1.99761586693  -2.11944623936  -1.43182373284  -0.0820799414195  
5.120677948  1.55228244199  -2.34573891784  1.9894827027  -2.11083708849  -1.43358834327  -0.0806665252638  
5.12876105309  1.5468214247  -2.34530093147  1.98136550397  -2.10220439328  -1.43522619143  -0.0793615316075  
5.13681817055  1.54161304509  -2.34492771334  1.97327295586  -2.09356096431  -1.43673945569  -0.0781646440452  
5.14488911629  1.53665289118  -2.34462605047  1.96521291748  -2.08492161112  -1.43812987767  -0.0770748996761  
5.15297794342  1.53193451572  -2.34440175884  1.95719403274  -2.07629496001  -1.43939836293  -0.0760867383115  
5.16108512878  1.52744929462  -2.34426171976  1.94922655014  -2.06769597915  -1.44054650364  -0.0751960663319  
5.1691429615  1.52318581157  -2.34421292531  1.94132213432  -2.05913914764  -1.44157401102  -0.0744008442267  
5.17729401588  1.51913098347  -2.34426325793  1.93349528113  -2.05062461513  -1.44248240847  -0.0736985983201  
5.1854121685  1.51527144794  -2.34441854096  1.92576074487  -2.04214640365  -1.44327279957  -0.073082462874  
5.19339394569  1.51159568164  -2.34468232649  1.91812996338  -2.03370378259  -1.44395048001  -0.0725512430699  
5.20165801048  1.50809107798  -2.34505721789  1.91061510222  -2.02529878347  -1.4445214565  -0.0721039857259  
5.20962095261  1.50474578319  -2.34554692479  1.90323012783  -2.0169330468  -1.44499046836  -0.0717329420402  
5.21774411201  1.50154703794  -2.34615932077  1.89599124767  -2.00860283355  -1.44536251996  -0.071432157159  
5.22579407692  1.49848501457  -2.34689924616  1.88891596493  -2.00031657328  -1.44564032465  -0.0711980438618  
5.23389101028  1.49554812569  -2.34777003586  1.88202193696  -1.99208553984  -1.44582801112  -0.0710268795529  
5.24199295044  1.49272053932  -2.34877512061  1.87532685574  -1.98391686224  -1.44593141036  -0.0709148398785  
5.25008797646  1.48998781116  -2.34991883016  1.86884833672  -1.97581672896  -1.4459564239  -0.0708580303654  
5.25818514824  1.48733317884  -2.35120546576  1.86260221824  -1.96780043998  -1.44591148602  -0.0708525160395  
5.26629900932  1.48474035657  -2.35263810663  1.85660485905  -1.95988243209  -1.44580126521  -0.0708943489955  
5.27442407608  1.48219511575  -2.35422068506  1.85087167113  -1.95207248435  -1.44563255461  -0.0709755869541  
5.28251314163  1.47968202307  -2.35595706546  1.84541682859  -1.94438395462  -1.44541240555  -0.071090325084  
5.29069113731  1.47718546739  -2.35784985756  1.8402526103  -1.93683133693  -1.44514868219  -0.0712352504826  
5.29867601395  1.47469094664  -2.35990249561  1.83539173322  -1.92943216464  -1.44484786776  -0.0714031130969  
5.30672907829  1.47218507215  -2.36211832262  1.83084591099  -1.92219957586  -1.44451721331  -0.0715847418227  
5.31482815742  1.46965355097  -2.36449741102  1.8266223932  -1.91514172811  -1.44416505566  -0.0717675858922  
5.32292795181  1.46708419621  -2.36703764662  1.82272333539  -1.90827006918  -1.44379671355  -0.0719417264781  
5.33100414276  1.46446717858  -2.36973607813  1.81914777881  -1.90159192074  -1.44341823374  -0.0720964028904  
5.33915305138  1.46179372746  -2.3725870037  1.81588963643  -1.89511992523  -1.44303672011  -0.0722194691716  
5.34725999832  1.45905408991  -2.37558305052  1.81293785973  -1.88886530913  -1.44265874416  -0.0722999184636  
5.35536599159  1.45624051837  -2.37871451829  1.81027782434  -1.88283415103  -1.44229034529  -0.0723238567233  
5.36345696449  1.45334750203  -2.38197045107  1.80789169916  -1.87702566198  -1.44193703457  -0.0722764775337  
5.3716070652  1.45037045078  -2.38534196981  1.80576359999  -1.87144482293  -1.44159879292  -0.0721485731357  
5.37972903252  1.44730565297  -2.38882133541  1.80387914125  -1.86609065088  -1.44127759101  -0.0719304857123  
5.38767504692  1.44415022954  -2.3923987411  1.80222194277  -1.86095497859  -1.44097556328  -0.0716155321757  
5.39565706253  1.4409020877  -2.39606536374  1.80077774618  -1.85602891684  -1.44069560036  -0.0711964843807  
5.40376806259  1.43755785855  -2.39981567753  1.79953554411  -1.85130797359  -1.44043919059  -0.0706689866196  
5.41185808182  1.4341178819  -2.4036392386  1.79848326096  -1.84678965928  -1.44020860147  -0.0700360425111  
5.4199590683  1.43059146106  -2.40752045783  1.79760923724  -1.84247041967  -1.4400047233  -0.0692994115953  
5.42802095413  1.42697714717  -2.41145542014  1.79690095958  -1.8383357235  -1.43982674802  -0.0684550127528  
5.43617415428  1.42325987037  -2.41545118382  1.79634174336  -1.83436516908  -1.43967877771  -0.0674893949412  
5.44419908524  1.41943290875  -2.41950822432  1.7959149984  -1.83054893637  -1.43956232815  -0.0663982412436  
5.45236515999  1.41549461317  -2.42362392703  1.79560553021  -1.826872846  -1.43947817951  -0.0651813673809  
5.46049499512  1.41144499023  -2.4277946857  1.79539859487  -1.82332711339  -1.43943081868  -0.063837041976  
5.46876502037  1.40728390016  -2.43201366569  1.79527676061  -1.81990775761  -1.43942561929  -0.0623684664685  
5.47683000565  1.40301274335  -2.43627509544  1.79522474895  -1.81660030512  -1.4394672761  -0.0607776992673  
5.48479199409  1.39863467154  -2.44057055862  1.79522829966  -1.81338485792  -1.43955732373  -0.0590650555455  
5.49277997017  1.394153255  -2.44488974478  1.79527297972  -1.81025250898  -1.4396979184  -0.0572315832931  
5.500852108  1.38957242851  -2.4492209995  1.79534362261  -1.80719537196  -1.43989219888  -0.0552789988691  
5.50892710686  1.38489845224  -2.45355233023  1.79542674042  -1.80420277854  -1.44014272701  -0.0532056181255  
5.51711416245  1.38013885562  -2.45787067634  1.7955107457  -1.80125947946  -1.4404490118  -0.0510123026353  
5.52517008781  1.37530111484  -2.46216490222  1.79558494601  -1.7983531854  -1.44081129537  -0.0487029326248  
5.53326201439  1.37039462445  -2.46642605403  1.79563954119  -1.79547525823  -1.44123091714  -0.0462778012885  
5.54143595695  1.3654296533  -2.47064408027  1.79566720766  -1.79262256256  -1.44170875663  -0.0437435697284  
5.5495800972  1.36041804998  -2.47481280599  1.79566229323  -1.78978996815  -1.44224526324  -0.0411077355086  
5.55772614479  1.35537019567  -2.47892717876  1.7956165941  -1.78697470033  -1.4428404875  -0.0383795099785  
5.5657119751  1.35029874165  -2.48298370716  1.79552412498  -1.78417201048  -1.44349160747  -0.0355703039574  
5.57380604744  1.34521584335  -2.48697869901  1.79537832781  -1.78137451321  -1.4441967142  -0.0326911451023  
5.58185100555  1.34013362019  -2.4909099607  1.79517481222  -1.77858037312  -1.44495517528  -0.0297526399485  
5.58996510506  1.33506240969  -2.49477703301  1.79491175379  -1.77579080311  -1.44576357139  -0.0267689466453  
5.59806799889  1.33001251582  -2.49857789236  1.79458624107  -1.7729968764  -1.44661697544  -0.02375173883  
5.60608506203  1.3249944867  -2.50231191417  1.79419504469  -1.77018954148  -1.44750805939  -0.0207096504466  
5.61417508125  1.32001785398  -2.50597810541  1.79373399541  -1.7673634596  -1.44843087112  -0.0176508003632  
5.6223180294  1.31022194481  -2.51310990322  1.79258416546  -1.76161880982  -1.45036120289  -0.0115266778254  
5.63036394119  1.30541886256  -2.51657956449  1.79188506125  -1.75868531634  -1.45135792536  -0.00848047276124  
5.63858914375  1.30069063419  -2.51998617083  1.79109717935  -1.75570318649  -1.45237014812  -0.00545564683012  
5.64669513702  1.29604484545  -2.5233293008  1.79021554633  -1.7526658927  -1.45339184802  -0.0024606267153  
5.65471196175  1.29148596801  -2.52660895967  1.78923522369  -1.74955982103  -1.4544184511  0.000490651659994  
5.66283202171  1.28702043769  -2.52982155019  1.78815066785  -1.74636991446  -1.45544466734  0.0033872704586  
5.67089509964  1.28265395077  -2.53296383359  1.78695807573  -1.74309282266  -1.45646666096  0.00622184051792  
5.67893195152  1.27838997011  -2.53603043042  1.78565234785  -1.7397268416  -1.4574798793  0.00898793190969  
5.68706011772  1.27423508067  -2.53901651064  1.78422921275  -1.73627303316  -1.45847871412  0.0116800389396  
5.69512915611  1.27019300527  -2.54191728887  1.78268160203  -1.7327358488  -1.45945808189  0.0142895356431  
5.7032160759  1.26626613772  -2.54472971082  1.78100256726  -1.7291149033  -1.46041591887  0.0168066370054  
5.71127605438  1.26245714745  -2.54745267574  1.7791842564  -1.72540743441  -1.46134941428  0.0192268981217  
5.71941804886  1.25876776494  -2.55008572418  1.77722002173  -1.7216114314  -1.46225466323  0.0215451548365  
5.72759914398  1.25519682996  -2.55262699151  1.77510556812  -1.71772058052  -1.46312823928  0.0237589425066  
5.73574614525  1.25174136021  -2.55507815745  1.77283946679  -1.71372672007  -1.46396717863  0.0258649708695  
5.74367499352  1.24839990259  -2.55743966885  1.77041907871  -1.70962797005  -1.46477146688  0.0278585325007  
5.75174307823  1.24517158576  -2.55971215624  1.76784265761  -1.70542116615  -1.46554026495  0.0297399904926  
5.75988507271  1.24205288949  -2.56189792229  1.76511049586  -1.70111115075  -1.46627155577  0.0315087101836  
5.76798605919  1.23903870999  -2.56400162784  1.76222542859  -1.69669886708  -1.46696120734  0.033162464488  
5.77605605125  1.23612570417  -2.56602525182  1.75918875679  -1.69218497493  -1.46760921214  0.0346999128491  
5.78416800499  1.23331133771  -2.5679707799  1.756005545  -1.68757864909  -1.46821624428  0.0361205407377  
5.79220104218  1.2305926608  -2.56984169652  1.75268098076  -1.68287682678  -1.46878171646  0.0374245987204  
5.80030298233  1.22796635839  -2.5716416778  1.74921886051  -1.67807851247  -1.46930784927  0.0386170484367  
5.80843806267  1.22542879935  -2.57337655327  1.74562513837  -1.6731892406  -1.46979839855  0.0397054998977  
5.81664299965  1.22297809755  -2.57505127408  1.74190545929  -1.66821468063  -1.4702545451  0.0406896050938  
5.82463502884  1.22061113701  -2.57667161094  1.73806328321  -1.66315057439  -1.4706761282  0.0415730209867  
5.83275103569  1.218323347  -2.57824239363  1.73410641707  -1.65800272221  -1.47106321412  0.0423604216097  
5.84079313278  1.21610800625  -2.57976721703  1.73003918567  -1.65277575698  -1.47141607813  0.0430583800231  
5.84890794754  1.21395728867  -2.58124968132  1.72586732081  -1.64747860662  -1.47173518659  0.0436718487823  
5.85699796677  1.21186558853  -2.58269137242  1.72159955511  -1.64212078669  -1.47202117915  0.0442035789181  
5.86504197121  1.20982854626  -2.58409483728  1.71724773274  -1.6367085238  -1.47227234706  0.0446606222042  
5.87315106392  1.20783777339  -2.58546382905  1.71281399194  -1.63124289042  -1.47248837127  0.0450482811614  
5.88127303123  1.20588490585  -2.58680202388  1.70830066834  -1.62572728886  -1.47267314343  0.0453695358605  
5.88934397697  1.20396317026  -2.58811300426  1.70371414269  -1.62016809436  -1.47282690185  0.0456315541465  
5.89756011963  1.20206612556  -2.58940024257  1.69906235121  -1.61456644964  -1.4729496363  0.0458396496958  
5.90568208694  1.2001876779  -2.59066708937  1.69435235492  -1.60892074512  -1.47304549769  0.0460007238295  
5.91368508339  1.19832209088  -2.5919147642  1.68959168983  -1.60322976942  -1.47311493628  0.0461197685627  
5.92174601555  1.19646399334  -2.59314534046  1.68479015172  -1.59749769486  -1.47316061317  0.0462033146753  
5.92989015579  1.1946103985  -2.59436000664  1.67995796218  -1.59173155188  -1.47318555295  0.0462599478248  
5.93791294098  1.1927597004  -2.59555878977  1.67510633419  -1.5859380366  -1.47319121064  0.0462977534584  
5.94600105286  1.19090838628  -2.5967438118  1.67024506965  -1.58012349521  -1.47317904804  0.0463243065068  
5.95415401459  1.18905405679  -2.5979182835  1.66538393447  -1.57429391176  -1.47315052407  0.0463506710662  
5.96221899986  1.18719368022  -2.59908523093  1.66053286805  -1.56845990779  -1.47310708594  0.0463813811356  
5.97033596039  1.18532130745  -2.60024749235  1.65570097584  -1.56262922592  -1.47304765677  0.0464239225918  
5.97844099998  1.18343034857  -2.60140971334  1.65089813593  -1.55681106886  -1.47297238344  0.04648980975  
5.98670506477  1.18151484085  -2.60257734669  1.64613421365  -1.55101677403  -1.47288296321  0.0465855104546  
5.99469900131  1.17956943663  -2.60375538828  1.64141806669  -1.54525164194  -1.47277854506  0.046718471102  
6.00281310081  1.17758737526  -2.60494638255  1.63675437317  -1.53951745367  -1.47266198236  0.0468976706616  
6.01087999344  1.17556147187  -2.60615342687  1.63214685406  -1.53381566  -1.4725364049  0.0471270971138  
6.01897716522  1.17348738544  -2.6073784486  1.62759792874  -1.52814739794  -1.4724007877  0.0474117824841  
6.02701210976  1.17136057397  -2.60862194632  1.62310853063  -1.52251350813  -1.47226029721  0.0477543589716  
6.03509497643  1.16917599852  -2.60988426426  1.61867915092  -1.51690954392  -1.47211911072  0.0481545538705  
6.04310703278  1.16693138331  -2.61116360544  1.61430986868  -1.51133329985  -1.47197815865  0.0486157653518  
6.05124211311  1.16462819293  -2.61245903773  1.61000198077  -1.50578549652  -1.47184330642  0.0491390836138  
6.05929017067  1.1622652907  -2.61377276618  1.6057572383  -1.50026161383  -1.47172034831  0.0497227871794  
6.06739211082  1.15984367314  -2.61510787905  1.6015800586  -1.49476442388  -1.47161309172  0.0503649134061  
6.07544112206  1.15736899134  -2.61646509462  1.59747596101  -1.48929716291  -1.47152244693  0.0510672955065  
6.08363103867  1.15484393584  -2.61784377063  1.59344798509  -1.48385970399  -1.47145019135  0.0518295852693  
6.09173607826  1.15226894771  -2.61924318051  1.5894975283  -1.47845174488  -1.47140181801  0.0526527554785  
6.09968304634  1.14964474402  -2.62066052775  1.585622204  -1.47307783156  -1.47137870004  0.0535396669852  
6.10790801048  1.1469722912  -2.62209195455  1.5818174774  -1.46773485604  -1.47138402899  0.0544925621503  
6.11590003967  1.14425278034  -2.62353381426  1.57807713042  -1.46241891451  -1.47142349848  0.0555131000014  
6.12399411201  1.14148558853  -2.62498067998  1.57439409306  -1.4571341732  -1.47149964405  0.0566063982154  
6.13214206696  1.13866925987  -2.62642834641  1.57076308603  -1.45187218284  -1.4716131136  0.0577830732025  
6.14024305344  1.13580275666  -2.62787409696  1.56717985118  -1.44662624558  -1.47176677733  0.0590547414964  
6.14831495285  1.13288744742  -2.62931743625  1.56364495583  -1.44139593737  -1.4719644966  0.0604275209294  
6.15638804436  1.12992406036  -2.63075709243  1.56015982447  -1.43618077011  -1.47220955905  0.0619080924707  
6.16449809074  1.12691238868  -2.63219074672  1.55672612426  -1.43098019956  -1.47250470343  0.0635002836136  
6.17272996902  1.12385455485  -2.63361629704  1.55334760384  -1.42579363316  -1.47285214526  0.0652085975592  
6.18067097664  1.12075196624  -2.63503185576  1.55002831081  -1.42062544605  -1.47325360341  0.0670388082973  
6.18874907494  1.11760502219  -2.63643374538  1.54677160897  -1.41547747788  -1.47371032759  0.0689914783153  
6.19685912132  1.11441436635  -2.63781549255  1.54357861242  -1.41035338175  -1.47422062328  0.0710720382674  
6.20493912697  1.11118086376  -2.63917208196  1.54045061802  -1.40525930584  -1.47478614042  0.073277365944  
6.21302199364  1.10790557826  -2.6405002123  1.53739094887  -1.40020574291  -1.47540597637  0.0756007898464  
6.22112298012  1.10458975  -2.64179701485  1.53440637227  -1.39520504673  -1.47607603446  0.0780377641011  
6.22923111916  1.10123276127  -2.6430600375  1.531502933  -1.39026327551  -1.47679472817  0.0805873980809  
6.23738312721  1.097833121  -2.64428722818  1.52868796273  -1.38538773264  -1.47756426021  0.0832505122201  
6.24543809891  1.09438770446  -2.64547691749  1.52597113767  -1.38059267918  -1.47838280178  0.0860271591353  
6.25360608101  1.09089072331  -2.64662779803  1.52336170676  -1.37588367886  -1.47925044312  0.0889206892601  
6.26171803474  1.08733598205  -2.64774090229  1.52087072892  -1.37126949301  -1.48016988979  0.091931802279  
6.26977014542  1.08371611077  -2.64881658664  1.51850634101  -1.36675845921  -1.48114581983  0.0950660856594  
6.27781605721  1.08002555257  -2.64985424543  1.51627499214  -1.36235970894  -1.48218866982  0.0983326111676  
6.28593111038  1.07625878386  -2.65085355565  1.5141827381  -1.35807888653  -1.48331057742  0.10174293231  
6.2939889431  1.07241604762  -2.65181245885  1.51223270241  -1.35392755629  -1.48451723838  0.10530114077  
6.30210995674  1.06849150124  -2.65273013764  1.51042754732  -1.34991642585  -1.48582047054  0.109021437225  
6.31017899513  1.06449653087  -2.65360526353  1.5087681648  -1.34605157441  -1.48721889892  0.112893225311  
6.31835699081  1.0562533406  -2.65521978403  1.5058834301  -1.33876568094  -1.49035604407  0.121171379602  
6.32636499405  1.05199326235  -2.655956225  1.5046560578  -1.33535588142  -1.49211866608  0.125611346856  
6.33444595337  1.04764513148  -2.65664215921  1.50356636148  -1.33210432026  -1.49401490232  0.130254439136  
6.3425180912  1.04320516682  -2.6572740841  1.50260788464  -1.32901096181  -1.49604996045  0.135102169621  
6.35061907768  1.03869158305  -2.65785110228  1.50177545587  -1.32607979962  -1.49821213845  0.140127291864  
6.35869908333  1.03413207146  -2.65837189551  1.50106285837  -1.32331142837  -1.50048315489  0.145292854783  
6.36682105064  1.0295066388  -2.65882244053  1.50045308854  -1.32070245916  -1.50288095408  0.150620675733  
6.37492895126  1.02479670566  -2.65918922729  1.49992901477  -1.31824877673  -1.50542529924  0.156136269907  
6.38302516937  1.01998769855  -2.65945382617  1.49946911352  -1.31594562179  -1.50814476325  0.16187199806  
6.39105916023  1.01507785367  -2.65960002815  1.49905485499  -1.31379267862  -1.5110537828  0.167842343404  
6.39915204048  1.0100807887  -2.65961712124  1.49867100322  -1.31178664157  -1.51414882204  0.174042818171  
6.4072971344  1.00501195925  -2.659494028  1.49830397795  -1.30992062279  -1.51742400145  0.18046785448  
6.41532111168  0.999886066723  -2.65922023304  1.49794367687  -1.30819240863  -1.52087027543  0.18710691582  
6.42337298393  0.994719039101  -2.65878697368  1.49758007718  -1.30660202881  -1.52447677511  0.193938600527  
6.43143796921  0.989526999942  -2.65818715698  1.49720621429  -1.30514364651  -1.52822747261  0.200949309345  
6.43970012665  0.984324976593  -2.65741327595  1.49681439843  -1.30381314038  -1.53210877079  0.208124398891  
6.44777202606  0.979128905362  -2.65645832018  1.49639737794  -1.30260884215  -1.53610773968  0.215444659172  
6.45572805405  0.973952611373  -2.65531694712  1.49594955371  -1.30152842966  -1.54020775537  0.222895476818  
6.46379709244  0.9688115748  -2.65398338757  1.49546595068  -1.300568992  -1.54439389791  0.230460897235  
6.47192215919  0.963722208733  -2.65245434361  1.49494539559  -1.29972709329  -1.54865333417  0.238127158355  
6.47997713089  0.958701345123  -2.65072715634  1.49438890064  -1.29899883478  -1.55297126849  0.245879275896  
6.48814201355  0.953767274334  -2.64879943566  1.49379921783  -1.29837991499  -1.5573297227  0.253704560926  
6.49618911743  0.948941532488  -2.64667221981  1.49318481584  -1.29786568765  -1.56171290386  0.261581175807  
6.50434398651  0.944245665147  -2.64434887241  1.49255805574  -1.29745121731  -1.56610254666  0.2694856418  
6.51243400574  0.939698739065  -2.64183571143  1.49193135091  -1.29713133245  -1.57047883628  0.277394465353  
6.5204770565  0.935319430189  -2.63913691417  1.4913193411  -1.29691570176  -1.57482357922  0.285283607937  
6.52868199348  0.931125101031  -2.63625914775  1.4907373061  -1.29681135925  -1.57911768618  0.293127012828  
6.53672599792  0.927132631424  -2.63321600352  1.49020235284  -1.29682826563  -1.58334240063  0.300894581932  
6.54481101036  0.923357514842  -2.63002138182  1.48972704426  -1.29698070937  -1.58748085291  0.308556682962  
6.55289006233  0.919814706493  -2.62668987517  1.48932139668  -1.29728102808  -1.59151801842  0.31608663797  
6.56095600128  0.916519748844  -2.62323695961  1.48899515046  -1.29773467553  -1.59544066771  0.323460660689  
6.5690369606  0.913484602565  -2.61967966178  1.48875520262  -1.29834781179  -1.59923730869  0.330657779714  
6.57716417313  0.910719524114  -2.61603550356  1.48860804392  -1.29912805541  -1.60289812385  0.337655742929  
6.58529305458  0.908235487957  -2.61232118535  1.48856001813  -1.30007137937  -1.60641239687  0.344432919624  
6.5936331749  0.906042048469  -2.60855254605  1.48861476482  -1.3011772202  -1.6097746982  0.350966722251  
6.60163497925  0.904146214645  -2.60474453215  1.48877407016  -1.3024448943  -1.6129738728  0.357239493338  
6.60975599289  0.902552604042  -2.60091117421  1.48903573991  -1.30387484876  -1.615999799  0.363238908073  
6.61780405045  0.901261585911  -2.59706756895  1.48939525038  -1.30546440672  -1.61884964753  0.368951288354  
6.62593197823  0.900270445546  -2.5932288723  1.48984463026  -1.30720718167  -1.62151835662  0.374363458121  
6.63401412964  0.899574817622  -2.58941103213  1.49037410515  -1.30908631486  -1.62399945489  0.379469134637  
6.6420481205  0.899168841474  -2.5856257999  1.49096937021  -1.31108957279  -1.62629064227  0.384262760069  
6.65010213852  0.89904531366  -2.5818834747  1.49161562016  -1.31320073801  -1.62838993571  0.388738803523  
6.65822100639  0.899195836584  -2.57819245926  1.49229821785  -1.31540834586  -1.6302977379  0.39289814175  
6.6663620472  0.899614990642  -2.57455901887  1.4930040994  -1.31769705968  -1.63201707216  0.396741883996  
6.67447495461  0.900298463191  -2.57098657566  1.49372200093  -1.32005138426  -1.63355189697  0.40026666395  
6.68266510963  0.901246677052  -2.56747474168  1.49443985851  -1.32245954716  -1.63490700885  0.403473021924  
6.69066405296  0.902463923155  -2.56402161582  1.49514880425  -1.3249053473  -1.63608043458  0.406361767496  
6.6987760067  0.903951652304  -2.56062907617  1.49584418061  -1.32737568938  -1.63706709151  0.408941291219  
6.70682096481  0.905714388282  -2.55729681718  1.49652111018  -1.32985626071  -1.63786094711  0.411221927937  
6.71491408348  0.907752085637  -2.55402584404  1.49717747093  -1.33233086925  -1.63845617027  0.413212723935  
6.72299194336  0.910067520289  -2.55081704123  1.49781170287  -1.33478461703  -1.63884861575  0.414923822378  
6.73109817505  0.912660194418  -2.54766967104  1.49842156993  -1.33720389209  -1.63903571867  0.41636230828  
6.73924612999  0.915538494037  -2.5445786747  1.49900515717  -1.33958136134  -1.63900637083  0.417530060378  
6.74728703499  0.918704536204  -2.54154069746  1.49956086297  -1.341908439  -1.63875082504  0.418428151368  
6.7553999424  0.922145385327  -2.5385586477  1.50008579314  -1.34417459195  -1.63826692612  0.419059244345  
6.7634780407  0.925827763482  -2.53564319109  1.50057814168  -1.34637048294  -1.63756808821  0.419435466325  
6.77168416977  0.929710062348  -2.5328072553  1.50103738176  -1.34848793576  -1.63667533536  0.419574268024  
6.77962613106  0.933752662744  -2.53006227079  1.50146323295  -1.35051989583  -1.6356092632  0.419493219191  
6.78774809837  0.937940177701  -2.52740822501  1.50185563313  -1.35246038688  -1.63437491899  0.419197869572  
6.79580402374  0.942417466421  -2.524780754  1.50219231464  -1.35431949025  -1.63287906904  0.418555420124  
6.80386710167  0.947267327589  -2.52214241142  1.50245601084  -1.3561007648  -1.63106980158  0.417476450014  
6.81201004982  0.952484972983  -2.51949342163  1.50264061517  -1.35779919544  -1.62894843285  0.415940403777  
6.8200571537  0.958059675574  -2.51683522543  1.50274098773  -1.35941567877  -1.62651414695  0.413928817154  
6.82814097404  0.963972943107  -2.51417120639  1.50275291237  -1.36094946902  -1.62377167868  0.41143963144  
6.83625411987  0.970205277432  -2.51150768719  1.50267464861  -1.36239245679  -1.62072773061  0.408468916294  
6.84435296059  0.976735876948  -2.50885166419  1.50250608534  -1.36374481551  -1.61739139726  0.405009010851  
6.85255098343  0.983542526386  -2.5062115421  1.50224927914  -1.36500811289  -1.61377434551  0.401051879481  
6.8606801033  0.990603021725  -2.50359814192  1.50190920782  -1.36618142114  -1.60989158338  0.396598868885  
6.86870002747  0.997891279422  -2.50102244562  1.50149031684  -1.36726444306  -1.60576006662  0.391658981943  
6.8767080307  1.00537947325  -2.49849434836  1.50099785924  -1.36825746498  -1.60139948311  0.386243544793  
6.88481616974  1.01304069611  -2.49602468026  1.50043807236  -1.36916631829  -1.59683087723  0.380369963146  
6.89288401604  1.02084905567  -2.49362423559  1.49981712868  -1.36998981385  -1.59207244681  0.374055470783  
6.90099716187  1.02877572899  -2.49130453896  1.49914110297  -1.37072653942  -1.5871431964  0.367320365532  
6.90905404091  1.03679305623  -2.48907488867  1.49841434318  -1.37138366656  -1.58206317899  0.360188321499  
6.91715216637  1.04487613916  -2.48694413354  1.49764024254  -1.37196622252  -1.57685182669  0.352683638891  
6.92529797554  1.0529975763  -2.48492098789  1.49682222581  -1.37247137163  -1.57152787786  0.344839057614  
6.93359994888  1.06113151562  -2.48301482033  1.49596053363  -1.37289906051  -1.56610931529  0.336683555451  
6.94146895409  1.0692552111  -2.48123471474  1.49505539122  -1.3732526477  -1.5606133133  0.32824511475  
6.94964408875  1.07734573291  -2.47958826636  1.49410661189  -1.37353569098  -1.55505368936  0.319549636545  
6.95767116547  1.08538095993  -2.47808165153  1.4931133618  -1.37375190983  -1.54944211969  0.310624272031  
6.96577310562  1.0933428454  -2.47671969869  1.49207355116  -1.37391015839  -1.54378969655  0.301493826274  
6.97388005257  1.10121637598  -2.47550396492  1.49098620295  -1.37401688163  -1.53810440034  0.292180110129  
6.98197102547  1.10898825184  -2.4744358092  1.48985483775  -1.37407040847  -1.53239483684  0.282696365825  
6.99001812935  1.11664885029  -2.47351473943  1.4886832447  -1.37407160944  -1.52666805355  0.273055186509  
6.99813294411  1.12419317717  -2.47273822071  1.48747583087  -1.37402453923  -1.52092919429  0.263271506067  
7.00621509552  1.13162255249  -2.47210301709  1.48624100965  -1.37393824598  -1.51518307849  0.253363990473  
7.01438903809  1.1461559545  -2.47124055724  1.48372927538  -1.37365325876  -1.50367794086  0.233239793864  
7.02246713638  1.15328063398  -2.47100398761  1.48247398644  -1.37346421274  -1.49792097385  0.223037396966  
7.0305120945  1.16033028769  -2.47089024499  1.48123272411  -1.37325337063  -1.49215960395  0.212748178398  
7.03862714767  1.1672938643  -2.47089166778  1.48001303877  -1.3730237333  -1.48640925266  0.202409654114  
7.04666399956  1.1741838307  -2.4710013056  1.47882242511  -1.37278319389  -1.48066781427  0.192030714283  
7.05464601517  1.18101721535  -2.47121124514  1.47766695114  -1.37254202695  -1.4749311777  0.181616428572  
7.06276202202  1.18777246864  -2.47151239661  1.47655106138  -1.3723047049  -1.46922287227  0.171215454552  
7.07082509995  1.19441372347  -2.47189580971  1.47547860963  -1.37207240241  -1.46357613234  0.160891321843  
7.07893610001  1.20091665993  -2.47235271832  1.47445288084  -1.37184617179  -1.45801371716  0.150690131289  
7.08705806732  1.20742954144  -2.4728725817  1.47347661263  -1.37168203956  -1.45242899804  0.140406210237  
7.0951321125  1.21404862239  -2.47344411937  1.47255202166  -1.37161340782  -1.44675222311  0.129906207958  
7.10315513611  1.22078401553  -2.47405860439  1.47168083409  -1.37165124117  -1.44097566049  0.119179194341  
7.11130404472  1.2276394622  -2.47470689031  1.47086271323  -1.37180583728  -1.43510135148  0.108222168381  
7.11940217018  1.23462017889  -2.4753791633  1.47009608534  -1.37208304284  -1.42913263115  0.0970304595277  
7.1274189949  1.24173171603  -2.47606622157  1.46937917903  -1.37248748935  -1.42307023458  0.0856045476152  
7.13563394547  1.24897720421  -2.47675948628  1.46871005149  -1.37302265866  -1.41691542146  0.0739470052969  
7.14372706413  1.25636071342  -2.47745100661  1.46808661418  -1.37369095135  -1.41067243147  0.0620633086219  
7.15171504021  1.2638883317  -2.47813146178  1.46750665518  -1.37450377226  -1.40434468138  0.0499582463047  
7.1598110199  1.27156595684  -2.47879315275  1.46696946202  -1.37547659735  -1.39793689018  0.0376392750445  
7.16800403595  1.2793960837  -2.47943026266  1.46647344951  -1.37662270794  -1.39145036201  0.0251169424887  
7.17606806755  1.2873788895  -2.48003957737  1.46601756541  -1.37795327864  -1.38488886993  0.0124062458738  
7.18424510956  1.2955135901  -2.48061747345  1.465601522  -1.37947747156  -1.37825427821  -0.000483484439966  
7.19229316711  1.30379851969  -2.48116163458  1.46522480757  -1.38121255233  -1.37155334591  -0.0135351931536  
7.20031094551  1.3122332231  -2.48167130185  1.46488830371  -1.3831739827  -1.36479460505  -0.0267291264206  
7.20843911171  1.32081551382  -2.48214598936  1.46459191052  -1.38537169235  -1.3579848211  -0.0400485223645  
7.21672701836  1.32954128203  -2.48258546608  1.46433595032  -1.38781337296  -1.35113305527  -0.0534731349647  
7.22480607033  1.33839577735  -2.48298973746  1.46411980598  -1.39049959629  -1.34425690203  -0.0669732819747  
7.23279809952  1.34737884922  -2.48335902709  1.46394332504  -1.39344647889  -1.33736711458  -0.0805324602088  
7.24090909958  1.35649126009  -2.48369375833  1.46380705338  -1.39666895903  -1.33047285067  -0.0941404400668  
7.24895095825  1.36572702612  -2.4839945362  1.46371124462  -1.40016824186  -1.32358551183  -0.107773121772  
7.25701808929  1.3750778484  -2.4842621295  1.46365588153  -1.40395081065  -1.3167155715  -0.121401098917  
7.26513004303  1.3845341812  -2.48449745336  1.46364069763  -1.40802674131  -1.30987258205  -0.135001284057  
7.27324700356  1.39408656486  -2.48470155215  1.46366519752  -1.41239849772  -1.30307019556  -0.148550889159  
7.2813270092  1.4037276918  -2.48487558301  1.46372867764  -1.41706358897  -1.29631867062  -0.162026867002  
7.28944396973  1.41344943384  -2.48502079988  1.46383024709  -1.42201789713  -1.28962673105  -0.175412423721  
7.29782104492  1.42324463041  -2.48513853823  1.46396884817  -1.42726083705  -1.28300351702  -0.188686958738  
7.30571508408  1.43310538388  -2.48523020041  1.46414327523  -1.43278298735  -1.27645703253  -0.201827476787  
7.31382513046  1.44302081244  -2.48529724177  1.46435378989  -1.43857808792  -1.26999418394  -0.214809592891  
7.32189106941  1.45297936258  -2.48534115751  1.46459974649  -1.44463951539  -1.2636233261  -0.227613463638  
7.32994413376  1.46297011023  -2.48536347033  1.46487939637  -1.45095157231  -1.2573555622  -0.24021622028  
7.33802700043  1.47298277932  -2.48536571878  1.46519091723  -1.45749529739  -1.25119945301  -0.252589328564  
7.34613013268  1.48300574175  -2.48534944654  1.46553243037  -1.46425176282  -1.24516574623  -0.264713566764  
7.35429096222  1.4930189765  -2.4853161924  1.46590042043  -1.47120218981  -1.23926902687  -0.27656941925  
7.36239910126  1.50301547963  -2.48526748114  1.46629214452  -1.47833807037  -1.23351083964  -0.288147888833  
7.37046694756  1.5129922684  -2.48520481507  1.46670585807  -1.48565625993  -1.22789444869  -0.299441409544  
7.37881612778  1.52294116998  -2.48512966654  1.46713981516  -1.4931527262  -1.22242533441  -0.310436082325  
7.38671994209  1.53285968294  -2.48504347104  1.46759387657  -1.50081763443  -1.21710367004  -0.321126614032  
7.39478611946  1.54273915079  -2.48494762123  1.46806712546  -1.50863794127  -1.21193224472  -0.331502672529  
7.40283703804  1.55256796115  -2.48484346157  1.46855766386  -1.5166056597  -1.20691312132  -0.341553662729  
7.41093206406  1.56233689422  -2.48473228372  1.46906523068  -1.52470541726  -1.20204829781  -0.351270164305  
7.41901516914  1.57203983104  -2.48461532265  1.46958881571  -1.53292637893  -1.1973426272  -0.360651236198  
7.42717814445  1.58167271445  -2.48449375334  1.47012645458  -1.54126866081  -1.19280106112  -0.369698769601  
7.43532705307  1.59123223737  -2.48436868816  1.47067465183  -1.54972452641  -1.18842714832  -0.378414237485  
7.44338107109  1.60071379095  -2.48424117484  1.47123078126  -1.55828528946  -1.1842206169  -0.38680506609  
7.45149111748  1.61011243121  -2.48411219495  1.47179490103  -1.56694521381  -1.18018121805  -0.394874449008  
7.45966696739  1.61942411266  -2.48398466193  1.4723695466  -1.57569839358  -1.17630914811  -0.402622643676  
7.4676990509  1.62864362977  -2.48386042326  1.47295792335  -1.58453379371  -1.17260104493  -0.410047874799  
