Ethan-CYM/ros_catkin_ws/test/servol_正常操作2/ur_joint_target_velocity.txt
time  shoulder_pan_joint  shoulder_lift_joint  elbow_joint  wrist_1_joint  wrist_2_joint  wrist_3_joint
0.149258136749  -5.22171599616e-14  -2.83111198316e-13  -3.33765416745e-14  -0.0204115542074  0.00414076697003  -0.000320866196872  
0.157155036926  -5.22171599616e-14  -2.83111198316e-13  -3.33765416745e-14  -0.0199956196803  0.00413479541874  -0.000482930033349  
0.165438175201  -5.22171599616e-14  -2.83111198316e-13  -3.33765416745e-14  -0.0204792335052  0.00459932673442  -0.000629414820454  
0.173429965973  -5.22171599616e-14  -2.83111198316e-13  -3.33765416745e-14  -0.0217894386924  0.00499926164106  -0.000760620696969  
0.181519985199  -5.22171599616e-14  -2.83111198316e-13  -3.33765416745e-14  -0.0218714798874  0.00484141083261  -0.000876919343785  
0.189609050751  -5.22171599616e-14  -2.83111198316e-13  -3.33765416745e-14  -0.0218113550422  0.00466574572767  -0.000978746122786  
0.197695016861  -5.22171599616e-14  -2.83111198316e-13  -3.33765416745e-14  -0.0216205058315  0.00447475563528  -0.00106659243071  
0.205804109573  -5.22171599616e-14  -2.83111198316e-13  -3.33765416745e-14  -0.0223014914654  0.00427081581497  -0.00114099829877  
0.213896036148  -5.22171599616e-14  -2.83111198316e-13  -3.33765416745e-14  -0.0227912085091  0.00455190302222  -0.000409411830673  
0.221909999847  -5.22171599616e-14  -2.83111198316e-13  -3.33765416745e-14  -0.0231014336276  0.00527854246484  -0.000525186112983  
0.230028152466  -5.22171599616e-14  -2.83111198316e-13  -3.33765416745e-14  -0.0222529493792  0.00492470308506  -0.000628738251144  
0.238289117813  -5.22171599616e-14  -2.83111198316e-13  -3.33765416745e-14  -0.0213416793905  0.00470582319467  -0.000800375608836  
0.246418952942  -5.22171599616e-14  -2.83111198316e-13  -3.33765416745e-14  -0.0202267810709  0.00430829467871  -0.000869221704637  
0.254377126694  -5.22171599616e-14  -2.83111198316e-13  -3.33765416745e-14  -0.0190728461821  0.00391486754345  -0.00013419432635  
0.262468099594  -5.22171599616e-14  -2.83111198316e-13  -3.33765416745e-14  -0.0178901004008  0.00352768168386  -0.000248502775341  
0.270542144775  -5.22171599616e-14  -2.83111198316e-13  -3.33765416745e-14  -0.0166881221528  0.00314865599885  -0.000352420576744  
0.278613090515  -5.22171599616e-14  -2.83111198316e-13  -3.33765416745e-14  -0.0154758656575  0.00228380446408  -0.000446083435138  
0.286750078201  -5.22171599616e-14  -2.83111198316e-13  -3.33765416745e-14  -0.0142616538035  0.00196760545752  -0.000529706056611  
0.294826030731  -5.22171599616e-14  -2.83111198316e-13  -3.33765416745e-14  -0.0130531754961  0.00166375605954  -0.000603548803071  
0.302896022797  0.000398635018195  -0.00593302401839  -0.000941673538035  -0.0128487127187  0.00137316742283  -0.000667912531734  
0.310984134674  0.00116240444614  -0.0196750747336  -0.00337567201112  -0.0135718085499  0.00159231910367  -0.000723133583851  
0.319249153137  0.00305558362577  -0.0417212666046  -0.0059058146211  -0.0131631456573  0.0017845897834  -0.000769578942217  
0.327414989471  0.00637731147113  -0.0720812920037  -0.00787599255556  -0.00973042023145  0.00294217435346  -0.000807641574401  
0.335415124893  0.0109960810045  -0.111503361499  -0.00931576226601  -0.000555407810563  0.0039916629923  -0.000837735976188  
0.343616962433  0.0171810724528  -0.157852655738  -0.0102586572701  0.0138594375661  0.00543060519192  -0.000860293927366  
0.351727962494  0.0247724100584  -0.209117178667  -0.0129505982525  0.0330176745802  0.0072198512514  -0.000875760469701  
0.360188007355  0.0332151592409  -0.264597000815  -0.0175553383429  0.0584149625587  0.00882539480199  -0.000884590114833  
0.368312120438  0.0423908026077  -0.322038343627  -0.0235813031166  0.0884179570801  0.0107472193658  -0.00088724328777  
0.376400947571  0.0525840297222  -0.381327900529  -0.0308803745161  0.124465655323  0.0129488583776  -0.000884183009782  
0.384466171265  0.0636526759117  -0.441558586016  -0.0393089653614  0.165865099241  0.0148992178655  -0.000875871822686  
0.392457008362  0.0750614384193  -0.501492465861  -0.0480958359344  0.210952430067  0.0171013869276  -6.96363598593e-05  
0.400545120239  0.0863144464964  -0.559989353231  -0.0574753337014  0.26015266712  0.0200177763992  -0.000118664242408  
0.408667087555  0.0969553840078  -0.615611096926  -0.0673445344235  0.310858510433  0.0230792408953  -0.000163175894701  
0.416661024094  0.106168431622  -0.66784010152  -0.0769725563514  0.362638443962  0.0262554976729  -0.000203219128576  
0.424788951874  0.113608588442  -0.716219947531  -0.0863188911379  0.415087480141  0.0295179188827  0.00055424017838  
0.432918071747  0.118968654998  -0.76114470933  -0.0950308490562  0.467828102808  0.032839564249  0.00124948276666  
0.441025972366  0.122376919383  -0.801812682852  -0.102788341799  0.518527473679  0.0356995124432  0.00188299638089  
0.449226140976  0.124362289252  -0.835137467002  -0.109304828317  0.563063826878  0.0381158363352  0.00245564067486  
0.457399129868  0.125421550525  -0.860691176915  -0.114636928736  0.600647610284  0.0401079761671  0.00296858640659  
0.46536898613  0.125620036824  -0.879709521384  -0.119158552469  0.63257664266  0.0416964960836  0.00342328401928  
0.473422050476  0.122233082029  -0.900888068676  -0.123844015217  0.673962522227  0.043894278741  0.00382143292546  
0.481575012207  0.11795158315  -0.915226199834  -0.127712645853  0.709935152445  0.0456490074567  0.00416495163005  
0.489598989487  0.111277289609  -0.92672535153  -0.133643989663  0.745648239577  0.0474797637321  0.00445594881291  
0.497688055038  0.104430322421  -0.931579376053  -0.138285396962  0.77396054894  0.0488736857003  0.00469669547576  
0.505773067474  0.097466656016  -0.930669465328  -0.142339692567  0.795270634895  0.0498560161501  0.00488959824383  
0.513923168182  0.0876483193797  -0.929590594962  -0.151194084459  0.818912125937  0.0499569977492  0.00503717389826  
0.521978139877  0.0768521304496  -0.925198545581  -0.160632275231  0.837618086931  0.0497400196782  0.00434889319057  
0.530261993408  0.0660184337027  -0.917777680756  -0.170866399052  0.853638138614  0.0497267416002  0.00448015454235  
0.538313150406  0.0552173248271  -0.907609197177  -0.181454978481  0.866089823474  0.0484145204094  0.00457344276049  
0.546404123306  0.0449119553126  -0.894573933627  -0.192305127874  0.875173018595  0.0473993113393  0.00383796772475  
0.554491043091  0.0351278232692  -0.87937092871  -0.203960977336  0.882084066938  0.0456730003766  0.00392886983384  
0.562484025955  0.02588519819  -0.861867269181  -0.216288017734  0.886948915258  0.04330147363  0.00319522229683  
0.570569038391  0.0171994146569  -0.842745781402  -0.229473055867  0.889896030741  0.0413409503491  0.00329179967045  
0.578679084778  0.00908116025861  -0.8222507687  -0.243367834654  0.891056181362  0.0387803184565  0.00336047327143  
0.586799144745  0.00153677000295  -0.801011572313  -0.257514464277  0.890560705982  0.0366734351603  0.00340295579258  
0.594884157181  -0.00543147510869  -0.778822327354  -0.272438095297  0.88754998549  0.034502483112  0.00342101678795  
0.602962017059  -0.0118250475205  -0.755894511848  -0.287669806312  0.883229161379  0.0322858949954  0.00341644003232  
0.611060142517  -0.0176488725955  -0.732427784631  -0.303406921409  0.877726979527  0.0300409728848  0.00339101134457  
0.619135141373  -0.0229110299857  -0.708609649909  -0.319512714289  0.870177711551  0.0277838515441  0.00334650734369  
0.627403974533  -0.0272238243204  -0.68421965342  -0.336174944503  0.861778697044  0.0250337845706  0.00328468513478  
0.635451078415  -0.0306342637287  -0.657871425677  -0.350404693537  0.849673847984  0.022837502437  0.00320727291693  
0.643367052078  -0.0319953269105  -0.632649293989  -0.367671452802  0.838191340874  0.0206699771432  0.00311596149954  
0.65146112442  -0.0314576204246  -0.607040348711  -0.385106141622  0.827354276427  0.0180467094975  0.00301239670944  
0.659587144852  -0.0291718869177  -0.581233529034  -0.401955439269  0.81618859428  0.0160107545162  0.00369129250173  
0.66770195961  -0.0248893831374  -0.555404389733  -0.417844099809  0.803797672637  0.0140334863612  0.00429459868163  
0.675829172134  -0.0183931495559  -0.529714995501  -0.432748060823  0.791344733454  0.0121226055049  0.00403129104093  
0.683861017227  -0.010293894544  -0.504313869756  -0.446651251345  0.777920702879  0.0107805239597  0.00455649259675  
0.691967010498  3.08230127095e-05  -0.479336401269  -0.459229074248  0.763684077372  0.00997134053441  0.00421954586788  
0.700144052505  0.0119455405214  -0.455300329432  -0.470189885284  0.748786497546  0.00965880077081  0.00467565635052  
0.708297967911  0.0256515765305  -0.431886204148  -0.479591536465  0.733371564919  0.0098062893985  0.0042742426588  
0.716330051422  0.0409247103762  -0.409190977275  -0.487812786667  0.717575314162  0.0103771780694  0.00387743161453  
0.724375009537  0.0575484788927  -0.3872998104  -0.494578265074  0.702516809543  0.0118307577911  0.00348735692454  
0.732459068298  0.075314839401  -0.365890679463  -0.500275334346  0.68724069469  0.0140894981485  0.00389903649263  
0.740560054779  0.0940248074138  -0.345454535229  -0.504951214316  0.672850246126  0.0170767797145  0.00346146222266  
0.748602151871  0.1130903546  -0.325647129165  -0.508656526421  0.658374477465  0.0207175937053  0.00382946235964  
0.756749153137  0.132764241472  -0.306147099098  -0.512392129446  0.643910019142  0.0249386052203  0.00414515098775  
0.764863014221  0.152877039357  -0.287051613523  -0.515816438685  0.629545595004  0.0296685709532  0.00441060150495  
0.772951126099  0.173668460438  -0.26844780038  -0.519248431433  0.615362789934  0.034838526609  0.00383494690193  
0.78102517128  0.194956682852  -0.250412971695  -0.522350140376  0.601435542968  0.0403823154099  0.00407326746796  
0.789073944092  0.217368354646  -0.232619322561  -0.525128403492  0.587830281868  0.0462365034715  0.00347471127656  
0.797340154648  0.241075711847  -0.215554151277  -0.526958650873  0.574606648576  0.0533319698554  0.00290102491503  
0.805413007736  0.266229654927  -0.199266849338  -0.527903095091  0.560825693483  0.0605370275275  0.00235386700809  
0.813426971436  0.287778427266  -0.183007057527  -0.525497401231  0.544633375976  0.0668070010982  0.00183457453619  
0.821434020996  0.307063781232  -0.167269126194  -0.520648091177  0.527308558681  0.0726712309623  0.00134420771548  
0.82957816124  0.332911150186  -0.153296720074  -0.517365895556  0.513012552066  0.0810989618277  0.000883564902357  
0.83765912056  0.361063554612  -0.14024866438  -0.513970292084  0.500607514697  0.0908475690416  0.000453197966381  
0.84576010704  0.395551862998  -0.128925055118  -0.511438416112  0.493989244523  0.104728183792  5.34279997965e-05  
0.853875160217  0.429691052757  -0.118471357916  -0.507507805122  0.486801469588  0.118864049143  -0.00031563875995  
0.862064123154  0.465289264959  -0.109280484899  -0.502626795943  0.481115435307  0.134138977719  -0.000654094910112  
0.870301008224  0.535195819315  -0.0942225924424  -0.489243145566  0.472187929246  0.165606063508  -0.00124044398817  
0.878374099731  0.576030543621  -0.0905670309387  -0.481911028003  0.47265726847  0.185874818646  -0.00148937281864  
0.886400938034  0.613707281907  -0.0878198127779  -0.472787535773  0.47213900448  0.204903563227  -0.0017097317167  
0.894395112991  0.653020551345  -0.0883005594687  -0.462381813624  0.473687322519  0.226140149413  -0.00190237075991  
0.902536153793  0.692403543659  -0.0913601970717  -0.450858469477  0.477132101741  0.248290072793  -0.00365450662109  
0.910552024841  0.731207702969  -0.096779607393  -0.438691689537  0.483296140326  0.271640603396  -0.00683424242518  
0.918669939041  0.770831611888  -0.106319593434  -0.426004926629  0.492921517512  0.297440625651  -0.0128971117166  
0.926795959473  0.80817538527  -0.117623483981  -0.412287455018  0.503697181824  0.322365755599  -0.0199956275985  
0.934960126877  0.845177200126  -0.132066250586  -0.39833463203  0.516458095418  0.347320491065  -0.0303844869724  
0.942963123322  0.87724929878  -0.146545819984  -0.382990378505  0.527996743271  0.370164944407  -0.0413646248326  
0.951112985611  0.909757005759  -0.164529136331  -0.367718159814  0.543293312502  0.394390802366  -0.055201122666  
0.959381103516  0.943262171472  -0.186819445812  -0.35260584389  0.561961297729  0.419740663276  -0.072379564158  
0.967483997345  0.973493352718  -0.210570755697  -0.336789457595  0.580649054982  0.443987098524  -0.0909477939369  
0.975439071655  1.00649595171  -0.241850708909  -0.32136301101  0.606178414743  0.472022129767  -0.116234337893  
0.983538150787  1.03626967802  -0.275134470072  -0.306397109714  0.633894592645  0.498916560942  -0.145181502548  
0.991631984711  1.06128582376  -0.30887304461  -0.29068616054  0.662464224615  0.523600424135  -0.175739085186  
0.999730110168  1.07777223517  -0.338075307198  -0.274390472961  0.68470401518  0.543117943472  -0.202833719037  
1.00786805153  1.08628860642  -0.362911975112  -0.257656595405  0.700967054818  0.557748928988  -0.226565876738  
1.01597309113  1.08859660909  -0.384754348925  -0.241253188251  0.713599190884  0.568773316955  -0.248635375873  
1.02404212952  1.10310131941  -0.427035847902  -0.226811778099  0.751554002073  0.591273330838  -0.290448447665  
1.03225708008  1.11202492634  -0.466153879735  -0.212396767608  0.785863687354  0.610339752785  -0.329592640966  
1.04040598869  1.12052810533  -0.509229966959  -0.197455874212  0.82452851201  0.629094399526  -0.369997025337  
1.04825210571  1.12580054838  -0.55252532804  -0.181810078936  0.863005038815  0.645958057618  -0.409726856625  
1.05638408661  1.12566852447  -0.592194475686  -0.166246881308  0.897103274711  0.659485683985  -0.447001726307  
1.06454205513  1.12214685601  -0.631436650272  -0.149905215826  0.929925524059  0.671339343337  -0.484160005183  
1.07258796692  1.11591914757  -0.6732058139  -0.132311529313  0.963350025456  0.683062572545  -0.522566423571  
1.08066797256  1.10563979851  -0.713882433707  -0.113675534065  0.995139807102  0.692609969443  -0.560299493484  
1.08871102333  1.08969402007  -0.749343349477  -0.0951461284398  1.02026752426  0.698108389901  -0.592418601471  
1.09687805176  1.07101213684  -0.787288247407  -0.0749259535485  1.04702526505  0.702812083825  -0.625504868905  
1.10505914688  1.04792972417  -0.822938272828  -0.0542244735716  1.07016365784  0.704770848589  -0.655312443608  
1.11329102516  1.02133015124  -0.85664561412  -0.0335231141113  1.09081127046  0.703689934589  -0.683496930526  
1.12133312225  0.990854416901  -0.889538519629  -0.0126330999166  1.11002474137  0.700803322026  -0.710009589801  
1.1292719841  0.956992579913  -0.920289333127  0.00798398303931  1.12581355016  0.695277832653  -0.734022358411  
1.13754105568  0.919819070546  -0.949269096566  0.0285377797792  1.1403281042  0.687352496553  -0.756373346902  
1.14541602135  0.879423082878  -0.976435332941  0.0485895518365  1.15258589709  0.677262906338  -0.777845973692  
1.15352296829  0.83670415607  -1.00176029016  0.0686858536016  1.16268599889  0.664744004289  -0.796789066858  
1.16168498993  0.791709179713  -1.02522961526  0.0883825208959  1.16974199889  0.650062073492  -0.814867452942  
1.1697101593  0.744495594109  -1.04684177306  0.10758820849  1.17592900554  0.633971780766  -0.831242976156  
1.17792201042  0.695528600303  -1.06621120108  0.126853507314  1.18028474431  0.616186747127  -0.845946153354  
1.18601107597  0.645248368987  -1.08378724738  0.146054595726  1.18391570999  0.596948918567  -0.85901554242  
1.19423604012  0.594068866526  -1.09920455888  0.165076899757  1.18586426119  0.576490402723  -0.872083099452  
1.20227098465  0.541979056402  -1.11253509797  0.183816219568  1.1882316845  0.555528753175  -0.884274786465  
1.21046710014  0.489771567905  -1.12346244182  0.202177738915  1.18799662573  0.533241760034  -0.893996789715  
1.21834897995  0.437380899466  -1.13210540174  0.219760824681  1.18734546197  0.509870618923  -0.902966528258  
1.22643613815  0.384747926251  -1.13898315786  0.236517120484  1.18631442862  0.485644568356  -0.911979906165  
1.23472809792  0.332218250374  -1.14418997565  0.252722783355  1.18493941565  0.461275967565  -0.921770741956  
1.24260807037  0.279711200419  -1.14821892677  0.268320531479  1.18424706723  0.436431557533  -0.932217781556  
1.25074505806  0.227152396902  -1.15034538509  0.282943827398  1.18418872235  0.411302476651  -0.942412260981  
1.2588391304  0.174473370921  -1.15109930418  0.296893889466  1.18471552434  0.386066810845  -0.953103598278  
1.26698112488  0.122010532911  -1.14979150028  0.309503598536  1.18478737216  0.360889482531  -0.963393763459  
1.27519202232  0.0700727579827  -1.14540355521  0.320797509002  1.18245629091  0.335426546304  -0.971663749059  
1.28337597847  0.0173472447593  -1.14057490049  0.332074190798  1.18288024284  0.310353916688  -0.979605234871  
1.29135704041  -0.0349803601173  -1.1333921809  0.341998872772  1.18286869358  0.285301246059  -0.984815263939  
1.29938912392  -0.0874134556105  -1.12408274933  0.350930842822  1.18344681425  0.260918180462  -0.988266430304  
1.30736112595  -0.138821051488  -1.11207832971  0.358574917841  1.18159106288  0.236312707143  -0.98848762841  
1.31543803215  -0.190159518724  -1.09766262465  0.364983617351  1.17849319502  0.211654790054  -0.985728334159  
1.32357001305  -0.239919693144  -1.08071682119  0.370212602113  1.17228628183  0.187101562214  -0.978650799824  
1.33163714409  -0.288313897815  -1.06154250964  0.374637074283  1.16324995156  0.162797308277  -0.967633979834  
1.33983397484  -0.336343501357  -1.04082720523  0.377976422312  1.15265153853  0.138377864046  -0.953052235609  
1.34790611267  -0.382941542514  -1.01881914158  0.38092611498  1.13869514303  0.113508124389  -0.935272821834  
1.35602617264  -0.427929872202  -0.996150872748  0.383814655878  1.1227195969  0.0883773115048  -0.913861215123  
1.36424899101  -0.470755654191  -0.972223214447  0.38599588783  1.10398926617  0.0636573923645  -0.890025258424  
1.37232494354  -0.510922193394  -0.946886943974  0.387510786362  1.08283442291  0.0394700268095  -0.862515042504  
1.380382061  -0.550379748858  -0.921990906335  0.389351387164  1.06254863124  0.0149325157658  -0.83257962872  
1.38834810257  -0.587742611008  -0.896864363226  0.391164200218  1.04120783914  -0.00977559013338  -0.800593153167  
1.39644598961  -0.623340054136  -0.871681149079  0.392940117542  1.01902615711  -0.0334963622281  -0.766913396478  
1.40449810028  -0.655892281079  -0.845415425468  0.394037715969  0.995215336328  -0.0566548680174  -0.731087747025  
1.41260099411  -0.688223920813  -0.819896367293  0.395768419347  0.971040833786  -0.0801423340381  -0.694298264124  
1.420773983  -0.719354246305  -0.794433315113  0.39743958354  0.946681167314  -0.103291762918  -0.656055053757  
1.42889499664  -0.74918324797  -0.769575531359  0.399361879211  0.921310332897  -0.125985772238  -0.61670833152  
1.43690609932  -0.778424054024  -0.745034949036  0.400871551476  0.895164462472  -0.148118753647  -0.576588006102  
1.44499897957  -0.806940848811  -0.721334657869  0.402623576086  0.868466021516  -0.170092666769  -0.536003176861  
1.45332217216  -0.834612823282  -0.698952046601  0.404904642446  0.840432046296  -0.191287684378  -0.496034958366  
1.46119213104  -0.861333698703  -0.67752828572  0.407027194095  0.813323188745  -0.21262409186  -0.456090484408  
1.4694480896  -0.887011535699  -0.657122000852  0.40930641341  0.785252991394  -0.232967196689  -0.416415832055  
1.47740697861  -0.911567914433  -0.638176362764  0.412032356733  0.756470434721  -0.252763403235  -0.377236331267  
1.48548913002  -0.934937371839  -0.620300016143  0.414520911778  0.728200889246  -0.271436695184  -0.33875674563  
1.49358105659  -0.957465711761  -0.603520900131  0.417091204397  0.699588644951  -0.290445327258  -0.301954713951  
1.50164914131  -0.97907831239  -0.587462500473  0.419088238223  0.670837689931  -0.308158225332  -0.266135365221  
1.50973796844  -1.00050937053  -0.572168532047  0.42054427983  0.64312884992  -0.325061763839  -0.231444725903  
1.51788306236  -1.02124144013  -0.557674586575  0.421492289173  0.616553262964  -0.341609476643  -0.198010511171  
1.52609109879  -1.04159852408  -0.544404015687  0.421966375704  0.590196329648  -0.357726288392  -0.165942722306  
1.53427004814  -1.08157337579  -0.522233954149  0.421628448285  0.54251100336  -0.388409191036  -0.106262063768  
1.54231715202  -1.1001974276  -0.513257630759  0.421200394166  0.519287729114  -0.402866584639  -0.0787871091424  
1.55037903786  -1.11692431938  -0.504956410842  0.420090528959  0.497618178109  -0.416179402952  -0.0529560205177  
1.5584230423  -1.13259464047  -0.498120730078  0.41899154026  0.476524879965  -0.428849545213  -0.0288015257143  
1.56636404991  -1.14719317411  -0.492679094586  0.41790924594  0.457085212624  -0.441343976198  -0.00634340453422  
1.57454109192  -1.16071250602  -0.488557245482  0.416849253112  0.438300292977  -0.453103189321  0.0144106288423  
1.58255910873  -1.17315258903  -0.485678126505  0.415816225391  0.42122726095  -0.464111154368  0.033464037066  
1.59062314034  -1.18491852612  -0.483963134159  0.414814666738  0.404847650587  -0.474853562713  0.0508305704469  
1.59872412682  -1.19638817206  -0.483332540877  0.413848351242  0.390200853449  -0.485284367373  0.0665333829518  
1.60680794716  -1.20791207218  -0.483310773247  0.412288017957  0.377243121686  -0.495363010454  0.0806041584553  
1.61487007141  -1.21901577267  -0.483850501393  0.40987345747  0.365923948939  -0.506045671642  0.0930822518729  
1.62303900719  -1.22607554255  -0.483322645027  0.406052142936  0.355194990728  -0.514245071815  0.104013849353  
1.63118314743  -1.2269697451  -0.48062664433  0.400323900236  0.34408558383  -0.519607180279  0.11345115126  
1.63934111595  -1.23691983507  -0.482276248075  0.395407014579  0.337651013153  -0.528762982351  0.120658604573  
1.64736104012  -1.24240613636  -0.482386348142  0.389367115441  0.331603078561  -0.535908862597  0.126557521452  
1.65545701981  -1.23975456792  -0.479493596891  0.381379182948  0.323966341057  -0.539173471621  0.131212900972  
1.66354107857  -1.23160625223  -0.474640165797  0.371960900988  0.31590286908  -0.539829177171  0.13469238332  
1.67159795761  -1.24036193901  -0.475523449699  0.365397715727  0.315426735743  -0.546501128321  0.137065656924  
1.67965197563  -1.24073944643  -0.473386732567  0.357076050043  0.313029945695  -0.549263151745  0.138403866863  
1.68774604797  -1.23577747967  -0.469268366112  0.347816786722  0.308876118677  -0.549888358727  0.138779060157  
1.69585514069  -1.25581708027  -0.472049644955  0.343131559637  0.314032684044  -0.560930975494  0.138263668524  
1.70395207405  -1.2756748035  -0.474849469471  0.338895744801  0.317831454182  -0.572096191761  0.136930028901  
1.71226716042  -1.29563928668  -0.476857600505  0.334467699596  0.322336472935  -0.582809098156  0.134849941778  
1.72038507462  -1.3147810669  -0.478518674559  0.330206346855  0.326473811806  -0.594029598677  0.131301140608  
1.72836995125  -1.33344379046  -0.480244828023  0.326757548753  0.331237694195  -0.605648770588  0.126419652314  
1.73645710945  -1.3519474483  -0.481624636461  0.323763120409  0.33555854726  -0.616572137101  0.119546099127  
1.74459314346  -1.37058808484  -0.482281102415  0.320890194037  0.339443717424  -0.627281569633  0.110877774637  
1.75270295143  -1.38963800419  -0.482661592716  0.318463326625  0.342903095581  -0.638222919866  0.0998148417797  
1.76077008247  -1.40894719874  -0.482785371085  0.316463152229  0.345948262964  -0.649805895167  0.0866116876447  
1.76888394356  -1.4283756805  -0.482275924835  0.314552423128  0.348592288009  -0.661413196535  0.0707234542124  
1.77701711655  -1.44819222015  -0.481185743298  0.312736228088  0.351841486531  -0.673466472489  0.0524570193218  
1.78520202637  -1.46784506753  -0.479171003873  0.310701963473  0.354637347496  -0.68585639448  0.0321105559361  
1.79325699806  -1.48762355234  -0.476315971648  0.308478987992  0.356006266455  -0.698479918805  0.0099716773515  
1.80139708519  -1.5085909668  -0.472308114003  0.305779581669  0.357041698201  -0.71173615968  -0.0144760074408  
1.80932712555  -1.52813321129  -0.466866300532  0.302340935332  0.356771928492  -0.724502422326  -0.0393154472298  
1.81737303734  -1.54703678196  -0.460135430092  0.298241769496  0.356291317912  -0.736241757376  -0.0643618251435  
1.82555007935  -1.565233951  -0.452257725493  0.293558991544  0.353636455151  -0.74795230508  -0.0894437418317  
1.83357405663  -1.58306523194  -0.442975259532  0.288050252772  0.348992528996  -0.759068040733  -0.115195732076  
1.84168410301  -1.60004972835  -0.432059201661  0.281497687072  0.344525584132  -0.769566120227  -0.13981985492  
1.84983611107  -1.61614773139  -0.419704114519  0.274338973762  0.33826688826  -0.779429235017  -0.16325075098  
1.85786008835  -1.6313281343  -0.405702917288  0.266033096953  0.331385707729  -0.788645546627  -0.185435619039  
1.86609506607  -1.64596657251  -0.390270295093  0.256720644638  0.322981721059  -0.797208058151  -0.205540342543  
1.87429308891  -1.65961563815  -0.373613168549  0.246853549049  0.314216673617  -0.805609982585  -0.224394562786  
1.8823120594  -1.67226739606  -0.355929995656  0.236220146566  0.303190241747  -0.813316044789  -0.241185368664  
1.89037203789  -1.68392073441  -0.337410196849  0.225261903407  0.291137745006  -0.820828018726  -0.255968697824  
1.89844703674  -1.69418219393  -0.318233680796  0.214388056761  0.278213694775  -0.827618754388  -0.268808616569  
1.9065310955  -1.70349483872  -0.298570466048  0.203343582613  0.262583173436  -0.833702069211  -0.279776304267  
1.91471505165  -1.71187444383  -0.278580393446  0.192526255133  0.245544632464  -0.839590728131  -0.288155898988  
1.92278814316  -1.71934142718  -0.258017435929  0.18166924779  0.228304586856  -0.844767701917  -0.294096270211  
1.93087005615  -1.72592028661  -0.23705369361  0.170843021586  0.209994336109  -0.849751784191  -0.298543030482  
1.93893098831  -1.73124049983  -0.216245898668  0.160428743196  0.190810579686  -0.853535630891  -0.300791436375  
1.9470770359  -1.73536673631  -0.195315450729  0.149826754176  0.170940210751  -0.856684497006  -0.301791123673  
1.95529413223  -1.73836616581  -0.174402148493  0.139433394749  0.149568659522  -0.859228244218  -0.300839896822  
1.96340894699  -1.73990892201  -0.153634108494  0.129296997741  0.128927702753  -0.860702358401  -0.298095080003  
1.97134613991  -1.74049721938  -0.132733481401  0.119459980753  0.108097432515  -0.861180705739  -0.293712950983  
1.97941613197  -1.7362153923  -0.112235955053  0.109644735775  0.0872218056475  -0.859250518683  -0.287847818871  
1.98750495911  -1.72507627948  -0.0922374892134  0.0999104864893  0.0664339267568  -0.854614994204  -0.28144434442  
1.99576401711  -1.70409381876  -0.0732189674784  0.090311739281  0.0468474234616  -0.845034496402  -0.273790977322  
2.00399398804  -1.67535806242  -0.0548268995461  0.0805810199572  0.0284906542022  -0.831447977822  -0.265032222934  
2.01193499565  -1.67153788535  -0.032775881194  0.0698365747007  0.00543388083612  -0.833086943099  -0.255308263577  
2.02007198334  -1.66401744808  -0.0110464190988  0.058859235661  -0.0168583380021  -0.83289799499  -0.244754390391  
2.02816510201  -1.65711563587  0.0110423906622  0.0471027288352  -0.0412807856984  -0.83350194588  -0.233500543237  
2.0363380909  -1.64245673809  0.0317434343765  0.0356501075284  -0.0635511976628  -0.829876779858  -0.221670919534  
2.04431200027  -1.632293149  0.0538046643445  0.0223336994144  -0.0876638322247  -0.829312721731  -0.209383649116  
2.05236697197  -1.61278684929  0.0738193894862  0.00991232534678  -0.109360564367  -0.823644910043  -0.196750531985  
2.06048798561  -1.58637802083  0.0922175968888  -0.00192263850686  -0.128694095273  -0.814295802767  -0.183876835723  
2.06858611107  -1.57250106448  0.114548160073  -0.0172573367375  -0.152667491519  -0.81152298846  -0.170861149174  
2.07669210434  -1.55751464454  0.136807480537  -0.032877147227  -0.176806619555  -0.807893955836  -0.157795288947  
2.08471012115  -1.54080010962  0.15886294887  -0.0483468723753  -0.20094841735  -0.802506004169  -0.143971130314  
2.09278798103  -1.5217982129  0.180988786082  -0.0638984763813  -0.224943004594  -0.795033476493  -0.129533481295  
2.10088896751  -1.50080435221  0.203042387104  -0.0787972993719  -0.247661465115  -0.785684473454  -0.113826301985  
2.10904216766  -1.47770494619  0.225287951813  -0.0933176760149  -0.270053016936  -0.775654102424  -0.0978387513961  
2.11710095406  -1.45240819147  0.247967995156  -0.107715403548  -0.292995672765  -0.764066164244  -0.0808987458032  
2.12530112267  -1.42484305134  0.271303508229  -0.121595030942  -0.31432129258  -0.751113556445  -0.0631854840159  
2.13347315788  -1.39535680788  0.295494442322  -0.135227147187  -0.336005932604  -0.736982530403  -0.0448688100266  
2.14146995544  -1.36388290957  0.320719731322  -0.148230747034  -0.356895801572  -0.722347985841  -0.0261092668199  
2.14955997467  -1.33037247728  0.347137997491  -0.160890244188  -0.377914099369  -0.706844268206  -0.00705768321857  
2.15760707855  -1.29200279126  0.370537225505  -0.171885597206  -0.394955014722  -0.68865217709  0.0105587706702  
2.16580700874  -1.25138209122  0.394170824322  -0.181912983749  -0.411195567162  -0.669084747963  0.0283281842633  
2.17384600639  -1.21172759316  0.42420238852  -0.19225610639  -0.432545236612  -0.650352963893  0.0485079503372  
2.18197202682  -1.17002170068  0.455598356197  -0.201873732967  -0.454509895591  -0.630525606848  0.0699925133996  
2.19001412392  -1.12588524524  0.48647559505  -0.210760594248  -0.475913701137  -0.609314926211  0.0909611064181  
2.19820904732  -1.08177386882  0.520637883424  -0.219238677085  -0.500632886939  -0.586960046063  0.114495868258  
2.20638203621  -0.988580717916  0.585303722621  -0.233086432483  -0.547981889238  -0.538312052269  0.159570857318  
2.21444296837  -0.939840167745  0.613773929391  -0.238161759089  -0.568260966504  -0.51247854825  0.180789164747  
2.2225420475  -0.889049463524  0.636223999645  -0.241364712392  -0.583438316592  -0.4854693826  0.199238025632  
2.23050403595  -0.837081671463  0.654564065085  -0.243138413224  -0.594807183136  -0.457543480872  0.215811030099  
2.23863816261  -0.788735386397  0.696686585596  -0.250248234718  -0.625394329852  -0.430928064732  0.244033716111  
2.24668097496  -0.739246517966  0.731215725584  -0.255253021621  -0.649725907703  -0.403703991967  0.268551233851  
2.25479602814  -0.689010754959  0.758525354459  -0.258284818948  -0.668135469639  -0.37608741771  0.289498406729  
2.26290297508  -0.638397913896  0.779006413724  -0.259477973781  -0.680968476635  -0.34828023983  0.307022379348  
2.2709710598  -0.58775144246  0.793061883101  -0.258967816801  -0.688578186858  -0.320469865665  0.321280122403  
2.27935600281  -0.537388334637  0.801103344523  -0.256889745877  -0.691322857539  -0.292829173625  0.332436695491  
2.287348032  -0.487997847128  0.805525380774  -0.253696582159  -0.690554347305  -0.265516567979  0.342249830898  
2.29535794258  -0.440608246497  0.851276664671  -0.26123417249  -0.732153639365  -0.239171818782  0.38645231155  
2.303399086  -0.393764018893  0.894522477355  -0.268152307873  -0.773911792817  -0.21338764448  0.428791649449  
2.31149601936  -0.348112121034  0.948239656714  -0.277629554207  -0.830426175241  -0.186793551535  0.481044540268  
2.31961798668  -0.303843387704  1.00099864724  -0.286237445694  -0.888304665419  -0.159617337588  0.533393532558  
2.32766795158  -0.260726651225  1.05056817053  -0.293988050119  -0.945098766292  -0.133064286437  0.583919592775  
2.33574795723  -0.219338689619  1.09332829061  -0.299947792396  -0.995583034748  -0.107250890278  0.629278202181  
2.34388709068  -0.179802224555  1.1342885394  -0.305487957364  -1.0458821114  -0.0817842631878  0.672761149445  
2.35200309753  -0.142218939955  1.17293892564  -0.310290246153  -1.09569840998  -0.0567956370268  0.714244267004  
2.36006498337  -0.106670501655  1.20763679093  -0.314696436482  -1.14277719702  -0.0324029258348  0.752039066958  
2.36834406853  -0.073219604511  1.23847343003  -0.318709756236  -1.18604763625  -0.00871128312848  0.786197349147  
2.3763730526  -0.0419110559771  1.26595276077  -0.322336531916  -1.226527949  0.0136909533145  0.816789241245  
2.38442015648  -0.0127728865976  1.28818714654  -0.32526587229  -1.26120930828  0.0347648005495  0.843108592964  
2.39256215096  0.0141825215676  1.30940098841  -0.329118074494  -1.29528347616  0.054482477418  0.866116945427  
2.40067005157  0.0389572969846  1.32281807997  -0.331262579937  -1.32065511076  0.072826962651  0.882756075609  
2.40875411034  0.0619655691504  1.33489297097  -0.334036701393  -1.34379034982  0.0902866871266  0.896589336077  
2.41682600975  0.0836002549339  1.34486419628  -0.337057717303  -1.3627366679  0.105830580526  0.907748826049  
2.42494297028  0.103833710841  1.35283304392  -0.340287693973  -1.37770174706  0.119510840599  0.915579871926  
2.43303799629  0.123047703478  1.35811452225  -0.343057469571  -1.38791018039  0.132378623915  0.918705835836  
2.44105195999  0.141202170629  1.35930221167  -0.345067902005  -1.39267660899  0.14342577509  0.918265772775  
2.44936704636  0.158266626772  1.35631108234  -0.346048909157  -1.39338508705  0.153220713504  0.914539287076  
2.45732402802  0.176212823368  1.3538348184  -0.347659024401  -1.39431187997  0.161799779317  0.907804493436  
2.46540403366  0.194063785735  1.34868475196  -0.348888024394  -1.39246027047  0.16969990065  0.898336885778  
2.47347617149  0.211716063025  1.34070479428  -0.349125488825  -1.38706591255  0.176924768227  0.886407386586  
2.48162198067  0.227879660797  1.32779104589  -0.348128503501  -1.37645466511  0.182490557445  0.869901812608  
2.4896709919  0.244562817548  1.31515288369  -0.34726790573  -1.36605410863  0.187978568695  0.853243205395  
2.49775099754  0.260824516093  1.30047437974  -0.346220120577  -1.35293847713  0.192369350429  0.834167825189  
2.50589394569  0.275400652288  1.2812362527  -0.343739095518  -1.33442581746  0.195720874791  0.812981442672  
2.51392102242  0.28952738888  1.2602848733  -0.340902067821  -1.31501529813  0.198588715846  0.790772718531  
2.52201604843  0.302753301166  1.23709243203  -0.337437421128  -1.29192328151  0.200992643379  0.766965793439  
2.53010010719  0.31586351112  1.21316338818  -0.334364705282  -1.26756138615  0.203449356114  0.74262545304  
2.53834104538  0.326792599643  1.18474818725  -0.329772277582  -1.23821410303  0.20445252475  0.71635814547  
2.5464451313  0.341621083936  1.16265515852  -0.328557646534  -1.2153554519  0.207578495369  0.694821240302  
2.55435299873  0.356765572174  1.14059816122  -0.328247994207  -1.19366729413  0.211156220652  0.673815897079  
2.56244802475  0.372505916702  1.11791988664  -0.327825922074  -1.17021915591  0.215128261572  0.65422432218  
2.57058501244  0.387901050606  1.09401832958  -0.327301994652  -1.14628429695  0.21844804552  0.634472027246  
2.57862114906  0.404078016217  1.06992785189  -0.326688203365  -1.1220493057  0.222136953424  0.616280411363  
2.58671998978  0.420477126362  1.04423047154  -0.325361613065  -1.09669633603  0.226143383799  0.599641164067  
2.59477901459  0.437377858753  1.01800153506  -0.324018654809  -1.07146090687  0.230417909716  0.585330172681  
2.60293006897  0.454636472541  0.991049578914  -0.322352519779  -1.04649077012  0.235408790975  0.574048683507  
2.61101317406  0.471320794073  0.963202529452  -0.320714237339  -1.01993735088  0.240038153023  0.564045487039  
2.61909604073  0.484980164148  0.932329517617  -0.31784521839  -0.990105689469  0.243313789746  0.552904018343  
2.62717103958  0.499351952326  0.901625669619  -0.315125738776  -0.960409559617  0.247303301478  0.544747126937  
2.63534212112  0.517879287784  0.874037346612  -0.314460166369  -0.932014124565  0.254900602068  0.543359380135  
2.64351010323  0.532949854523  0.843956606203  -0.31252725337  -0.901029312908  0.260821788788  0.539500068958  
2.65166807175  0.55071720329  0.815718642158  -0.311653552652  -0.872805096017  0.268629795486  0.541315502423  
2.65964317322  0.569267445832  0.787773824913  -0.310496582682  -0.844328585188  0.27713844026  0.545975031145  
2.66762399673  0.591214943374  0.761854826994  -0.310035161197  -0.817778603735  0.287231866038  0.554815068402  
2.67575407028  0.614963963967  0.736383397567  -0.30926858847  -0.792179277686  0.298228736744  0.565076912605  
2.68377900124  0.639828593802  0.711878223464  -0.308857695423  -0.766624083778  0.309495025402  0.577379499197  
2.69188404083  0.665966492444  0.688020845592  -0.30814493049  -0.742259763335  0.320939766837  0.59148807126  
2.69998812675  0.693515120785  0.665304719742  -0.307790550537  -0.719144966955  0.332973763705  0.60717484932  
2.70812296867  0.722194020559  0.643386696253  -0.30745261049  -0.696334962889  0.344980895735  0.62421994026  
2.7162091732  0.752136008512  0.622340760297  -0.307447899441  -0.6749388464  0.35738439074  0.64320521207  
2.72450900078  0.783057231539  0.602229943278  -0.30743460987  -0.654979900167  0.370572206193  0.664655343033  
2.73254799843  0.814689683097  0.582710907534  -0.307097031065  -0.637461659155  0.384401614822  0.687452608346  
2.74062514305  0.847180423246  0.564254434918  -0.306778863421  -0.621312224315  0.398736963867  0.711351017498  
2.74872708321  0.879862573679  0.546497135756  -0.305848070604  -0.6055339513  0.414441387512  0.736116751189  
2.75680112839  0.912916921908  0.529494755412  -0.304674034786  -0.591187503501  0.430815466287  0.761528734977  
2.76495313644  0.946109410405  0.513294413755  -0.303598924014  -0.578250641368  0.448696854034  0.787379068392  
2.77300095558  0.97922336831  0.497538830568  -0.302305394987  -0.565703029087  0.467857677394  0.814266218054  
2.78114008904  1.01046482293  0.481895682654  -0.300501881727  -0.552600893923  0.487088276148  0.839563790096  
2.78919100761  1.03739354592  0.465662261571  -0.297922433814  -0.539068383469  0.504776720516  0.861651637518  
2.7973921299  1.07133804651  0.452149472963  -0.297174562939  -0.529188495425  0.528368148934  0.888572809131  
2.80538797379  1.10516570185  0.438856850498  -0.296538342367  -0.520756576995  0.552797111037  0.915026755497  
2.81370306015  1.13827685731  0.426245282196  -0.296009441759  -0.512721070875  0.577846645407  0.942471419017  
2.82168602943  1.17131865657  0.413549043258  -0.295265906237  -0.50609224722  0.602817477675  0.969073521594  
2.82990312576  1.1993082364  0.40006250821  -0.293380220546  -0.49881948986  0.625082199997  0.991560805237  
2.83776712418  1.22724711515  0.386326286803  -0.290769064259  -0.491989051346  0.648182363457  1.01249231496  
2.84587216377  1.2573576165  0.372840533581  -0.287821424632  -0.486600620567  0.67240558061  1.03423835111  
2.85397911072  1.29087878248  0.359273955982  -0.284581365787  -0.482575561937  0.699992816762  1.05580770798  
2.86202406883  1.32215593109  0.344530472716  -0.279826386283  -0.477850412683  0.727041903237  1.07390768889  
2.87012600899  1.34997307968  0.32918839776  -0.274019900215  -0.472508759358  0.752435245597  1.08710890435  
2.87821602821  1.37920937756  0.312993968069  -0.266963244281  -0.466631620073  0.780109199419  1.09729601515  
2.88653206825  1.4314230576  0.278706086013  -0.250264420296  -0.451679798716  0.833154227821  1.10541611848  
2.8947019577  1.45685546556  0.260919666503  -0.240548970353  -0.442833855016  0.860353464828  1.10317449178  
2.90260601044  1.48123586564  0.242894404024  -0.23072652686  -0.43192583539  0.887536320538  1.09663852623  
2.91075706482  1.49971131468  0.224760730487  -0.220550415897  -0.420174881447  0.910074073268  1.08380279248  
2.91873717308  1.51023363077  0.206639625098  -0.209795263608  -0.406728026183  0.927195914393  1.06523591614  
2.92680215836  1.5336835845  0.188642597216  -0.200784826708  -0.391800348318  0.952599430899  1.04625660936  
2.93493008614  1.55575915346  0.170871729332  -0.192807640455  -0.376590864336  0.976562275014  1.02225638769  
2.94295811653  1.57363906408  0.153024289437  -0.18520064575  -0.359233119213  0.997560115496  0.995360027765  
2.95118308067  1.5875379117  0.135612475141  -0.177982663276  -0.34099293356  1.01519702006  0.964373152388  
2.95926213264  1.60525196494  0.118315083389  -0.172747837686  -0.32205208438  1.03557258806  0.931391667808  
2.96739912033  1.61999784611  0.100835006188  -0.168110393697  -0.302582538949  1.05339113327  0.895189144431  
2.97559714317  1.62912383095  0.0836904908856  -0.163421087667  -0.281754801016  1.06774901494  0.857033405828  
2.98361802101  1.62742898512  0.0673574148219  -0.158081430102  -0.260794943372  1.07436453189  0.816519848905  
2.99169015884  1.61775665366  0.0518741895226  -0.152806987633  -0.239843376574  1.07528455119  0.7740829613  
2.9996380806  1.6223108492  0.0341066027056  -0.149202234076  -0.21704672166  1.08532044395  0.730928598236  
3.00773096085  1.61843524363  0.0167155080721  -0.144634365161  -0.193681023952  1.08932797164  0.686587252662  
3.01586413383  1.61557665109  -0.0018024742678  -0.140152848463  -0.168944337162  1.09320213938  0.641426278691  
3.02388310432  1.61168123415  -0.0212449895649  -0.135462770286  -0.144087806596  1.09544251406  0.596582758583  
3.03200411797  1.60167176354  -0.0406285134975  -0.129978195771  -0.119275078249  1.09269206917  0.551517327396  
3.04011416435  1.59325962224  -0.0618148788769  -0.124108857928  -0.0936653794697  1.08981643355  0.505733793108  
3.04820299149  1.58238726825  -0.0837416474859  -0.117605833025  -0.0674795024067  1.0843649045  0.461158302966  
3.05629396439  1.56931308119  -0.106610771937  -0.10992624143  -0.0419163028205  1.07607547589  0.417180728692  
3.06432795525  1.55468768628  -0.130207156687  -0.101525043497  -0.0160945906238  1.06521989076  0.373234480884  
3.07261395454  1.5383236829  -0.154327870913  -0.0925104237341  0.0098053275571  1.05256044671  0.330383001767  
3.08064413071  1.52085632208  -0.179177968422  -0.0826696091553  0.0356166091653  1.03782008951  0.28960045777  
3.08856701851  1.49689918217  -0.20177791489  -0.0730787124037  0.0601943346408  1.0187734454  0.250186305748  
3.09665203094  1.47826537871  -0.226908259645  -0.0631408649263  0.0854646290866  1.0018211114  0.212278936131  
3.10477495193  1.45349700028  -0.249470604882  -0.0535817061167  0.109234171524  0.980957839358  0.175996681144  
3.11294698715  1.43438435011  -0.274270219176  -0.044110140147  0.134445822863  0.962564641706  0.141438598929  
3.12096309662  1.41502711713  -0.29860661192  -0.0350967152946  0.157857277116  0.943590134966  0.108685354928  
3.12900996208  1.3955642675  -0.322760047725  -0.026245386993  0.180454211856  0.923701387561  0.0778001490234  
3.13715004921  1.37453030012  -0.345803755834  -0.01728335025  0.202159639683  0.902597109786  0.0480365590257  
3.14522409439  1.3493874575  -0.366098679894  -0.00890844220817  0.221916641193  0.878519947914  0.0210784679515  
3.15338397026  1.32977855496  -0.388083049899  -0.000806496629732  0.242727785811  0.856806838284  -0.00629698277293  
3.16135716438  1.31300456576  -0.410302817263  0.00699210641365  0.264382385666  0.835922280974  -0.0346805755923  
3.1697010994  1.29695636662  -0.43141517421  0.0141452310784  0.285688963937  0.814444428923  -0.0638180356765  
3.17761707306  1.27968408351  -0.450583916914  0.0206577370871  0.306542415905  0.791561287877  -0.0926767123976  
3.18570399284  1.25780248413  -0.466258778772  0.0265372669592  0.32486568465  0.766036858146  -0.11951299386  
3.19371294975  1.24456032644  -0.483755480647  0.0314859359588  0.345698140617  0.743687037249  -0.152248210907  
3.20185017586  1.23020184335  -0.498473433867  0.0352245786479  0.364750528247  0.719943289036  -0.185462935114  
3.20995616913  1.21490237529  -0.510932268547  0.0384564259168  0.382042391622  0.695556598762  -0.218120387389  
3.21802210808  1.19524256482  -0.520043498522  0.0411994966858  0.397603250629  0.669736980191  -0.248475018124  
3.22610116005  1.18324225457  -0.529965702452  0.0431628868463  0.414444890214  0.646225684005  -0.282861870335  
3.23418903351  1.17439578659  -0.539387886594  0.0447097009884  0.431372275999  0.623998232515  -0.319961632521  
3.24240708351  1.16691871118  -0.547499259809  0.0458617680139  0.447282233565  0.601605793865  -0.358540267801  
3.25062298775  1.15477200019  -0.551978097534  0.0463241965289  0.460171966875  0.578208800542  -0.393484785056  
3.25872802734  1.14875686457  -0.556638123663  0.0458352622691  0.474161590874  0.55750020879  -0.432791283222  
3.26677393913  1.14006460479  -0.558667941394  0.0447850486569  0.485113501729  0.536425850806  -0.468739505914  
3.27479696274  1.14131323514  -0.561423159087  0.0422789552215  0.498152125941  0.518614668839  -0.510884027421  
3.28283309937  1.14335315874  -0.562457329301  0.0390749804454  0.509069388883  0.501445678724  -0.552137795817  
3.29094314575  1.14571133235  -0.561502037702  0.0349307782216  0.517961826031  0.484975385418  -0.592313545018  
3.29905605316  1.14834839174  -0.558717639959  0.0299451415364  0.525923007517  0.469251785634  -0.632831815106  
3.30721902847  1.1512263172  -0.553867839278  0.0242138780713  0.532975859378  0.454810211672  -0.672621300028  
3.31532907486  1.15550433737  -0.547538638925  0.0171987633424  0.538155538726  0.441640899418  -0.711491709519  
3.32333612442  1.15985147269  -0.539093132604  0.0090422396162  0.540584053112  0.429726735766  -0.747687031957  
3.3315680027  1.16423531361  -0.529143575488  -0.000115990472632  0.542442642599  0.419044237352  -0.781983138397  
3.33973407745  1.16902442638  -0.517868417914  -0.00982533267124  0.541781327009  0.409068401834  -0.813521510456  
3.34777116776  1.17375901295  -0.505045073172  -0.0199831798056  0.539790945297  0.400302058038  -0.843113543992  
3.35573601723  1.17881243243  -0.490873309689  -0.0308077333694  0.536587264753  0.392209963024  -0.870726675047  
3.36388707161  1.18253425744  -0.475545777466  -0.0415479120779  0.531292969413  0.384789979779  -0.895550015919  
3.37193417549  1.18620047081  -0.459247345069  -0.0524596393477  0.52410317158  0.378531778869  -0.918439122159  
3.38002300262  1.18979269204  -0.442154556163  -0.0637779534204  0.515209652443  0.373383948673  -0.939402259838  
3.38816595078  1.1932943669  -0.424830664697  -0.0747685319307  0.504799880568  0.369292243817  -0.958458679943  
3.39623808861  1.19629216042  -0.407401167838  -0.085704543889  0.493056182999  0.365704377867  -0.977224189442  
3.40433001518  1.19800939784  -0.389587063562  -0.0965228192486  0.480154827733  0.362603575793  -0.994019029529  
3.41258716583  1.20012911802  -0.37271522329  -0.106216107399  0.468248740145  0.360962574231  -1.00968467299  
3.42070603371  1.20021550786  -0.356026225611  -0.114812264694  0.455351876142  0.358695497111  -1.02341875991  
3.42868995667  1.20201313506  -0.34079607062  -0.122341901743  0.443603708054  0.357352102001  -1.04163057402  
3.4367890358  1.20139208201  -0.326215043575  -0.128525925861  0.431005485848  0.354886218127  -1.05751499685  
3.44474005699  1.20213123459  -0.31390534547  -0.13342873267  0.420675480676  0.352887374241  -1.07511921247  
3.45283913612  1.20252617188  -0.302580501437  -0.137752607685  0.411510302217  0.351331703538  -1.09261455865  
3.46092796326  1.20180392062  -0.293025355096  -0.140882800049  0.403476549641  0.348707462073  -1.11069376883  
3.46917915344  1.20045428086  -0.2851618744  -0.142576534122  0.396536257127  0.346105119346  -1.12919947624  
3.477216959  1.19813563563  -0.279303121207  -0.142934332761  0.390647433759  0.343539271784  -1.14719059172  
3.48530507088  1.19493767552  -0.275725429716  -0.141425354393  0.384773798965  0.341022921016  -1.1638022271  
3.49341917038  1.19094851433  -0.274273852898  -0.138203762509  0.380933183093  0.338072240811  -1.18062439938  
3.50155305862  1.18585570905  -0.275187831778  -0.133106157386  0.378000492895  0.334739147373  -1.19674345455  
3.50971913338  1.18017515803  -0.278278163216  -0.126625784902  0.375923398499  0.331569806531  -1.2136999627  
3.51773405075  1.17398767832  -0.28375219469  -0.118593791035  0.375639579149  0.327579812314  -1.23132388156  
3.52573108673  1.16737112433  -0.292181977383  -0.108863659773  0.377011816904  0.323848890193  -1.25024696602  
3.53379917145  1.16000124986  -0.302494795454  -0.0979445084951  0.379902846214  0.319884534226  -1.26945782313  
3.54186701775  1.15118500874  -0.313689255574  -0.086945120624  0.383185607668  0.315233753348  -1.28722874351  
3.54993510246  1.142285253  -0.326813931085  -0.0756229610424  0.388791861458  0.31096997945  -1.30356111859  
3.55804395676  1.13256651639  -0.34084659763  -0.0640740916764  0.394523932825  0.306098386635  -1.31846509762  
3.56610012054  1.12095696742  -0.354442981301  -0.053021056692  0.400336186718  0.301191953698  -1.32958000914  
3.57432293892  1.09794866954  -0.384349956631  -0.0309861107927  0.413935147546  0.29190059426  -1.34980526294  
3.58240008354  1.08630272585  -0.399558135409  -0.0204438983901  0.421564078315  0.287532761765  -1.35812241503  
3.59052205086  1.07519573359  -0.414665368908  -0.00995733239741  0.427966930057  0.283702039387  -1.36529471713  
3.59850311279  1.06425619161  -0.429585809419  0.00072871722363  0.434190245252  0.279894746355  -1.37057356837  
3.6066429615  1.05393742868  -0.444241248355  0.0118485209239  0.439218175242  0.27662845998  -1.37407314616  
3.61474204063  1.04385688335  -0.458165801746  0.0236150076183  0.443112258464  0.2738813892  -1.37432363111  
3.6227991581  1.03445724326  -0.47132975381  0.0355888780045  0.445936160396  0.271630371015  -1.3723687315  
3.63088607788  1.02574401648  -0.48371034494  0.0483116507937  0.446764225383  0.269355080782  -1.36918493725  
3.63915514946  1.01612367746  -0.494105084863  0.060697100985  0.445746202467  0.267071593288  -1.36250812339  
3.64707899094  1.00891493095  -0.504185582253  0.0736440907826  0.444023117389  0.265290322692  -1.35503012367  
3.65522503853  1.00078663945  -0.512727102979  0.0863954533781  0.440669061152  0.263487760471  -1.34448033595  
3.66333413124  0.995846567722  -0.521378252369  0.0998368881657  0.436822624022  0.262172326329  -1.33433503982  
3.6713180542  0.991087873927  -0.529285839806  0.113198643285  0.431554751751  0.260323095936  -1.32303975044  
3.67951416969  0.986924499158  -0.53606288615  0.126087394578  0.425008441284  0.25848863198  -1.30996065841  
3.68750500679  0.978552934834  -0.539777463529  0.137825845203  0.416332184453  0.255192114331  -1.29135183639  
3.69567894936  0.973924950367  -0.544995035757  0.150015014035  0.406736529432  0.252054424638  -1.27489587359  
3.70370197296  0.965205498968  -0.547215881912  0.160643640175  0.396352466362  0.247595792822  -1.25339031016  
3.71178793907  0.964724201127  -0.552987022886  0.171985592991  0.38629704987  0.244920538242  -1.23529109423  
3.7199151516  0.960684118105  -0.556064441241  0.181696780242  0.374624454214  0.241428405493  -1.21251571962  
3.7279779911  0.961358010212  -0.5609887222  0.19142811366  0.362523968012  0.239187232529  -1.19111981579  
3.73608112335  0.961194557628  -0.564817392788  0.200166806035  0.350103788589  0.236626741626  -1.16875005409  
3.74421405792  0.963448156312  -0.569984777682  0.209202041292  0.338457407114  0.234779021673  -1.14720699386  
3.75231313705  0.965924393232  -0.574772969822  0.217505173865  0.326605707087  0.233104564947  -1.12576714889  
3.76043915749  0.968590509374  -0.579972569504  0.226030313226  0.313646753444  0.231600196384  -1.10376244505  
3.76866197586  0.971016402448  -0.585123827452  0.234390820221  0.300738284536  0.230262142406  -1.08058031696  
3.77668309212  0.973604453955  -0.590198592303  0.242547654365  0.28894795184  0.22859010223  -1.05645589077  
3.78473496437  0.977521912201  -0.595962361438  0.250782806728  0.276279410559  0.227115959703  -1.03319827996  
3.79283094406  0.981445437433  -0.601930333397  0.258406672147  0.263870762879  0.225337925442  -1.00929841058  
3.80088615417  0.985748583062  -0.608049589165  0.265103367961  0.251778725473  0.223290602047  -0.984954576937  
3.80904603004  0.98997674597  -0.613874915792  0.27090282404  0.24005396438  0.221007511027  -0.960352218119  
3.81718611717  0.995703988192  -0.620183918161  0.276155599829  0.228740747641  0.218521219949  -0.936457214553  
3.82515215874  1.00198102742  -0.626504535448  0.280555103164  0.218868742461  0.215862937011  -0.912570065561  
3.83327794075  1.00872636068  -0.632796518054  0.284772209419  0.20939600647  0.213062515281  -0.888838258124  
3.84137105942  1.01546313558  -0.639023032055  0.288794934448  0.201341497933  0.210643975304  -0.86619013949  
3.84968400002  1.0213527389  -0.644359449488  0.292612658156  0.193653961905  0.208097107261  -0.844682232005  
3.85771012306  1.02682314855  -0.649632762897  0.297166369605  0.186352576943  0.205447656741  -0.824359666029  
3.86568403244  1.03187297132  -0.654815179396  0.302686696405  0.180444078285  0.202719941168  -0.804463293273  
3.87372112274  1.03650351181  -0.65948610244  0.308747998362  0.174865672499  0.199937060871  -0.7858766303  
3.88187408447  1.04031994919  -0.664051708566  0.315586986864  0.169626308806  0.197616267896  -0.767820440967  
3.88991594315  1.0437603992  -0.668096370473  0.323100390907  0.165723394766  0.195240334506  -0.751158538578  
3.89802694321  1.04603546173  -0.672030885763  0.330873697757  0.161094863913  0.193324050864  -0.735886151431  
3.90611004829  1.04722144329  -0.675443919581  0.338838092102  0.15681706298  0.190852265084  -0.721197117435  
3.91416406631  1.04580120718  -0.677563596283  0.346612396679  0.152889370921  0.188379087406  -0.706344310612  
3.92235398293  1.04437738532  -0.680850392878  0.356061654868  0.149308988942  0.185919911822  -0.693018694477  
3.93051695824  1.04176334151  -0.684402275679  0.36636439817  0.146071179631  0.18398470377  -0.679598418197  
3.93860316277  1.03766901078  -0.688967727405  0.378023266602  0.142178057099  0.181553436002  -0.666173912309  
3.94678711891  1.0326335159  -0.69404428199  0.390860181994  0.138695997497  0.178679657499  -0.652828813386  
3.95470905304  1.02636238817  -0.700747086326  0.40565333333  0.134623367084  0.176406857079  -0.639639980245  
3.96288514137  1.01899045807  -0.709304016513  0.422475428017  0.130031240415  0.173711243724  -0.625090894377  
3.97098016739  1.01025050166  -0.719518038329  0.440748570974  0.125979841667  0.171138015699  -0.610170359462  
3.9790790081  0.999904325743  -0.731592774604  0.460879276177  0.122452394901  0.168693671607  -0.595000033755  
3.98715114594  0.987343387458  -0.746099625177  0.482914946904  0.118438731605  0.165887684251  -0.5796934542  
3.99525308609  0.97202066744  -0.762759958127  0.506571114868  0.114992663466  0.163261122238  -0.563562957709  
4.00336194038  0.95424545434  -0.781303177415  0.531575134624  0.111100366882  0.160320784932  -0.546772754145  
4.01155996323  0.934318477438  -0.802258972739  0.558299859435  0.107811980545  0.157109256512  -0.529478258213  
4.01967597008  0.911733408621  -0.824914529634  0.586129501062  0.104109698153  0.153171830626  -0.511825857391  
4.02771401405  0.886836567137  -0.849392722479  0.615122050591  0.101039968691  0.149580663766  -0.492366818659  
4.03561210632  0.859563523137  -0.875400132082  0.645007277991  0.0985727943781  0.145339831209  -0.472155192128  
4.04374194145  0.830267833862  -0.903052087443  0.675530558307  0.0946939342112  0.140526038802  -0.452168046049  
4.05179405212  0.798889929459  -0.931653995649  0.706452703139  0.0915197288387  0.13521364758  -0.430925832834  
4.05988407135  0.765786209794  -0.961349843614  0.73786715129  0.0880238961658  0.129474340807  -0.409450874848  
4.06811404228  0.73089751472  -0.989497309739  0.767642046923  0.085244440222  0.123872581404  -0.387101471216  
4.07614016533  0.694180335331  -1.02039243189  0.798884534175  0.0821516652316  0.116945407026  -0.364877311422  
4.08431410789  0.656004516898  -1.05125727741  0.829704245396  0.0807718170581  0.109830020234  -0.342113554046  
4.09241509438  0.616720268882  -1.08150717938  0.859626440648  0.0789978130222  0.102089559601  -0.319786442534  
4.10063815117  0.576657493839  -1.11060622919  0.888218320029  0.077862360611  0.0938205720169  -0.296414530508  
4.10872006416  0.536125316039  -1.13846330337  0.915405844653  0.0773231748009  0.085115416909  -0.27301701311  
4.11678814888  0.495013149378  -1.16421074739  0.940496389148  0.076345924564  0.0760619911474  -0.250534251551  
4.12481212616  0.454019823875  -1.18785265266  0.963496964225  0.0749706299422  0.0667436223164  -0.228241741927  
4.13292503357  0.412991971257  -1.20861438503  0.983794160122  0.0742281174982  0.0577343231896  -0.20626305015  
4.14102816582  0.372186926709  -1.22500868553  1.00020623474  0.0730825376391  0.0490660514749  -0.18471024462  
4.14908695221  0.330644808018  -1.23964583661  1.01483131817  0.0725636268595  0.0402704457959  -0.163684050021  
4.15715813637  0.288680823989  -1.25098940245  1.02645168973  0.071634622332  0.0314119621761  -0.143274102717  
4.16534900665  0.246588212201  -1.25882908641  1.03522803931  0.0703330729811  0.0230461643741  -0.123559255146  
4.17348814011  0.203840991799  -1.26299291722  1.04069434588  0.068695979359  0.0151867612777  -0.104607923527  
4.18172001839  0.16075510203  -1.26374001983  1.04307360779  0.066759552459  0.00734753287359  -0.0864784733578  
4.18968200684  0.116827218571  -1.26133118818  1.04290668829  0.0655504385827  -0.000424452881177  -0.0692196373672  
4.19767308235  0.0723955262763  -1.25523522478  1.03944344211  0.0650197348612  -0.00808617229256  -0.0528709608232  
4.20571017265  0.0277745724222  -1.24498519907  1.03232833103  0.0661094576729  -0.0155986261393  -0.0374632692972  
4.21385407448  -0.0171422262836  -1.23096718088  1.02188898742  0.0667043240366  -0.0234223709899  -0.0230191542427  
4.22195410728  -0.0620532928926  -1.2135607016  1.00876425807  0.0678301524374  -0.0309891011834  -0.00955347199017  
4.22999811172  -0.107477543319  -1.19353234534  0.993244656719  0.0684475860879  -0.0392631603705  0.00292614798106  
4.23811817169  -0.152295778405  -1.1700233654  0.974663020253  0.069583593506  -0.0471469433368  0.014418789369  
4.24635004997  -0.241936705178  -1.11576394327  0.930954548031  0.072231610265  -0.0636140145599  0.0344699458105  
4.25446295738  -0.286996658029  -1.08570533208  0.906421259887  0.0727431393136  -0.0720476535894  0.0430555657305  
4.26262712479  -0.33195907675  -1.05400971363  0.880381132274  0.0737547992731  -0.0808663896008  0.0507074056027  
4.27070713043  -0.376552433172  -1.02139621706  0.853429134636  0.0742301511816  -0.0894900112499  0.0574504583469  
4.27875113487  -0.420927195158  -0.988138750753  0.825803376464  0.0751992119216  -0.0978801079291  0.063313417848  
4.28672409058  -0.464426461523  -0.954889232494  0.798044181321  0.0746349179445  -0.106002727869  0.0675350987021  
4.29474401474  -0.506847974062  -0.921457977631  0.770017704132  0.0746424748046  -0.114323816781  0.0718028962774  
4.30289101601  -0.548012073202  -0.888066594118  0.741918648622  0.0741861639191  -0.122280740858  0.0752937115727  
4.3109600544  -0.587760851945  -0.855314743171  0.714243420538  0.0742961613482  -0.130843646724  0.0780461502383  
4.31908297539  -0.625957632246  -0.822960620009  0.686814762032  0.0739364881887  -0.138921097373  0.080100448248  
4.3271510601  -0.66288423652  -0.791569644143  0.660099938944  0.073145783408  -0.147491972054  0.0814980516278  
4.33526515961  -0.699207326082  -0.761261923207  0.634209567141  0.0719624169717  -0.15646472513  0.0830743567412  
4.34336709976  -0.734349699295  -0.73214167939  0.609240170148  0.0714156049632  -0.165256859293  0.084012658524  
4.35141301155  -0.768981918732  -0.703506152942  0.583694425211  0.0714593799845  -0.17432339365  0.0859428468214  
4.35966014862  -0.802131590166  -0.674704457498  0.556510903239  0.071056234654  -0.183091172756  0.0879829121073  
4.36769294739  -0.832910922058  -0.645532750189  0.527668882424  0.0692519241241  -0.191528844293  0.0901116167314  
4.37575817108  -0.861711264606  -0.616200814214  0.497792110636  0.0681491426099  -0.199609751493  0.094688024121  
4.38392901421  -0.889304748427  -0.585321048643  0.467144728226  0.0667089980557  -0.206320041936  0.101494024891  
4.39196801186  -0.915215199059  -0.553205209017  0.43597679965  0.0659577669972  -0.212715797302  0.111900328021  
4.3999979496  -0.939811040022  -0.520544092412  0.404838556758  0.0648554842549  -0.218286003883  0.124769837058  
4.40810203552  -0.962642862244  -0.48718731006  0.373604651372  0.0634361894423  -0.223555932195  0.139831537054  
4.41618394852  -0.984104671396  -0.453395904602  0.342476373703  0.0617333028992  -0.228516116109  0.156821588546  
4.42432594299  -1.00496687537  -0.419413373508  0.311638749491  0.0597794108544  -0.2331599042  0.176277963417  
4.43237900734  -1.02514638225  -0.385465497506  0.280944657237  0.0566149258599  -0.237978726433  0.196302377884  
4.44041609764  -1.04457111355  -0.35176031445  0.250889446354  0.0543358199643  -0.242929017601  0.218312411859  
4.44876098633  -1.06357771217  -0.31848820536  0.221610101956  0.0518964163812  -0.248465536498  0.241224291153  
4.45667099953  -1.08168186888  -0.285822083375  0.192912161775  0.0493242459377  -0.255004219542  0.265618826995  
4.46485304832  -1.09804417349  -0.25391767648  0.16492861232  0.0466455820597  -0.261435227421  0.290436583792  
4.47284412384  -1.11309686217  -0.222913894947  0.13809367848  0.0438853195688  -0.268222636802  0.316283582978  
4.48090815544  -1.12565231072  -0.192933274655  0.112168805225  0.0410669271736  -0.275296767801  0.341333273564  
4.48909115791  -1.13622500548  -0.164082487633  0.0872440664109  0.0382124125015  -0.282591357283  0.366285244684  
4.497164011  -1.14490326463  -0.136057429182  0.0633963528753  0.0353422989146  -0.289548409362  0.390992101613  
4.50531315804  -1.15138166168  -0.10936341931  0.0406904554273  0.0334669998633  -0.296150821978  0.415319507539  
4.51334905624  -1.15658798994  -0.0840628492525  0.0191786775868  0.0325209829424  -0.302385235011  0.438352934729  
4.52164697647  -1.16058872969  -0.0602045946983  -0.00109814994442  0.0324379786602  -0.308241424953  0.460049675691  
4.52982211113  -1.16385107911  -0.0374293018104  -0.0207425447094  0.0331515050739  -0.313712494628  0.480378957939  
4.53776597977  -1.16601369217  -0.0161897335794  -0.0390491860999  0.0345952969624  -0.318298594845  0.497734520235  
4.54586195946  -1.16674987122  0.00350146597521  -0.056008253657  0.0367037003368  -0.32253571703  0.513032369703  
4.55390095711  -1.16576713516  0.0216422681932  -0.0719352539482  0.04040323389  -0.325928894001  0.525544383431  
4.56204199791  -1.16599538082  0.0382404258457  -0.0868112759063  0.0465390383033  -0.32951403037  0.536995183951  
4.57017016411  -1.15896857905  0.0533126656609  -0.0999936094987  0.0519097920802  -0.330775560573  0.544223873114  
4.57824897766  -1.1452930938  0.0668838878306  -0.11153187469  0.0565413797718  -0.329885898377  0.547513168925  
4.58629202843  -1.12756290444  0.0789863769243  -0.121798059604  0.0604624340001  -0.3275131677  0.547941588883  
4.59470510483  -1.13051761419  0.0900545102641  -0.133039616487  0.0716346784429  -0.332709640245  0.556831831999  
4.60272598267  -1.13220587435  0.0997044228573  -0.143214742987  0.084469547215  -0.337916348404  0.564748539295  
4.61073613167  -1.13510592754  0.107986290184  -0.152658937434  0.0987578288297  -0.344091167234  0.571717509222  
4.61870098114  -1.13551857855  0.114954907097  -0.161054543543  0.112315412272  -0.349633681265  0.575389878859  
4.62683010101  -1.14160592493  0.120668966506  -0.169378583643  0.128088724803  -0.357036859941  0.579171055669  
4.63484501839  -1.14770852806  0.125190392433  -0.176953224366  0.144816813423  -0.365119058095  0.580649847655  
4.64299106598  -1.14820645927  0.128583704787  -0.183157445406  0.160338890931  -0.370803271216  0.57920270272  
4.65114998817  -1.15190216489  0.130915417339  -0.189323001592  0.175643502349  -0.378205562361  0.578238145226  
4.65920996666  -1.15334299477  0.13225347006  -0.194782922313  0.190652400011  -0.385659938938  0.576138515448  
4.66737699509  -1.15867385566  0.13266669667  -0.200189831681  0.206286944892  -0.394602985766  0.57697041568  
4.67545700073  -1.16357394512  0.132619994725  -0.205831036772  0.221410188359  -0.403376628727  0.577329050997  
4.68347597122  -1.16884330867  0.132149197038  -0.211337186163  0.235967890558  -0.411939471902  0.578041704481  
4.69166898727  -1.17123170841  0.130894667502  -0.216052055311  0.248922019543  -0.418767741255  0.57749045075  
4.69975805283  -1.17891991847  0.129716161694  -0.222220729299  0.263290936084  -0.427423287456  0.578155905229  
4.7077331543  -1.18068692235  0.127823990346  -0.227163244083  0.275901629316  -0.433249677929  0.575974239323  
4.71580696106  -1.18415568316  0.125285256413  -0.232524040684  0.288794727794  -0.438908491864  0.573558970679  
4.72392916679  -1.19634775853  0.122561209484  -0.240765845503  0.303851345132  -0.447351910893  0.572529566747  
4.7320189476  -1.20933588997  0.119287870986  -0.250033538854  0.31981860546  -0.455337365576  0.571991970927  
4.74009513855  -1.21500520599  0.115528179469  -0.257345867154  0.3325612855  -0.460867989666  0.567945753727  
4.74818897247  -1.22744073116  0.111343229294  -0.268497058225  0.349189897908  -0.469056651335  0.567032899754  
4.75630998611  -1.23368406272  0.106792011712  -0.27806436159  0.362360441316  -0.474689718448  0.563464440008  
4.76453208923  -1.24493866327  0.101931211951  -0.290850919567  0.378207340211  -0.48140008765  0.560640940827  
4.77269101143  -1.25197707082  0.0968150363637  -0.302419813222  0.392459446046  -0.486088518259  0.556142953823  
4.78081607819  -1.25707542807  0.0918907349061  -0.31437378326  0.406143251681  -0.489874178751  0.5501281165  
4.78885817528  -1.27310797267  0.0883604469726  -0.33261426503  0.425166116597  -0.497760450958  0.546717049278  
4.79685115814  -1.28916211423  0.0853467876711  -0.351799376755  0.445030283849  -0.504919192499  0.541763631972  
4.8049530983  -1.30513594197  0.083223977658  -0.372368931316  0.465546906092  -0.511857878586  0.536211229623  
4.81304311752  -1.32093653479  0.0819358740241  -0.394719762236  0.486538162031  -0.51805485774  0.530140704438  
4.82118105888  -1.33608063588  0.0810303761808  -0.418258533843  0.506845334189  -0.524024906312  0.523630111618  
4.82928609848  -1.34972793175  0.0804833795153  -0.442746706225  0.527386986147  -0.529748704161  0.51754699043  
4.83737516403  -1.36190995364  0.080665744987  -0.468591079291  0.546034508152  -0.535209745797  0.511102988483  
4.84540295601  -1.37226620999  0.0815199268934  -0.495525979278  0.564801845553  -0.540394530549  0.505159049446  
4.85355615616  -1.38007688023  0.0825929872491  -0.522351245866  0.583563501186  -0.543805243823  0.498920333279  
4.86173701286  -1.38588976906  0.0842565466388  -0.549857124319  0.60220327008  -0.546549735769  0.493241504586  
4.86973500252  -1.39022244027  0.0864546452303  -0.577820092952  0.621606294402  -0.548662840613  0.488114256856  
4.87786912918  -1.39276430989  0.0891321413351  -0.606031089612  0.642584321382  -0.549684672493  0.482734634845  
4.88588809967  -1.39323997469  0.0922350132945  -0.633979764048  0.662902335964  -0.549197884663  0.477155427591  
4.89399814606  -1.39140832965  0.0957111625369  -0.661828951879  0.68347653708  -0.548314063303  0.471426906077  
4.90208411217  -1.38745984166  0.0991145516928  -0.689097175716  0.705150766626  -0.546078098529  0.46559607664  
4.91020298004  -1.38158326235  0.102429494917  -0.715344275039  0.726713760776  -0.542113181208  0.459707220374  
4.9182741642  -1.36631470959  0.10874108305  -0.765664747046  0.769016556313  -0.532478541417  0.447916448769  
4.92656612396  -1.35522406048  0.11131984755  -0.78766119376  0.789539141951  -0.526498823669  0.442087420527  
4.93459796906  -1.34216265215  0.113798581526  -0.808433853402  0.809516005301  -0.51969795285  0.436346153361  
4.94272899628  -1.32736457902  0.115774021226  -0.827316349865  0.828865507281  -0.512181955471  0.430721328144  
4.95072007179  -1.31065798713  0.117272952558  -0.844970127646  0.847516425768  -0.504548602435  0.42444586504  
4.95877194405  -1.29189609479  0.118718729322  -0.8616975604  0.865407034357  -0.496358817331  0.417609175923  
4.96686196327  -1.27135480521  0.119710860794  -0.877466376913  0.882485302991  -0.487706512516  0.410297123396  
4.97493910789  -1.24929985664  0.120278382283  -0.892252927915  0.898708283332  -0.478681394993  0.40179903814  
4.98308610916  -1.22518850491  0.120846215319  -0.906674193283  0.914041855207  -0.468376953189  0.393052803926  
4.99113416672  -1.19932992141  0.121015538139  -0.920352701712  0.929451082138  -0.457452192687  0.383338923332  
4.99928402901  -1.17202026148  0.120816028404  -0.932945024917  0.943843114675  -0.445527421864  0.372792761613  
5.00742101669  -1.14354178925  0.120277557655  -0.944773371521  0.95720752341  -0.433249865103  0.362337355813  
5.01540398598  -1.1141619266  0.119034301459  -0.955507205482  0.969541126294  -0.420227551623  0.350444541398  
5.02360010147  -1.08453164691  0.117148667431  -0.965796896302  0.982830154054  -0.406599103495  0.338092741843  
5.03161501884  -1.05405718541  0.114682229378  -0.975297110843  0.995926679439  -0.392000481535  0.325394308748  
5.03974509239  -1.02259448062  0.111695386308  -0.983062120435  1.00678171027  -0.376597592074  0.312454976182  
5.04781794548  -0.991212870321  0.108247078715  -0.989810331137  1.01649295656  -0.361044083024  0.298580659674  
5.0558860302  -0.959702188279  0.104394535935  -0.995894898104  1.02508898977  -0.34495262446  0.284723125415  
5.06400799751  -0.927869498642  0.100193053739  -1.00132959065  1.03359441012  -0.328464834959  0.270174031685  
5.07210016251  -0.895937373991  0.0953003202533  -1.00581468411  1.04097213136  -0.312209520396  0.255870441457  
5.08019208908  -0.863713125162  0.0901958269977  -1.00971247804  1.04726402793  -0.295773874633  0.241882125633  
5.08832812309  -0.83102090375  0.0849277225515  -1.01272831885  1.05350653624  -0.279273890147  0.227478334635  
5.09638500214  -0.798897104878  0.0791459286944  -1.01522754282  1.06065618311  -0.262816891288  0.213573790581  
5.10442113876  -0.766699806009  0.0729260053893  -1.01660280515  1.06760684129  -0.246501788683  0.199422989343  
5.11267209053  -0.734634526935  0.066340759846  -1.01693269382  1.0733393706  -0.230418841114  0.185132840506  
5.12077403069  -0.702491529328  0.0594594299577  -1.01566445188  1.07692130994  -0.21464985933  0.171595827398  
5.12878894806  -0.670476347262  0.0519522356411  -1.01324540278  1.07948879473  -0.198772662571  0.158044599306  
5.13687109947  -0.63917632085  0.0435186745837  -1.00977964334  1.08011331806  -0.183389869614  0.144564330078  
5.14490604401  -0.608331715691  0.0342829889899  -1.0053698524  1.07894177916  -0.168062924593  0.131233188528  
5.15299797058  -0.578497149041  0.0243647788188  -0.999800712282  1.07711217209  -0.152882602653  0.118915454502  
5.16111111641  -0.549779429039  0.0134833001228  -0.99288042854  1.0727043275  -0.137931751576  0.106815859222  
5.16916203499  -0.522668831726  0.00178067014717  -0.984440760483  1.06693702302  -0.122789671738  0.0949925274904  
5.17731595039  -0.497208811376  -0.0110023863643  -0.974019612095  1.06193432861  -0.108060863025  0.0834974046784  
5.18553709984  -0.473429271437  -0.0243068178165  -0.961835829055  1.05766805963  -0.0933090087253  0.073169471185  
5.19345402718  -0.45094873867  -0.038009723973  -0.948417947681  1.05311614592  -0.0796188212949  0.0623960637537  
5.20168709755  -0.430204514329  -0.0519951110867  -0.933313126956  1.04832905071  -0.0664972308276  0.0520716492352  
5.20966315269  -0.410792066308  -0.0665497173631  -0.91642951801  1.04335465452  -0.0539815171824  0.0430186121474  
5.21776914597  -0.393127014583  -0.0823301770737  -0.897377208018  1.03922975842  -0.0421023351707  0.0344013922749  
5.22585701942  -0.376386228935  -0.098352456097  -0.876127545927  1.03294002434  -0.0303883173986  0.0262395988969  
5.23395299911  -0.361398980474  -0.11489357258  -0.852666747101  1.02568375749  -0.0193950166598  0.0185485400057  
5.24201011658  -0.348520843001  -0.131810594853  -0.826996007275  1.0175810942  -0.00913475235254  0.0113394131681  
5.25010609627  -0.337269422854  -0.149364995346  -0.799129777584  1.00874803821  0.000385692819166  0.00461955511774  
5.25820803642  -0.328385407908  -0.167398350056  -0.769411363013  0.997313357044  0.00866896394191  -0.00160730406424  
5.26634216309  -0.321341676285  -0.185761351729  -0.737537163242  0.984541260765  0.0167510394498  -0.00734078411238  
5.27445411682  -0.316039062618  -0.204710088105  -0.703871983448  0.970614917106  0.0236060479672  -0.0117904923242  
5.28259396553  -0.312773939954  -0.224081489207  -0.668447671366  0.954718996645  0.0297823277392  -0.0158215252564  
5.2907140255  -0.311408334085  -0.243722496728  -0.631620757695  0.937105013067  0.0347985701737  -0.0194414114717  
5.29871606827  -0.311803351511  -0.26388574143  -0.593096218513  0.917024390153  0.0392093539363  -0.0218664944612  
5.30677509308  -0.3138197675  -0.284405543858  -0.553245034674  0.895784494992  0.0425386415879  -0.0231744212487  
5.31484913826  -0.31771790932  -0.304731368715  -0.512734008098  0.873607229043  0.0448496950614  -0.0226508514135  
5.32294797897  -0.322928806367  -0.324752080053  -0.472181828708  0.849711735851  0.0467029069483  -0.0212341171343  
5.33102893829  -0.329318269085  -0.344366902841  -0.431843434338  0.825370962136  0.047626748499  -0.0182093005281  
5.33920001984  -0.336755141394  -0.363090294323  -0.39258495  0.798787958352  0.0476875109251  -0.0137199675579  
5.34728097916  -0.345510478411  -0.380875210014  -0.354882342326  0.771292972043  0.0469518193831  -0.00790767250979  
5.35539197922  -0.355028978487  -0.397288442073  -0.319165320285  0.743127627679  0.0454860707195  -0.000118244527545  
5.36356806755  -0.365192378765  -0.412334568875  -0.2858175387  0.71551008919  0.0433560390366  0.00944667195055  
5.37163710594  -0.375887526197  -0.426421988971  -0.254229489797  0.686586560303  0.0416178973498  0.0197967652419  
5.37978816032  -0.387006658781  -0.439537706437  -0.224460695816  0.658620701118  0.0392606912396  0.0315997415332  
5.3877120018  -0.398447933305  -0.451280076561  -0.196871151404  0.631711790874  0.0368427417053  0.0438766342783  
5.39568901062  -0.41011522828  -0.46207846584  -0.170830539454  0.60594481124  0.0338881133132  0.0573073556805  
5.40378713608  -0.422317289514  -0.472334631752  -0.14606368722  0.580399769221  0.0309524701459  0.0709260542675  
5.41187596321  -0.434139636972  -0.4808404028  -0.122942792926  0.555217850289  0.0275569009191  0.0838404474961  
5.41998505592  -0.444342443369  -0.48728331312  -0.101168010678  0.530527271339  0.0242538482688  0.0968180990932  
5.42807197571  -0.45577830032  -0.494156553831  -0.0810835586261  0.508425823297  0.0210566639327  0.11056654903  
5.43619513512  -0.469476446589  -0.502175344311  -0.0633139353871  0.488849729979  0.0169856865936  0.126527023551  
5.44424295425  -0.483183276883  -0.509618921203  -0.0474755580954  0.469741882913  0.0131252480255  0.142049509956  
5.45242810249  -0.497211533222  -0.516881116335  -0.0335163343049  0.453167088704  0.00898733775373  0.157864465007  
5.46067500114  -0.511050677594  -0.523535475706  -0.0213774947828  0.437048948956  0.00412346085169  0.173851211885  
5.46880102158  -0.525027992007  -0.529192190938  -0.011625394982  0.421452034261  -0.00137986326969  0.189103924003  
5.47686100006  -0.538647388771  -0.534289422677  -0.00350290576156  0.408415366925  -0.00743883185354  0.204378109297  
5.4848151207  -0.551852087849  -0.538047658751  0.0027491078831  0.397821237275  -0.0134769158627  0.219577338366  
5.492800951  -0.564592408495  -0.540547469737  0.00723721068213  0.387563027059  -0.0199540079167  0.234612933667  
5.50089406967  -0.576825224467  -0.541475736941  0.00975394675796  0.378669592857  -0.0267958519183  0.249404413693  
5.50894498825  -0.588115469554  -0.540948490463  0.0107527843415  0.371090343917  -0.0339316614512  0.264671870475  
5.51713609695  -0.598466116842  -0.538686517243  0.0103449177831  0.365761593537  -0.0407985377754  0.279490674303  
5.52519512177  -0.607885950743  -0.53523398344  0.00864254596775  0.361550390254  -0.0478704851293  0.293803618881  
5.53328108788  -0.615990136176  -0.530704770252  0.00575673093403  0.358396055833  -0.0550877159375  0.308354085643  
5.54155898094  -0.622830478434  -0.524815096937  0.00211277379297  0.355244835731  -0.0623941513283  0.321447303032  
5.54961895943  -0.628064008096  -0.518498073051  -0.00220699836526  0.353107275399  -0.0697374197568  0.333907982538  
5.5577609539  -0.632181576305  -0.511430656392  -0.00775572270242  0.35092663268  -0.0770691716195  0.344914973535  
5.56573700905  -0.634447036645  -0.504110611593  -0.0137710809509  0.349711106849  -0.0838490995793  0.354512754395  
5.57384395599  -0.635388681974  -0.496207349109  -0.0208118846384  0.349393473868  -0.0905736161857  0.3627511469  
5.58188009262  -0.634704931632  -0.48821065894  -0.0281225371475  0.348914527574  -0.0972053123366  0.369684395656  
5.59000396729  -0.632924717759  -0.480177642368  -0.0356366698933  0.348289794398  -0.103214445604  0.374577827963  
5.59808015823  -0.629745613304  -0.471765319004  -0.043608189932  0.349517138204  -0.108612106904  0.378352477694  
5.60610413551  -0.625296018024  -0.463450993618  -0.051951664655  0.351453904419  -0.112916570278  0.381071815391  
5.61421704292  -0.613087390502  -0.446529585973  -0.0703590571474  0.358179740552  -0.120421546069  0.382812449483  
5.62234306335  -0.605572315418  -0.438426413649  -0.0805377872489  0.3627555536  -0.123123672012  0.382033237832  
5.63038516045  -0.596874696637  -0.430604027334  -0.0913200641509  0.368689983272  -0.125347438953  0.379736287463  
5.63862705231  -0.587140394077  -0.422693706162  -0.102592380861  0.374849402714  -0.127116210101  0.376846734162  
5.6467320919  -0.576510312057  -0.414751354324  -0.114562792335  0.382169429164  -0.127958638095  0.372635466437  
5.65473413467  -0.56551850701  -0.4068287598  -0.127102818997  0.391505966737  -0.128436973582  0.366438078098  
5.66285800934  -0.553464162801  -0.398182608329  -0.140407301  0.402644577008  -0.128080946213  0.359240130276  
5.67093896866  -0.540903164794  -0.389318170729  -0.154017886914  0.413393460356  -0.127453197699  0.351164177523  
5.67898607254  -0.527952749311  -0.379516483911  -0.168459000335  0.424707403938  -0.126083060304  0.342328511596  
5.68708395958  -0.513926475494  -0.369306395872  -0.183260309907  0.435480993797  -0.124036640644  0.332846955453  
5.6951520443  -0.49979194087  -0.358387719999  -0.19925025566  0.445689239833  -0.121379142644  0.322035403892  
5.70324516296  -0.48524680891  -0.347278511437  -0.215921019022  0.456304043654  -0.118670191384  0.310064168255  
5.71129608154  -0.470413217268  -0.336062730828  -0.233748198428  0.467228015875  -0.11543493839  0.29789069257  
5.71945214272  -0.455405637657  -0.324818272433  -0.252215514457  0.478369345714  -0.111734292496  0.284813187605  
5.72762608528  -0.440729357754  -0.3132214971  -0.271158987858  0.490633380137  -0.107627354364  0.271776064269  
5.73577094078  -0.426449785068  -0.302163045219  -0.290107070261  0.503856896732  -0.10317115859  0.258064062228  
5.74371695518  -0.412226046601  -0.290878491704  -0.309574828239  0.516891946069  -0.0989161697863  0.24381463906  
5.75178909302  -0.398142167436  -0.27985086611  -0.329084583039  0.53066346935  -0.0943775221303  0.22995107288  
5.75990700722  -0.384673336887  -0.269128885633  -0.348511949332  0.543046204173  -0.0896053782487  0.215736410894  
5.7680079937  -0.371855347046  -0.259150857548  -0.367426290621  0.556053732446  -0.084151797823  0.201286094952  
5.77607798576  -0.359318800855  -0.249129846776  -0.386382882726  0.568565554381  -0.0790948822394  0.18670811822  
5.78419399261  -0.347119458472  -0.239527008397  -0.404312329974  0.579551044196  -0.0739396015925  0.17210288261  
5.79224014282  -0.33530696085  -0.230369512884  -0.421815153886  0.592034576672  -0.0687255614293  0.157563164864  
5.80032896996  -0.323924601499  -0.221679446872  -0.438815774784  0.603839797351  -0.0639853785715  0.14396723476  
5.80846405029  -0.313009642931  -0.213870129893  -0.454931303404  0.614945958375  -0.0597117225331  0.131326123156  
5.81666111946  -0.302194931177  -0.206526209474  -0.470446649183  0.62533838854  -0.055399214809  0.118058264806  
5.8246691227  -0.29193841205  -0.200052596692  -0.485627814875  0.636990651566  -0.0510776092978  0.105880482096  
5.83277416229  -0.282260443947  -0.194026458465  -0.499458967971  0.646758696606  -0.0467744382248  0.0939908897843  
5.84082102776  -0.273574810324  -0.188450437906  -0.51322290249  0.656710731942  -0.0425149820107  0.0832339727201  
5.84893798828  -0.265858415305  -0.183324019315  -0.525891549666  0.664788067136  -0.0383222871573  0.0727955178786  
5.85702204704  -0.258685291693  -0.178248826769  -0.537471700591  0.672077350805  -0.0342171966118  0.0627155473178  
5.86506009102  -0.252057672826  -0.173647841046  -0.547343466698  0.678594576862  -0.0297227020661  0.0538219035824  
5.87316894531  -0.246771687474  -0.169512649328  -0.557790174935  0.685350605161  -0.0253925902991  0.0452846455987  
5.88128495216  -0.242357331094  -0.165832944895  -0.567438580647  0.691293644709  -0.0217366999361  0.0371290497524  
5.88936495781  -0.238774406107  -0.162596208898  -0.57629049973  0.696449854637  -0.0177340368265  0.0301692137713  
5.89766097069  -0.23598060771  -0.159787959762  -0.584036933326  0.70183959737  -0.0139319931772  0.023562460571  
5.9057071209  -0.233931924422  -0.157392550119  -0.591031665551  0.707411443329  -0.0108343165638  0.0181154439911  
5.91373801231  -0.232583321102  -0.154997320767  -0.596973954399  0.713116668836  -0.00741420772431  0.0129788900704  
5.92178916931  -0.231888820654  -0.153012394489  -0.6015922501  0.717918126319  -0.00470924214208  0.00895363216924  
5.92992305756  -0.231403332851  -0.15102297138  -0.60496092584  0.721856108297  -0.00218506759294  0.00597843891695  
5.93794798851  -0.231113619553  -0.14904153927  -0.606840289542  0.724973203235  0.00015671449021  0.00399010996866  
5.94604206085  -0.231404810455  -0.147475441194  -0.607649694461  0.727313788959  0.00231572716635  0.0029245230146  
5.95418405533  -0.231831497564  -0.146302181041  -0.607151223055  0.728923618271  0.00429275728045  0.00350976287398  
5.96224212646  -0.232779109713  -0.145498360129  -0.605449574248  0.728858049981  0.00608966023248  0.00402788576246  
5.97037696838  -0.234599879783  -0.145040472764  -0.602648623177  0.7282388691  0.00820495459543  0.00606698882165  
5.97846794128  -0.237214839024  -0.14529998472  -0.598534751081  0.726121583163  0.0101051356646  0.00949644098171  
5.98672294617  -0.240546008605  -0.146219617793  -0.593235305805  0.722635571223  0.0117950757211  0.0133937674936  
5.99471402168  -0.244517202396  -0.147742417099  -0.58687531369  0.718900106985  0.013776295022  0.0184916541981  
6.00285816193  -0.249452612926  -0.149416441437  -0.580209000726  0.714957807783  0.015022537023  0.02466530351  
6.01092195511  -0.255246776192  -0.151615197595  -0.572985130203  0.710849202018  0.0160787479086  0.0309997814604  
6.01901912689  -0.261398437091  -0.153888848094  -0.565608153247  0.706612704129  0.0174488449881  0.0382363315717  
6.02703404427  -0.268240252585  -0.156217439553  -0.55813586068  0.702284540256  0.0176129214571  0.0454668044907  
6.03513002396  -0.275676200826  -0.158582067414  -0.550622035556  0.69889007106  0.0176548652706  0.0526468852123  
6.0431470871  -0.283215470903  -0.160569962039  -0.543116820797  0.695386569881  0.0175839620467  0.0605290200719  
6.0512919426  -0.290404502186  -0.162593483172  -0.535349882317  0.691804184051  0.0164180347002  0.0682167276098  
6.05933713913  -0.298023169196  -0.165032623886  -0.527389267838  0.689162560067  0.0147450458229  0.0756773290979  
6.06744194031  -0.305193542426  -0.167840188884  -0.518667475083  0.685422556944  0.0126146843334  0.0828821499908  
6.07545900345  -0.311507332843  -0.170574670398  -0.509297971365  0.681683815045  0.0105713696621  0.0905992686657  
6.08370494843  -0.317789063715  -0.173224742135  -0.499705268529  0.677969416721  0.00812537153808  0.0979481182699  
6.09177112579  -0.324002190371  -0.175780322018  -0.489966352815  0.674300621346  0.00482741308818  0.105704714069  
6.09969496727  -0.330113471291  -0.177837588358  -0.480785257978  0.669705377377  0.00175545021819  0.113789305639  
6.10795211792  -0.336092970195  -0.179422429915  -0.472175804046  0.666266636117  -0.00208030502436  0.122126101333  
6.11591696739  -0.341913707954  -0.180561499208  -0.464463124454  0.662924807003  -0.00659672059893  0.13064392247  
6.12401294708  -0.347950499485  -0.180886853071  -0.457625867283  0.658701760739  -0.0112173242313  0.140068937106  
6.13218307495  -0.354149217983  -0.180855279513  -0.451322075299  0.656666003709  -0.0159053131269  0.151065221662  
6.14026904106  -0.360458722394  -0.180494524531  -0.445549444055  0.654677903044  -0.0211220444241  0.163442739682  
6.14833712578  -0.366432624939  -0.180228045791  -0.439354181289  0.652745969662  -0.0267941211734  0.176224180571  
6.1564309597  -0.372458491936  -0.17965472615  -0.433123928966  0.650877835489  -0.0328508928044  0.19009204611  
6.16454410553  -0.37849491056  -0.178801734095  -0.426584121889  0.649080143944  -0.0392249904007  0.204082713336  
6.17275094986  -0.384105062054  -0.177696075934  -0.41948320483  0.64735858544  -0.0458522128091  0.218893001657  
6.18068909645  -0.389685716639  -0.176364414733  -0.41190898003  0.644726559051  -0.0526717716701  0.234367251117  
6.18876314163  -0.395204549137  -0.17443689836  -0.403945484803  0.642262395562  -0.0596263113754  0.249564912168  
6.19688296318  -0.400632101287  -0.171576244432  -0.395988902166  0.6389770481  -0.0661665874849  0.26599911699  
6.20495605469  -0.405941768338  -0.168268103523  -0.387771575493  0.634954594575  -0.0732755059803  0.281092805067  
6.21304297447  -0.411109742671  -0.164567960828  -0.379048850636  0.629285942437  -0.079873482984  0.295649299197  
6.22114109993  -0.416115036885  -0.160529031527  -0.36928195037  0.62213391852  -0.085959161874  0.309619846908  
6.22927713394  -0.421337646807  -0.156202687462  -0.358928681875  0.614649451761  -0.0920301328965  0.323756460075  
6.23743510246  -0.426728401839  -0.151638096503  -0.347466809563  0.605913590834  -0.098545666503  0.337958408982  
6.24545907974  -0.432639407415  -0.146882273315  -0.334737434509  0.595086175857  -0.104439462228  0.352132602942  
6.25366806984  -0.439392138983  -0.141979400022  -0.320917950543  0.584379567761  -0.110714419862  0.366986178914  
6.2617790699  -0.446879361424  -0.137366804734  -0.305546446345  0.571868134458  -0.11730215621  0.381581278625  
6.2697930336  -0.455396200087  -0.132655132939  -0.289471196946  0.558760988373  -0.124633092791  0.397433379094  
6.2778339386  -0.464411354234  -0.12788148196  -0.272530594638  0.544194426534  -0.133595529439  0.414346602238  
6.28594994545  -0.474228680434  -0.123080110449  -0.25489695439  0.52936338444  -0.14400715003  0.432926678257  
6.29400515556  -0.483529219651  -0.11788749625  -0.237049975066  0.512397862139  -0.154699446411  0.45134272539  
6.30212497711  -0.494288200628  -0.11276169668  -0.218800677467  0.494560119097  -0.167566944416  0.47266546711  
6.31020307541  -0.501941285387  -0.107333890925  -0.200609899455  0.476028659474  -0.178891313319  0.490192432576  
6.31838107109  -0.524879642868  -0.0957978195779  -0.16451194432  0.438458433203  -0.209585792616  0.538397455805  
6.32637810707  -0.53654138751  -0.0897949767059  -0.14681976211  0.418737124796  -0.226427044407  0.564248888081  
6.33459711075  -0.547156360011  -0.0833052732718  -0.129906030781  0.398938988138  -0.243033936527  0.589349931229  
6.3425359726  -0.559131393865  -0.0764067628574  -0.11381542179  0.379192790105  -0.260808574793  0.615188981558  
6.35063910484  -0.566706404975  -0.0695694817305  -0.098267477721  0.358625787668  -0.275584658728  0.635203800637  
6.35872006416  -0.571371397021  -0.0624354818938  -0.0836329995958  0.338420678518  -0.288494360548  0.651307929176  
6.3668410778  -0.581693891316  -0.0526991872176  -0.0718303790973  0.31867485595  -0.306046259909  0.674015252235  
6.37497901917  -0.592388042022  -0.0418093302752  -0.0617640364781  0.299475235025  -0.324797420316  0.697914443422  
6.38308501244  -0.605749834485  -0.02794556675  -0.0549435154761  0.2808985005  -0.348503556224  0.727522751389  
6.39108705521  -0.617902035173  -0.012611125166  -0.0498941771008  0.262020326575  -0.372172018583  0.756661944641  
6.39917802811  -0.628065722455  0.00398437150398  -0.0468257552118  0.243972608041  -0.395162824706  0.785187189562  
6.40732216835  -0.636332078148  0.022035673218  -0.0452879302092  0.226802971334  -0.417385835692  0.81296908034  
6.41534209251  -0.642797082794  0.0413177382275  -0.0448554283015  0.209558452666  -0.438267021817  0.839099766337  
6.42339110374  -0.647161872746  0.0616151438065  -0.045760987872  0.192351842168  -0.45778089996  0.861959127953  
6.43145608902  -0.649562370451  0.0827232580071  -0.0472632743854  0.176278380858  -0.474921203023  0.884038134336  
6.43974614143  -0.650136120246  0.104843595394  -0.0499390082396  0.160358566211  -0.490757015192  0.903674563371  
6.44780802727  -0.648622845755  0.127760107276  -0.0533644580516  0.144679224177  -0.504795686263  0.920935876564  
6.4557390213  -0.645592507585  0.1512689181  -0.0574601375818  0.129319014442  -0.51659395901  0.936692415285  
6.46384215355  -0.640384473688  0.175573595808  -0.0621489619793  0.114348509222  -0.526748084556  0.950170162402  
6.47194004059  -0.633200123046  0.200066035923  -0.0667234582911  0.0998303830341  -0.535322703664  0.962255390791  
6.47999596596  -0.623838855858  0.22497507867  -0.0711644332605  0.0858196367673  -0.541891614861  0.972188296823  
6.4881670475  -0.612129223705  0.250113788778  -0.0751387100586  0.0723638519834  -0.54607393525  0.980867200802  
6.49620509148  -0.59752895199  0.27491281296  -0.0777094394701  0.0595034715356  -0.548524725112  0.985956342192  
6.50437307358  -0.580353021799  0.299244557282  -0.0786535840693  0.0472721027137  -0.548371851615  0.988495730452  
6.51245594025  -0.560908003886  0.322598782878  -0.0780910741141  0.0356968392865  -0.545818230914  0.987874655234  
6.52048897743  -0.539092133758  0.345697335604  -0.0755111543248  0.0218244738827  -0.541066180971  0.98434213157  
6.52881503105  -0.515224857602  0.367625595332  -0.0710855794508  0.00790208626077  -0.533820180065  0.977353165213  
6.53677105904  -0.489215055136  0.387547472271  -0.0643523194876  -0.0079627259425  -0.524318783089  0.966426287549  
6.54483699799  -0.461390388162  0.405890301209  -0.0564807576911  -0.0255207320845  -0.512796059351  0.951935002163  
6.55292701721  -0.431665938418  0.422267354377  -0.0472916589421  -0.0445314969598  -0.499480454144  0.934245811677  
6.56098294258  -0.399975099369  0.436729737348  -0.0369444172429  -0.0637729505544  -0.48459380729  0.913716940712  
6.56905508041  -0.367065744081  0.44894065303  -0.0259086838022  -0.0840989594031  -0.468350396447  0.89069624646  
6.57720303535  -0.332838202466  0.458998876792  -0.0139904569211  -0.105299223482  -0.450956471389  0.864726990924  
6.58532500267  -0.297208623927  0.467009275272  -0.00133220576695  -0.125191617376  -0.432113632302  0.836199061759  
6.59366106987  -0.26050708339  0.473081100943  0.0116140701914  -0.145736714617  -0.413042666756  0.804695235032  
6.60168194771  -0.223044527929  0.477327158307  0.0247456267475  -0.165765073929  -0.391896984365  0.771435141868  
6.60980296135  -0.185112627837  0.479862827938  0.0373346169691  -0.186183885665  -0.369960147709  0.736761637305  
6.61784696579  -0.147381852062  0.480409672841  0.0493452503812  -0.205844691452  -0.347925501324  0.700206575118  
6.62594413757  -0.110070870609  0.479118667365  0.060116013091  -0.224684318626  -0.324946075775  0.662142881578  
6.63408017159  -0.0733786521847  0.475744838523  0.0696765339904  -0.240666822775  -0.301237790531  0.623717055163  
6.64208602905  -0.0374849245145  0.471261934747  0.0771127552574  -0.255897317783  -0.277500082281  0.584402683733  
6.65012216568  -0.00255045997656  0.465388459551  0.0828597101656  -0.268357121474  -0.253387023999  0.544512732302  
6.65825796127  0.0312823121813  0.458664274626  0.0866964501022  -0.2801665968  -0.229572994884  0.505132601162  
6.66637897491  0.0646860530398  0.451197004048  0.0890634979914  -0.289320311498  -0.206182638096  0.465674110906  
6.67450404167  0.0974868195923  0.443486534277  0.0900597224165  -0.2969587615  -0.183328256582  0.425595120953  
6.68269705772  0.130723582981  0.435994926909  0.0894690139196  -0.303152325129  -0.161110108001  0.385985637562  
6.69068908691  0.164554884736  0.428751721912  0.0880502564174  -0.30698335141  -0.138129656371  0.346262034848  
6.69880008698  0.198325972389  0.420991642356  0.0861933901719  -0.309602773233  -0.114588627092  0.30826590555  
6.7068631649  0.233027677074  0.413594068897  0.0836270749974  -0.310097084094  -0.0901810728793  0.271306005707  
6.71496701241  0.267176613631  0.405785694513  0.0810552618686  -0.308628123281  -0.065125644457  0.23553126131  
6.72301506996  0.302198024482  0.398042302717  0.0781778558922  -0.305357421409  -0.0396282589944  0.201071734931  
6.73112916946  0.336611081387  0.390406942459  0.0750364201291  -0.300445153323  -0.0138814064823  0.167246124371  
6.73928403854  0.373039516838  0.38370976204  0.0716702122707  -0.295040530436  0.0139183806011  0.133422028363  
6.7473180294  0.408709357608  0.377128416552  0.068118316676  -0.288224111012  0.0424479282605  0.0998093960469  
6.75541496277  0.442262143902  0.36990375759  0.0641020537551  -0.28014773893  0.0709777340764  0.0666003196161  
6.76350307465  0.47046509101  0.360943902077  0.0599996510436  -0.270959359794  0.0968523059819  0.0355557964209  
6.77174401283  0.49355822824  0.350439091544  0.0558432829698  -0.260802336606  0.12011698879  0.00670060419511  
6.77965903282  0.511794890587  0.338574471116  0.0516629392086  -0.249814915616  0.140829979463  -0.0199561028229  
6.78777599335  0.529823436785  0.327506823835  0.04748430389  -0.23812976539  0.162034824543  -0.046798838267  
6.79581904411  0.576645931419  0.328713246229  0.0388971469162  -0.228847706732  0.201406272845  -0.0998182130243  
6.80388402939  0.623032448567  0.330159723159  0.0294682867319  -0.218865887248  0.240437886003  -0.155241696982  
6.81204509735  0.668727130217  0.331422023337  0.0193223700727  -0.208300385022  0.279408276301  -0.213330118432  
6.8200750351  0.712702799298  0.332506766472  0.00857804310307  -0.198253377582  0.318575920379  -0.273516186157  
6.82817101479  0.754022635417  0.333025526238  -0.00265117440751  -0.187755767241  0.356691129392  -0.332884170426  
6.8363070488  0.793034891163  0.332623516262  -0.0139415906874  -0.175916348128  0.394094626837  -0.393508203462  
6.84437799454  0.82927804341  0.331374685371  -0.0252182561203  -0.164895271664  0.430113833493  -0.454914624063  
6.85259699821  0.862741966389  0.328957048827  -0.0360958948495  -0.153706278291  0.464632593968  -0.517454461129  
6.86070513725  0.893434784879  0.325080476013  -0.0462214106273  -0.142431789103  0.497057432101  -0.579065503403  
6.86874103546  0.920583861888  0.319882632265  -0.0559064764391  -0.131148426579  0.527349594074  -0.639437322653  
6.87673211098  0.94429572325  0.313498170379  -0.0648091209937  -0.119926919947  0.554990921076  -0.698291369728  
6.88485002518  0.964690016903  0.305663363652  -0.0729343383899  -0.109823496613  0.580015678963  -0.754587038143  
6.89290809631  0.981897695784  0.296539410995  -0.0802920451172  -0.0988313973433  0.602967251811  -0.808966386652  
6.90103197098  0.995262179957  0.285887550288  -0.0868957823336  -0.0880790780537  0.623368463165  -0.860447730785  
6.90906906128  1.00539733615  0.274287965142  -0.0930794343657  -0.0786061104742  0.641290628751  -0.908936426667  
6.91719102859  1.01249107009  0.261490598411  -0.0988368811348  -0.069380675536  0.65681495109  -0.954363809914  
6.92532396317  1.01593812682  0.247668216384  -0.104165470878  -0.05944938055  0.670031305633  -0.99509949405  
6.93364500999  1.01639886328  0.232590347383  -0.109696999286  -0.0499199733212  0.681036732246  -1.03284078504  
6.94157195091  1.01410218826  0.216448023635  -0.115065352757  -0.0408204771016  0.689934553976  -1.06679288764  
6.94967412949  1.00887798585  0.199424267396  -0.120566012587  -0.0321740013906  0.697328841784  -1.09783224414  
6.95768594742  1.00098574089  0.181692994226  -0.12615440014  -0.0239990495767  0.703290453152  -1.12519925539  
6.96580004692  0.991080280691  0.163419379915  -0.132105175035  -0.0173011341822  0.707893603112  -1.14980218069  
6.97389817238  0.97937940988  0.145154435673  -0.138037590702  -0.0110158642995  0.711710864009  -1.17170293641  
6.98200511932  0.966095048863  0.126615417534  -0.143283906405  -0.00415877845906  0.714283899208  -1.19256140476  
6.99003911018  0.951831207803  0.108333945306  -0.148181119  0.00219186509597  0.716188979484  -1.21153617135  
6.99815106392  0.937151114645  0.0904037184854  -0.152409978804  0.00803589141465  0.717466168705  -1.22865564283  
7.00624394417  0.909353089376  0.0559237200758  -0.157123935939  0.0173108679054  0.718796300651  -1.25596832659  
7.01447796822  0.896724275189  0.0395146039373  -0.157455516444  0.0217469637765  0.718890486514  -1.2671201241  
7.02251195908  0.886285995427  0.0237385683231  -0.15646750696  0.0247123135367  0.71947196701  -1.27905804464  
7.03054404259  0.877534547191  0.00864439429813  -0.154268482507  0.0272939885793  0.720003687238  -1.28926797989  
7.03870511055  0.865610116765  -0.00533168014699  -0.151282543149  0.0295058189516  0.717512058269  -1.29306194589  
7.04669308662  0.858007398868  -0.018585333217  -0.147272899173  0.0303714145928  0.717203811372  -1.29884511661  
7.05467200279  0.85124982194  -0.0306947437069  -0.142660326191  0.0299899350783  0.716433374231  -1.30246223977  
7.06278514862  0.839733193416  -0.0416735450896  -0.137520285174  0.0294518404998  0.711275838757  -1.29771410265  
7.07085895538  0.823898058839  -0.0515413586684  -0.131925630683  0.0287726997085  0.70210351633  -1.28527913798  
7.07897210121  0.805772351859  -0.0603231788594  -0.12594638342  0.0279676780663  0.690772075864  -1.26821042082  
7.08709096909  0.818331283065  -0.0676531396639  -0.119649977801  0.016146640178  0.701807539781  -1.29455860935  
7.09516716003  0.832012659135  -0.0735986081637  -0.113100119736  0.0041510056603  0.713579872543  -1.32193212  
7.10317111015  0.847041106971  -0.0786256353178  -0.106356680559  -0.00991333968165  0.726452976207  -1.35087176826  
7.11133408546  0.862023026039  -0.0823788683959  -0.0997929840286  -0.024807172331  0.738278871921  -1.37949034216  
7.1194331646  0.87806471016  -0.0849338682208  -0.0934357500274  -0.04037366752  0.750056586013  -1.40922105215  
7.12757015228  0.894585776659  -0.0863676109126  -0.0873085048589  -0.0564638853556  0.761716913036  -1.4382069345  
7.13566112518  0.911446428898  -0.0867584266594  -0.081431428375  -0.0729372898802  0.773196493174  -1.46711886153  
7.14377117157  0.928914262736  -0.0861848537468  -0.0758215809264  -0.0896619690427  0.783942506449  -1.49499007295  
