Ethan-CYM/ros_catkin_ws/test/servol_正常操作2/ur_joint_actual_current.txt
time  shoulder_pan_joint  shoulder_lift_joint  elbow_joint  wrist_1_joint  wrist_2_joint  wrist_3_joint
0.149201154709  -0.253324598074  -1.65893983841  -1.11417984962  -0.364484846592  -0.398035734892  -0.340084195137  
0.15713095665  -0.242115542293  -1.64997255802  -1.11642169952  -0.559690117836  0.0640517324209  0.401085823774  
0.165325164795  -0.260050028563  -1.65221440792  -1.10297083855  -0.385835409164  -0.0244006589055  -0.0762520581484  
0.173400163651  -0.246599167585  -1.65445613861  -1.13211429119  -0.571890413761  -0.349234431982  -0.126578420401  
0.181483030319  -0.260050028563  -1.64997255802  -1.11417984962  -0.405660957098  0.320258647203  0.356859624386  
0.189561128616  -0.260050028563  -1.65669798851  -1.11866343021  -0.45751234889  -0.320258647203  -0.308058321476  
0.19765996933  -0.235390111804  -1.6611815691  -1.13883972168  -0.318733602762  0.106752879918  0.3126334548  
0.205743074417  -0.266775459051  -1.65669798851  -1.13435614109  -0.384310364723  0.0335509069264  -0.0610016472638  
0.213814973831  -0.257808208466  -1.65669798851  -1.12314713001  -0.28213262558  -0.399560779333  -0.0579515658319  
0.221879959106  -0.269017279148  -1.64997255802  -1.11193799973  -0.306533277035  0.359909713268  0.341609239578  
0.229966163635  -0.253324598074  -1.65669798851  -1.09848713875  -0.260782033205  -0.164704442024  -0.306533277035  
0.238134145737  -0.269017279148  -1.65221440792  -1.1253888607  -0.286707729101  -0.146403953433  0.29738304019  
0.246340990067  -0.255566388369  -1.64773070812  -1.14332342148  -0.337034106255  -0.352284520864  -0.100652717054  
0.254316091537  -0.26229184866  -1.65221440792  -1.10745441914  -0.320258647203  0.3126334548  0.396510720253  
0.262390136719  -0.271259069443  -1.663423419  -1.13659799099  -0.376685172319  -0.0671018138528  -0.326358824968  
0.270462036133  -0.251082777977  -1.6611815691  -1.12090528011  -0.347709387541  -0.155554205179  0.276032447815  
0.278560161591  -0.242115542293  -1.65893983841  -1.13659799099  -0.367534935474  0.398035734892  -0.00915024708956  
0.286679983139  -0.239873722196  -1.6611815691  -1.11642169952  -0.399560779333  -0.309583365917  -0.149454042315  
0.294762134552  -0.27350088954  -1.65221440792  -1.11417984962  -0.428536564112  0.112853050232  0.358384668827  
0.302833080292  -0.237631917  -1.6611815691  -1.1298725605  -0.451412200928  0.208930641413  -0.343134254217  
0.310912132263  -0.17261941731  -2.41218805313  -1.26662302017  -0.335509061813  -0.314158469439  0.279082536697  
0.319120168686  -0.091914229095  -2.5601477623  -1.57599282265  -0.494113355875  0.356859624386  -0.00457512354478  
0.327300071716  0.179344847798  -3.1452600956  -1.59841096401  -0.483438044786  -0.157079234719  -0.172329649329  
0.335328102112  0.217455625534  -3.62724947929  -1.6051363945  -0.367534935474  -0.0518513992429  0.344659298658  
0.343549013138  0.603047013283  -4.22805452347  -1.70153415203  -0.413286149502  0.166229486465  -0.277557492256  
0.351660013199  0.558210849762  -4.88490533829  -1.80465745926  -0.137253701687  -0.198255360126  0.166229486465  
0.36005616188  0.768941044807  -4.93198299408  -1.89208805561  -0.298908084631  0.401085823774  0.166229486465  
0.368067979813  0.943802237511  -4.67193317413  -1.98176050186  -0.147928997874  -0.0640517324209  -0.295857995749  
0.376320123672  1.21506130695  -5.18082427979  -1.92795705795  -0.0945525541902  0.3461843431  0.327883839607  
0.384310007095  1.4280333519  -4.51052284241  -1.91898977757  -0.137253701687  0.167754530907  -0.263832122087  
0.392390012741  1.45493507385  -4.69435119629  -1.92123162746  -0.117428168654  0.349234431982  0.0457512363791  
0.400490045547  1.31145918369  -4.60019540787  -1.93916606903  -0.0137253701687  0.240956500173  0.0732019767165  
0.40859913826  1.15901601315  -4.24374723434  -1.99745321274  -0.00610016472638  0.443786978722  -0.254681885242  
0.416627168655  1.02450740337  -4.2661652565  -2.08712553978  -0.114378087223  0.292807906866  0.362959802151  
0.424716949463  0.818260848522  -4.160800457  -2.10057640076  -0.0930275097489  0.370584994555  -0.305008232594  
0.432855129242  0.733072042465  -4.02180814743  -2.13420367241  -0.0869273468852  0.320258647203  -0.00457512354478  
0.440972089767  0.856371641159  -3.96800470352  -2.01314592361  -0.144878908992  0.211980730295  0.154029160738  
0.449097156525  0.872064292431  -3.92541027069  -1.86294460297  -0.0457512363791  0.230281218886  -0.3126334548  
0.457330942154  0.914658725262  -3.86488127708  -1.89208805561  -0.0122003294528  0.167754530907  0.399560779333  
0.465337991714  0.782391905785  -3.59586405754  -1.7799975872  -0.0411761105061  0.202830478549  -0.222656011581  
0.473392963409  0.587354362011  -3.17216181755  -1.71274328232  0.0503263585269  0.196730315685  0.187580063939  
0.48149394989  0.515616416931  -3.44117927551  -1.88760447502  -0.0106752887368  0.256206929684  0.0747270211577  
0.489547014236  0.603047013283  -3.17216181755  -1.93468248844  -0.00762520590797  0.317208558321  -0.219605922699  
0.497656106949  0.603047013283  -3.22372364998  -1.91002261639  -0.0442261956632  0.369059979916  0.366009891033  
0.505736112595  0.475263834  -2.92332100868  -1.83155918121  0.0518513992429  0.376685172319  -0.181479901075  
0.513846158981  0.416976749897  -2.8493411541  -1.84501004219  0.140303790569  0.3126334548  0.358384668827  
0.521933078766  0.396800458431  -3.08697319031  -2.04453110695  0.0823522210121  0.202830478549  0.102177761495  
0.530050992966  0.385591417551  -2.91659545898  -2.0826420784  0.0747270211577  0.106752879918  -0.160129323602  
0.538125038147  0.311611652374  -2.74621796608  -1.88984632492  0.0823522210121  0.135728672147  0.477337896824  
0.546317100525  0.230906486511  -2.62067651749  -1.85621917248  0.114378087223  0.163179412484  -0.207405596972  
0.55433011055  0.230906486511  -2.58929109573  -1.88536262512  0.122003294528  0.257731974125  0.272982358932  
0.562417030334  0.302644431591  -2.72155809402  -2.06246566772  0.138778746128  0.332458972931  0.0762520581484  
0.570476055145  0.28470993042  -2.36511015892  -1.91002261639  0.125053375959  0.349234431982  0.0183004941791  
0.578611135483  0.181586652994  -2.45926618576  -1.81586658955  0.141828835011  0.344659298658  0.407186001539  
0.586720943451  -0.020176295191  -2.45702433586  -2.05349850655  0.254681885242  0.276032447815  -0.190630152822  
0.594830989838  -0.264533638954  -2.63636922836  -2.0781583786  0.120478250086  0.240956500173  0.439211845398  
0.602915048599  -0.39231684804  -2.47720074654  -1.91226434708  0.178429812193  0.155554205179  -0.0777771025896  
0.610998153687  -0.502165555954  -2.44357347488  -1.99521136284  0.161654368043  0.111328005791  -0.0198255348951  
0.61906504631  -0.477505654097  -2.27767944336  -1.97951877117  0.160129323602  0.102177761495  0.31568351388  
0.627184152603  -0.620981514454  -2.45029902458  -2.06022381783  0.176904782653  0.114378087223  -0.186055019498  
0.635374069214  -0.573903501034  -2.29337215424  -2.15662169456  0.225706100464  0.129628494382  0.399560779333  
0.643344163895  -0.605288863182  -2.26871228218  -2.04228949547  0.129628494382  0.160129323602  -0.146403953433  
0.651432991028  -0.618739724159  -2.21266698837  -2.16110539436  0.161654368043  0.143353864551  0.175379738212  
0.65952205658  -0.638916015625  -2.19249081612  -2.16334724426  0.247056677938  0.250106751919  0.303483188152  
0.667647123337  -0.625465154648  -2.22835969925  -2.15213823318  0.167754530907  0.103702798486  -0.230281218886  
0.675727128983  -0.526825487614  -1.99072778225  -1.99969506264  0.187580063939  0.279082536697  0.433111697435  
0.683833122253  -0.437153071165  -2.22611784935  -2.11851096153  0.207405596972  0.106752879918  -0.111328005791  
0.691936016083  -0.257808208466  -2.32924127579  -2.2575032711  0.172329649329  0.265357166529  0.160129323602  
0.700042009354  0.174861222506  -2.21715068817  -2.16558909416  0.187580063939  0.272982358932  0.253156840801  
0.708243131638  0.300402611494  -2.21266698837  -2.01987123489  0.207405596972  0.196730315685  -0.199780389667  
0.716252088547  0.244357347488  -1.78448116779  -2.06694936752  0.215030804276  0.36143475771  0.401085823774  
0.724303007126  0.36765691638  -2.13868737221  -2.10954380035  0.176904782653  0.123528338969  -0.176904782653  
0.732399940491  0.582870721817  -1.79120659828  -2.14092898369  0.140303790569  0.292807906866  0.224181056023  
0.740510940552  0.681510388851  -2.30233955383  -2.11626911163  0.224181056023  0.210455685854  0.125053375959  
0.74857211113  0.863097071648  -2.05574035645  -2.06470751762  0.135728672147  0.329408884048  -0.216555848718  
0.756682157516  0.970703959465  -2.40994644165  -2.0781583786  0.160129323602  0.271457344294  0.385835409164  
0.764805078506  1.01554012299  -2.26198673248  -2.14989638329  0.112853050232  0.36143475771  -0.257731974125  
0.772899150848  0.912416875362  -1.93692433834  -2.11178565025  0.150979071856  0.155554205179  0.277557492256  
0.780989170074  0.703928530216  -2.11178565025  -2.16783070564  0.196730315685  0.283657670021  0.0655767694116  
0.789051055908  0.719621181488  -1.94140791893  -2.20818328857  0.128103464842  0.097602635622  -0.25163179636  
0.797158002853  1.04020011425  -1.83155918121  -2.1947324276  0.131153538823  0.0305008236319  0.379735261202  
0.805312156677  0.995363891125  -2.09609293938  -2.11178565025  0.178429812193  0.0610016472638  -0.294332951307  
0.813341140747  1.08503627777  -2.27095413208  -2.14092898369  0.118953213096  0.161654368043  0.154029160738  
0.821402072906  1.16574144363  -2.14317083359  -2.0759165287  0.15860427916  0.26688221097  0.157079234719  
0.829520940781  0.914658725262  -1.88087904453  -2.0736746788  0.15860427916  0.253156840801  -0.338559150696  
0.837629079819  1.20161044598  -1.80017387867  -2.12299466133  0.161654368043  0.155554205179  0.349234431982  
0.845724105835  1.04692554474  -2.0736746788  -2.17679810524  0.146403953433  0.0640517324209  -0.175379738212  
0.853842020035  1.46166050434  -2.24405241013  -2.16783070564  0.0762520581484  0.192155182362  0.0  
0.861987113953  1.2509303093  -2.31579041481  -2.03108024597  0.0625266879797  0.283657670021  0.326358824968  
0.870104074478  1.47511136532  -2.26422858238  -2.02435493469  0.0396510697901  0.134203627706  -0.431586652994  
0.878343105316  1.33387732506  -2.10506010056  -2.13644552231  0.0503263585269  0.288232773542  -0.166229486465  
0.88631606102  1.32939362526  -2.0759165287  -2.1969742775  0.0823522210121  0.120478250086  -0.097602635622  
0.894371032715  1.35853719711  -2.21939253807  -2.0848839283  0.129628494382  0.367534935474  0.382785350084  
0.902466058731  1.39664793015  -2.42339730263  -2.10057640076  0.202830478549  0.0381260290742  -0.416336238384  
0.910522937775  1.52443122864  -2.60274195671  -2.05349850655  0.143353864551  0.30043309927  0.227231130004  
0.918612957001  1.64100527763  -2.82243943214  -2.01090407372  0.0579515658319  0.250106751919  0.0533764399588  
0.926733970642  1.78896486759  -2.86503386497  -2.13196182251  0.0137253701687  0.0655767694116  -0.048801317811  
0.93487405777  1.39440619946  -2.69465637207  -2.11402726173  -0.00305008236319  0.181479901075  0.0518513992429  
0.942914009094  1.29352474213  -2.60274195671  -2.31579041481  -0.0152504118159  0.309583365917  -0.195205271244  
0.951061964035  1.20833587646  -2.75518512726  -2.01090407372  0.0716769322753  0.318733602762  -0.0106752887368  
0.959177970886  1.73964500427  -3.05558776855  -2.0781583786  0.0427011549473  0.362959802151  -0.0869273468852  
0.967360973358  1.78448116779  -2.91435360909  -2.01090407372  0.0122003294528  0.253156840801  -0.195205271244  
0.975409030914  1.49528765678  -2.69689798355  -2.1992161274  0.0503263585269  0.271457344294  -0.244006589055  
0.983483076096  1.45493507385  -3.24838352203  -2.18576526642  0.00305008236319  0.222656011581  -0.170804619789  
0.991604089737  1.43475878239  -3.57568788528  -2.12971997261  -0.00457512354478  0.164704442024  -0.0610016472638  
0.999696016312  1.45941865444  -3.33805584908  -2.30906486511  -0.0518513992429  0.23638138175  -0.169279575348  
1.00780916214  1.27110660076  -3.48377370834  -2.35165929794  -0.0106752887368  0.208930641413  -0.0259256996214  
1.01591205597  1.28007388115  -2.86951756477  -2.01538777351  0.0366009883583  0.285182714462  -0.210455685854  
1.0239739418  1.26213932037  -2.90090274811  -1.97727692127  0.0625266879797  0.167754530907  -0.106752879918  
1.03210401535  1.05589282513  -2.64533638954  -1.93468248844  0.106752879918  0.195205271244  -0.0610016472638  
1.04031395912  1.10072898865  -2.90538644791  -1.91450619698  0.0396510697901  0.26688221097  -0.175379738212  
1.04822897911  1.58720183372  -3.6877784729  -2.12523651123  -0.0732019767165  0.256206929684  -0.186055019498  
1.05633115768  1.30249190331  -3.66087651253  -2.34717559814  -0.0396510697901  0.213505759835  -0.187580063939  
1.06446504593  1.10745441914  -3.84022140503  -2.33820843697  -0.00457512354478  0.3126334548  -0.131153538823  
1.0725440979  1.44148421288  -3.76175808907  -2.19249081612  -0.00457512354478  0.170804619789  -0.0991276800632  
1.08058595657  1.23523759842  -3.5017080307  -2.03556394577  0.0274507403374  0.309583365917  -0.097602635622  
1.08868217468  0.399042278528  -3.15871095657  -1.99072778225  0.0457512363791  0.23638138175  -0.178429812193  
1.09682202339  0.867580711842  -2.80898857117  -2.04901480675  0.0716769322753  0.317208558321  -0.175379738212  
1.10494613647  1.31818461418  -3.0309278965  -1.93692433834  0.0777771025896  0.248581707478  -0.167754530907  
1.11307311058  0.607530653477  -2.96143174171  -1.94140791893  0.0289757829159  0.262307077646  -0.141828835011  
1.12122702599  0.425944000483  -2.82019758224  -1.89432990551  0.125053375959  0.20435552299  -0.147928997874  
1.1292450428  0.975187599659  -2.74173426628  -1.48183679581  0.122003294528  0.466662615538  -0.150979071856  
1.13744807243  0.903449654579  -2.7282834053  -1.25765573978  0.179954856634  0.222656011581  -0.120478250086  
1.14538598061  0.291435360909  -3.06231331825  -1.17470872402  0.135728672147  0.268407255411  -0.213505759835  
1.15348815918  0.479747444391  -2.77760338783  -1.11866343021  0.125053375959  0.23638138175  -0.248581707478  
1.16161394119  0.824986279011  -2.39201188087  -0.809293627739  0.126578420401  0.385835409164  -0.183004945517  
1.1696870327  0.394558668137  -2.57584023476  -0.647883236408  0.154029160738  0.272982358932  -0.208930641413  
1.17784404755  0.3564478755  -2.58929109573  -0.665817737579  0.179954856634  0.286707729101  -0.230281218886  
1.18595504761  0.493198335171  -2.33148288727  -0.744281113148  0.131153538823  0.234856337309  -0.225706100464  
1.19403505325  0.544759988785  -2.44357347488  -0.793600916862  0.215030804276  0.42701151967  -0.22113096714  
1.20210409164  0.349722445011  -2.15213823318  -0.690477669239  0.199780389667  0.305008232594  -0.248581707478  
1.21033215523  0.0807051807642  -1.99296963215  -0.542518138885  0.187580063939  0.208930641413  -0.218080893159  
1.21825098991  0.19055390358  -1.82483375072  -0.524583697319  0.23638138175  0.269932299852  -0.227231130004  
1.22634410858  0.470780223608  -1.88984632492  -0.506649196148  0.234856337309  0.320258647203  -0.234856337309  
1.23447608948  0.165893986821  -1.96830964088  -0.531309127808  0.260782033205  0.367534935474  -0.20588055253  
1.24258494377  0.349722445011  -1.93468248844  -0.620981514454  0.181479901075  0.387360453606  -0.231806263328  
1.25068616867  0.179344847798  -2.05574035645  -0.706170320511  0.137253701687  0.369059979916  -0.244006589055  
1.25878405571  -0.0112090529874  -1.8382846117  -0.605288863182  0.231806263328  0.333984017372  -0.201305434108  
1.26692008972  0.163652166724  -1.7239522934  -0.587354362011  0.196730315685  0.335509061813  -0.256206929684  
1.27503800392  0.251082777977  -1.47511136532  -0.477505654097  0.184529989958  0.190630152822  -0.211980730295  
1.28327298164  -0.00224181055091  -1.53564023972  -0.455087542534  0.233331307769  0.230281218886  -0.250106751919  
1.29129600525  0.0963978543878  -1.42130792141  -0.650125086308  0.198255360126  0.356859624386  -0.276032447815  
1.29929113388  -0.887757003307  -1.40337336063  -0.524583697319  0.298908084631  0.269932299852  -0.224181056023  
1.30732798576  -1.15004885197  -1.28007388115  -0.573903501034  0.224181056023  0.20588055253  -0.263832122087  
1.31539201736  -1.41009879112  -1.47511136532  -0.531309127808  0.219605922699  0.382785350084  -0.237906426191  
1.3234910965  -1.07606911659  -1.13211429119  -0.533550918102  0.219605922699  0.213505759835  -0.225706100464  
1.33160805702  -1.11193799973  -0.842920780182  -0.378865987062  0.250106751919  0.208930641413  -0.286707729101  
1.33972501755  -1.55357468128  -1.00657296181  -0.39231684804  0.240956500173  0.26688221097  -0.308058321476  
1.34784197807  -1.15901601315  -0.905691444874  -0.48647287488  0.199780389667  0.131153538823  -0.31568351388  
1.35594415665  -1.37871348858  -0.739797472954  -0.52234184742  0.265357166529  0.207405596972  -0.343134254217  
1.36405014992  -1.3652626276  -1.05813455582  -0.452845722437  0.234856337309  0.294332951307  -0.305008232594  
1.37225914001  -1.39216434956  -0.941560447216  -0.526825487614  0.263832122087  0.320258647203  -0.317208558321  
1.38032007217  -1.21730315685  -0.934835016727  -0.603047013283  0.244006589055  0.218080893159  -0.323308736086  
1.38828897476  -1.1904014349  -0.708412110806  -0.52234184742  0.294332951307  0.175379738212  -0.344659298658  
1.39639401436  -1.21954488754  -0.589596152306  -0.457329362631  0.286707729101  0.155554205179  -0.333984017372  
1.40446710587  -1.28904104233  -0.75549018383  -0.564936280251  0.167754530907  -0.0655767694116  -0.370584994555  
1.41256308556  -1.34284448624  -0.672543168068  -0.56941986084  0.25163179636  -0.125053375959  -0.347709387541  
1.42071509361  -1.14332342148  -0.822744488716  -0.434911251068  0.28213262558  -0.210455685854  -0.285182714462  
1.42880797386  -1.21730315685  -0.63667422533  -0.40352588892  0.305008232594  -0.144878908992  -0.393460631371  
1.43687605858  -1.42130792141  -0.916900515556  -0.585112571716  0.172329649329  -0.102177761495  -0.343134254217  
1.44494009018  -1.61410355568  -0.706170320511  -0.742039263248  0.22113096714  -0.286707729101  -0.344659298658  
1.45308899879  -1.40337336063  -0.789117336273  -0.699444890022  0.219605922699  -0.0945525541902  -0.362959802151  
1.46115612984  -1.15229058266  -0.401284098625  -0.408009529114  0.269932299852  -0.22113096714  -0.338559150696  
1.46931815147  -0.939318597317  -0.51785826683  -0.551485419273  0.216555848718  -0.0823522210121  -0.347709387541  
1.47738409042  -1.28455746174  -0.663575947285  -0.470780223608  0.193680226803  -0.247056677938  -0.352284520864  
1.4854619503  -1.51770579815  -0.793600916862  -0.699444890022  0.169279575348  -0.0381260290742  -0.413286149502  
1.49355196953  -1.26662302017  -0.955011308193  -0.63667422533  0.285182714462  -0.17385469377  -0.250106751919  
1.50161314011  -0.959494888783  -0.670301377773  -0.607530653477  0.17385469377  -0.254681885242  -0.265357166529  
1.50971007347  -1.26886475086  -0.699444890022  -0.614256083965  0.215030804276  -0.123528338969  -0.381260305643  
1.5178129673  -1.72843599319  -0.840678930283  -0.719621181488  0.170804619789  -0.155554205179  -0.192155182362  
1.52594208717  -1.23075401783  -0.589596152306  -0.647883236408  0.268407255411  -0.242481544614  -0.318733602762  
1.53402709961  -0.643399655819  -0.605288863182  -0.591838002205  0.111328005791  -0.210455685854  -0.306533277035  
1.54219508171  -2.02883863449  -0.898966014385  -0.795842766762  0.161654368043  -0.257731974125  -0.234856337309  
1.55030012131  -0.937076807022  -0.816019058228  -0.887757003307  0.172329649329  -0.245531633496  -0.29738304019  
1.55833697319  -0.591838002205  -0.979671239853  -0.589596152306  0.176904782653  -0.230281218886  -0.240956500173  
1.56632304192  -1.71050143242  -0.730830252171  -0.538034558296  0.129628494382  -0.314158469439  -0.179954856634  
1.57444906235  -1.88087904453  -0.587354362011  -0.600805222988  0.0655767694116  -0.269932299852  -0.175379738212  
1.58247804642  -0.493198335171  -0.961736738682  -0.811535418034  0.0579515658319  -0.253156840801  0.211980730295  
1.59056210518  -0.912416875362  -0.833953499794  -0.742039263248  0.0823522210121  -0.247056677938  0.0411761105061  
1.5986571312  -2.03780579567  -0.932593166828  -0.811535418034  0.112853050232  -0.274507403374  0.126578420401  
1.6067199707  -1.11866343021  -1.20161044598  -0.706170320511  0.186055019498  -0.231806263328  0.141828835011  
1.61482715607  -0.508890986443  -0.928109586239  -0.836195349693  0.126578420401  -0.166229486465  0.0945525541902  
1.62297201157  -1.74861228466  -0.995363891125  -0.800326347351  0.0228756181896  -0.198255360126  0.109802961349  
1.63103199005  -1.5401238203  -0.865338861942  -0.773424625397  -0.0396510697901  -0.22113096714  0.234856337309  
1.63927316666  -0.295919001102  -0.627706944942  -0.665817737579  0.0289757829159  -0.268407255411  0.193680226803  
1.64730715752  -1.47286951542  -0.85412979126  -0.685994029045  0.140303790569  -0.201305434108  0.0442261956632  
1.6553850174  -1.91002261639  -0.789117336273  -0.818260848522  0.114378087223  -0.242481544614  0.167754530907  
1.66347312927  -0.659092307091  -0.901207864285  -0.966220319271  0.0106752887368  -0.242481544614  0.207405596972  
1.67153501511  -0.84964621067  -0.863097071648  -0.905691444874  0.0152504118159  -0.274507403374  0.0991276800632  
1.67961215973  -1.85621917248  -0.800326347351  -0.851888000965  0.132678583264  -0.207405596972  0.169279575348  
1.68766903877  -0.948285877705  -0.950527667999  -0.717379391193  -0.00762520590797  -0.227231130004  0.228756174445  
1.69578909874  -0.80705177784  -0.540276348591  -0.860855221748  -0.097602635622  -0.294332951307  0.056426525116  
1.7039141655  -2.08936738968  -0.73531383276  -0.701686680317  0.0457512363791  -0.263832122087  0.112853050232  
1.71204996109  -1.47511136532  -0.881031572819  -0.73531383276  0.100652717054  -0.187580063939  0.18910510838  
1.72029209137  -1.2509303093  -0.612014293671  -0.708412110806  -0.0457512363791  -0.254681885242  0.0732019767165  
1.72831606865  -1.71946871281  -0.822744488716  -0.840678930283  -0.00610016472638  -0.292807906866  0.134203627706  
1.73642706871  -0.975187599659  -0.838437139988  -0.784633696079  0.0869273468852  -0.179954856634  0.250106751919  
1.74451208115  -1.11642169952  -0.762215614319  -0.784633696079  0.109802961349  -0.237906426191  0.184529989958  
1.75263595581  -1.99969506264  -0.63667422533  -0.92586773634  -0.00610016472638  -0.237906426191  0.0518513992429  
1.76069808006  -1.25317203999  -0.394558668137  -0.724104821682  -0.0686268508434  -0.269932299852  0.233331307769  
1.76882314682  -1.23972117901  -0.607530653477  -0.712895750999  0.00305008236319  -0.228756174445  0.259256988764  
1.77693200111  -1.91450619698  -0.455087542534  -0.80256819725  0.0808271840215  -0.280607581139  0.329408884048  
1.78509116173  -0.957253098488  -0.497681945562  -0.663575947285  0.103702798486  -0.219605922699  0.198255360126  
1.79317307472  -1.22178673744  -0.840678930283  -0.92586773634  0.0884523913264  -0.268407255411  0.135728672147  
1.80125212669  -1.81138288975  -0.452845722437  -0.811535418034  -0.0411761105061  -0.274507403374  0.0915024727583  
1.80928015709  -0.932593166828  -0.42818582058  -0.766699194908  -0.0122003294528  -0.224181056023  -0.056426525116  
1.81734108925  -1.67463243008  -0.401284098625  -0.80256819725  0.0671018138528  -0.294332951307  0.123528338969  
1.82547807693  -1.26213932037  -0.224181056023  -0.638916015625  0.132678583264  -0.256206929684  0.0122003294528  
1.83354401588  -1.3630207777  -0.336271584034  -0.831711709499  0.146403953433  -0.227231130004  -0.135728672147  
1.84165215492  -1.83380103111  0.0  -0.842920780182  0.0305008236319  -0.259256988764  -0.169279575348  
1.84976696968  -1.20161044598  -0.520100057125  -0.847404360771  -0.0183004941791  -0.259256988764  0.0289757829159  
1.8578350544  -1.81362473965  -0.116574145854  -0.928109586239  0.0381260290742  -0.277557492256  -0.160129323602  
1.86598300934  -1.10297083855  -0.271259069443  -0.804809987545  0.128103464842  -0.242481544614  -0.109802961349  
1.87409114838  -1.50873851776  -0.27350088954  -0.887757003307  0.0183004941791  -0.314158469439  -0.28213262558  
1.88214612007  -1.76878857613  -0.217455625534  -1.01554012299  -0.056426525116  -0.280607581139  -0.097602635622  
1.89033412933  -1.25541388988  0.121057771146  -0.867580711842  0.056426525116  -0.259256988764  -0.234856337309  
1.89839410782  -1.7777557373  0.125541388988  -0.822744488716  0.146403953433  -0.33093392849  -0.0762520581484  
1.90648794174  -1.05813455582  0.186070278287  -0.710653960705  -0.0137253701687  -0.263832122087  -0.183004945517  
1.91464805603  -1.91674804688  -0.10088147223  -0.937076807022  0.132678583264  -0.30043309927  -0.218080893159  
1.92270112038  -1.52667295933  -0.26229184866  -0.856371641159  0.0335509069264  -0.29738304019  -0.0808271840215  
1.93080210686  -1.51546394825  0.21969743073  -0.887757003307  0.0915024727583  -0.343134254217  -0.190630152822  
1.93890094757  -1.4235496521  0.0515616424382  -0.919142305851  -0.00457512354478  -0.353809565306  -0.28213262558  
1.94699501991  -1.21506130695  -0.0896724238992  -0.990880250931  0.102177761495  -0.298908084631  -0.18910510838  
1.95510005951  -1.92795705795  0.224181056023  -1.00433111191  -0.0472762770951  -0.327883839607  -0.144878908992  
1.96333003044  -1.22627031803  0.322820723057  -0.840678930283  0.0457512363791  -0.29738304019  -0.245531633496  
1.97130703926  -1.67014884949  0.109848715365  -0.912416875362  0.0991276800632  -0.295857995749  -0.244006589055  
1.97938513756  -0.995363891125  -0.0582870729268  -0.92138415575  0.00610016472638  -0.295857995749  -0.0869273468852  
1.98748016357  -1.70153415203  -0.186070278287  -0.919142305851  -0.0701518952847  -0.340084195137  -0.256206929684  
1.99573516846  -1.38768076897  -0.10088147223  -0.995363891125  -0.0427011549473  -0.323308736086  -0.272982358932  
2.00386500359  -1.08279454708  0.0358689688146  -1.05589282513  -0.0701518952847  -0.3461843431  -0.141828835011  
2.01190400124  -1.04468369484  0.067254319787  -1.01778197289  -0.0228756181896  -0.311108410358  -0.280607581139  
2.01999998093  -1.27334845066  0.414734959602  -0.948285877705  -0.230281218886  -0.291282862425  -0.20435552299  
2.02808594704  -2.20594167709  0.618739724159  -1.07158541679  -0.364484846592  -0.370584994555  -0.289757817984  
2.03629016876  -1.12090528011  1.3675044775  -1.04468369484  -0.311108410358  -0.268407255411  -0.192155182362  
2.04424595833  -1.18143415451  1.05589282513  -0.946044027805  -0.311108410358  -0.340084195137  -0.215030804276  
2.05234313011  -1.14556515217  0.946044027805  -1.03795826435  -0.186055019498  -0.288232773542  -0.216555848718  
2.06040501595  -1.2509303093  0.701686680317  -1.30921733379  -0.349234431982  -0.311108410358  -0.269932299852  
2.06852197647  -1.56702554226  0.73531383276  -1.61634540558  -0.446837067604  -0.29738304019  -0.0884523913264  
2.07662010193  -0.782391905785  1.1276307106  -1.95037519932  -0.305008232594  -0.288232773542  -0.254681885242  
2.08464217186  -1.67687427998  1.42130792141  -1.92571520805  -0.398035734892  -0.335509061813  -0.160129323602  
2.09273815155  -1.12314713001  1.55133295059  -1.97727692127  -0.320258647203  -0.286707729101  -0.181479901075  
2.10083794594  -0.995363891125  1.44148421288  -2.06694936752  -0.369059979916  -0.338559150696  -0.272982358932  
2.10897397995  -1.65893983841  1.58944368362  -2.21042513847  -0.213505759835  -0.333984017372  -0.280607581139  
2.1170771122  -0.780150055885  1.45493507385  -2.20818328857  -0.379735261202  -0.305008232594  -0.108277924359  
2.12522912025  -1.32939362526  1.13883972168  -2.32699942589  -0.376685172319  -0.355334609747  -0.150979071856  
2.13336801529  -1.02674925327  1.22402858734  -2.27543759346  -0.291282862425  -0.318733602762  -0.239431470633  
2.14139509201  -0.625465154648  1.34060275555  -2.11851096153  -0.33093392849  -0.286707729101  -0.216555848718  
2.14949202538  -1.80241572857  1.41009879112  -2.34045028687  -0.349234431982  -0.311108410358  -0.186055019498  
2.15758013725  -0.970703959465  1.57599282265  -2.26198673248  -0.398035734892  -0.353809565306  -0.0228756181896  
2.1657230854  -0.490956515074  1.33611905575  -2.18576526642  -0.399560779333  -0.318733602762  -0.0411761105061  
2.17376708984  -1.44820964336  1.61186182499  -2.05574035645  -0.40871104598  -0.341609239578  0.0915024727583  
2.18186998367  -0.75997376442  1.3630207777  -2.09609293938  -0.405660957098  -0.259256988764  0.141828835011  
2.18999004364  -0.495440125465  1.44372594357  -2.19249081612  -0.45751234889  -0.372110038996  0.117428168654  
2.19806098938  -1.47286951542  1.45493507385  -2.12075281143  -0.36143475771  -0.303483188152  0.00610016472638  
2.20629310608  -0.221939250827  1.49977123737  -2.12299466133  -0.288232773542  -0.271457344294  0.201305434108  
2.21431803703  -0.941560447216  1.77103030682  -2.10506010056  -0.364484846592  -0.350759476423  0.0762520581484  
2.22239899635  -1.4863203764  1.69256699085  -2.18800711632  -0.416336238384  -0.292807906866  0.262307077646  
2.230479002  -0.647883236408  1.28904104233  -2.20818328857  -0.337034106255  -0.28213262558  0.0838772654533  
2.23857307434  0.0  1.0693436861  -2.01538777351  -0.413286149502  -0.245531633496  0.208930641413  
2.24664902687  -1.15229058266  1.0088146925  -2.14765453339  -0.31568351388  -0.295857995749  0.0701518952847  
2.25472807884  -1.32715189457  1.19264316559  -2.48392605782  -0.42701151967  -0.263832122087  0.233331307769  
2.26285600662  -0.719621181488  1.74412858486  -2.36959385872  -0.314158469439  -0.248581707478  0.0854023098946  
2.2709441185  -0.114332340658  1.68584156036  -1.70601785183  -0.332458972931  -0.303483188152  0.0427011549473  
2.27908301353  -0.493198335171  0.986396670341  -1.67687427998  -0.390410542488  -0.326358824968  0.140303790569  
2.28725910187  -1.00657296181  0.600805222988  -2.19249081612  -0.489538222551  -0.240956500173  0.216555848718  
2.29530000687  -0.547001779079  0.233148291707  -2.3808028698  -0.53376442194  -0.309583365917  0.279082536697  
2.30336999893  -0.48647287488  1.61410355568  -2.61619281769  -0.376685172319  -0.303483188152  0.126578420401  
2.31146502495  -0.576145291328  1.93019890785  -2.17903995514  -0.344659298658  -0.294332951307  0.178429812193  
2.3195669651  -0.928109586239  2.97936630249  -1.74637043476  -0.240956500173  -0.227231130004  0.0747270211577  
2.32760810852  -0.739797472954  2.58256578445  -1.7217104435  -0.22113096714  -0.317208558321  0.102177761495  
2.33572411537  -0.394558668137  2.09385108948  -1.8427683115  -0.253156840801  -0.388885498047  0.123528338969  
2.34382414818  -0.419218569994  1.7822394371  -1.93244063854  -0.219605922699  -0.112853050232  0.161654368043  
2.35192608833  -0.450603932142  1.44372594357  -2.1969742775  -0.321783691645  -0.181479901075  0.0625266879797  
2.36001801491  -0.448362112045  1.15901601315  -2.43908977509  -0.340084195137  -0.210455685854  0.109802961349  
2.36813616753  -0.354206055403  1.08279454708  -2.28664684296  -0.324833780527  -0.0945525541902  0.15860427916  
2.37630105019  -0.316095292568  1.19712686539  -2.14765453339  -0.376685172319  -0.0366009883583  0.178429812193  
2.38439011574  0.121057771146  1.30025017262  -1.9638260603  -0.356859624386  0.259256988764  0.178429812193  
2.39250302315  -0.257808208466  1.33836090565  -2.14989638329  -0.459037393332  0.0838772654533  0.157079234719  
2.40060806274  0.540276348591  1.49752950668  -1.98176050186  -0.405660957098  0.154029160738  0.195205271244  
2.40869498253  0.302644431591  1.09400355816  -2.0736746788  -0.483438044786  0.0960775911808  0.211980730295  
2.41676402092  0.564936280251  0.894482433796  -2.04228949547  -0.463612526655  -0.0152504118159  0.192155182362  
2.42485713959  0.582870721817  0.652366876602  -2.27992129326  -0.477337896824  0.184529989958  0.234856337309  
2.43295812607  0.717379391193  0.571661710739  -2.35614299774  -0.481913000345  0.260782033205  0.225706100464  
2.44101214409  0.795842766762  0.75549018383  -2.22387599945  -0.500213503838  0.146403953433  0.230281218886  
2.4493200779  0.876547932625  0.829469919205  -2.11851096153  -0.53376442194  0.237906426191  0.216555848718  
2.45726513863  0.793600916862  0.775666475296  -2.00642037392  -0.452937245369  0.276032447815  0.262307077646  
2.46534013748  0.757731974125  0.856371641159  -2.25077772141  -0.463612526655  0.0579515658319  0.343134254217  
2.47343301773  0.672543168068  0.591838002205  -2.19249081612  -0.60086619854  0.370584994555  0.253156840801  
2.48154497147  0.865338861942  0.242115542293  -2.28440499306  -0.542914688587  0.135728672147  0.256206929684  
2.48963499069  0.999847531319  0.00224181055091  -2.12075281143  -0.480387985706  0.242481544614  0.3126334548  
2.49770212173  1.03123283386  -0.0246599167585  -2.33820843697  -0.606966376305  0.176904782653  0.23638138175  
2.50581598282  1.40113162994  0.091914229095  -2.36735200882  -0.619166731834  0.0777771025896  0.28213262558  
2.51389312744  1.11866343021  0.230906486511  -2.14092898369  -0.597816169262  0.216555848718  0.280607581139  
2.52196097374  0.903449654579  0.177103027701  -2.02883863449  -0.622216820717  0.0884523913264  0.253156840801  
2.5300719738  1.00433111191  -0.105365097523  -2.15886354446  -0.635942161083  0.26688221097  0.288232773542  
2.53826808929  0.730830252171  -0.0829469934106  -2.39201188087  -0.562740206718  0.0701518952847  0.292807906866  
2.54636907578  1.03347468376  -0.293677181005  -2.31803202629  -0.629841983318  0.341609239578  0.373635083437  
2.55429601669  0.881031572819  -0.340755194426  -2.35614299774  -0.579515635967  0.155554205179  0.257731974125  
2.56240415573  1.05365097523  -0.419218569994  -2.3808028698  -0.599341213703  0.358384668827  0.29738304019  
2.57052516937  0.946044027805  -0.150201305747  -2.20818328857  -0.619166731834  0.0960775911808  0.259256988764  
2.57855916023  1.05813455582  -0.275742709637  -2.29785585403  -0.558165073395  0.311108410358  0.323308736086  
2.58665204048  0.892240583897  -0.188312083483  -2.14989638329  -0.581040680408  0.141828835011  0.231806263328  
2.59475016594  1.04244196415  -0.269017279148  -2.24853587151  -0.573415458202  0.269932299852  0.228756174445  
2.60284399986  1.02899098396  -0.504407346249  -2.16783070564  -0.645092427731  0.0640517324209  0.327883839607  
2.61093997955  1.33836090565  -0.809293627739  -2.39649558067  -0.577990591526  0.208930641413  0.242481544614  
2.61904406548  1.21730315685  -0.56941986084  -2.35165929794  -0.577990591526  0.216555848718  0.17385469377  
2.62711715698  1.02002382278  -0.497681945562  -2.15662169456  -0.614591598511  0.163179412484  0.301958143711  
2.63527202606  1.2486884594  -0.820502638817  -2.25077772141  -0.623741865158  0.289757817984  0.269932299852  
2.64333605766  1.03347468376  -0.842920780182  -2.36062645912  -0.648142516613  0.163179412484  0.15860427916  
2.65160703659  1.04020011425  -0.943802237511  -2.35838460922  -0.539864599705  0.359909713268  0.248581707478  
2.65958094597  1.22627031803  -0.710653960705  -2.37631917  -0.561215162277  0.115903131664  0.140303790569  
2.66759395599  1.13211429119  -0.865338861942  -2.14541268349  -0.570365428925  0.114378087223  0.309583365917  
2.67567896843  1.31370103359  -0.838437139988  -2.30233955383  -0.547489762306  0.311108410358  0.135728672147  
2.68372917175  1.32939362526  -1.11417984962  -2.16783070564  -0.547489762306  0.111328005791  0.160129323602  
2.69184207916  1.43700051308  -0.887757003307  -2.3740773201  -0.570365428925  0.0991276800632  0.231806263328  
2.69993305206  1.45045137405  -0.838437139988  -2.28216314316  -0.529189288616  0.20435552299  0.131153538823  
2.70807313919  1.08055269718  -0.52234184742  -2.19024896622  -0.484963089228  0.279082536697  0.17385469377  
2.71616196632  1.25765573978  -0.488714694977  -2.21715068817  -0.498688459396  0.335509061813  0.225706100464  
2.7242910862  1.27783203125  -0.892240583897  -2.12747812271  -0.567315340042  0.111328005791  0.218080893159  
2.73240995407  1.73067772388  -0.912416875362  -2.20818328857  -0.52156406641  0.135728672147  0.15860427916  
2.74058008194  1.80241572857  -1.07382726669  -2.38752818108  -0.471237719059  0.0869273468852  0.183004945517  
2.74867296219  1.67239069939  -1.18367600441  -2.27992129326  -0.501738548279  0.114378087223  0.134203627706  
2.75676894188  1.03123283386  -1.0110565424  -2.29113030434  -0.459037393332  0.126578420401  0.176904782653  
2.76487517357  1.03347468376  -0.75549018383  -2.13644552231  -0.500213503838  0.179954856634  0.187580063939  
2.77296614647  1.51994752884  -1.01778197289  -2.03108024597  -0.510888814926  0.129628494382  0.202830478549  
2.78107309341  1.73964500427  -1.25541388988  -2.27767944336  -0.468187630177  0.132678583264  0.208930641413  
2.78916096687  1.28904104233  -1.0671018362  -2.31803202629  -0.468187630177  0.118953213096  0.169279575348  
2.79733395576  1.44148421288  -1.08279454708  -2.1992161274  -0.52156406641  0.256206929684  0.225706100464  
2.80536007881  1.94140791893  -0.685994029045  -1.78896486759  -0.483438044786  0.272982358932  0.196730315685  
2.81358408928  1.48183679581  -0.892240583897  -1.94589149952  -0.40871104598  0.160129323602  0.18910510838  
2.82161808014  0.952769458294  -1.04244196415  -2.49961876869  -0.370584994555  0.207405596972  0.178429812193  
2.82964301109  1.57150924206  -1.08503627777  -2.29337215424  -0.401085823774  0.216555848718  0.201305434108  
2.83772110939  1.97503507137  -1.20161044598  -1.92347347736  -0.492588311434  0.225706100464  0.193680226803  
2.84580111504  1.23747944832  -1.23747944832  -2.18576526642  -0.507838726044  0.269932299852  0.192155182362  
2.85389995575  1.53339838982  -1.3675044775  -2.41442990303  -0.495638370514  0.231806263328  0.199780389667  
2.86195707321  2.30233955383  -1.32715189457  -2.16110539436  -0.484963089228  0.146403953433  0.22113096714  
2.87005996704  1.1904014349  -1.2464466095  -2.10730195045  -0.460562437773  0.274507403374  0.218080893159  
2.87815403938  1.188159585  -1.11866343021  -2.02435493469  -0.466662615538  0.23638138175  0.257731974125  
2.88635015488  1.20833587646  -1.25317203999  -1.92347347736  -0.373635083437  0.184529989958  0.26688221097  
2.89453101158  1.26662302017  -1.45941865444  -1.85846090317  -0.340084195137  0.366009891033  0.150979071856  
2.90247917175  2.1969742775  -1.23523759842  -2.25077772141  -0.396510720253  0.20588055253  0.378210216761  
2.91063404083  1.19712686539  -1.47062766552  -2.13420367241  -0.413286149502  0.219605922699  0.265357166529  
2.91867494583  1.71946871281  -1.75533771515  -1.93019890785  -0.439211845398  0.272982358932  0.219605922699  
2.92676901817  1.56030011177  -1.33836090565  -2.09609293938  -0.460562437773  0.211980730295  0.324833780527  
2.93486404419  1.32042646408  -1.26213932037  -2.0826420784  -0.455987304449  0.230281218886  0.323308736086  
2.94292712212  2.13868737221  -1.51546394825  -1.84501004219  -0.501738548279  0.274507403374  0.341609239578  
2.95106005669  1.17022514343  -1.71946871281  -2.0804002285  -0.466662615538  0.263832122087  0.31568351388  
2.95915699005  1.72843599319  -1.70377600193  -2.02883863449  -0.366009891033  0.352284520864  0.355334609747  
2.96730899811  1.82259202003  -1.31818461418  -2.22163414955  -0.362959802151  0.244006589055  0.324833780527  
2.97555017471  1.12314713001  -1.1904014349  -2.14989638329  -0.45751234889  0.210455685854  0.309583365917  
2.98345112801  1.84725189209  -1.27334845066  -1.99072778225  -0.484963089228  0.327883839607  0.329408884048  
2.99158501625  0.730830252171  -1.20609402657  -2.10730195045  -0.455987304449  0.285182714462  0.349234431982  
2.9996111393  1.37647163868  -1.31370103359  -1.98848593235  -0.550539851189  0.410236090422  0.355334609747  
3.00770616531  1.39664793015  -1.47062766552  -2.19024896622  -0.347709387541  0.256206929684  0.384310364723  
3.01578402519  1.22851216793  -1.64773070812  -1.95710062981  -0.434636741877  0.396510720253  0.333984017372  
3.02385115623  1.86070275307  -1.99969506264  -1.99745321274  -0.463612526655  0.286707729101  0.3126334548  
3.03197598457  0.889998793602  -2.37631917  -2.13868737221  -0.272982358932  0.308058321476  0.382785350084  
3.04006910324  1.68584156036  -2.34269213676  -1.93019890785  -0.42396146059  0.33093392849  0.332458972931  
3.04812002182  0.970703959465  -2.49737691879  -2.10506010056  -0.42701151967  0.321783691645  0.253156840801  
3.05625796318  1.16798329353  -2.61170935631  -2.06470751762  -0.452937245369  0.420911371708  0.260782033205  
3.06430411339  1.53339838982  -3.0309278965  -2.02659678459  -0.338559150696  0.3126334548  0.219605922699  
3.07254004478  0.668059527874  -3.21699810028  -2.17007255554  -0.230281218886  0.36143475771  0.306533277035  
3.08054614067  1.68359971046  -3.210272789  -1.93244063854  -0.187580063939  0.378210216761  0.396510720253  
3.08851504326  0.937076807022  -2.77087783813  -1.96606791019  -0.18910510838  0.31568351388  0.202830478549  
3.0966091156  0.959494888783  -2.78432869911  -1.89208805561  -0.0686268508434  0.416336238384  0.3126334548  
3.10472106934  1.49080395699  -3.25510883331  -1.82259202003  -0.00762520590797  0.314158469439  0.233331307769  
3.11291313171  0.32057890296  -2.75518512726  -2.04228949547  -0.0381260290742  0.33093392849  0.366009891033  
3.120896101  1.44820964336  -2.93004631996  -1.901055336  -0.155554205179  0.362959802151  0.250106751919  
3.12895512581  1.21281945705  -3.03989505768  -1.94813334942  0.0579515658319  0.335509061813  0.102177761495  
3.1370639801  0.75997376442  -2.65430378914  -1.93468248844  -0.097602635622  0.376685172319  0.147928997874  
3.1451561451  1.65893983841  -2.96367359161  -1.68135786057  0.0198255348951  0.350759476423  0.0762520581484  
3.15328216553  0.739797472954  -2.62740206718  -1.70377600193  -0.105227842927  0.314158469439  -0.0274507403374  
3.16133403778  0.605288863182  -3.07576417923  -1.30921733379  0.0960775911808  0.369059979916  -0.0594766065478  
3.16962814331  1.63203811646  -2.53772950172  -1.17695057392  -0.0732019767165  0.317208558321  -0.222656011581  
3.17753314972  0.809293627739  -2.8583085537  -1.09400355816  0.00915024708956  0.301958143711  -0.141828835011  
3.18558597565  0.842920780182  -2.89641928673  -1.10521256924  0.0457512363791  0.410236090422  0.0228756181896  
3.19363594055  1.68808329105  -2.90090274811  -1.01778197289  0.0518513992429  0.366009891033  -0.097602635622  
3.20179700851  0.977429389954  -2.92780447006  -0.92586773634  -0.0106752887368  0.265357166529  -0.157079234719  
3.2099211216  0.540276348591  -2.66551280022  -0.822744488716  -0.0594766065478  0.337034106255  -0.0167754534632  
3.21798110008  1.3630207777  -2.5579059124  -0.75997376442  -0.0854023098946  0.419386327267  -0.175379738212  
3.22606301308  0.771182835102  -2.45254063606  -0.753248333931  -0.0137253701687  0.274507403374  -0.0716769322753  
3.23416113853  0.538034558296  -2.24629426003  -0.793600916862  0.0137253701687  0.269932299852  -0.0793021395802  
3.24233198166  1.5446075201  -2.18128156662  -0.681510388851  0.00762520590797  0.308058321476  -0.195205271244  
3.25052499771  1.45045137405  -2.56463122368  -0.75549018383  0.0152504118159  0.381260305643  -0.201305434108  
3.25864601135  0.387833237648  -2.64533638954  -0.867580711842  -0.0183004941791  0.31568351388  -0.250106751919  
3.2667131424  1.26213932037  -2.42339730263  -0.96846216917  -0.0335509069264  0.280607581139  -0.152504116297  
3.27473902702  1.4235496521  -2.49737691879  -0.838437139988  0.0396510697901  0.269932299852  -0.164704442024  
3.28280305862  0.629948735237  -2.51306962967  -0.896724224091  0.103702798486  0.222656011581  -0.103702798486  
3.29090714455  0.966220319271  -1.95934247971  -0.883273363113  0.0869273468852  0.416336238384  -0.0915024727583  
3.29899907112  2.00193691254  -2.06694936752  -0.865338861942  0.0213505774736  0.367534935474  -0.163179412484  
3.307117939  1.1276307106  -2.41442990303  -0.914658725262  -0.0289757829159  0.347709387541  -0.120478250086  
3.31524014473  0.576145291328  -2.28440499306  -1.10297083855  0.102177761495  0.279082536697  -0.140303790569  
3.32327413559  1.38095533848  -2.11626911163  -1.13211429119  0.0762520581484  0.373635083437  -0.154029160738  
3.33139801025  1.38543891907  -2.14092898369  -1.20833587646  0.097602635622  0.401085823774  -0.141828835011  
3.33962512016  0.470780223608  -2.04004764557  -1.6611815691  0.0549014806747  0.369059979916  -0.132678583264  
3.34767603874  1.20609402657  -1.6006526947  -1.7777557373  0.150979071856  0.36143475771  -0.179954856634  
3.35567307472  1.88536262512  -1.81586658955  -1.62531268597  0.0747270211577  0.370584994555  -0.190630152822  
3.36381101608  0.845162570477  -1.901055336  -1.84501004219  0.0884523913264  0.149454042315  -0.164704442024  
3.37188005447  0.535792708397  -1.74861228466  -2.02659678459  0.0884523913264  0.150979071856  -0.213505759835  
3.37999105453  1.58944368362  -2.0804002285  -2.10057640076  0.0671018138528  0.15860427916  -0.178429812193  
3.38811302185  1.18367600441  -1.75982129574  -2.11851096153  0.170804619789  0.199780389667  -0.170804619789  
3.39617800713  0.553727209568  -1.86070275307  -2.11626911163  0.106752879918  0.245531633496  -0.250106751919  
3.40429496765  1.46838593483  -1.53115665913  -1.94140791893  0.0625266879797  0.376685172319  -0.234856337309  
3.41239404678  1.73964500427  -1.73516142368  -1.89432990551  0.0625266879797  0.326358824968  -0.201305434108  
3.42048001289  0.437153071165  -1.29800832272  -2.03332209587  0.0823522210121  0.0823522210121  -0.202830478549  
3.42861914635  0.697203099728  -1.70601785183  -2.0826420784  0.0152504118159  0.114378087223  -0.213505759835  
3.43667697906  1.73964500427  -1.52443122864  -2.18576526642  0.0640517324209  0.202830478549  -0.213505759835  
3.44467401505  0.764457404613  -1.91226434708  -2.26647043228  0.105227842927  0.327883839607  -0.244006589055  
3.45276713371  0.764457404613  -1.82931745052  -2.13868737221  0.106752879918  0.350759476423  -0.22113096714  
3.46085095406  1.91674804688  -1.64100527763  -2.03556394577  -0.00915024708956  0.247056677938  -0.262307077646  
3.46911907196  1.2486884594  -1.91674804688  -2.13196182251  0.0320258662105  0.15860427916  -0.169279575348  
3.47717094421  0.271259069443  -1.69032514095  -2.22387599945  0.0366009883583  0.114378087223  -0.227231130004  
3.48526000977  1.37422990799  -1.83155918121  -2.04677295685  0.0579515658319  0.272982358932  -0.23638138175  
3.49337911606  1.49528765678  -2.12075281143  -2.07143306732  0.115903131664  0.36143475771  -0.228756174445  
3.50142002106  0.567178070545  -1.76206314564  -2.13868737221  0.187580063939  0.176904782653  -0.219605922699  
3.5096411705  1.12090528011  -1.79569029808  -1.93916606903  0.176904782653  0.20588055253  -0.257731974125  
3.51767396927  1.82483375072  -2.11851096153  -1.97055149078  0.0777771025896  0.269932299852  -0.269932299852  
3.52567815781  0.726346611977  -1.76654672623  -2.15213823318  0.0  0.309583365917  -0.228756174445  
3.53376603127  0.578387141228  -2.20369982719  -2.10730195045  -0.0442261956632  0.274507403374  -0.265357166529  
3.54182505608  1.69705057144  -2.23284339905  -2.04004764557  -0.0289757829159  0.131153538823  -0.233331307769  
3.54990410805  1.04692554474  -2.04901480675  -2.21266698837  0.0518513992429  0.192155182362  -0.231806263328  
3.55799603462  0.508890986443  -2.33372473717  -2.15886354446  0.128103464842  0.317208558321  -0.279082536697  
3.56606411934  1.59841096401  -2.05574035645  -1.94140791893  0.157079234719  0.161654368043  -0.298908084631  
3.57418107986  1.4280333519  -2.41218805313  -2.04453110695  0.0838772654533  0.193680226803  -0.263832122087  
3.58233094215  0.809293627739  -2.16783070564  -1.90553891659  0.0594766065478  0.26688221097  -0.250106751919  
3.59032416344  1.61858725548  -2.00193691254  -1.83604288101  0.114378087223  0.183004945517  -0.262307077646  
3.59843397141  0.833953499794  -2.22611784935  -1.80914115906  0.105227842927  0.26688221097  -0.341609239578  
3.6065890789  0.544759988785  -1.69256699085  -1.19936859608  0.123528338969  0.0884523913264  -0.276032447815  
3.61468315125  1.52891480923  -2.12299466133  -1.07831084728  0.120478250086  0.160129323602  -0.286707729101  
3.62273311615  1.40561521053  -2.20145797729  -1.16574144363  0.0823522210121  0.36143475771  -0.301958143711  
3.63082313538  0.452845722437  -2.05349850655  -1.16349971294  0.120478250086  0.0747270211577  -0.260782033205  
3.63891100883  0.786875486374  -2.24629426003  -0.97294574976  0.114378087223  0.250106751919  -0.262307077646  
3.64703702927  1.47735309601  -2.06246566772  -0.842920780182  0.122003294528  0.378210216761  -0.340084195137  
3.65514302254  1.06037640572  -1.96606791019  -0.818260848522  0.187580063939  0.0808271840215  -0.288232773542  
3.66326212883  0.587354362011  -1.7822394371  -0.789117336273  0.202830478549  0.288232773542  -0.289757817984  
3.67128896713  1.13883972168  -1.51546394825  -0.647883236408  0.149454042315  0.201305434108  -0.283657670021  
3.67937517166  1.53788208961  -1.65669798851  -0.596321582794  0.149454042315  0.210455685854  -0.340084195137  
3.68744897842  0.867580711842  -2.01090407372  -0.746522903442  0.170804619789  0.26688221097  -0.318733602762  
3.69559717178  0.421460390091  -1.91898977757  -0.858613431454  0.17385469377  0.109802961349  -0.362959802151  
3.70365309715  1.17695057392  -1.8382846117  -0.73531383276  0.218080893159  0.350759476423  -0.309583365917  
3.71173501015  1.29128289223  -1.81138288975  -0.609772443771  0.167754530907  0.105227842927  -0.350759476423  
3.71983599663  0.961736738682  -1.79793202877  -0.699444890022  0.0808271840215  0.298908084631  -0.3126334548  
3.72792196274  0.694961249828  -1.25317203999  -0.63667422533  0.0244006589055  0.202830478549  -0.352284520864  
3.73601603508  1.25541388988  -1.58496010303  -0.677026808262  0.0259256996214  0.240956500173  -0.298908084631  
3.74415898323  1.46838593483  -1.94364976883  -0.786875486374  0.100652717054  0.308058321476  -0.375160127878  
3.75227808952  0.999847531319  -1.95485877991  -0.838437139988  0.157079234719  0.198255360126  -0.318733602762  
3.76039099693  0.681510388851  -1.86070275307  -0.798084557056  0.170804619789  0.323308736086  -0.320258647203  
3.76860809326  1.09176170826  -1.82707560062  -0.706170320511  0.0122003294528  0.115903131664  -0.335509061813  
3.7766251564  1.35181176662  -1.83380103111  -0.659092307091  0.0930275097489  0.314158469439  -0.31568351388  
3.78468394279  1.07382726669  -1.62307083607  -0.524583697319  0.143353864551  0.0930275097489  -0.318733602762  
3.79274010658  0.737555682659  -1.37422990799  -0.663575947285  -0.0305008236319  0.320258647203  -0.306533277035  
3.80081415176  1.01778197289  -1.58496010303  -0.811535418034  0.112853050232  0.0732019767165  -0.350759476423  
3.80890703201  1.56702554226  -1.8988134861  -0.710653960705  0.0366009883583  0.369059979916  -0.324833780527  
3.81707406044  1.19264316559  -1.95261704922  -0.824986279011  0.048801317811  0.128103464842  -0.289757817984  
3.82512307167  0.690477669239  -1.78448116779  -0.80705177784  0.0838772654533  0.332458972931  -0.388885498047  
3.83320808411  1.0132983923  -1.47511136532  -0.645641446114  0.102177761495  0.102177761495  -0.338559150696  
3.8413169384  1.57823467255  -1.56926739216  -0.681510388851  0.0854023098946  0.349234431982  -0.320258647203  
3.84957098961  1.35629534721  -1.71050143242  -0.813777208328  0.0838772654533  0.132678583264  -0.36143475771  
3.85765910149  0.726346611977  -1.69705057144  -0.742039263248  -0.0106752887368  0.301958143711  -0.28213262558  
3.86561799049  0.92586773634  -1.74188685417  -0.768941044807  0.163179412484  0.0594766065478  -0.29738304019  
3.87367606163  1.67463243008  -1.41458249092  -0.529067277908  -0.0213505774736  0.338559150696  -0.340084195137  
3.88178801537  1.30921733379  -1.43924236298  -0.618739724159  0.0594766065478  0.123528338969  -0.318733602762  
3.88985109329  0.349722445011  -1.32042646408  -0.710653960705  0.0884523913264  0.289757817984  -0.26688221097  
3.89794898033  0.959494888783  -1.38095533848  -0.529067277908  -0.0808271840215  0.170804619789  -0.272982358932  
3.90604996681  1.87863719463  -1.56254196167  -0.620981514454  0.125053375959  0.218080893159  -0.337034106255  
3.91411995888  0.96846216917  -1.54909110069  -0.652366876602  -0.00152504118159  0.256206929684  -0.294332951307  
3.92227005959  0.369898736477  -1.44148421288  -0.766699194908  0.0122003294528  0.169279575348  -0.271457344294  
3.93040204048  1.26662302017  -1.08951997757  -0.39231684804  0.164704442024  0.347709387541  -0.327883839607  
3.93847703934  1.64548897743  -1.30025017262  -0.425944000483  0.0350759476423  0.132678583264  -0.248581707478  
3.94663715363  0.64115780592  -1.15901601315  -0.585112571716  -0.0259256996214  0.33093392849  -0.265357166529  
3.95466995239  0.342997014523  -1.35629534721  -0.710653960705  0.143353864551  0.195205271244  -0.256206929684  
3.96282410622  1.34060275555  -1.31818461418  -0.459571152925  0.0625266879797  0.231806263328  -0.318733602762  
3.97092008591  1.62979626656  -1.38543891907  -0.443878501654  0.0152504118159  0.28213262558  -0.240956500173  
3.97900295258  0.564936280251  -1.37647163868  -0.387833237648  0.128103464842  0.0198255348951  -0.277557492256  
3.98709607124  0.414734959602  -1.40113162994  -0.387833237648  0.134203627706  0.260782033205  -0.240956500173  
3.99520206451  1.54684925079  -1.65669798851  -0.363173305988  -0.0213505774736  0.207405596972  -0.23638138175  
4.00328111649  1.44148421288  -1.69480872154  -0.468538403511  -0.0167754534632  0.154029160738  -0.311108410358  
4.01140713692  0.289193570614  -1.7239522934  -0.620981514454  0.118953213096  0.280607581139  -0.279082536697  
4.01959609985  0.515616416931  -1.45717680454  -0.334029763937  0.0991276800632  0.118953213096  -0.186055019498  
4.02763915062  1.34956991673  -1.43475878239  -0.210730195045  -0.0533764399588  0.216555848718  -0.233331307769  
4.03558897972  1.20833587646  -1.45941865444  -0.28470993042  -0.0289757829159  0.306533277035  -0.224181056023  
4.04367995262  0.264533638954  -1.39216434956  -0.365415126085  0.0854023098946  0.132678583264  -0.303483188152  
4.05176210403  0.401284098625  -1.49080395699  -0.354206055403  0.0945525541902  0.231806263328  -0.250106751919  
4.05985212326  1.14556515217  -1.36974620819  -0.210730195045  0.0122003294528  0.3461843431  -0.257731974125  
4.06800413132  1.08279454708  -1.67239069939  -0.318337112665  -0.122003294528  0.196730315685  -0.201305434108  
4.07607197762  0.40352588892  -1.64997255802  -0.396800458431  -0.0228756181896  0.131153538823  -0.195205271244  
4.08421397209  0.251082777977  -1.41234064102  -0.378865987062  0.0701518952847  0.379735261202  -0.169279575348  
4.09231495857  0.672543168068  -1.44372594357  -0.0425943993032  0.108277924359  0.295857995749  -0.333984017372  
4.1005179882  1.04692554474  -1.22851216793  -0.134508639574  0.0640517324209  0.167754530907  -0.341609239578  
4.10866117477  0.506649196148  -1.18143415451  -0.186070278287  -0.0442261956632  0.143353864551  -0.129628494382  
4.11668610573  0.448362112045  -1.20385229588  -0.260050028563  -0.0274507403374  0.25163179636  -0.271457344294  
4.12475299835  0.672543168068  -1.34508633614  -0.192795708776  0.0823522210121  0.332458972931  -0.228756174445  
4.13285493851  0.383349597454  -1.30249190331  -0.271259069443  0.105227842927  0.308058321476  -0.254681885242  
4.14095807076  0.378865987062  -1.07158541679  -0.401284098625  0.111328005791  0.227231130004  -0.222656011581  
4.14902710915  0.506649196148  -0.73531383276  -0.141234070063  0.0655767694116  0.105227842927  -0.259256988764  
4.1571199894  0.733072042465  -0.892240583897  -0.156926736236  -0.00305008236319  0.0289757829159  -0.123528338969  
4.16525912285  0.48647287488  -0.694961249828  -0.15468493104  0.0122003294528  0.00305008236319  -0.256206929684  
4.17336010933  0.174861222506  -0.598563432693  -0.248840972781  0.0823522210121  0.0122003294528  -0.320258647203  
4.1816380024  0.275742709637  -0.762215614319  -0.421460390091  0.115903131664  -0.0137253701687  -0.186055019498  
4.18952703476  0.30936986208  -0.605288863182  -0.329546153545  0.141828835011  -0.0854023098946  -0.111328005791  
4.19760298729  0.239873722196  -0.479747444391  -0.286951750517  0.102177761495  -0.183004945517  -0.140303790569  
4.20568609238  0.0986396670341  -0.475263834  -0.421460390091  0.0289757829159  -0.128103464842  -0.164704442024  
4.21378612518  -0.549243569374  -0.19055390358  -0.372140556574  0.0  -0.263832122087  -0.137253701687  
4.2218849659  -0.791359126568  -0.0403525903821  -0.212972000241  0.0838772654533  -0.0838772654533  -0.163179412484  
4.22996616364  -0.903449654579  -0.0807051807642  -0.423702180386  0.097602635622  -0.160129323602  -0.0472762770951  
4.238063097  -1.17022514343  -0.208488374949  -0.564936280251  0.141828835011  -0.0152504118159  -0.0655767694116  
4.24621796608  -1.38319706917  0.141234070063  -0.497681945562  0.0198255348951  -0.0457512363791  0.0884523913264  
4.25438094139  -1.30025017262  0.32057890296  -0.564936280251  -0.048801317811  -0.149454042315  0.183004945517  
4.26245713234  -1.26213932037  0.170377597213  -0.538034558296  0.0350759476423  -0.201305434108  0.195205271244  
4.27059412003  -1.28679931164  0.401284098625  -0.511132776737  0.114378087223  -0.237906426191  0.138778746128  
4.27864098549  -1.3069756031  0.235390111804  -0.555968999863  0.147928997874  -0.111328005791  0.0289757829159  
4.2866590023  -1.44148421288  0.123299583793  -0.800326347351  0.0884523913264  -0.0640517324209  0.0122003294528  
4.29472112656  -1.53339838982  0.466296583414  -0.564936280251  0.0366009883583  -0.213505759835  0.155554205179  
4.30281615257  -1.27110660076  0.547001779079  -0.506649196148  -0.0259256996214  -0.289757817984  0.218080893159  
4.31089901924  -1.22627031803  0.36765691638  -0.558210849762  0.0152504118159  -0.048801317811  0.254681885242  
4.31902313232  -1.28007388115  0.399042278528  -0.775666475296  0.0823522210121  -0.160129323602  0.176904782653  
4.3270881176  -1.59168553352  0.372140556574  -0.829469919205  0.097602635622  -0.207405596972  0.109802961349  
4.33522701263  -1.45717680454  0.578387141228  -0.773424625397  0.0640517324209  -0.132678583264  0.129628494382  
4.34331512451  -1.37647163868  0.455087542534  -0.589596152306  0.0  -0.218080893159  0.247056677938  
4.35137104988  -1.1904014349  0.515616416931  -0.596321582794  -0.0930275097489  -0.276032447815  0.248581707478  
4.35958600044  -1.14108157158  0.266775459051  -0.795842766762  0.0289757829159  -0.00305008236319  0.208930641413  
4.36760807037  -1.2464466095  0.257808208466  -0.786875486374  0.0915024727583  -0.28213262558  0.0671018138528  
4.37569594383  -1.69256699085  0.307128041983  -0.977429389954  0.109802961349  -0.15860427916  0.0930275097489  
4.38381314278  -1.53115665913  0.40352588892  -1.02226555347  0.0854023098946  -0.294332951307  0.245531633496  
4.3918659687  -1.1298725605  0.701686680317  -0.744281113148  0.00762520590797  -0.147928997874  0.225706100464  
4.39995217323  -0.847404360771  0.36765691638  -0.730830252171  -0.048801317811  -0.237906426191  0.102177761495  
4.40804505348  -1.50425493717  0.3564478755  -0.986396670341  0.00152504118159  -0.118953213096  0.184529989958  
4.41613197327  -1.93692433834  0.791359126568  -1.03123283386  0.0594766065478  -0.306533277035  0.28213262558  
4.42426609993  -1.22178673744  0.634432375431  -0.878789722919  0.166229486465  -0.0183004941791  0.111328005791  
4.43233704567  -0.623223304749  0.860855221748  -0.809293627739  0.146403953433  -0.199780389667  0.152504116297  
4.44038701057  -1.36974620819  0.363173305988  -0.876547932625  0.0762520581484  -0.135728672147  0.128103464842  
4.44870901108  -2.04228949547  0.721862971783  -1.21057772636  0.0289757829159  -0.256206929684  0.169279575348  
4.45662307739  -1.20161044598  0.587354362011  -1.20609402657  -0.0442261956632  -0.202830478549  0.0747270211577  
4.46473312378  -0.620981514454  0.576145291328  -0.930351376534  -0.0427011549473  -0.118953213096  0.219605922699  
4.47278499603  -1.61634540558  0.876547932625  -0.845162570477  0.0305008236319  -0.31568351388  0.170804619789  
4.48088502884  -2.02883863449  0.816019058228  -1.02899098396  0.0274507403374  -0.105227842927  0.0655767694116  
4.48901796341  -0.715137541294  0.80256819725  -1.04468369484  0.0869273468852  -0.152504116297  0.143353864551  
4.4971139431  -0.562694430351  0.757731974125  -1.02226555347  0.106752879918  -0.286707729101  0.218080893159  
4.5052421093  -1.99072778225  0.851888000965  -1.07158541679  0.134203627706  -0.105227842927  0.207405596972  
4.51329803467  -1.52443122864  0.903449654579  -1.19488501549  0.108277924359  -0.18910510838  0.23638138175  
4.52155709267  -0.383349597454  0.894482433796  -1.60961997509  0.0808271840215  -0.254681885242  0.233331307769  
4.52971315384  -1.3652626276  0.910175085068  -1.70377600193  0.0838772654533  -0.146403953433  0.233331307769  
4.53771996498  -1.99745321274  1.1904014349  -2.02435493469  0.0335509069264  -0.195205271244  0.167754530907  
4.54579901695  -0.48647287488  1.3047337532  -1.94589149952  0.0  -0.314158469439  0.0823522210121  
4.55386209488  -0.706170320511  1.57375097275  -2.10057640076  -0.0533764399588  -0.240956500173  0.163179412484  
4.56199717522  -1.88536262512  1.64548897743  -2.2552614212  -0.0503263585269  -0.22113096714  0.233331307769  
4.5700750351  -1.18367600441  1.67014884949  -2.16783070564  -0.00305008236319  -0.0793021395802  0.237906426191  
4.57818603516  -0.396800458431  1.69480872154  -2.12523651123  0.0518513992429  -0.201305434108  0.167754530907  
4.58626914024  -1.38992249966  1.76654672623  -2.22163414955  0.109802961349  -0.291282862425  0.160129323602  
4.59440994263  -1.17246687412  1.69480872154  -2.27767944336  0.132678583264  -0.193680226803  0.26688221097  
4.60258698463  -0.547001779079  1.50425493717  -2.30009770393  0.0457512363791  -0.122003294528  0.167754530907  
4.61058712006  -1.25541388988  1.52443122864  -2.43908977509  -0.0732019767165  -0.268407255411  0.183004945517  
4.61864995956  -2.00193691254  1.79344844818  -2.36286830902  -0.0213505774736  -0.276032447815  0.294332951307  
4.62676715851  -0.576145291328  1.93468248844  -2.20145797729  0.115903131664  -0.253156840801  0.207405596972  
4.63481807709  -0.746522903442  1.81810832024  -2.30906486511  0.048801317811  -0.135728672147  0.187580063939  
4.64293909073  -2.03332209587  1.68135786057  -2.37631917  -0.103702798486  -0.164704442024  0.263832122087  
4.65108704567  -1.37647163868  1.57375097275  -2.27543759346  0.0899774283171  -0.0991276800632  0.207405596972  
4.65916204453  -0.125541388988  1.41682422161  -2.10281825066  -0.0320258662105  -0.102177761495  0.152504116297  
4.66731309891  -1.17470872402  1.56478381157  -2.29337215424  0.0777771025896  -0.280607581139  0.259256988764  
4.67537713051  -2.04004764557  1.75982129574  -2.2530195713  0.0213505774736  -0.259256988764  0.166229486465  
4.68342709541  -0.782391905785  1.69929242134  -2.28664684296  0.0930275097489  -0.248581707478  0.179954856634  
4.69160294533  -0.488714694977  1.49304580688  -2.36286830902  -0.0381260290742  -0.247056677938  0.279082536697  
4.69965314865  -1.86967003345  1.34956991673  -2.34941744804  0.144878908992  -0.29738304019  0.201305434108  
4.70770215988  -1.07382726669  1.37422990799  -2.13868737221  -0.0167754534632  -0.228756174445  0.215030804276  
4.71577715874  -0.300402611494  1.663423419  -2.09833478928  0.0472762770951  -0.306533277035  0.309583365917  
4.72386407852  -1.5401238203  1.74412858486  -2.35390114784  0.118953213096  -0.317208558321  0.228756174445  
4.73193717003  -1.82035017014  1.75309586525  -2.31130671501  -0.0381260290742  -0.29738304019  0.190630152822  
4.74002814293  -0.742039263248  1.55133295059  -2.31130671501  -0.0991276800632  -0.207405596972  0.26688221097  
4.74815797806  -1.25541388988  1.35853719711  -2.39425373077  0.0396510697901  -0.233331307769  0.210455685854  
4.7562789917  -1.73964500427  1.3630207777  -2.32699942589  0.147928997874  -0.207405596972  0.167754530907  
4.76438903809  -0.51785826683  1.35629534721  -2.24181056023  0.0915024727583  -0.195205271244  0.277557492256  
4.77254605293  -0.988638460636  1.51322209835  -2.49737691879  0.0716769322753  -0.155554205179  0.167754530907  
4.78071808815  -1.89432990551  1.67463243008  -2.46823334694  0.0289757829159  -0.17385469377  0.161654368043  
4.78877210617  -0.934835016727  1.56702554226  -2.36511015892  -0.0274507403374  -0.227231130004  0.298908084631  
4.79680514336  -0.997605681419  1.44596779346  -2.48168420792  -0.0442261956632  -0.283657670021  0.263832122087  
4.80492711067  -2.05798196793  1.48183679581  -2.48840975761  0.00762520590797  -0.303483188152  0.199780389667  
4.81299114227  -1.03123283386  1.38543891907  -2.50634407997  0.0320258662105  -0.172329649329  0.20435552299  
4.82110595703  -0.632190585136  1.35853719711  -2.45478248596  0.0732019767165  -0.146403953433  0.256206929684  
4.82922506332  -1.93244063854  1.45941865444  -2.51082777977  0.103702798486  -0.271457344294  0.301958143711  
4.83731508255  -1.25765573978  1.44148421288  -2.63412737846  -0.0320258662105  -0.291282862425  0.245531633496  
4.84537315369  -1.03795826435  1.5423656702  -2.6744799614  0.0106752887368  -0.254681885242  0.184529989958  
4.8534719944  -1.71498501301  1.71946871281  -2.74621796608  0.0396510697901  -0.196730315685  0.216555848718  
4.86167502403  -0.811535418034  1.60961997509  -2.49065160751  0.0274507403374  -0.181479901075  0.207405596972  
4.86967897415  -0.97294574976  1.62082898617  -2.48616790771  0.0213505774736  -0.283657670021  0.279082536697  
4.87776899338  -1.86294460297  1.62082898617  -2.68793082237  0.0411761105061  -0.29738304019  0.254681885242  
4.88585209846  -0.842920780182  1.43700051308  -2.58032393456  0.0427011549473  -0.201305434108  0.268407255411  
4.8939371109  -1.3069756031  1.45941865444  -2.74397611618  0.0655767694116  -0.285182714462  0.20435552299  
4.90202999115  -1.43700051308  1.44372594357  -2.62067651749  0.0472762770951  -0.276032447815  0.187580063939  
4.91012215614  -0.535792708397  1.34284448624  -2.74173426628  0.0213505774736  -0.176904782653  0.192155182362  
4.91819095612  -1.43027508259  1.59841096401  -2.53772950172  0.0732019767165  -0.285182714462  0.157079234719  
4.92638206482  -0.665817737579  1.44596779346  -2.60498380661  0.0671018138528  -0.292807906866  0.138778746128  
4.93441700935  -1.5401238203  1.55357468128  -2.79105424881  0.0320258662105  -0.233331307769  0.170804619789  
4.94260001183  -1.06485998631  1.27110660076  -2.71931624413  0.0991276800632  -0.192155182362  0.141828835011  
4.95057797432  -0.383349597454  1.03123283386  -2.62964367867  0.0427011549473  -0.222656011581  0.184529989958  
4.95869207382  -1.47735309601  1.28904104233  -2.61170935631  0.0960775911808  -0.337034106255  0.125053375959  
4.96677708626  -1.12090528011  1.5401238203  -2.75070142746  0.131153538823  -0.314158469439  0.199780389667  
4.97486114502  -0.573903501034  1.55805838108  -2.7282834053  0.0503263585269  -0.247056677938  0.143353864551  
4.98299694061  -1.40113162994  1.6006526947  -2.6722381115  0.102177761495  -0.224181056023  0.184529989958  
4.99108314514  -0.914658725262  1.44596779346  -2.36735200882  0.147928997874  -0.20588055253  0.219605922699  
4.9991979599  -0.186070278287  1.19712686539  -2.58256578445  0.105227842927  -0.234856337309  0.294332951307  
5.00729799271  -1.38768076897  1.26886475086  -2.95918989182  0.0350759476423  -0.184529989958  0.332458972931  
5.0153670311  -1.30025017262  1.46390223503  -2.90762829781  0.097602635622  -0.150979071856  0.257731974125  
5.02343297005  -0.298160791397  1.4280333519  -2.5579059124  0.131153538823  -0.160129323602  0.178429812193  
5.03154802322  -0.822744488716  1.30025017262  -2.53100419044  0.123528338969  -0.187580063939  0.147928997874  
5.03965497017  -1.55357468128  1.17695057392  -2.735008955  0.048801317811  -0.23638138175  0.23638138175  
5.04772305489  -0.562694430351  1.09624540806  -2.82692313194  0.149454042315  -0.323308736086  0.28213262558  
5.05581116676  -0.165893986821  1.01778197289  -2.40994644165  0.163179412484  -0.28213262558  0.111328005791  
5.06393098831  -1.20833587646  1.09176170826  -2.5511803627  0.195205271244  -0.311108410358  0.242481544614  
5.07201504707  -1.4235496521  1.33836090565  -2.87175941467  0.0518513992429  -0.157079234719  0.311108410358  
5.08012509346  -0.318337112665  1.40785706043  -2.81347227097  0.0747270211577  -0.231806263328  0.15860427916  
5.08828115463  -0.248840972781  1.29800832272  -2.46374988556  0.190630152822  -0.318733602762  0.36143475771  
5.09630608559  -1.31370103359  1.15229058266  -2.54669690132  0.192155182362  -0.144878908992  0.190630152822  
5.10438704491  -1.23972117901  1.15004885197  -2.77536153793  0.114378087223  -0.306533277035  0.369059979916  
5.11254405975  -0.508890986443  1.23075401783  -2.6699962616  0.140303790569  -0.210455685854  0.186055019498  
5.12065815926  -0.197279334068  1.26886475086  -2.36062645912  0.155554205179  -0.324833780527  0.20588055253  
5.12872695923  -0.724104821682  1.08279454708  -2.42563891411  0.152504116297  -0.150979071856  0.256206929684  
5.1368060112  -0.97294574976  0.970703959465  -2.76639413834  0.149454042315  -0.283657670021  0.111328005791  
5.14487099648  -0.625465154648  1.01554012299  -2.77760338783  0.157079234719  -0.0747270211577  0.294332951307  
5.15293598175  -0.573903501034  1.0671018362  -2.45926618576  0.208930641413  -0.280607581139  0.268407255411  
5.161039114  -0.5940797925  1.03347468376  -2.3740773201  0.128103464842  -0.250106751919  0.137253701687  
5.16912603378  -0.52234184742  0.804809987545  -2.53772950172  0.198255360126  -0.0381260290742  0.147928997874  
5.17726302147  -0.719621181488  0.432669430971  -2.39201188087  0.178429812193  -0.215030804276  0.265357166529  
5.18533301353  -0.701686680317  0.103123284876  -2.58929109573  0.207405596972  -0.283657670021  0.289757817984  
5.19337701797  -0.744281113148  0.269017279148  -2.46823334694  0.20588055253  -0.242481544614  0.260782033205  
5.20161604881  -0.842920780182  0.181586652994  -2.52652049065  0.164704442024  -0.097602635622  0.164704442024  
5.20960211754  -0.464054793119  0.105365097523  -2.26198673248  0.190630152822  -0.0991276800632  0.140303790569  
5.21769714355  -0.730830252171  0.103123284876  -2.23284339905  0.143353864551  -0.152504116297  0.114378087223  
5.22578215599  -0.547001779079  0.0134508628398  -2.31354856491  0.23638138175  -0.196730315685  0.117428168654  
5.23387908936  -0.627706944942  0.0807051807642  -2.35165929794  0.198255360126  -0.186055019498  0.137253701687  
5.24198102951  -0.607530653477  0.0717379376292  -2.26198673248  0.184529989958  -0.195205271244  0.123528338969  
5.25007605553  -0.703928530216  -0.067254319787  -2.11851096153  0.210455685854  -0.111328005791  0.164704442024  
5.25817203522  -0.674784958363  -0.387833237648  -2.1992161274  0.179954856634  0.00152504118159  0.0244006589055  
5.26626110077  -0.692719459534  -0.304886221886  -2.13420367241  0.250106751919  0.0640517324209  -0.0701518952847  
5.27439403534  -0.923625946045  -0.00672543141991  -2.26422858238  0.250106751919  0.00915024708956  -0.0350759476423  
5.28248810768  -0.690477669239  0.253324598074  -2.0848839283  0.169279575348  0.192155182362  -0.216555848718  
5.2906460762  -0.724104821682  -0.0963978543878  -2.10057640076  0.22113096714  0.187580063939  -0.0838772654533  
5.29864215851  -0.659092307091  0.0403525903821  -1.96830964088  0.227231130004  0.201305434108  -0.327883839607  
5.30670809746  -0.789117336273  0.150201305747  -1.91450619698  0.250106751919  0.192155182362  -0.0274507403374  
5.31478905678  -0.939318597317  -0.192795708776  -1.97503507137  0.253156840801  0.129628494382  -0.347709387541  
5.32288312912  -0.681510388851  0.145717680454  -1.93916606903  0.210455685854  0.0793021395802  -0.0320258662105  
5.33099317551  -0.730830252171  0.0941560417414  -1.87639546394  0.216555848718  0.0777771025896  -0.276032447815  
5.33912801743  -0.789117336273  0.174861222506  -1.8382846117  0.254681885242  0.125053375959  0.056426525116  
5.34722304344  -0.836195349693  0.0851887986064  -1.73964500427  0.26688221097  0.211980730295  -0.126578420401  
5.35530996323  -0.946044027805  0.0807051807642  -1.8382846117  0.18910510838  0.295857995749  -0.117428168654  
5.36341500282  -0.822744488716  0.318337112665  -1.76878857613  0.234856337309  0.3461843431  0.0274507403374  
5.37147212029  -1.02226555347  0.217455625534  -1.7217104435  0.254681885242  0.323308736086  -0.00305008236319  
5.37956500053  -0.773424625397  0.020176295191  -1.83604288101  0.201305434108  0.292807906866  0.103702798486  
5.38765096664  -1.05589282513  0.32057890296  -1.79569029808  0.240956500173  0.22113096714  -0.0579515658319  
5.39564394951  -0.809293627739  0.121057771146  -1.79344844818  0.169279575348  0.122003294528  0.140303790569  
5.40373516083  -0.981913030148  0.338513404131  -1.71274328232  0.242481544614  0.0960775911808  0.166229486465  
5.4118411541  -0.865338861942  0.215213805437  -1.73067772388  0.114378087223  0.0122003294528  0.269932299852  
5.41993713379  -0.87430614233  0.293677181005  -1.74188685417  0.0930275097489  0.0945525541902  0.227231130004  
5.4280090332  -0.824986279011  0.513374626637  -1.69705057144  0.193680226803  0.0335509069264  0.152504116297  
5.43613100052  -0.845162570477  0.20176294446  -1.64997255802  0.225706100464  0.169279575348  0.0213505774736  
5.44418716431  -1.25541388988  0.408009529114  -1.71274328232  0.228756174445  -0.0320258662105  0.202830478549  
5.45233798027  -0.896724224091  0.551485419273  -1.64548897743  0.172329649329  0.141828835011  0.181479901075  
5.46045613289  -1.00433111191  0.20176294446  -1.63203811646  0.106752879918  -0.0122003294528  0.097602635622  
5.46856403351  -1.18143415451  0.365415126085  -1.53115665913  0.144878908992  0.161654368043  0.277557492256  
5.47677397728  -0.946044027805  0.461812973022  -1.55357468128  0.163179412484  -0.269932299852  0.134203627706  
5.48474001884  -0.822744488716  0.289193570614  -1.16349971294  0.152504116297  0.176904782653  0.190630152822  
5.49275708199  -1.05813455582  0.430427610874  -1.08055269718  0.253156840801  -0.26688221097  0.122003294528  
5.50083899498  -0.977429389954  0.647883236408  -0.858613431454  0.149454042315  0.0655767694116  0.280607581139  
5.50890898705  -0.988638460636  0.553727209568  -0.948285877705  0.0472762770951  -0.394985675812  0.0732019767165  
5.51707816124  -1.10297083855  0.325062543154  -0.941560447216  -0.0289757829159  -0.138778746128  0.210455685854  
5.52512907982  -1.04244196415  0.625465154648  -0.959494888783  0.0335509069264  -0.161654368043  0.227231130004  
5.53325009346  -1.16125786304  0.5940797925  -0.894482433796  0.097602635622  -0.123528338969  0.0701518952847  
5.54137897491  -0.744281113148  0.645641446114  -1.07158541679  0.164704442024  0.0289757829159  0.207405596972  
5.54954814911  -0.728588402271  0.638916015625  -1.16798329353  0.126578420401  -0.00915024708956  0.274507403374  
5.55766296387  -1.09400355816  0.753248333931  -1.25317203999  0.0259256996214  -0.135728672147  0.0884523913264  
5.56566810608  -1.10072898865  0.775666475296  -1.43924236298  0.00915024708956  -0.196730315685  0.103702798486  
5.57378411293  -1.17246687412  0.654608666897  -1.62082898617  0.0640517324209  -0.231806263328  0.123528338969  
5.58181595802  -1.01554012299  0.800326347351  -1.58720183372  0.176904782653  -0.134203627706  0.187580063939  
5.58991909027  -0.786875486374  0.800326347351  -1.69705057144  0.118953213096  -0.0991276800632  0.260782033205  
5.59805107117  -0.721862971783  0.677026808262  -1.82707560062  -0.00305008236319  -0.244006589055  0.276032447815  
5.60604500771  -0.813777208328  0.650125086308  -1.9032971859  -0.00762520590797  -0.314158469439  0.277557492256  
5.61413908005  -1.14556515217  0.773424625397  -1.86967003345  0.0640517324209  -0.187580063939  0.128103464842  
5.62228417397  -0.979671239853  0.746522903442  -1.67911612988  0.112853050232  -0.305008232594  0.118953213096  
5.63034701347  -0.887757003307  1.07158541679  -1.69032514095  0.0396510697901  -0.295857995749  0.146403953433  
5.63853502274  -0.748764753342  0.751006543636  -1.85173547268  0.00610016472638  -0.152504116297  0.152504116297  
5.64665102959  -0.838437139988  0.795842766762  -2.03780579567  -0.0198255348951  -0.320258647203  0.242481544614  
5.65468811989  -0.587354362011  0.589596152306  -2.10730195045  0.0350759476423  -0.366009891033  0.309583365917  
5.66279196739  -0.775666475296  0.863097071648  -1.99072778225  0.0427011549473  -0.125053375959  0.231806263328  
5.67085599899  -1.05365097523  0.813777208328  -1.88087904453  0.0823522210121  -0.181479901075  0.225706100464  
5.67891311646  -0.919142305851  1.01778197289  -1.69705057144  0.0701518952847  -0.230281218886  0.138778746128  
5.68702602386  -0.777908265591  0.881031572819  -1.8427683115  0.0991276800632  -0.167754530907  0.208930641413  
5.69509911537  -0.789117336273  1.31145918369  -1.84949374199  0.0960775911808  -0.105227842927  0.30043309927  
5.70317697525  -0.48647287488  0.975187599659  -1.78896486759  0.0625266879797  -0.23638138175  0.285182714462  
5.71125602722  -0.753248333931  1.09624540806  -1.91002261639  0.0503263585269  -0.294332951307  0.15860427916  
5.71935510635  -1.05589282513  0.609772443771  -2.20145797729  0.00915024708956  -0.0289757829159  0.215030804276  
5.72743606567  -0.712895750999  0.809293627739  -1.95037519932  -0.0305008236319  -0.154029160738  0.245531633496  
5.73571896553  -0.923625946045  0.96846216917  -1.84949374199  0.0106752887368  -0.211980730295  0.115903131664  
5.7436311245  -0.690477669239  1.00433111191  -1.86070275307  0.0625266879797  -0.234856337309  0.260782033205  
5.75171804428  -0.553727209568  1.27110660076  -1.85621917248  0.134203627706  -0.0747270211577  0.152504116297  
5.75984811783  -0.369898736477  1.04020011425  -2.03108024597  0.0610016472638  -0.163179412484  0.233331307769  
5.76794409752  -0.742039263248  1.04020011425  -1.92123162746  -0.00305008236319  -0.225706100464  0.22113096714  
5.77603006363  -0.757731974125  1.16125786304  -1.94364976883  0.100652717054  -0.332458972931  0.254681885242  
5.78411602974  -1.08055269718  0.948285877705  -1.98848593235  0.0823522210121  -0.272982358932  0.0762520581484  
5.79217195511  -0.73531383276  0.784633696079  -1.99745321274  0.0472762770951  -0.118953213096  0.318733602762  
5.80026507378  -0.766699194908  1.08727812767  -1.87415361404  0.0503263585269  -0.0808271840215  0.201305434108  
5.8084089756  -0.459571152925  1.14332342148  -1.8988134861  0.0503263585269  -0.157079234719  0.164704442024  
5.81660795212  -0.670301377773  0.856371641159  -1.93692433834  0.0747270211577  -0.224181056023  0.31568351388  
5.82457900047  -0.816019058228  0.99312210083  -1.95934247971  0.108277924359  -0.239431470633  0.269932299852  
5.8327190876  -0.578387141228  1.25989747047  -1.97279334068  0.0579515658319  -0.276032447815  0.111328005791  
5.84076595306  -0.612014293671  1.08727812767  -1.95037519932  0.112853050232  -0.26688221097  0.0823522210121  
5.84886693954  -0.580628931522  0.907933294773  -2.02883863449  0.0701518952847  -0.219605922699  0.193680226803  
5.85695195198  -0.585112571716  1.07158541679  -1.93916606903  0.0671018138528  -0.172329649329  0.230281218886  
5.8650290966  -0.665817737579  1.28455746174  -1.86070275307  0.0854023098946  -0.114378087223  0.262307077646  
5.87312412262  -0.746522903442  1.20833587646  -1.8427683115  0.0777771025896  -0.056426525116  0.213505759835  
5.88125610352  -0.656850516796  1.0110565424  -1.92123162746  0.123528338969  -0.0854023098946  0.154029160738  
5.8893020153  -0.654608666897  0.99312210083  -1.95037519932  0.132678583264  -0.048801317811  0.114378087223  
5.89741396904  -0.939318597317  1.15453243256  -1.83155918121  0.0899774283171  -0.128103464842  0.0915024727583  
5.90563011169  -0.795842766762  1.31145918369  -1.93692433834  0.128103464842  -0.0335509069264  0.0808271840215  
5.9136531353  -0.580628931522  1.32042646408  -1.97951877117  0.102177761495  -0.0625266879797  0.0366009883583  
5.92173314095  -0.961736738682  1.23972117901  -1.65445613861  0.135728672147  -0.128103464842  0.128103464842  
5.9298479557  -0.75997376442  1.19488501549  -1.79344844818  0.105227842927  -0.0244006589055  0.0320258662105  
5.93789601326  -0.553727209568  1.26886475086  -1.81362473965  0.105227842927  0.0427011549473  -0.0655767694116  
5.94598793983  -0.679268598557  1.36077904701  -1.71274328232  0.122003294528  -0.0991276800632  0.122003294528  
5.95412898064  -0.690477669239  1.46838593483  -1.97503507137  0.106752879918  0.0732019767165  -0.202830478549  
5.9621860981  -0.564936280251  1.14556515217  -1.74861228466  0.131153538823  0.0411761105061  0.105227842927  
5.97030806541  -0.739797472954  1.00433111191  -1.67014884949  0.186055019498  -0.196730315685  -0.00915024708956  
5.97841310501  -0.829469919205  0.959494888783  -1.75085401535  0.181479901075  0.228756174445  -0.242481544614  
5.98666810989  -0.771182835102  1.15004885197  -1.68359971046  0.118953213096  -0.230281218886  0.0259256996214  
5.99468517303  -0.650125086308  1.40561521053  -1.78672301769  0.126578420401  0.439211845398  0.0640517324209  
6.00276899338  -0.717379391193  1.35853719711  -1.64997255802  0.132678583264  -0.150979071856  0.147928997874  
6.01083993912  -0.809293627739  1.13659799099  -1.74637043476  0.0869273468852  0.369059979916  0.0335509069264  
6.01890897751  -0.829469919205  1.1253888607  -1.7777557373  0.118953213096  0.0152504118159  0.289757817984  
6.02698612213  -1.0693436861  1.35405361652  -1.44148421288  0.172329649329  -0.00457512354478  0.15860427916  
6.03504014015  -0.995363891125  1.41234064102  -1.58047640324  0.126578420401  0.149454042315  0.259256988764  
6.04309511185  -0.672543168068  1.17470872402  -1.76654672623  0.117428168654  0.0625266879797  0.274507403374  
6.0512239933  -1.0088146925  1.05589282513  -1.64548897743  0.184529989958  0.129628494382  0.198255360126  
6.05927705765  -0.809293627739  1.15453243256  -1.6006526947  0.134203627706  0.0396510697901  0.0732019767165  
6.06734204292  -1.02002382278  1.425791502  -1.68359971046  0.202830478549  0.0457512363791  0.0472762770951  
6.07540607452  -1.02450740337  1.5401238203  -1.56030011177  0.115903131664  0.126578420401  0.193680226803  
6.08351397514  -0.777908265591  1.44820964336  -1.44596779346  0.160129323602  -0.0411761105061  0.248581707478  
6.0916121006  -0.92138415575  1.39440619946  -1.57599282265  0.129628494382  0.0244006589055  0.190630152822  
6.09967112541  -0.883273363113  1.49304580688  -1.49304580688  0.115903131664  -0.0213505774736  0.109802961349  
6.10785603523  -1.04244196415  1.49752950668  -1.4840785265  0.140303790569  -0.0518513992429  0.230281218886  
6.11588716507  -0.910175085068  1.38543891907  -1.58496010303  0.123528338969  -0.0625266879797  0.222656011581  
6.12398195267  -0.753248333931  1.3069756031  -1.50201308727  0.169279575348  -0.126578420401  0.126578420401  
6.13210511208  -1.03123283386  1.36974620819  -1.60737812519  0.112853050232  -0.0289757829159  0.117428168654  
6.14020109177  -0.847404360771  1.49752950668  -1.56478381157  0.122003294528  -0.169279575348  0.222656011581  
6.14828205109  -1.16574144363  1.68359971046  -1.39440619946  0.0960775911808  0.0793021395802  0.114378087223  
6.15637516975  -0.793600916862  1.47511136532  -1.38768076897  0.210455685854  -0.22113096714  0.283657670021  
6.16445302963  -0.981913030148  1.46838593483  -1.32939362526  0.120478250086  0.0732019767165  0.147928997874  
6.17270112038  -0.863097071648  1.58271825314  -1.44820964336  0.126578420401  -0.0762520581484  0.161654368043  
6.18065214157  -1.02899098396  1.7799975872  -1.41906607151  0.112853050232  -0.169279575348  0.137253701687  
6.18873405457  -0.703928530216  1.45941865444  -1.4280333519  0.154029160738  -0.198255360126  0.259256988764  
6.19681811333  -0.811535418034  1.28231561184  -1.35853719711  0.0930275097489  -0.291282862425  0.0930275097489  
6.20490002632  -0.728588402271  1.38992249966  -1.6028945446  0.122003294528  -0.327883839607  0.233331307769  
6.21298694611  -1.11193799973  1.67911612988  -1.36077904701  0.161654368043  -0.288232773542  0.193680226803  
6.22110509872  -0.75549018383  1.7239522934  -1.37647163868  0.166229486465  -0.109802961349  0.0854023098946  
6.22921514511  -0.97294574976  1.86070275307  -1.2464466095  0.169279575348  -0.0747270211577  0.245531633496  
6.23735809326  -1.04244196415  1.71050143242  -1.425791502  0.0747270211577  -0.210455685854  0.256206929684  
6.24542212486  -1.10072898865  1.97279334068  -1.11417984962  0.219605922699  -0.260782033205  0.0671018138528  
6.25349116325  -1.01778197289  2.17007255554  -1.13659799099  0.146403953433  -0.169279575348  0.0762520581484  
6.26166915894  -0.84964621067  2.0848839283  -0.961736738682  0.184529989958  -0.0686268508434  0.097602635622  
6.26974606514  -1.08951997757  1.87863719463  -1.08055269718  0.187580063939  -0.257731974125  0.167754530907  
6.27780413628  -0.881031572819  1.80241572857  -1.2509303093  0.0991276800632  -0.305008232594  0.17385469377  
6.28589200974  -1.06485998631  1.66790699959  -1.19264316559  0.0777771025896  -0.0518513992429  0.216555848718  
6.29397702217  -1.12314713001  1.77103030682  -1.10297083855  0.201305434108  -0.211980730295  0.199780389667  
6.30208516121  -1.02450740337  1.86518633366  -1.1859177351  0.190630152822  -0.239431470633  0.157079234719  
6.31015014648  -1.19936859608  1.95037519932  -1.19488501549  0.187580063939  -0.0747270211577  0.128103464842  
6.31830406189  -1.09176170826  2.06246566772  -0.959494888783  0.138778746128  -0.118953213096  0.123528338969  
6.32634902  -1.04916739464  2.13420367241  -1.07382726669  0.140303790569  -0.268407255411  0.244006589055  
6.33442401886  -1.02899098396  2.13196182251  -0.99312210083  0.164704442024  -0.137253701687  0.125053375959  
6.34250307083  -0.919142305851  2.17455625534  -0.961736738682  0.160129323602  -0.288232773542  0.155554205179  
6.35058498383  -1.20609402657  2.13420367241  -0.955011308193  0.164704442024  -0.122003294528  0.202830478549  
6.35868501663  -1.25989747047  2.06919121742  -0.840678930283  0.210455685854  -0.184529989958  0.216555848718  
6.36679697037  -1.09176170826  2.0736746788  -0.827228069305  0.0915024727583  -0.288232773542  0.178429812193  
6.37488508224  -1.27783203125  2.14092898369  -0.912416875362  0.0869273468852  -0.132678583264  0.147928997874  
6.38299417496  -1.26886475086  2.18128156662  -0.981913030148  0.187580063939  -0.131153538823  0.161654368043  
6.39102101326  -1.01778197289  2.41218805313  -0.988638460636  0.137253701687  -0.175379738212  0.207405596972  
6.39911699295  -1.13659799099  2.71034884453  -1.02226555347  0.137253701687  -0.231806263328  0.172329649329  
6.40725302696  -1.03795826435  2.97264075279  -1.05589282513  0.170804619789  -0.285182714462  0.201305434108  
6.41527414322  -1.15677428246  3.37840843201  -1.0132983923  0.0930275097489  -0.240956500173  0.207405596972  
6.42334008217  -1.47735309601  3.36271572113  -1.04692554474  0.103702798486  -0.225706100464  0.201305434108  
6.43141698837  -1.05365097523  3.48601531982  -1.03571653366  0.0945525541902  -0.198255360126  0.198255360126  
6.43958902359  -1.02226555347  3.58465504646  -0.988638460636  -0.048801317811  -0.15860427916  0.228756174445  
6.44767904282  -0.645641446114  3.74606537819  -1.04468369484  0.143353864551  -0.186055019498  0.196730315685  
6.45571494102  -0.679268598557  3.84918880463  -1.03795826435  0.0381260290742  -0.23638138175  0.219605922699  
6.46378517151  -0.883273363113  3.95679569244  -1.01778197289  -0.0183004941791  -0.280607581139  0.225706100464  
6.47187995911  -1.21281945705  3.87833213806  -1.04468369484  0.161654368043  -0.245531633496  0.231806263328  
6.47996401787  -1.34060275555  3.74382352829  -0.981913030148  0.166229486465  -0.176904782653  0.250106751919  
6.48809313774  -0.957253098488  3.56223702431  -0.99312210083  0.144878908992  -0.263832122087  0.222656011581  
6.49617600441  -0.659092307091  3.88505768776  -1.00433111191  0.00152504118159  -0.320258647203  0.25163179636  
6.50429296494  -0.425944000483  3.85591411591  -1.1253888607  -0.0625266879797  -0.26688221097  0.269932299852  
6.51238703728  -0.390075027943  3.78417611122  -1.17470872402  -0.0869273468852  -0.230281218886  0.244006589055  
6.52046513557  -0.84964621067  3.71916365623  -1.188159585  -0.0594766065478  -0.254681885242  0.265357166529  
6.52863907814  -0.724104821682  3.25959253311  -1.11642169952  -0.0869273468852  -0.369059979916  0.260782033205  
6.53669714928  -0.768941044807  3.69450378418  -0.997605681419  -0.100652717054  -0.244006589055  0.286707729101  
6.54476499557  -0.677026808262  3.53533530235  -0.988638460636  -0.391935586929  -0.198255360126  0.291282862425  
6.55283808708  -0.340755194426  3.61828231812  -0.986396670341  -0.126578420401  -0.280607581139  0.26688221097  
6.56091713905  -0.416976749897  3.44117927551  -1.02899098396  -0.311108410358  -0.33093392849  0.30043309927  
6.56902503967  -0.239873722196  3.64518404007  -1.0132983923  -0.225706100464  -0.394985675812  0.314158469439  
6.57715201378  -0.685994029045  3.45911359787  -0.981913030148  -0.134203627706  -0.317208558321  0.30043309927  
6.58527708054  -0.623223304749  2.88296842575  -0.867580711842  -0.318733602762  -0.326358824968  0.283657670021  
6.59358215332  -0.336271584034  3.22148180008  -0.437153071165  -0.353809565306  -0.326358824968  0.317208558321  
6.6016190052  -0.275742709637  3.07128047943  -0.221939250827  -0.248581707478  -0.340084195137  0.294332951307  
6.60973000526  -0.0112090529874  2.90538644791  -0.434911251068  -0.422436416149  -0.401085823774  0.353809565306  
6.61779117584  0.0  3.11387491226  -0.325062543154  -0.338559150696  -0.324833780527  0.30043309927  
6.62591409683  -0.0425943993032  2.8560667038  -0.221939250827  -0.314158469439  -0.186055019498  0.347709387541  
6.63398599625  -0.195037513971  2.81123042107  -0.224181056023  -0.353809565306  -0.230281218886  0.36143475771  
6.64203214645  -0.27350088954  2.48840975761  -0.239873722196  -0.381260305643  -0.355334609747  0.29738304019  
6.65006303787  0.197279334068  2.47047519684  -0.286951750517  -0.240956500173  -0.144878908992  0.231806263328  
6.65817809105  0.0358689688146  2.69241452217  -0.3564478755  -0.340084195137  -0.274507403374  0.372110038996  
6.66633605957  0.751006543636  2.19249081612  -0.372140556574  -0.343134254217  -0.26688221097  0.280607581139  
6.67443299294  0.975187599659  2.60946750641  -0.322820723057  -0.283657670021  -0.3126334548  0.370584994555  
6.68261313438  1.1253888607  2.56238937378  -0.316095292568  -0.416336238384  -0.144878908992  0.36143475771  
6.6906080246  0.934835016727  2.27543759346  -0.30936986208  -0.4727627635  -0.343134254217  0.350759476423  
6.69874215126  1.07158541679  2.42115545273  -0.291435360909  -0.317208558321  -0.311108410358  0.22113096714  
6.70680904388  1.08279454708  2.53100419044  -0.269017279148  -0.295857995749  -0.167754530907  0.286707729101  
6.71487307549  1.25765573978  2.6722381115  -0.246599167585  -0.410236090422  -0.231806263328  0.373635083437  
6.72297215462  1.1298725605  2.36735200882  -0.280226320028  -0.402610868216  -0.298908084631  0.234856337309  
6.73108005524  1.17695057392  2.61170935631  -0.358689695597  -0.26688221097  -0.219605922699  0.240956500173  
6.73916816711  1.39888978004  2.29561400414  -0.325062543154  -0.388885498047  -0.114378087223  0.276032447815  
6.74727010727  1.41234064102  2.52876234055  -0.349722445011  -0.45751234889  -0.0838772654533  0.150979071856  
6.7553730011  1.39440619946  2.05125665665  -0.298160791397  -0.3126334548  0.0854023098946  0.175379738212  
6.76343607903  1.16798329353  2.38528633118  -0.269017279148  -0.431586652994  0.0915024727583  0.17385469377  
6.77163100243  0.930351376534  2.28440499306  -0.318337112665  -0.375160127878  0.0183004941791  0.0854023098946  
6.7796061039  1.13211429119  2.48616790771  -0.358689695597  -0.318733602762  0.0823522210121  0.126578420401  
6.78772306442  0.912416875362  2.27319598198  -0.468538403511  -0.455987304449  0.263832122087  -0.324833780527  
6.79577708244  1.01554012299  1.93692433834  -0.441636681557  -0.271457344294  0.0732019767165  -0.0945525541902  
6.80385398865  1.79793202877  2.54221320152  -0.5940797925  -0.410236090422  0.242481544614  -0.0472762770951  
6.81197500229  1.63876354694  2.3718354702  -0.634432375431  -0.308058321476  0.0747270211577  -0.056426525116  
6.82003903389  1.39664793015  2.81347227097  -0.598563432693  -0.40871104598  0.225706100464  -0.141828835011  
6.82812809944  1.3630207777  2.57359862328  -0.751006543636  -0.247056677938  0.216555848718  -0.115903131664  
6.83623099327  1.76206314564  2.34493374825  -1.11866343021  -0.463612526655  0.172329649329  -0.0381260290742  
6.84430909157  1.30249190331  2.38528633118  -1.35853719711  -0.303483188152  0.0350759476423  0.00762520590797  
6.85251307487  1.27110660076  2.08712553978  -1.33387732506  -0.428536564112  0.132678583264  -0.0915024727583  
6.86062502861  1.33836090565  2.35390114784  -1.43700051308  -0.428536564112  0.18910510838  -0.126578420401  
6.86867713928  1.41906607151  2.03108024597  -1.36974620819  -0.262307077646  0.253156840801  -0.0701518952847  
6.87668609619  1.06261825562  2.29561400414  -1.4280333519  -0.356859624386  0.138778746128  -0.0930275097489  
6.88477301598  1.1253888607  2.3808028698  -1.47286951542  -0.497163414955  0.0915024727583  -0.0991276800632  
6.89284515381  1.40785706043  2.38528633118  -1.4863203764  -0.419386327267  0.247056677938  -0.140303790569  
6.90094399452  1.33836090565  2.44133162498  -1.48183679581  -0.242481544614  0.298908084631  -0.120478250086  
6.90904116631  0.943802237511  1.92123162746  -1.6006526947  -0.311108410358  0.227231130004  -0.126578420401  
6.91714000702  0.726346611977  1.61410355568  -1.74412858486  -0.401085823774  0.167754530907  -0.178429812193  
6.92526102066  1.15229058266  2.21939253807  -1.74412858486  -0.449887156487  0.274507403374  -0.170804619789  
6.93343806267  1.52891480923  1.92795705795  -1.57599282265  -0.45751234889  0.321783691645  -0.166229486465  
6.94145703316  1.0693436861  1.83604288101  -1.61410355568  -0.413286149502  0.237906426191  -0.237906426191  
6.94961214066  0.706170320511  2.0826420784  -1.74637043476  -0.366009891033  0.192155182362  -0.128103464842  
6.9576561451  1.22178673744  2.00417852402  -1.75309586525  -0.30043309927  0.240956500173  -0.237906426191  
6.96573400497  1.2464466095  1.64100527763  -1.70153415203  -0.239431470633  0.352284520864  -0.192155182362  
6.97385716438  0.558210849762  1.52443122864  -1.86294460297  -0.234856337309  0.227231130004  -0.250106751919  
6.98193717003  0.612014293671  1.85173547268  -1.86967003345  -0.271457344294  0.254681885242  -0.210455685854  
6.99000501633  1.27110660076  2.06022381783  -1.7217104435  -0.108277924359  0.295857995749  -0.227231130004  
6.99811196327  1.25989747047  1.95485877991  -1.54684925079  -0.122003294528  0.254681885242  -0.288232773542  
7.00617194176  0.867580711842  1.7777557373  -1.75085401535  -0.0442261956632  0.234856337309  -0.247056677938  
7.01434707642  1.21954488754  1.78672301769  -1.6611815691  0.00610016472638  0.359909713268  -0.248581707478  
7.02241706848  0.930351376534  1.83604288101  -1.57375097275  -0.303483188152  0.276032447815  -0.250106751919  
7.03041005135  0.742039263248  1.62307083607  -1.6051363945  0.00457512354478  0.254681885242  -0.228756174445  
7.03857803345  0.872064292431  1.55133295059  -1.68135786057  -0.239431470633  0.237906426191  -0.271457344294  
7.046626091  1.05140912533  1.27783203125  -1.73291957378  -0.0320258662105  0.320258647203  -0.240956500173  
7.05462503433  1.31145918369  1.32266819477  -1.5423656702  -0.105227842927  0.303483188152  -0.263832122087  
7.06271004677  1.0671018362  1.26438117027  -1.49304580688  -0.0335509069264  0.294332951307  -0.283657670021  
7.07080006599  0.867580711842  1.15453243256  -1.38319706917  0.0183004941791  0.295857995749  -0.305008232594  
7.07891106606  0.699444890022  1.19712686539  -1.40785706043  -0.0305008236319  0.305008232594  -0.298908084631  
7.08702015877  0.975187599659  1.30249190331  -1.41009879112  0.123528338969  0.265357166529  -0.347709387541  
7.09510612488  1.36974620819  1.3069756031  -1.36077904701  -0.048801317811  0.288232773542  -0.181479901075  
7.10314202309  1.32715189457  1.24196302891  -1.40113162994  0.0137253701687  0.333984017372  -0.213505759835  
7.11125707626  1.05140912533  0.963978528976  -1.38319706917  -0.269932299852  0.211980730295  -0.239431470633  
7.11935114861  1.22851216793  0.820502638817  -1.50425493717  -0.140303790569  0.233331307769  -0.25163179636  
7.12739109993  1.56702554226  0.766699194908  -1.39216434956  -0.260782033205  0.280607581139  -0.234856337309  
7.13560199738  1.26662302017  0.692719459534  -1.37198805809  -0.324833780527  0.274507403374  -0.237906426191  
7.14367198944  1.10521256924  0.842920780182  -1.39440619946  -0.352284520864  0.20435552299  -0.25163179636  
7.15166115761  1.04244196415  1.10969626904  -1.50873851776  -0.228756174445  0.256206929684  -0.193680226803  
7.1597840786  1.28679931164  1.41234064102  -1.46614408493  -0.25163179636  0.36143475771  -0.295857995749  
7.16793394089  1.47286951542  1.65221440792  -1.38768076897  -0.327883839607  0.280607581139  -0.242481544614  
7.1760160923  1.27559018135  1.52667295933  -1.31818461418  -0.294332951307  0.291282862425  -0.265357166529  
7.18414497375  1.04916739464  1.41682422161  -1.33611905575  -0.303483188152  0.298908084631  -0.272982358932  
7.1922621727  1.27783203125  1.3652626276  -1.32939362526  -0.355334609747  0.301958143711  -0.242481544614  
7.20029807091  1.54684925079  1.32715189457  -1.1904014349  -0.291282862425  0.305008232594  -0.318733602762  
7.20841908455  1.21057772636  1.13211429119  -1.22627031803  -0.283657670021  0.349234431982  -0.305008232594  
7.21670103073  0.816019058228  1.06037640572  -1.3652626276  -0.449887156487  0.247056677938  -0.254681885242  
7.22477817535  1.56254196167  1.28231561184  -1.29352474213  -0.318733602762  0.311108410358  -0.276032447815  
7.23277616501  1.65893983841  1.34732818604  -1.16798329353  -0.207405596972  0.394985675812  -0.33093392849  
7.24084997177  0.905691444874  1.28455746174  -1.19936859608  -0.208930641413  0.25163179636  -0.305008232594  
7.24891614914  0.96846216917  1.44596779346  -1.26213932037  -0.20588055253  0.31568351388  -0.3461843431  
7.25699901581  1.84501004219  1.64100527763  -1.20161044598  -0.242481544614  0.401085823774  -0.314158469439  
7.26511406898  1.32715189457  1.49304580688  -0.694961249828  -0.353809565306  0.280607581139  -0.3126334548  
