Ethan-CYM/ros_catkin_ws/test/servol_正常操作2/ur_joint_target_current.txt
time  shoulder_pan_joint  shoulder_lift_joint  elbow_joint  wrist_1_joint  wrist_2_joint  wrist_3_joint
0.149285078049  7.01232397806e-05  -2.16715834013  -1.0165093209  -0.355040292805  0.0731630178539  -0.00631302600618  
0.157180070877  -3.63731039832e-05  -2.16616143365  -1.01614045148  -0.350926620811  0.0729725220066  -0.00916872356779  
0.165466070175  0.000132366490188  -2.16690548749  -1.01640438716  -0.354097758457  0.0826652933663  -0.0117459586073  
0.173449039459  0.000190998850102  -2.16758781414  -1.01664521253  -0.357279540213  0.0895367813896  -0.0140503190976  
0.181537151337  -2.29590014524e-05  -2.16654742306  -1.01626019673  -0.353147899976  0.084993584864  -0.0160886561609  
0.18962597847  -3.86556737995e-05  -2.16641743469  -1.01620604337  -0.352635040904  0.0818320667993  -0.0178689436123  
0.197741031647  -5.28996596459e-05  -2.16629711923  -1.01615550116  -0.352120158155  0.0784076849086  -0.0194001413473  
0.205822944641  1.97036198665e-05  -2.16701692846  -1.01640952795  -0.355258149759  0.0747621652747  -0.0206920631358  
0.213930130005  9.74792996487e-05  -2.16684534806  -1.01633989446  -0.354750380177  0.0812572231139  -0.00503222673839  
0.22193312645  0.000168581352893  -2.16668348264  -1.01627373721  -0.354226184254  0.0955105922057  -0.00978034149535  
0.230065107346  -0.000141210955369  -2.16570119493  -1.01591063489  -0.350038471376  0.0858579719782  -0.011598425644  
0.238353013992  2.82509193051e-05  -2.16639899263  -1.01614999684  -0.352619858618  0.0835346991567  -0.0146017453411  
0.246447086334  -0.000172875583229  -2.16544649829  -1.01579871973  -0.348466282648  0.0748235821952  -0.0158009697764  
0.254435062408  -0.000175538922493  -2.16540417962  -1.01577748027  -0.347962353143  0.0678823470833  -8.74303126555e-05  
0.262490987778  -0.000176901563345  -2.16537100849  -1.01575991744  -0.347484824828  0.0610597648574  -0.00481528768741  
0.27056312561  -0.000177060713794  -2.16534645275  -1.0157458405  -0.347034516887  0.0543889641875  -0.00664551661005  
0.278694152832  -0.000272382010534  -2.16532997185  -1.01573505771  -0.346612116456  0.0375876266397  -0.0082923871698  
0.286801099777  -0.000166065998262  -2.16532110822  -1.01572739022  -0.346218107206  0.0337290750029  -0.00975997920298  
0.294857025146  -0.000163237804089  -2.16531926078  -1.01572262852  -0.345852720851  0.0284045781543  -0.0110530884417  
0.302927970886  0.0471579892548  -2.67981320245  -1.11783966127  -0.356309987434  0.0234210742342  -0.0121772228335  
0.311007976532  0.116151467513  -3.17748838809  -1.33183367941  -0.369133623497  0.028985406302  -0.0131385130668  
0.31927895546  0.268145917522  -3.49167568817  -1.51383509194  -0.374730713998  0.0325867801598  -0.0139436261448  
0.327429056168  0.502227569038  -3.81035155843  -1.64334296145  -0.367775082845  0.0564302071945  -0.0145996823114  
0.335441112518  0.750517229389  -4.16057108933  -1.74343641336  -0.186194541187  0.074971275951  -0.0151141755917  
0.343745946884  0.823723569861  -4.44252195119  -1.79169866823  0.0237440785273  0.102046407338  -0.0154948981629  
0.351746082306  0.885591823724  -4.66479608914  -1.85690335591  0.0392239997716  0.135184069598  -0.0157498687337  
0.360226154327  0.928503764712  -4.86369593954  -1.92662523259  0.062473774449  0.163278706973  -0.0158872650684  
0.368361949921  0.963102552834  -4.98408713399  -1.97767248016  0.0844327001428  0.185517811142  -0.0159153607585  
0.376456022263  1.00731041428  -5.10103013205  -2.02505883311  0.113319362625  0.187315959673  -0.0158424663063  
0.384493112564  1.0455029114  -5.18639621187  -2.0672844487  0.142706919097  0.187332683941  -0.0156768745545  
0.392481088638  1.06485896393  -5.22428180437  -2.08574749574  0.169516251181  0.188867087244  0.00129443506155  
0.40060210228  1.0653126547  -5.1900004189  -2.10832387322  0.200433649298  0.191941119227  -0.00228180664716  
0.40873003006  1.04731858854  -5.103577995  -2.12553320965  0.22490324137  0.193154082727  -0.00306550502367  
0.416700124741  1.00196714763  -4.99235131391  -2.12185590563  0.249411686353  0.194098788586  -0.00376926177271  
0.424812078476  0.943278527516  -4.86173591069  -2.11618552351  0.273522589762  0.194893503813  0.012622363801  
0.432969093323  0.874852433678  -4.74095688676  -2.10217135614  0.296377569228  0.19554610474  0.0252667388945  
0.441045999527  0.807134697092  -4.59030793032  -2.07668093701  0.306769006443  0.194458801757  0.0367761188659  
0.449337005615  0.746739138583  -4.33032063574  -2.03318921239  0.297664354346  0.193430989752  0.0471665746347  
0.457432031631  0.69962986993  -4.05302699523  -1.98903097857  0.285964261922  0.19246456023  0.0564598479862  
0.465399980545  0.656604441735  -3.81604046884  -1.9585594275  0.276791459605  0.191459751032  0.0646828648745  
0.473436117172  0.548969362951  -3.86994786064  -1.98172084045  0.309097349287  0.193138061561  0.0718671684339  
0.481626987457  0.50050882701  -3.61845159311  -1.94972927835  0.301389672447  0.192057690342  0.0780483655607  
0.489614963531  0.412438967072  -3.50809529917  -2.01340586616  0.305339071579  0.192259444049  0.0832655896843  
0.497709035873  0.385141135109  -3.26052929186  -1.97052834122  0.290432692828  0.191278029295  0.0875609820439  
0.505792140961  0.361033751838  -3.04335210414  -1.94975645078  0.275171121181  0.190266992722  0.090979193491  
0.513942956924  0.261489116651  -3.02724401579  -2.10241081043  0.282832301461  0.186834130174  0.0935669085413  
0.521994113922  0.21411780923  -2.89550097943  -2.12875708715  0.271038930526  0.185546738572  0.0781967158991  
0.530302047729  0.195939221025  -2.77407676818  -2.16147293667  0.266120070911  0.186196280889  0.0832096001602  
0.53836107254  0.18077898832  -2.66092038195  -2.18364696001  0.257895748261  0.181749410735  0.0848156559225  
0.546437978745  0.179932236796  -2.54320794941  -2.20279120378  0.250279047678  0.182520796566  0.06859770614  
0.554526090622  0.181418409165  -2.45052862421  -2.24003623811  0.245479035584  0.179915644705  0.0728851384819  
0.562518119812  0.183474444022  -2.35183064246  -2.27381619325  0.24119760857  0.177325470014  0.0567182677767  
0.570601940155  0.188372357304  -2.27764953248  -2.31609629095  0.236330726965  0.178181235524  0.0611222741997  
0.578727006912  0.14897481273  -2.21132807598  -2.35581416013  0.231578027013  0.175680371478  0.0623040245792  
0.586822986603  -0.213861540334  -2.16577488926  -2.3851182216  0.226665017637  0.176628251958  0.0630069312895  
0.594902992249  -0.54971460294  -2.11549059398  -2.42952710648  0.218662420869  0.175929075056  0.0632638654045  
0.602998971939  -0.767807767363  -2.07011236849  -2.46138573257  0.214645561601  0.175271716142  0.0631078434052  
0.611089944839  -0.757277176907  -2.03265452734  -2.49991509923  0.210649575941  0.174657981786  0.0625718945777  
0.619169950485  -0.74586734926  -2.00244854467  -2.53597805854  0.203465354884  0.17408862538  0.0616888527763  
0.627449035645  -0.723212893859  -1.9653933933  -2.57628165732  0.200375508517  0.171953765591  0.0604911656724  
0.635471105576  -0.703184159585  -1.86917951395  -2.52617318566  0.190809607369  0.173256251738  0.0590107213484  
0.643382072449  -0.642019951991  -1.90493202335  -2.64126519255  0.188955670938  0.173209161396  0.057278691992  
0.651515007019  -0.586805171849  -1.87562906422  -2.67066134409  0.190653631542  0.171457799967  0.0553253943494  
0.659619092941  -0.533437114426  -1.85101339229  -2.6793810414  0.189293044955  0.173121882365  0.0703458663505  
0.66771697998  -0.470381481487  -1.8332264172  -2.67719985995  0.184840026785  0.173203642237  0.0812658146346  
0.675876140594  -0.398799055063  -1.82126176019  -2.67300436499  0.184127296459  0.173382110485  0.0736623240918  
0.68390417099  -0.343563891273  -1.81396777084  -2.6683868962  0.180232170007  0.175160313073  0.0858642560432  
0.691987037659  0.231266480343  -1.80216422881  -2.65296888856  0.176798522631  0.176638596133  0.076912124099  
0.700232982635  0.783154429484  -1.80495154867  -2.62961312367  0.173500973039  0.17304581019  0.0878509540683  
0.708322048187  0.850075049345  -1.79787125238  -2.60439681059  0.171012187592  0.177548991019  0.0777205586154  
0.716374158859  0.911709214465  -1.79607959029  -2.58867220587  0.168663033343  0.182817041261  0.070395646927  
0.724393129349  0.968498675437  -1.79576309624  -2.56324392802  0.170244605353  0.186361075411  0.0632033560297  
0.732476949692  1.01892978985  -1.78630216757  -2.54627359653  0.168789806703  0.189853418708  0.0733450582218  
0.740589141846  1.0657832769  -1.79469371134  -2.5273616588  0.170510198284  0.193277624993  0.0625747328607  
0.748636007309  1.09449965287  -1.7906776288  -2.50867353988  0.169429456683  0.196519746177  0.0719205800278  
0.756778001785  1.1297259079  -1.78050057037  -2.51642362228  0.16840131473  0.199771002262  0.0775943478099  
0.764883995056  1.16092687072  -1.77270773741  -2.51471988908  0.167792636986  0.202913084692  0.0823461380136  
0.772971153259  1.20007457599  -1.77114202115  -2.52200324596  0.167114879682  0.206034451374  0.0690458853353  
0.781092166901  1.23482253071  -1.77137031968  -2.51987664047  0.166839345098  0.209019891287  0.0760207624246  
0.789227962494  1.28821358266  -1.76222861024  -2.51587373421  0.167117767935  0.212057582085  0.06231201029  
0.797446012497  1.35011623919  -1.77007254605  -2.49570554934  0.167387143638  0.218443627614  0.0517838278819  
0.805458068848  1.41793660286  -1.78255953976  -2.4773583653  0.164327266323  0.221351384262  0.0417539373646  
0.813460111618  1.33120144758  -1.74141113827  -2.3884210568  0.158186185249  0.219445464001  0.0322456602216  
0.821447134018  1.28357362883  -1.72629405854  -2.32459547259  0.154916538486  0.219414855813  0.0232773424297  
0.829594135284  1.50678869598  -1.80324235  -2.37306245139  0.160322967548  0.231688408409  0.0148625437899  
0.83770108223  1.60346196093  -1.8297773022  -2.37310340408  0.164748331979  0.239412197887  0.00701033066003  
0.845776081085  1.82841649904  -1.90296816976  -2.40054157589  0.178681225404  0.258244551703  -0.000274426767825  
0.853923082352  1.85234045803  -1.91874833364  -2.36625764013  0.174354625418  0.263333248473  -0.00682233244069  
0.862096071243  1.93271741481  -1.95700727363  -2.34395888215  0.176429792189  0.272015353197  -0.0127939138055  
0.87034201622  2.08005818213  -2.0652005892  -2.29444526691  0.183683228502  0.29019473818  -0.023118286538  
0.878391981125  2.18646655612  -2.15146304573  -2.27822584097  0.188261831447  0.305191781466  -0.0274903138937  
0.886432170868  2.11850707673  -2.16654619683  -2.22489982678  0.185235799447  0.30650159529  -0.0313525895283  
0.894421100616  2.20246517529  -2.28839869197  -2.1915476478  0.189113989903  0.320570470241  -0.03472061964  
0.902558088303  2.23693833683  -2.38400245013  -2.15930291903  0.193960042493  0.330497907966  -0.0710789836097  
0.910622119904  2.25045521047  -2.47293183631  -2.13855683226  0.202498335559  0.341580643391  -0.132689127346  
0.918691158295  2.31204491908  -2.6375009683  -2.12822485056  0.212058763178  0.357770109387  -0.199513615526  
0.926825046539  2.27102723186  -2.70319748478  -2.09357987523  0.217050310849  0.3624855578  -0.204765531067  
0.93499994278  2.29183299124  -2.83379751676  -2.08658215904  0.220346316944  0.370594222161  -0.218055633908  
0.942991018295  2.16196781697  -2.82725118474  -2.03396150747  0.218323065694  0.370157827571  -0.223007986388  
0.951181173325  2.20389193325  -2.97688178751  -2.03489128706  0.226918624539  0.382557842571  -0.235920165992  
0.959426164627  2.26541788667  -3.16404143732  -2.04251994291  0.233153067474  0.394709024762  -0.251326758487  
0.96751499176  2.18732644715  -3.22734666205  -2.01451092808  0.233076904379  0.398437881462  -0.260995354052  
0.975456953049  2.31161576992  -3.54983516717  -2.04197929132  0.246672538095  0.420421131434  -0.289423406976  
0.983557939529  2.23456452904  -3.64596456267  -2.04935975767  0.252807314187  0.425018719509  -0.309315289237  
0.991690158844  2.10388034928  -3.67176519209  -2.01543991027  0.257696196431  0.420805354577  -0.323274138425  
0.999771118164  1.83875004309  -3.49425929907  -1.96572448048  0.245147171522  0.4053324073  -0.320285067778  
1.00789809227  1.58692351437  -3.31937492606  -1.92025095805  0.233153326969  0.390160057861  -0.316673942923  
1.01599216461  1.3892152753  -3.20042571766  -1.90201976774  0.226308222312  0.37894729769  -0.317971919497  
1.02406001091  1.82646104492  -4.04884948603  -2.02830013608  0.283401394824  0.421845598217  -0.392734529241  
1.03229594231  1.64935115729  -3.94010174426  -2.00172859362  0.278015020777  0.412507766509  -0.396134119093  
1.04044008255  1.65029770724  -4.11128557637  -1.98899104516  0.29009812113  0.414354978247  -0.412426991158  
1.0483109951  1.5531401004  -4.1130497645  -1.95459234954  0.292428185815  0.410184487765  -0.422532452279  
1.05640506744  1.37559336924  -3.96313703684  -1.92591221737  0.285294130276  0.400372177611  -0.426375199101  
1.06457495689  1.26800031643  -3.93431454665  -1.88607367504  0.284733141288  0.396107743422  -0.43766086381  
1.07260608673  1.19012713131  -4.01710840894  -1.84524998519  0.286948799466  0.396924756755  -0.449663682387  
1.08068704605  1.05790222045  -3.95602092572  -1.79201188592  0.286472511031  0.390570372575  -0.452672395026  
1.08875107765  0.861466482224  -3.73624346219  -1.75358095669  0.273564773388  0.377255737799  -0.439335663655  
1.09689807892  0.778118289057  -3.80652696869  -1.69660564438  0.279538535496  0.374971500091  -0.446886213609  
1.10508012772  0.62732804766  -3.69460712808  -1.65195597471  0.273318340689  0.365637653321  -0.440600114071  
1.1133389473  0.502551907185  -3.59843094066  -1.62190448024  0.269833270998  0.355172289672  -0.439314741851  
1.12136006355  0.370564605618  -3.54070899038  -1.59163682713  0.268576657947  0.348282205273  -0.437648255495  
1.1292860508  0.247306851142  -3.43547133196  -0.518403099483  0.261760098683  0.33848644548  -0.433030172395  
1.13756299019  0.126787968858  -3.3396560719  -0.37271397055  0.261812682211  0.329117082734  -0.430829316277  
1.14545297623  0.00814762227618  -3.24395245339  -0.355583778753  0.258109990405  0.320222055839  -0.430979755747  
1.15356516838  -0.0848672009794  -3.14578982012  -0.322313410632  0.254981113512  0.310346518461  -0.425578621833  
1.16172814369  -0.176867510334  -3.04891029757  -0.302487049571  0.248314679187  0.301028409904  -0.425310451237  
1.16975307465  -0.267657841513  -2.94917704717  -0.284373772209  0.248821736109  0.293885475354  -0.422167262353  
1.17794895172  -0.346625436772  -2.8328548627  -0.248980873368  0.246859167024  0.285684124354  -0.418892850944  
1.18608117104  -0.411630047433  -2.73398773377  -0.218692596456  0.247794711459  0.278155456377  -0.415517821557  
1.1942820549  -0.466168897393  -2.62298189441  -0.190506821675  0.245675719794  0.271268075149  -0.417289453403  
1.20231103897  -0.52099062971  -2.51231397421  -0.164691981562  0.250422778122  0.266552166327  -0.416185385722  
1.21049904823  -0.557515108395  -2.39483451396  -0.142296680128  0.24498635538  0.259249991516  -0.409718783149  
1.21840810776  -0.608309579701  -2.2809517085  -0.131597369413  0.246321007071  0.252528358472  -0.408566305754  
1.22648501396  -0.658523284596  -2.18659920811  -0.126062953144  0.246968712851  0.243796318943  -0.409929909372  
1.23476409912  -0.698146028394  -2.09534881991  -0.113865228245  0.247708544273  0.235553414914  -0.413713598568  
1.24262905121  -0.73800839489  -2.02189903904  -0.105951395947  0.251209605621  0.226151072503  -0.417204128021  
1.25077104568  -0.782386330579  -1.92196637677  -0.106130546328  0.255101412601  0.217249605005  -0.417794218821  
1.258852005  -0.826426598414  -1.84050177226  -0.101434584088  0.258384484948  0.208923789936  -0.420815427081  
1.26701307297  -0.863344584108  -1.73804250019  -0.114784860264  0.258252923517  0.201240708042  -0.420949836124  
1.27527213097  -0.894965254514  -1.59892348999  -0.12558339064  0.252558342474  0.192442280424  -0.415703393789  
1.28341698647  -0.953278478203  -1.54475910762  -0.109441159352  0.26239266657  0.185724132161  -0.415747538633  
1.2913839817  -1.97528056386  -1.43148246414  -0.125737148429  0.262344453002  0.178097675747  -0.407841643702  
1.2994351387  -2.02053693439  -1.32220189947  -0.133820623491  0.265787014665  0.172646324513  -0.402763908821  
1.30739998817  -2.0374382846  -1.19953346128  -0.151523595105  0.259058732343  0.164594033807  -0.392607228073  
1.31546115875  -2.08018018143  -1.08268248391  -0.17030519019  0.255982018466  0.156898716187  -0.382831954048  
1.32360506058  -2.08238854988  -0.968329995876  -0.190076280257  0.24631118778  0.150073709163  -0.368250298485  
1.3316860199  -2.08923565774  -0.86254781389  -0.201833126525  0.237331847995  0.143760256011  -0.354327990597  
1.33987498283  -2.12121935474  -0.7795897869  -0.225729667419  0.231481668924  0.136138453031  -0.341101464341  
1.34791994095  -2.12345035135  -0.708500289977  -0.232916611704  0.21954733365  0.127567516377  -0.328598259162  
1.35604596138  -2.11833405558  -0.659680435111  -0.233032177873  0.211502005042  0.119581382877  -0.3142306016  
1.36428499222  -2.09976719929  -0.594451455597  -0.250309897585  0.20077918482  0.113955848057  -0.303342521319  
1.372382164  -2.06277012261  -0.525220206096  -0.266493923156  0.191133716858  0.108969078999  -0.288012679425  
1.38040304184  -2.05908089283  -0.51141264239  -0.260275273898  0.191684747873  0.100792983548  -0.276292295307  
1.3883690834  -2.02049244386  -0.481530660261  -0.262373957297  0.185946858325  -0.240608077442  -0.26547289319  
1.3964600563  -1.98939652582  -0.457483536776  -0.265442057927  0.180695770058  -0.248028145389  -0.255551554999  
1.40451598167  -1.92742855809  -0.403746012857  -0.283531588623  0.17307542188  -0.252786089844  -0.243910879272  
1.41265511513  -1.93339393911  -0.401507682192  -0.270732307398  0.169265702189  -0.260987549528  -0.235867118732  
1.42080402374  -1.91571919271  -0.380917292086  -0.274416899633  0.166029993743  -0.266881173393  -0.226080584612  
1.42896699905  -1.89290478061  -0.381224535914  -0.27194353761  0.159643803785  -0.272271665696  -0.217248474225  
1.43692016602  -1.88970760022  -0.371761460938  -0.287336258885  0.153764631125  -0.277328313626  -0.209351616239  
1.44501399994  -1.88090478485  -0.379864658806  -0.285736605864  0.148688760412  -0.283624505052  -0.202366424352  
1.45335817337  -1.86675324588  -0.406436036696  -0.277847576029  0.140672347751  -0.287726120257  -0.198163203649  
1.46132111549  -1.85110583489  -0.422149427023  -0.286289439703  0.140068242786  -0.29481141491  -0.185679338399  
1.4695019722  -1.83216310739  -0.441304564966  -0.287051420352  0.13331529861  -0.29803180866  -0.174175551974  
1.47742295265  -1.80920004113  -0.476467063171  -0.280520101741  0.127214925666  -0.302496260722  -0.163653151546  
1.4855029583  -1.78549101861  -0.500253087444  -0.291039664429  0.125032332654  -0.304820475418  -0.154105139426  
1.49359703064  -1.77047894354  -0.523698216612  -0.292825325129  0.120333997958  -0.311940525035  -0.148257432902  
1.50169897079  -1.75429821534  -0.536936372562  -0.312210451454  0.1160541546  -0.313528383798  -0.140613764778  
1.50975394249  -1.75711329505  -0.54858492116  -0.330439374199  0.115915485345  -0.316548993999  -0.133861430782  
1.51790308952  -1.74614633404  -0.563752939506  -0.348332061377  0.116125143574  -0.320818795445  -0.127971292448  
1.52611994743  -1.74177780585  -0.594471981981  -0.368209654957  0.1129224121  -0.32476124461  -0.122909986183  
1.53431606293  -1.73387622938  -0.667133080869  -0.405734542019  0.114273042402  -0.331628910796  -0.115124125356  
1.54241299629  -1.7097304391  -0.711471707777  -0.415369340952  0.112212320236  -0.334427443375  -0.112318550815  
1.55039715767  -1.66638125709  -0.729825842367  -0.439273917273  0.113475080662  -0.335062506609  -0.110180987622  
1.55845308304  -1.64143560038  -0.771247630852  -0.447145878467  0.106357371851  -0.337196254685  -0.108667432145  
1.56640195847  -1.61601300499  -0.807946866685  -0.45349694391  0.103577126232  -0.340768291766  -0.0430120036424  
1.5745639801  -1.59003394066  -0.843834783621  -0.459972945732  0.0977871185536  -0.342342013513  0.251680841948  
1.58258795738  -1.5639230205  -0.877148506016  -0.464978461731  0.0962729102074  -0.343637894593  0.251464384912  
1.59065198898  -1.54821345292  -0.907832722215  -0.470091913472  0.0917356230348  -0.346443911203  0.250857542745  
1.59876894951  -1.54245963732  -0.934389706258  -0.473751867674  0.091441474594  -0.349085987428  0.249890200144  
1.60683894157  -1.54740950692  -0.945636609011  -0.494201174111  0.0914334351262  -0.351545389358  0.248592506155  
1.61492109299  -1.54022715754  -0.958339664881  -0.522977919448  0.0915562075991  -0.356068343799  0.246994695308  
1.62315106392  -1.44339136899  -0.927383036275  -0.564035958438  0.0889998445686  -0.349120960405  0.24512690972  
1.63123297691  -1.29304315699  -0.865110997202  -0.618530562681  0.0834019232035  -0.340281753262  0.243019024586  
1.63937902451  -1.51594892401  -0.971602564375  -0.614322324934  0.0944436772937  -0.355206826537  0.237980012709  
1.64741706848  -1.40947225551  -0.924782206282  -0.648294808949  0.0934829521045  -0.34954883954  0.235487407829  
1.65548610687  -1.20978992268  -0.84051705444  -0.704753808755  0.0855262082826  -0.336811331552  0.232856980866  
1.66357111931  -1.07194293095  -0.779458328606  -0.751237186717  0.0811641141251  -0.328053194738  0.230114648339  
1.67163300514  -1.4908984147  -0.896935451912  -0.692345351226  0.105643934313  -0.35080927611  0.227285390732  
1.67967200279  -1.28669507947  -0.813539099027  -0.744094829051  0.098443458202  -0.337877103187  0.224393039359  
1.68776798248  -1.15453060854  -0.751272365713  -0.777186024069  0.0914105324492  -0.330636529765  0.221460186826  
1.69589114189  -1.78236139078  -0.8759454281  -0.668296801235  0.125069336854  -0.369188488638  0.218508111875  
1.70396900177  -1.78725162876  -0.867969819784  -0.661754055492  0.12200043859  -0.371558967038  0.215556718711  
1.71232104301  -1.8024600532  -0.830606132478  -0.669229867784  0.126208783908  -0.372116429021  0.212624490683  
1.72041106224  -1.79204064202  -0.811224376549  -0.668806417029  0.126567526101  -0.375628784342  0.207006891781  
1.72846603394  -1.78888449573  -0.802142194321  -0.649542711212  0.130826352251  -0.378933084396  0.201449629541  
1.73647403717  -1.79506443932  -0.779187286204  -0.639338446865  0.13135314392  -0.37872970277  0.193262977379  
1.744617939  -1.81022888693  -0.742517855447  -0.637171442893  0.131773361996  -0.380055209266  0.185206064132  
1.75272202492  -1.83108534612  -0.719236625451  -0.626768843969  0.132049643382  -0.382860661278  0.174602905966  
1.76080513  -1.84822609019  -0.697010313384  -0.616490790366  0.132177019919  -0.387041851142  0.164222915212  
1.76892399788  -1.86306476012  -0.662752962465  -0.614488162632  0.132172712095  -0.389273450556  0.151402324961  
1.7770409584  -1.88489071644  -0.628283706856  -0.611636521831  0.135733142315  -0.392952634831  0.138919744433  
1.78524303436  -1.8936387461  -0.584741686179  -0.617777410717  0.135485633448  -0.396267980631  0.126837472911  
1.7933139801  -1.90946685471  -0.543047129746  -0.624439648102  0.131456071178  -0.399343294159  0.114690780923  
1.80144500732  -1.9522148336  -0.486253093242  -0.63796458476  0.131042234552  -0.403944709329  -0.257937513918  
1.80935001373  -1.92594005191  -0.428974017652  -0.660130488633  0.126645887987  -0.404569430652  -0.266140945124  
1.81741309166  -1.91907106025  -0.372120684065  -0.680514535741  0.125880269618  -0.403459410268  -0.273866678205  
1.82558608055  -1.90978346453  -0.320605939114  -0.701564787454  0.117725823204  -0.405475155114  -0.281109312351  
1.83361816406  -1.90985868697  -0.258673029468  -0.729618064956  0.109521895883  -0.405672665818  -0.290593037933  
1.84170293808  -1.89832605949  -0.188609926914  -0.762846155818  0.108588607456  -0.405644335024  -0.294130354156  
1.84985995293  -1.88478869641  -0.124195666044  -0.786573576301  0.100721935588  -0.405458927434  -0.297160233993  
1.85787796974  -1.87089946503  -0.0527011128338  -0.825703817614  0.096178014144  -0.405135211278  -0.299700512442  
1.8662340641  -1.86563195203  0.0134235717456  -0.863500770754  0.0880961089893  -0.404741257727  -0.299035545123  
1.87434506416  -1.84816101887  0.0738321683393  -0.888829795982  0.0840920740689  -0.405821545902  -0.300648139269  
1.88235497475  -1.82933003704  0.125952710691  -0.923390214131  0.0725571788801  -0.405109161426  -0.299111425823  
1.89040398598  -1.80972481998  0.174089362472  -0.945274233436  0.0651888722816  -0.405950560518  -0.297174421567  
1.89846396446  -1.77912174246  0.216315202677  -0.955767720098  0.058341853416  -0.404968152915  -0.294875186734  
1.90656614304  -1.75881422243  0.252155698299  -0.975743815725  0.0440801876524  -0.403976767665  -0.292251831803  
1.91475105286  -1.73828941079  0.284484225381  -0.983420070561  0.034077173963  -0.40456970576  -0.286602574013  
1.92280316353  -1.7188390074  0.325235937929  -0.99695634687  0.0280279041365  -0.403425191753  -0.280694480509  
1.9308950901  -1.69919885908  0.359705602986  -1.00962606045  0.0186786736751  -0.403887179659  -0.277321670265  
1.93897414207  -1.66790136697  0.374559117717  -1.01245647658  0.00968949566258  -0.400934777073  -0.27106542488  
1.94710612297  -1.63884641201  0.396979891653  -1.03159308238  0.00074038430247  -0.399664854585  -0.267428305374  
1.95534014702  -1.61073771524  0.415132240724  -1.0400870705  -0.0110604561245  -0.398395952858  -0.260988925953  
1.96344614029  -1.57352463525  0.428695635282  -1.04543257027  -0.0151293926057  -0.395438671061  -0.254505835135  
1.9713909626  -1.54971834118  0.452670413255  -1.04887528157  -0.0220032059238  -0.392608711979  -0.248023830624  
1.97946310043  -1.42308927561  0.443815391467  -1.06224363063  -0.0293732517724  -0.384433118298  -0.24158465106  
1.98751997948  -1.24378531139  0.424624614897  -1.07410253  -0.0363560466017  -0.374604262263  -0.237966001164  
1.99582910538  -0.984219112837  0.3788737817  -1.08504797355  -0.0396717215961  -0.356508176594  -0.231732379082  
2.00403499603  -0.777024104137  0.350395814917  -1.10227312655  -0.0422841725646  -0.340937611661  -0.225628934817  
2.01195311546  -1.4228925625  0.57148890439  -1.13345555822  -0.146337731368  -0.39252680419  -0.219685964198  
2.02014398575  -1.3255645665  0.567649888216  -1.1540170055  -0.43670299795  -0.386616129901  -0.213930340136  
2.02833294868  -1.34052516537  1.55647996862  -1.19077658069  -0.451984326524  -0.389637237461  -0.208385643258  
2.03636693954  -1.13458013113  1.5053587602  -1.1989500909  -0.452983681593  -0.375077901733  -0.203072209886  
2.04434204102  -1.25071930458  1.57980715554  -1.26463023526  -0.467308628695  -0.385512981819  -0.198007208888  
2.05238509178  -1.00105800246  1.50166899125  -1.26377229212  -0.467256483569  -0.367648182505  -0.193204743897  
2.06051015854  -0.81317739068  1.44336665842  -1.94106511347  -0.466427129291  -0.353913440645  -0.1886759774  
2.06860303879  -1.14124586663  1.62438862705  -2.53029368111  -0.489281233651  -0.376007329921  -0.184429273169  
2.07672405243  -1.108883783  1.63641125163  -2.55508042753  -0.497861648376  -0.372871933448  -0.180470353649  
2.08473396301  -1.05990705717  1.64281810919  -2.56749992723  -0.505582833334  -0.366505022637  -0.174071573905  
2.09282302856  -0.996997348113  1.65585332755  -2.58568481151  -0.512830339064  -0.358680498207  -0.167967052319  
2.10090994835  -0.940819809361  1.6675692714  -2.5815225454  -0.515165863046  -0.351185988125  -0.159444706574  
2.1090669632  -0.877180643105  1.68630377467  -2.58475474175  -0.520704900396  -0.347312899065  -0.153980459966  
2.11711597443  -0.81063821528  1.71179154292  -2.59505270787  -0.529469495947  -0.340408293729  -0.146144764892  
2.12532305717  -0.742159603964  1.74750324257  -2.59088928117  -0.52979283767  -0.333811780184  -0.138676830558  
2.13350915909  -0.682165861161  1.78962413081  -2.59505072411  -0.537001086881  -0.327652349676  -0.131598127032  
2.14149713516  -0.620337978464  1.84025194664  -2.5859739996  -0.539507505945  -0.323469677521  -0.124926846757  
2.1495859623  -0.556745110747  1.8955145902  -2.58477793168  -0.545340308127  -0.317984195564  -0.0665908047899  
2.15762400627  -0.405267888723  1.80010633571  -2.55464830829  -0.538284141058  -0.306025805285  0.240747984672  
2.1658270359  -0.32965861772  1.82070802902  -2.53499361087  -0.539530958923  -0.298184644682  0.246025024433  
2.1738679409  -0.356637868049  2.06234065483  -2.5362166481  -0.558384620019  -0.297669606198  0.259098427207  
2.18200302124  -0.289449805798  2.12798183892  -2.51980099021  -0.565594846526  -0.290643270054  0.269069925634  
2.19002509117  -0.205225508665  2.12717624516  -2.50768446102  -0.570268595325  -0.282485802595  0.273189262654  
2.19831204414  -0.0861420025223  2.10470878907  -2.46235528365  -0.579018262163  -0.264744056929  0.285585005855  
2.2064101696  -0.101462561851  2.27867266148  -2.46191852903  -0.590121086279  -0.260186453293  0.302011356006  
2.21447610855  0.00728220444262  2.06147396087  -2.42478171266  -0.576645866552  -0.251130924798  0.298940119801  
2.22256302834  0.103552403842  1.85258174286  -2.38872677006  -0.563630358038  -0.240191729966  0.2954019933  
2.23053812981  0.172128368031  1.70782526655  -2.35861943942  -0.553464862234  -0.227609140652  0.294173880407  
2.23865199089  0.024217693954  2.51925925286  -2.44872360631  -0.604724668099  -0.222224557618  0.338942200402  
2.24669408798  0.101882381113  2.26365038363  -2.41133530064  -0.589625960774  -0.211109906111  0.334274955349  
2.25481510162  0.168996177005  2.01721247158  -2.37517757562  -0.575051993516  -0.200621935132  0.329043925938  
2.2629301548  0.225974672632  1.78077102639  -2.34044420295  -0.561064294267  -0.190787438501  0.323315046174  
2.27099514008  0.273261417122  1.55499646195  -2.30728306306  -0.54770970194  -0.181625561429  0.317152463242  
2.27937698364  0.311314145411  1.34045378873  -2.27580551453  -0.535024316223  -0.173148459896  0.310620117406  
2.28738999367  0.328473862544  1.20712527894  -2.24914162887  -0.524938282415  -0.165322931149  0.309247356041  
2.29539895058  0.182226330454  2.5942197346  -2.4462789038  -0.643918559085  -0.158436366792  0.43068988476  
2.30344200134  0.218155658345  2.51149374949  -2.43961279309  -0.64891550765  -0.151892416371  0.437378047503  
2.31154108047  0.192838993067  2.86799021112  -2.49026577364  -0.695470403255  -0.140438694718  0.484321159934  
2.3196451664  0.199169654831  2.84473013504  -2.47180316188  -0.703966407188  -0.12995311318  0.494815519667  
2.32768702507  0.217658646286  2.74121396717  -2.45900844257  -0.706285679877  -0.123583436357  0.495813355843  
2.33578109741  0.231943810216  2.51491269394  -2.42722261979  -0.69296641408  -0.118066331906  0.485573110809  
2.34391307831  0.22468116287  2.45377304113  -2.42080470298  -0.696980039149  -0.111316285676  0.485464135649  
2.35203099251  0.214814826199  2.37417330176  -2.40618028993  -0.700148402204  -0.105205997059  0.484696507813  
2.36019706726  0.206604627647  2.23433149827  -2.4056861735  -0.697492260421  -0.0998204571718  0.478111154442  
2.36836695671  0.194623953025  2.09576925652  -2.40418460727  -0.690901463831  -0.0738754586978  0.471203562575  
2.37641501427  0.177953139532  1.97178997841  -2.40179701041  -0.687108437207  0.245026290255  0.464040899629  
2.38443493843  0.165116510411  1.7810356486  -2.39532600902  -0.674349962801  0.246805972711  0.454080621153  
2.39258599281  1.12616017658  1.72888970778  -2.42447409189  -0.676511196768  0.248242045913  0.446710741048  
2.40069007874  1.11904429144  1.44771097537  -2.39720572142  -0.654971826826  0.248993378424  0.428845227595  
2.40878009796  1.09919266361  1.37944945686  -2.41809972843  -0.650945595518  0.251327486356  0.42184323383  
2.41687512398  1.09092932171  1.28422888012  -2.43010653422  -0.640461524824  0.249904822334  0.414900813564  
2.42499613762  1.08049356519  1.19138671116  -2.44136030389  -0.63023293563  0.248083466761  0.40544919736  
2.43306708336  1.08180587439  1.07435408475  -2.43538864226  -0.617118629589  0.249378966646  0.391027602545  
2.44107794762  1.08601388568  0.906515476752  -2.42576154818  -0.602522581266  0.24686058405  0.379722199095  
2.44940805435  1.0890252373  0.733355466618  -2.40934738579  -0.592185540113  0.245719464093  0.368859763885  
2.45736908913  1.12858598857  0.711736817917  -2.42532639148  -0.593105797402  0.244856777926  0.358472737204  
2.4654250145  1.15361493885  0.584210940271  -2.42295914282  -0.586072308766  0.24516739263  0.348589641964  
2.47349214554  1.17644474561  0.452951366714  -2.40260022355  -0.575811742857  0.245290958402  0.339232238544  
2.48164796829  1.17078092161  0.250314194766  -2.38229367025  -0.561526304177  0.241447605631  0.322595991646  
2.48968601227  1.20119326746  0.218700289986  -2.38375877232  -0.561354735169  0.243144732759  0.319888825854  
2.4977710247  1.21395362762  0.109767281045  -2.38357787393  -0.553282075407  0.241011055853  0.309719485637  
2.50595903397  1.200023611  -0.0805654740933  -2.35560141791  -0.537301443172  0.238402407295  0.30023259888  
2.51395106316  1.20889828345  -0.180942451005  -2.34953375785  -0.534409791031  0.237701195888  0.294042642235  
2.52203607559  1.20631846419  -0.296111953638  -2.33570525593  -0.522149623076  0.236835448877  0.285823106271  
2.53020906448  1.21944060535  -0.365482228324  -2.34677451213  -0.517226137946  0.237782484046  0.280890491918  
2.53837895393  1.18734140892  -0.554528394059  -2.31583810749  -0.501738432177  0.232999918418  0.271305533689  
2.54649996758  1.28660817433  -0.397958165536  -2.38851741965  -0.518049680469  0.241708761831  0.283348459855  
2.55437397957  1.31081340734  -0.442116744028  -2.41513723059  -0.521109835251  0.24435880084  0.282219944066  
2.56246614456  1.34559896261  -0.504270424616  -2.41337760464  -0.514006755547  0.247045080996  0.284062545396  
2.57060694695  1.3562635651  -0.586386545879  -2.41563169588  -0.511788333899  0.245992772763  0.280918017807  
2.57863712311  1.39518940581  -0.63441945638  -2.41350150534  -0.509081624971  0.248560784045  0.283410895482  
2.58673405647  1.42395381443  -0.729286587927  -2.39865557533  -0.504597252013  0.250890596356  0.286084860597  
2.59479594231  1.45703723088  -0.789520294182  -2.39979805237  -0.503670206065  0.253238565192  0.2915167478  
2.60295414925  1.48730745139  -0.854860358708  -2.39283181084  -0.50320832853  0.257190403452  0.299564793752  
2.61103510857  1.49117172249  -0.923003524809  -2.39585842947  -0.496795225994  0.257446836775  0.302260522649  
2.61911511421  1.43087425949  -1.05485756343  -2.3710590718  -0.485610960841  0.253563712427  0.29718281864  
2.62724900246  1.46447954244  -1.09032356306  -2.3727014855  -0.483684852068  0.257296540596  0.305506425624  
2.63544797897  1.58316261587  -1.03618462225  -2.41697540419  -0.484169078083  0.27211399162  0.326669835672  
2.64353513718  1.50478954903  -1.14513062801  -2.3904742378  -0.474483863333  0.267993090742  0.318359587061  
2.65170407295  1.58656775499  -1.12872994811  -2.41314447383  -0.480415198464  0.277111266651  0.336499186958  
2.65968108177  1.62036336609  -1.15362347151  -2.40287954519  -0.476709874015  0.282310881183  0.346091192169  
2.6676440239  1.72461733134  -1.12821126797  -2.413617652  -0.479491708795  0.291422192516  0.360456265021  
2.67577600479  1.7906533083  -1.14970004935  -2.40243145825  -0.479992391786  0.298297376722  0.366310727424  
2.68379998207  1.83580968501  -1.15074656454  -2.40765710352  -0.477269178018  0.303154917616  0.3743897191  
2.69190406799  1.88776777515  -1.16150047589  -2.39581369396  -0.478388217524  0.307819260169  0.381969491834  
2.70000815392  1.94279333792  -1.15639023761  -2.40069682197  -0.479752378617  0.314017270951  0.389041634508  
2.70815205574  1.99172499392  -1.15989931768  -2.3968520042  -0.478076594627  0.318223146765  0.395601655683  
2.71624207497  2.04514125519  -1.16274300096  -2.40250351652  -0.480441111023  0.323912427288  0.404255873135  
2.72453117371  2.09106760002  -1.15993005969  -2.39813325166  -0.482620632381  0.331041611853  0.414893983781  
2.73256707191  2.13109622294  -1.16789057509  -2.38660268769  -0.488551811575  0.33786350002  0.42218687262  
2.74064302444  2.1740794284  -1.15854941331  -2.38184795912  -0.490697588378  0.344503029942  0.428850991887  
2.7487449646  2.1994244844  -1.15598857521  -2.35970133608  -0.489381284571  0.354176480526  0.434893504203  
2.75684714317  2.22983842517  -1.15401896448  -2.3479614313  -0.492026957352  0.361912989099  0.44032508324  
2.76501011848  2.25335421614  -1.15032721671  -2.34577167168  -0.494899430297  0.372740116625  0.445159515245  
2.77303695679  2.27165461254  -1.15783972613  -2.33543221862  -0.494548147645  0.38324825926  0.452019860994  
2.78116607666  2.23723045671  -1.17678492636  -2.31802632595  -0.490944401598  0.389592993374  0.450384743723  
2.78920912743  2.13057997722  -1.21261653134  -2.29675414991  -0.4880971001  0.388906534159  0.443211345863  
2.79751515388  2.34916448181  -1.17602133792  -2.33310394846  -0.498534016165  0.412828926487  0.462049771487  
2.80552911758  2.36723373092  -1.19866083728  -2.33426592563  -0.502685660301  0.4192573112  0.464108779336  
2.81372714043  2.36546448513  -1.19989117506  -2.33285070033  -0.502659164622  0.424996644184  0.470898184646  
2.82171702385  2.38523156536  -1.23157367619  -2.32602002865  -0.506992558015  0.428638514989  0.471793232104  
2.82994008064  2.25684369197  -1.26664020583  -2.29613524914  -0.503606388825  0.422455544984  0.461818660727  
2.8377840519  2.27413770963  -1.30132258646  -2.27319031261  -0.502719598075  0.428701795963  0.459707127694  
2.84593915939  2.3566442354  -1.32725041647  -2.25802170989  -0.505668678106  0.436554860051  0.465179885208  
2.85399794579  2.4795114807  -1.37031359992  -2.24462084978  -0.509478928595  0.452238591081  0.467502956373  
2.86204004288  2.43664919594  -1.42854555103  -2.20157403344  -0.505882417973  0.454233367176  0.458978138541  
2.87015795708  2.35270579545  -1.46290225832  -2.16840230435  -0.501781770647  0.452191113472  0.445291108783  
2.87825417519  2.39670281723  -1.56988763863  -2.09837376053  -0.491630372636  0.467869449138  0.426551138644  
2.8865571022  2.30072806992  -1.60171326129  -2.06350226783  -0.487729580762  0.464044239083  0.411051500282  
2.89473700523  2.35185437371  -1.64451635567  -2.02807215957  -0.480871217833  0.474182348218  0.398732361472  
2.90263104439  2.33404194665  -1.67688094058  -2.01386272443  -0.470564885402  0.478141332857  0.384315963994  
2.91078901291  2.16625963341  -1.68641527696  -1.99465395969  -0.463024748607  0.465681821185  0.362733538954  
2.91875696182  1.92664768435  -1.68057434863  -1.96861224559  -0.45131697334  0.449494798959  0.342179147531  
2.92681908607  2.3146988107  -1.75491831525  -2.00043493438  -0.444374860545  0.482671314166  0.338343990162  
2.93495416641  2.27294706415  -1.77324662619  -2.01947779425  -0.438818434159  0.481597334751  0.319303987796  
2.94297599792  2.14666996117  -1.78731153657  -2.02208555745  -0.42572501818  0.474605602713  0.306578428534  
2.95121312141  2.02433852028  -1.78225372589  -2.0239110684  -0.415925210357  0.465926549087  0.28953977647  
2.95931315422  2.13802976312  -1.82437503414  -2.07125126146  -0.40923138976  0.47873705859  0.278844901941  
2.96742606163  2.04826971465  -1.84714426864  -2.08467784154  -0.401372459774  0.472855186179  0.263851953341  
2.97561407089  1.87617453966  -1.83511655294  -2.07806911184  -0.38866970769  0.462972206178  0.252596678724  
2.98369407654  1.5441084032  -1.7819473922  -2.05480072683  -0.378101586877  0.437184616756  0.239750501329  
2.99172210693  1.29629497641  -1.73801954634  -2.05091764023  -0.368746818208  0.417677634162  0.228017789593  
2.99970412254  1.73045526421  -1.90138082948  -2.09929120588  -0.361267729261  0.451599697267  0.219992330119  
3.00774717331  1.47145502641  -1.87023383059  -2.0691990314  -0.349159641009  0.431382035074  0.210327620714  
3.01588511467  1.50230642531  -2.48296245395  -2.07217449424  -0.338055753343  0.43202922895  0.201712033388  
3.02393198013  1.47037530833  -2.94063567676  -2.06716254916  -0.330381548432  0.427200634225  0.196725000578  
3.03202009201  1.28112461157  -2.92888443332  -2.04219036453  -0.320739104596  0.409793579721  0.190007269846  
3.04015016556  1.33093681442  -3.01809539772  -2.03425176159  -0.311967985863  0.409603651327  0.181628741675  
3.04823112488  1.25429153749  -3.05104535408  -2.01505870579  -0.301574462894  0.400293143732  0.172952206663  
3.05630707741  1.18604326725  -3.09098056715  -1.98092702249  -0.295340370503  0.389795876707  0.161691355833  
3.06434607506  1.13619318936  -3.12613069177  -1.9570982163  -0.286199030091  0.379925439445  0.148786949128  
3.07265901566  1.07997855986  -3.1531259655  -1.93485843511  0.0890326235222  0.372126489235  0.139689380861  
3.08068299294  1.04352457839  -3.18915962285  -1.90663155027  0.100532328378  0.363303021621  0.134388404712  
3.08860015869  0.832662964128  -3.09442001013  -1.89673814902  0.108335445302  0.345434182424  0.127384462292  
3.09669995308  0.987651611613  -3.22296125255  -1.88832154638  0.115062415123  0.351063421578  0.121351375211  
3.10481309891  0.777034806729  -3.11674317711  -1.88039617286  0.122088049697  0.334232235115  0.116247211217  
3.11298108101  0.940762235883  -3.23523375011  -1.8827497382  0.131427958382  0.340905702755  0.112026479963  
3.12098813057  0.917926986235  -3.23292517179  -1.88609158238  0.133549422376  0.336351088129  0.108641039977  
3.12904906273  0.90033161894  -3.23867064901  -1.88209245827  0.13859324217  0.330644362071  0.106040815508  
3.1371819973  0.835214912863  -3.20035442723  -1.86614562923  0.144806584965  0.323401639673  0.101457488468  
3.14523696899  0.686546915965  -3.09075631968  -1.79810844235  0.14900835589  0.309512597506  0.103003325425  
3.15343213081  0.844906772348  -3.18388809372  -1.32111551791  0.156407065883  0.315305849184  -0.199344509908  
3.16141796112  0.918841777041  -3.21187672654  -0.877738371479  0.165686711485  0.315653212345  -0.27601490144  
3.16972613335  0.925581930401  -3.18208135514  -0.71104859221  0.172727207577  0.310866649472  -0.286615183132  
3.17768311501  0.871034975742  -3.11073723691  -0.713371650046  0.180729348366  0.302791712069  -0.293943123567  
3.18574595451  0.708870448909  -2.96524528804  -0.710748459116  0.183589680391  0.28954159816  -0.295253239309  
3.19373512268  0.962863271354  -3.07122527356  -0.737538850808  0.194750776978  0.298544583872  -0.323309443299  
3.20189809799  0.91100173366  -2.96747606379  -0.755631863398  0.198368571553  0.290366111857  -0.334494781646  
3.21000409126  0.866459501621  -2.87267833784  -0.75721142886  0.201279989916  0.284504187668  -0.342329152473  
3.21809315681  0.71545359382  -2.7205296672  -0.754599442798  0.205782181938  0.275047606629  -0.344054142636  
3.22611403465  0.937173795531  -2.77157026875  -0.776893792843  0.213099855893  0.280846178181  -0.36703665467  
3.23423910141  1.02315810892  -2.75521812674  -0.784700514364  0.219105502587  0.282421998925  -0.386768219797  
3.24254703522  1.05443851281  -2.70155098588  -0.789373788183  0.222428444716  0.278936925747  -0.403163456404  
3.25066995621  0.898675584222  -2.53789238314  -0.794477883842  0.221870966584  0.271084184161  -0.402425036567  
3.25876116753  1.07555122248  -2.55834441236  -0.822180096399  0.22848710538  0.278055748294  -0.428353544428  
3.26680397987  0.984092861148  -2.43916443795  -0.830081564198  0.225604905052  0.273092633164  -0.428995817694  
3.27481603622  1.27677208071  -2.49611347596  -0.875673762348  0.233412356211  0.283240354958  -0.45986401593  
3.28284907341  1.2950089197  -2.42525386171  -0.893068040452  0.229073816233  0.282893771777  -0.462665946336  
3.29096007347  1.29880147172  -2.34274394829  -0.917258394911  0.224657993814  0.279958619653  -0.464730642614  
3.29907894135  1.30225562317  -2.26405258854  -0.93998278334  0.223718936967  0.277159842623  -0.47132206801  
3.30723905563  1.30417928751  -2.17493831279  -0.959791161399  0.2231656477  0.276456314874  -0.474435650182  
3.31539416313  1.34249323305  -2.11605266113  -0.999653686657  0.217842475799  0.276499472189  -0.476824079533  
3.32335305214  1.34046677367  -2.02728775323  -1.08933517817  0.210537901368  0.276559855147  -0.473310491275  
3.33160209656  1.33970813181  -1.95876882433  -1.64332219481  0.209838327299  0.276968975232  -0.47198554199  
3.33976507187  1.35074477408  -1.89780780387  -2.2457780414  0.202457861383  0.276076668287  -0.467577873829  
3.34781908989  1.34785996977  -1.82456892957  -2.27507651464  0.199446833797  0.277025761606  -0.465464474321  
3.35577201843  1.35653178895  -1.75650410599  -2.30166204796  0.196257678494  0.276628849792  -0.462979209305  
3.36393213272  1.31843789374  -1.68333323674  -2.30878965367  0.190595317013  0.27606460144  -0.457557084303  
3.37197804451  1.31753007761  -1.62259301677  -2.32393146904  0.184827329058  0.277741326683  -0.454570146413  
3.38008213043  1.31670018922  -1.56927690684  -2.34696183938  0.17919402311  0.279636975756  -0.451347313845  
3.38819408417  1.31754584453  -1.53382294934  -2.35159098927  0.173948388052  0.28171710581  -0.447925849619  
3.39625811577  1.30667128691  -1.50313818617  -2.36445977266  0.167030262096  0.282149012504  -0.449560795426  
3.4043469429  1.27207184136  -1.45825196485  -2.37397677289  0.159562661913  0.282482801717  -0.445630024735  
3.41260910034  1.29032640918  -1.46481917928  -2.35892686702  0.158470521486  0.286770871964  -0.444199525352  
3.42073202133  1.23549792331  -1.43531866343  -2.34102253822  0.151803537277  0.283707916349  -0.439975795554  
3.42872810364  1.29213145926  -1.46901487758  -2.32743425895  0.150405429719  0.286744486203  -0.456574897378  
3.43684005737  1.22751966399  -1.45713443967  -2.30200865538  0.14402625352  0.281989782496  -0.45139525473  
3.4447851181  1.27608107203  -1.52188784932  -2.28288200641  0.146093562541  0.283333823271  -0.459213659415  
3.45287013054  1.27144295715  -1.53653014261  -2.2771858637  0.146252707317  0.284289014306  -0.46124996816  
3.46097016335  1.24700498001  -1.57708332941  -2.25684821812  0.146304996386  0.280011510045  -0.465550455097  
3.4692029953  1.23578123106  -1.61697375516  -2.22754152774  0.146814835434  0.279257625773  -0.469412644977  
3.47723507881  1.21537810689  -1.67014448419  -2.20125730847  0.147111384935  0.278511880702  -0.470236807441  
3.48533606529  1.19801032277  -1.73465715693  -2.15985015701  0.14399371197  0.277853479183  -0.468145627748  
3.49343514442  1.18154830379  -1.79419552655  -2.11880018957  0.148438425869  0.27551310287  -0.471097726381  
3.50161314011  1.15654172334  -1.86408520573  -2.07297199777  0.149278265422  0.27316715029  -0.471072680601  
3.50976395607  1.14481429258  -1.93312837662  -2.03855129213  0.14999199879  0.272707048197  -0.476020237232  
3.51774907112  1.1353841514  -2.01062206258  -1.99805790803  0.154333929988  0.268899817341  -0.480522288868  
3.525796175  1.13001406535  -2.11247594703  -1.95462157133  0.158104099918  0.268627419978  -0.48719349592  
3.53381299973  1.11083668636  -2.17569069192  -1.91869686455  0.162987216361  0.266581739844  -0.490714084611  
3.54188203812  1.06763650372  -2.20476330322  -1.90955759487  0.164749747717  0.262713771368  -0.488589917492  
3.54995203018  1.06632949478  -2.27800989998  -1.89741375721  0.172363755225  0.262703344426  -0.48627447215  
3.55808901787  1.04024324279  -2.31179504478  -1.88365367997  0.174034537715  0.259149307735  -0.483796749677  
3.56614208221  0.978333471734  -2.29232060549  -1.88392079046  0.176942487634  0.257058663463  -0.473358495618  
3.57437896729  0.966532967966  -2.36032164459  -1.87380938019  0.182831575892  0.255911941641  -0.471023310501  
3.58250999451  0.961013831583  -2.36364363754  -1.87148175445  0.188260607407  0.254610510316  -0.468417093015  
3.59055805206  0.968758847554  -2.36526714981  -1.8595703322  0.186483237272  0.255231736326  -0.465781986861  
3.59858417511  0.965822748259  -2.35915297875  -1.20610162854  0.188574313414  0.254126966911  -0.460528380174  
3.60666108131  0.975745466991  -2.35090366304  -0.653133782781  0.187063908169  0.254915338366  -0.455392858052  
3.6147711277  0.973502641843  -2.32083669956  -0.617695741728  0.186246306652  0.255657862822  -0.445179845137  
3.62282013893  0.983780684511  -2.2925543365  -0.594239449678  0.18487955507  0.256600997287  -0.437958539894  
3.63091206551  0.99458414735  -2.26033578935  -0.554917429544  0.180225687388  0.255885511517  -0.433649766239  
3.63917899132  0.956530397535  -2.17878753954  -0.540446903862  0.176385205654  0.254812948967  -0.421725219748  
3.64711999893  1.01745779083  -2.16640014853  -0.507832617692  0.174149236361  0.25631753426  -0.418181281523  
3.65524697304  0.981777246987  -2.09468020393  -0.491129215786  0.169771444709  0.255391224207  -0.407058437242  
3.66334915161  1.06671265342  -2.09688124315  -0.456350484318  0.166954708062  0.257189494631  -0.406954201877  
3.67133998871  1.06599402548  -2.05888769968  -0.439602999321  0.161503103722  0.254940113964  -0.401790968585  
3.67956709862  1.07557675714  -2.00888581402  -0.432486517519  0.156188616874  0.254486702109  -0.394386181412  
3.68760204315  0.944553833686  -1.86828407403  -0.436408961055  0.150071238236  0.247783925616  -0.374415242877  
3.69570302963  1.04996382424  -1.92619658274  -0.417623966828  0.141795100671  0.248259332066  -0.378966702115  
3.70372509956  0.922560180373  -1.7887630141  -0.434054863686  0.139157384956  0.241676790376  -0.360116003404  
3.71180295944  1.15990258181  -1.9409550296  -0.418817655856  0.131716589652  0.248506013946  -0.368397239953  
3.71993708611  1.0509735383  -1.81909222294  -0.440405101605  0.125274122527  0.243967493434  -0.350551597385  
3.72802901268  1.18627560739  -1.89572774478  -0.438235733799  0.116825717523  0.248389549974  -0.351992005857  
3.73610115051  1.15928492619  -1.84192398247  -0.450391148705  0.112520958723  0.246374654953  -0.345877957088  
3.74425411224  1.23077129235  -1.88739210938  -0.437566289086  0.109580153352  0.248652989385  -0.345555009912  
3.75232601166  1.23656616923  -1.86418702318  -0.446443385706  0.104971774623  0.24873278313  -0.342964350057  
3.76046514511  1.24467641298  -1.86722558906  -0.432546773899  0.0968069229573  0.248891521094  -0.338189868233  
3.76868510246  1.23921106457  -1.85162853318  -0.426643759603  0.0929030690469  0.248955604278  -0.33132331024  
3.77671408653  1.24436090001  -1.83548080657  -0.421212012374  0.0929170907143  0.247402498007  -0.325070131405  
3.78475594521  1.28469943537  -1.85391022729  -0.412924343056  0.0849980159744  0.247913291659  -0.324640488649  
3.79288005829  1.2875180339  -1.85096945111  -0.421616951789  0.0812571685245  0.246454666471  -0.319364126696  
3.8008980751  1.30034580395  -1.84891773111  -0.440099829263  0.077548323455  0.245104985828  -0.314652764376  
3.80907201767  1.29932242897  -1.82757676866  -0.456475189124  0.0748096514723  0.243643677011  -0.310491081431  
3.81722712517  1.34398048422  -1.84034707907  -0.467528205289  0.0714184787985  0.242587027735  -0.309471832474  
3.82519197464  1.36170932181  -1.83186322091  -0.485182794877  0.0724510519882  0.241332544786  -0.306247546371  
3.83329916  1.37745028453  -1.81894636819  -0.484413215129  0.070770660095  0.240078924611  -0.303509538075  
3.84138607979  1.38036062008  -1.80175208799  -0.483338599737  0.0730923899065  0.240475578176  -0.303846778302  
3.84971308708  1.35759734572  -1.75033847659  -0.479311108009  0.0731803017736  0.238998030614  -0.304517368434  
3.85774707794  1.34910616437  -1.72717583992  -0.451753100114  0.0731955292885  0.237683576991  -0.305491518583  
3.8657040596  1.34015448318  -1.70065842621  -0.415608422844  0.0772996268036  0.236383335695  -0.304129414391  
3.8737411499  1.32964585035  -1.66091996258  -0.389548536696  0.0780824861495  0.235141229146  -0.305731913102  
3.88192605972  1.30997186294  -1.63377723018  -0.357778354594  0.0787759100333  0.235628013895  -0.304948987725  
3.88995194435  1.29992696561  -1.59176799541  -0.32542812932  0.0836179085833  0.234496853106  -0.307080028482  
3.89805006981  1.27053857265  -1.56612923081  -0.307898767403  0.0805366985088  0.235100573331  -0.309385017781  
3.90614795685  1.24084004347  -1.5241357961  -0.289318256447  0.0816558771428  0.232297474041  -0.309226855668  
3.91418504715  1.16737371406  -1.448429572  -0.278000751992  0.0837529335848  0.230907336532  -0.306690110119  
3.92238712311  1.17120621698  -1.46700554482  -0.223637953443  0.084147882628  0.230201030593  -0.30969409816  
3.93057394028  1.14012374628  -1.45096655715  -0.187030815824  0.0852205433994  0.230999774704  -0.307570170683  
3.93864703178  1.10346834655  -1.46064040699  -0.138436101164  0.0823529679913  0.228461164699  -0.305730870349  
3.9468331337  1.07835587702  -1.45335170209  -0.0902469612301  0.0835887097453  0.225984464437  -0.304166146161  
3.95472812653  1.04928251201  -1.4845530654  -0.0232033772455  0.0806622370878  0.227015860479  -0.302865076338  
3.96292710304  1.0237631378  -1.52470009567  0.0477867548054  0.0776382605729  0.22474079841  -0.296596149032  
3.97101616859  0.989789103558  -1.55850659157  0.106121042451  0.0781506869574  0.224166384873  -0.293395216035  
3.97912096977  0.949450154687  -1.59740420806  0.177831311906  0.0789752670548  0.223606267445  -0.29054399657  
3.98717904091  0.894325820859  -1.65636164777  0.250559328362  0.0757720922455  0.221371819243  -0.288032320374  
3.9952750206  0.822467641425  -1.70342466862  0.313842419936  0.0765240333405  0.22076984091  -0.283239805712  
4.00340795517  0.756365576213  -1.74371803398  0.355318904213  0.073816413462  0.218587734948  -0.278875449503  
4.01163101196  0.698643461766  -1.80238866885  0.406743390022  0.0745494906375  0.216523661879  -0.27493265236  
4.01970005035  0.623918134176  -1.83616678484  0.444113265009  0.0721813468143  0.212709655496  -0.271402855139  
4.02775597572  0.557317753923  -1.87459510201  0.484026046483  0.0734202649806  0.212426174282  -0.261687346914  
4.03563404083  0.486602192383  -1.90280777652  0.518343010431  0.0749400618547  0.208797298941  -0.252949721073  
4.0437810421  0.424602053804  -1.9392355239  0.544147020741  0.0688666430612  0.205372637241  -0.247394592755  
4.05181407928  0.35712703167  -1.94856170847  0.568131890352  0.070800213937  0.201922480086  -0.236812978584  
4.05989909172  0.298495061057  -1.96457294746  0.593940788067  0.0690779838701  0.198665851132  -0.229417629034  
4.0681681633  0.227948564573  -1.89065009928  0.570421444966  0.0722123103106  0.197064572287  -0.219764167934  
4.07616114616  0.170529417091  -1.96142555893  0.617576962394  0.0697306814972  0.190751947984  -0.213339567194  
4.08433794975  0.111632533541  -1.93769063604  0.623946580017  0.0760365023943  0.187803868109  -0.204691223535  
4.09246301651  0.0591927288485  -1.89690030265  0.617472197908  0.0753105155478  0.183375119898  -0.199293007958  
4.1006629467  0.0126955541019  -1.83794672738  0.600901856389  0.0783995074232  0.179106341861  -0.188945802217  
4.10877108574  -0.0265401397846  -1.7764000245  0.58180410256  0.0814803548326  0.175055146122  -0.18184651707  
4.11683917046  -0.0733531881019  -1.68588079317  0.54462454987  0.0812516440916  0.171151639812  -0.178026280217  
4.12484097481  -0.113213751425  -1.59721863363  0.506292910785  0.0808431930125  0.167550868974  -0.172015475328  
4.13294696808  -0.159511813653  -1.48095884812  0.452564276415  0.08432884962  0.165780527193  -0.16652414362  
4.14106106758  -0.203734240569  -1.31681767228  0.36768072411  0.0845760539497  0.164216805837  -0.16154723382  
4.14913916588  -0.26397932352  -1.23320489136  0.332382354719  0.0876313582553  0.16113586222  -0.157076186402  
4.15721702576  -0.321419392558  -1.10086170742  0.265457732145  0.0874590031321  0.158246451142  -0.153099455877  
4.16538596153  -0.371964397672  -0.961027916738  0.201853914318  0.0874722939543  0.157275114186  -0.149602879164  
4.17361211777  -0.436578877005  -0.814478002795  0.123529000096  0.0872190768139  0.156461791054  -0.146570033468  
4.18176317215  -0.492342275642  -0.676969410842  0.0485605519983  0.086738267258  0.107966893099  -0.143982580324  
4.18971300125  -0.560578946581  -0.543974287537  -0.0128879148972  0.090117579224  -0.0288069084589  -0.141820593085  
4.19769597054  -0.621978292409  -0.395955169429  -0.0961618754219  0.0932078626667  -0.156215556374  -0.140062865785  
4.20572710037  -0.676804514827  -0.2329523248  -0.18981827843  0.0999112818512  -0.189455281327  -0.138687201796  
4.21388506889  -1.72235686262  -0.0833095079982  -0.278976345567  0.099113302642  -0.192786457924  -0.13767068129  
4.2219851017  -1.76861126775  0.0550495321984  -0.352377778052  0.101925776767  -0.194245277725  -0.129081778121  
4.23003697395  -1.82624613625  0.168872384563  -0.421981470104  0.100574435138  -0.198941472173  0.0934161538749  
4.23813796043  -1.85814847566  0.307152743947  -0.509372437502  0.102747077115  -0.199995087193  0.222474194704  
4.2463850975  -1.94732630871  0.511158046484  -0.639528898933  0.102797239282  -0.206764082386  0.221733824444  
4.25456404686  -1.99609634907  0.6033743804  -0.6993811462  0.100820036607  -0.20906925099  0.221051322982  
4.2626490593  -2.03682852162  0.684480463725  -0.751998185898  0.102304414878  -0.21289168735  0.220185560408  
4.27072811127  -2.06836824202  0.740926962108  -0.790900627154  0.0998910026311  -0.21476789561  0.21915504457  
4.2787899971  -2.1032778006  0.789623802756  -0.823252220985  0.101067646266  -0.21649988118  0.217978002131  
4.28674602509  -2.11890556735  0.813809742457  -0.843438632897  0.0947011689127  -0.217920450701  0.213954269161  
4.29476213455  -2.12689355279  0.844411470037  -0.865445022806  0.0956416529672  -0.220919738217  0.215266139651  
4.3029191494  -2.11425991672  0.866290993452  -0.883116792554  0.0928891654155  -0.222010923415  0.21377067995  
4.31097698212  -2.09534442497  0.86910116456  -0.887082414304  0.0936965933559  -0.226348749416  0.212195568391  
4.31910300255  -2.07264673347  0.877729390382  -0.895927908685  0.0909103773398  -0.227100530904  0.210556549732  
4.32717299461  -2.05493362155  0.869039464773  -0.892189213299  0.0881364424861  -0.231120301131  0.208868503339  
4.33527803421  -2.0536054076  0.858012062489  -0.884787053999  0.0855207397999  -0.235072180975  0.209864295475  
4.34339213371  -2.03679811911  0.841861456535  -0.873722134687  0.0864858227671  -0.237112225502  0.208109491132  
4.35159802437  -2.03867012958  0.846766360263  -0.903435061179  0.0868990387282  -0.240712914269  0.211767318396  
4.35969996452  -2.01643781731  0.866506443558  -0.963285400931  0.0831154887123  -0.242290611718  0.212673866383  
4.36771416664  -1.97069835693  0.889329609327  -1.02461776994  0.0756992683642  -0.243587024157  0.213538074447  
4.37577104568  -1.93367355184  0.909033148077  -1.06936502481  0.0760594811425  -0.244816528482  0.222515697777  
4.3839700222  -1.91972632601  0.976573754501  -1.1298111848  0.0744107482007  -0.242642631557  0.231421010726  
4.39199304581  -1.8919467003  1.03372985086  -1.18365211451  0.0763261501638  -0.24366231032  0.24564660903  
4.40001606941  -1.87072086831  1.06969360053  -1.22369654232  0.0746017057805  -0.242820005376  0.256975930334  
4.40812206268  -1.83747410479  1.11529470482  -1.26684294874  0.0728583858748  -0.243502706716  0.268071651773  
4.41622495651  -1.81284497365  1.16432319551  -1.30424160224  0.0711919569875  -0.244100755004  0.278889567273  
4.42435908318  -1.80696061634  1.20769722809  -1.33596060027  0.0696812481049  -0.244657527074  0.292116270675  
4.43252015114  -1.79778005614  1.24190584336  -1.37249001727  0.0642553189528  -0.246766659634  0.299542597298  
4.44043302536  -1.78618104191  1.27073777795  -1.3927728873  0.0664557262425  -0.248843569586  0.31203056389  
4.44879412651  -1.78240117356  1.29305342089  -1.40885083515  0.0651450256877  -0.252556226145  0.321391279575  
4.45679402351  -1.76523357933  1.3067975478  -1.42988459789  0.0635076336453  -0.257834833824  0.333045484954  
4.46488499641  -1.72517036109  1.31197598711  -1.44652517862  0.0617731929717  -0.259513536879  0.341521833332  
4.472864151  -1.69535839332  1.31354039612  -1.44919851616  0.0604989179499  -0.262838876678  0.352251061605  
4.4809191227  -1.6334100958  1.305638493  -1.45786462056  0.0587766778404  -0.265902367857  0.357033041898  
4.48913407326  -1.58347200239  1.29443849389  -1.46255018861  0.057233806781  -0.268886722394  0.364036212293  
4.49718904495  -1.53580245045  1.29220643117  -1.46283229688  0.0561192989674  -0.270053868707  0.370545253069  
4.50534296036  -1.47794071061  1.2717826029  -1.46015880738  0.058315739036  -0.271007289698  0.376560149687  
4.51337099075  -1.44321341651  1.25039616228  -1.45428660881  0.0607622255666  -0.271889784816  0.379345028112  
4.52166700363  -1.40954526194  1.22591511613  -2.07864614893  0.0632756127966  -0.272621576556  0.381630429455  
4.52986216545  -1.38846992369  1.21168141166  -2.61542547097  0.0656549304657  -0.273238408914  0.383438672737  
4.53779506683  -1.35647190004  1.18139749982  -2.59993015924  0.0682391209596  -0.271966831222  0.379308363945  
4.54589509964  -1.31544992644  1.80717539649  -2.58288630878  0.0707651761279  -0.272228423364  0.375243602321  
4.55392694473  -1.26613683001  2.07153884424  -2.57324825063  0.0765544858178  -0.270618727381  0.368128358173  
4.56207299232  -1.29305646876  2.04450159234  -2.56048430983  0.0865119587803  -0.272631167742  0.36631056826  
4.57020902634  -1.09841256619  1.99054820485  -2.53231614919  0.0844946429206  -0.265114525597  0.353960042002  
4.57827210426  -0.916298116615  1.93723243977  -2.50353446153  0.0824538046019  -0.2574719234  0.34197510882  
4.58630299568  -0.799041932791  1.89005513673  -2.48312939274  0.0804729779733  -0.251658796217  0.33300960521  
4.59473705292  -1.33030217786  1.9294063286  -2.51395439629  0.110416050653  -0.279274203027  0.360883916423  
4.60276699066  -1.29472311266  1.89083713257  -2.49687122961  0.119471091064  -0.280994966369  0.358870717036  
4.61076807976  -1.32356560347  1.85886019259  -2.48788596533  0.128460097072  -0.286270302224  0.356812324411  
4.61871910095  -1.25599019872  1.81550444548  -2.471274515  0.129510328779  -0.285926621067  0.346905804786  
4.62686395645  -1.40142270616  1.79665979865  -2.47787070663  0.141817849219  -0.294838925128  0.34775388754  
4.63488602638  -1.40155204107  1.76251044614  -2.46679558017  0.149807567207  -0.299738785873  0.34069003168  
4.64301013947  -1.25445870897  1.71238518279  -2.43964796923  0.149727428181  -0.29361553433  0.331268881002  
4.65118002892  -1.33532717782  1.68718868808  -2.44692451919  0.153372178106  -0.301810799861  0.332662076027  
4.65926194191  -1.27530916687  1.64835344392  -2.43599450337  0.156336851141  -0.304297252379  0.328801875841  
4.66739797592  -1.3752528224  1.62823509682  -2.44102374677  0.163166998465  -0.312393859196  0.338158508797  
4.67547917366  -1.36503047659  1.60850894103  -2.45563486684  0.165331914888  -0.31479990368  0.336713802957  
4.68362498283  -1.37573904694  1.59269086895  -2.45929512266  0.167654643744  -0.317114308387  0.33792548066  
4.69168305397  -1.30049466339  1.55541917448  -2.44593265188  0.165682225678  -0.313728626093  0.333865721211  
4.6997821331  -1.44037267736  1.56762368612  -2.49166738297  0.174465952949  -0.322951063245  0.337791872989  
4.70777416229  -1.28704442999  1.52379539527  -2.46708235771  0.171784371958  -0.315519382668  0.328521211137  
4.71582317352  -1.33038294442  1.50186462407  -2.48599349395  0.175976587435  -0.31709147512  0.327461942538  
4.72397994995  -1.55918995055  1.51153655119  -2.5739246604  0.186528942332  -0.329518300693  0.331695260243  
4.7320420742  -1.58399617411  1.48852602218  -2.61430873982  0.193128976745  -0.330884514886  0.333174550472  
4.74011516571  -1.39748442666  1.44703438879  -2.57259682846  0.1862053101  -0.324437483825  0.321568642742  
4.74823117256  -1.57530135074  1.44040866082  -2.69121490359  0.201600484913  -0.336158069914  0.331328835502  
4.75636005402  -1.41819778418  1.40445386708  -2.662286655  0.193997118395  -0.329530153618  0.32247699096  
4.76455116272  -1.55061802431  1.39630285151  -2.76629306761  0.205425088467  -0.33563464128  0.324449430146  
4.77274608612  -1.44508631055  1.36979141808  -2.74796691597  0.204582004256  -0.330573199789  0.318567738387  
4.78085112572  -1.39805266891  1.3618520525  -2.77333098194  0.206312328522  -0.328898263314  0.312980654102  
4.78889203072  -1.68922741265  1.42330788959  -2.96329565684  0.227369782517  -0.345499198632  0.320736999109  
4.79686403275  -1.69864148913  1.43356055763  -3.010652539  0.235940680373  -0.344894115453  0.315211230799  
4.80497097969  -1.70636171794  1.45552745808  -3.07144914686  0.244005625517  -0.345440900032  0.312580688363  
4.81305599213  -1.71119937855  1.47501071089  -3.14604853509  0.251194508119  -0.344190299536  0.310135983402  
4.82120513916  -1.70199028408  1.47916031539  -3.20727845502  0.252470709911  -0.344459947335  0.307878686286  
4.82931113243  -1.67059637709  1.48140863031  -3.26258449254  0.253208390871  -0.344567256611  0.30841454253  
4.83739113808  -1.63996307822  1.49419619348  -3.33181707637  0.246600283432  -0.344555954728  0.306415879566  
4.84541702271  -1.59932617194  1.50650379364  -3.39367756307  0.24694307119  -0.344456949995  0.307199262117  
4.8536260128  -1.53788913024  1.50467419765  -3.4052347542  0.247509197741  -0.339312427426  0.305255395678  
4.86177611351  -1.49042038057  1.51521315587  -3.43498416287  0.247356310657  -0.337571272768  0.305301149147  
4.869754076  -1.4554822241  1.52706855741  -3.45775435937  0.250502537371  -0.335903411596  0.305489692804  
4.87788915634  -1.41167502686  1.53758413669  -3.47421814791  0.256591162406  -0.332592463474  0.303068313436  
4.88590717316  -1.35951174843  1.54570499988  -3.4777539847  0.255528632541  -0.327682243668  0.300755238146  
4.8940141201  -1.30003588691  1.55181140301  -3.48532713661  0.257355966599  -0.326172716215  0.298557897432  
4.90211415291  -1.24326151711  1.54524045988  -3.47937972024  0.262210892636  -0.321458654033  0.296480311224  
4.91023015976  -1.16202243637  1.53364671196  -3.45815930086  0.263883820854  -0.314345879993  0.292701136516  
4.91830396652  -1.11563425399  1.52771730468  -3.43331687255  0.264548250992  -0.308531309283  0.291002930967  
4.9266371727  -1.04136157076  1.5083400439  -3.37112214051  0.265668699272  -0.30618108702  0.289434432641  
4.93462514877  -0.984144460713  1.50123430356  -3.34489512804  0.265629586264  -0.30237312986  0.287994913387  
4.94276094437  -0.931151253472  1.48272124456  -3.29992139254  0.265644494624  -0.298804506015  0.286682875272  
4.95075416565  -0.872745023747  1.46206989861  -3.2733826161  0.264730404933  -0.297046651335  0.28275994239  
4.95880699158  -0.810819924722  1.45442083691  -3.25385348335  0.263635153018  -0.293161168525  0.278954787362  
4.96689009666  -0.753882228639  1.43356178329  -3.23415244245  0.26204246785  -0.288611211762  0.275282510207  
4.9749610424  -0.703157252081  1.4142026214  -3.21314838606  0.260362462806  -0.284245284868  0.269021087209  
4.98312711716  -0.638626265804  1.40570884066  -3.20851930881  0.258194645288  -0.276537877676  0.26564920883  
4.99115395546  -0.580257638504  1.3859886093  -3.1931394654  0.259370760247  -0.270729816136  0.259727912984  
4.99931502342  -0.528902206136  1.36836846484  -3.16801829479  0.257240301187  -0.263427180083  0.253995088258  
5.00756812096  -0.48422397476  1.35135428337  -3.15153452975  0.254771578867  -0.258063469251  0.251207725551  
5.01541805267  -0.444928180843  1.32297181535  -3.12625292346  0.252278698287  -0.251246967027  0.243187453787  
5.02366399765  -0.422276881232  1.29734678709  -3.117361729  0.256031020474  -0.244729499338  0.238128775311  
5.03163194656  -0.384307487181  1.27187318849  -3.09917239497  0.256221221692  -0.236702386669  0.233334126352  
5.03977203369  -0.342697198795  1.24981088992  -3.05450961166  0.250404120773  -0.228947279011  0.228814230537  
5.04783916473  -0.328434838676  1.23124070153  -3.02837225831  0.247711860902  -0.223300318568  0.221846508981  
5.05591106415  -0.308753984781  1.21247678444  -3.01193575574  0.244701461211  -0.216245699602  0.217898684303  
5.0640411377  -0.284334839643  1.19555809319  -2.99465424735  0.245153384773  -0.209515719545  0.211531547063  
5.07213401794  -0.264511216809  1.16713848478  -2.97034489147  0.242074539669  -0.204869145013  0.208204695462  
5.08021903038  -0.241032955457  1.15381422304  -2.95433811418  0.239120250743  -0.198875718978  0.20520201019  
5.088367939  -0.213350147254  1.14369319987  -2.92849993702  0.239997923795  -0.193250712751  0.199790131306  
5.09641003609  -0.211077382806  1.12338371897  -2.9129555744  0.243597430299  -0.188076108267  0.197418943266  
5.10443711281  -0.192943808883  1.10522551171  -2.88036401418  0.244076750472  -0.183235769672  0.192640450335  
5.11273908615  -0.180220280306  1.0893329355  -2.84991701606  0.241073309472  -0.178787982992  0.188173819836  
5.12083315849  -0.162640610903  1.0770926963  -2.80341409112  0.235435483904  -0.1747149812  0.186747236974  
5.12881016731  -0.149095917677  1.05219445635  -2.76964614886  0.232807528201  -0.169301969529  0.182909299691  
5.13690114021  -0.149680954464  1.01657677324  -2.74009978205  0.226630282759  -0.165993283816  0.179372485713  
5.14492106438  -0.14423437479  0.983747152292  -2.7126096062  0.220813320916  -0.16132199292  0.176136201116  
5.15301203728  -0.154071764908  0.958688463231  -2.67659397498  0.219239521674  -0.157067954721  0.175918433506  
5.16113209724  -0.166110537887  0.922581749431  -2.63721567016  0.210997267124  -0.153157530781  0.173263227946  
5.16917610168  -0.192114652602  0.516891125788  -2.59036792021  0.207192265921  -0.147941292011  0.170877480583  
5.1774020195  -0.218600550572  -0.0966402069095  -2.52879587345  0.210866525592  -0.14479275223  0.168755269722  
5.18556404114  -0.239861540803  -0.109827548973  -2.47008634437  0.214814108891  -0.140295923246  0.169607464099  
5.19347810745  -0.252750824012  -0.122761036736  -2.42645955351  0.214800149365  -0.139504209191  0.165259458953  
5.20174908638  -0.279124137663  -0.127222178922  -2.36808014467  0.21562886137  -0.13740774875  0.163862658554  
5.20969414711  -0.2956094976  -0.143229609974  -2.30786309361  0.216375318804  -0.135587749645  0.165411984131  
5.21778917313  -0.322404134309  -0.180348944854  -2.23755166401  0.22052618725  -0.134100815979  0.164449820405  
5.22587609291  -0.332351166172  -0.184785336201  -2.16358877794  0.215266437405  -0.131140292064  0.163677744523  
5.23403406143  -0.36420464557  -0.195538239885  -2.08799245508  0.213881012582  -0.130221283747  0.163085546999  
5.24205207825  -0.407547013491  -0.199112847157  -2.01031110636  0.213058720585  -0.115404377645  0.162662525971  
5.25014400482  -0.439241903418  -0.214190579551  -1.93365814773  0.212247336249  0.0412212216934  0.0641812559564  
5.25822615623  -0.491974941515  -0.223517463277  -1.86616604674  0.204879341028  0.183588012676  -0.0484588715516  
5.26637101173  -0.533872926008  -0.226122153412  -1.78755152706  0.202100685168  0.208394800483  -0.149846733255  
5.2744820118  -0.573723555841  -0.240568394528  -1.71987522474  0.19921813271  0.206435881476  -0.19411676997  
5.28262209892  -0.623367406588  -0.248282461753  -1.65188537112  0.193648225858  0.205983126686  -0.193923135028  
5.2907500267  -0.671542117364  -0.252009021008  -1.59257649699  0.188571365424  0.203692177988  -0.193639360723  
5.29874515533  -0.717024955301  -0.264881581613  -1.52609328919  0.180890149331  0.202983281819  -0.190550292446  
5.30680394173  -0.760928734814  -0.272754851112  -1.46780557842  0.177292658627  0.200467263148  -0.187393437756  
5.31486201286  -0.814587712614  -0.261275877518  -1.42498183907  0.174232318686  0.197831210154  -0.181470497379  
5.32296204567  -0.85474960572  -0.250851317637  -1.37881609226  0.167769450597  0.19688351981  -0.17825671985  
5.33106207848  -0.892899305305  -0.236806341027  -1.32919231373  0.165371609179  0.194184031665  -0.172338225747  
5.3392291069  -0.929440394768  -0.209418265292  -1.30513928066  0.156265902911  0.1914666139  -0.166463756529  
5.34729504585  -0.973959821676  -0.179908532969  -1.295429361  0.151145501492  0.188709046465  -0.123623400065  
5.35541415215  -1.00621843995  -0.136378400179  -1.29866368848  0.14664423758  0.185977357977  0.0224468664926  
5.36360502243  -1.03580288205  -0.0934199547275  -1.3151632359  0.145821789252  0.183266407043  0.204943645857  
5.37167811394  -1.06179362464  -0.0637753819931  -1.32039008611  0.138927155684  0.184007891676  0.220321034173  
5.3798160553  -1.08572219837  -0.0317920950562  -1.32781809362  0.139653982833  0.181381992676  0.228093036748  
5.3877351284  -1.10841561897  0.0147939243038  -1.34612033225  0.140730598854  0.18049644981  0.23291587903  
5.3957221508  -1.1279302274  0.0487796314179  -1.35068138773  0.14243696957  0.17795404053  0.240207818479  
5.40380096436  -1.15452649237  0.0695679479521  -1.35172363416  0.141023504408  0.177156702099  0.244517530437  
5.41189002991  -1.16135893561  0.133935195963  -1.35943923133  0.140681461363  0.174738909325  0.245832798143  
5.42001795769  -1.13628114209  0.20978790025  -1.35957302945  0.141212742164  0.174127989614  0.249597806986  
5.42809295654  -1.17645476584  0.197262200585  -1.38139046268  0.146697044003  0.173511886449  0.255818789725  
5.43621015549  -1.24211579707  0.156749571698  -1.42688581939  0.147856363479  0.169553884545  0.267211384104  
5.44427514076  -1.25620751493  0.17946425417  -1.45758024419  0.141597787243  0.169136818556  0.270142049299  
5.45259714127  -1.27757882467  0.189642250695  -1.48908001303  0.142916325  0.149427358092  0.275474883323  
5.46071910858  -1.28242760464  0.213845108358  -1.52068636484  0.137784812897  0.0611141317776  0.280492664337  
5.46882915497  -1.29537734902  0.251626087353  -1.56866147731  0.132833518578  -0.0365871301494  0.282464632858  
5.47689199448  -1.29476280992  0.276418369178  -1.20889185965  0.135981941842  -0.139290640231  0.286841550459  
5.48483514786  -1.29483575246  0.330527256197  -0.879421652605  0.139970806137  -0.183039644832  0.290909262755  
5.49281597137  -1.29287654386  0.380955901502  -0.659119413745  0.137001728637  -0.186344650562  0.294666729532  
5.50094199181  -1.29041640679  0.443538752753  -0.555668609234  0.13798770382  -0.189545066591  0.298116287851  
5.50899910927  -1.27612310787  0.503099867166  -0.571883580636  0.139555140405  -0.192614821957  0.303988587673  
5.51715898514  -1.26242238876  0.575406610117  -0.598401264233  0.145373950961  -0.193863631087  0.306831774261  
5.52523112297  -1.24643726391  0.626709355226  -0.704988740104  0.147362884388  -0.196655031447  0.309363644799  
5.53330206871  -1.21936103786  0.673095109938  -0.897768566168  0.149440840783  -0.199298686646  0.314323070128  
5.54162406921  -1.19408245427  0.732834958577  -1.12050638614  0.148687439946  -0.20182524534  0.313528359054  
5.54963994026  -1.15594079385  0.756077978948  -1.3897620235  0.150870771854  -0.204176536895  0.315162052618  
5.55778694153  -1.13026500834  0.7898841665  -1.75582208189  0.14921650656  -0.206388453511  0.313791614912  
5.56575798988  -1.08353952197  0.806599089343  -1.90676709028  0.151563295088  -0.206729366722  0.312156797232  
5.57386994362  -1.05032152396  0.83678824259  -1.93775565969  0.153726527637  -0.208635066775  0.310286266796  
5.58191514015  -1.00728287773  0.85238376676  -1.95123870168  0.15262682399  -0.210395933092  0.308207596271  
5.59002804756  -0.977271833398  0.867757073856  -1.96281138608  0.151638409787  -0.21032433566  0.303214443529  
5.59811306  -0.939677665452  0.895507767677  -1.97893133971  0.157957451854  -0.210108958058  0.300797964303  
5.60611796379  -0.903045280881  0.904489085569  -1.99652314617  0.16035011629  -0.208027971218  0.298271389612  
5.6142950058  -0.838250171986  0.930985636651  -2.04179572483  0.168596186244  -0.208642096357  0.290245427831  
5.62238812447  -0.808661707146  0.932281897794  -2.0721792917  0.170443898343  -0.206237425514  0.28752112692  
5.63041305542  -0.771156126723  0.932252588296  -2.09945461523  0.17593895793  -0.20544291822  0.282057078513  
5.63866901398  -0.738105938722  0.946930467015  -2.12268737528  0.178153921264  -0.204593166261  0.279336514033  
5.64677500725  -0.707944976074  0.959153992884  -2.15207285417  0.18364576405  -0.201973521902  0.273927963949  
5.65476202965  -0.691720078391  0.972230809636  -2.17736234432  0.19287712097  -0.20102675951  0.265841376095  
5.66288995743  -0.658608386083  1.0112877511  -2.20584839536  0.202276827466  -0.1983393263  0.260572150594  
5.67096304893  -0.638425900968  1.03371442035  -2.22554990744  0.204329532713  -0.197334861868  0.255435898542  
5.67901110649  -0.622993371596  1.08298214866  -2.25630077231  0.209828677045  -0.194631176351  0.25045521817  
5.68710398674  -0.587414625964  1.11149216602  -2.27859862269  0.211382962072  -0.191902855663  0.245650598591  
5.69518113136  -0.5773473584  1.15068320377  -2.32335328369  0.212153215287  -0.189190498384  0.238307821981  
5.7032661438  -0.552110318096  1.17209718118  -2.356714352  0.216420344773  -0.188220705045  0.231173950538  
5.71134614944  -0.529060789871  1.1877158341  -2.40551498579  0.21988395362  -0.185579147115  0.227011157317  
5.71954202652  -0.509243499064  1.20339520227  -2.44054889318  0.223646604312  -0.18299587426  0.220384721776  
5.72765302658  -0.50457632862  1.23511917164  -2.4682137283  0.231380982483  -0.180495323626  0.216760261843  
5.73580503464  -0.499700545216  1.23406603577  -2.48747633411  0.237617466925  -0.178052233711  0.210698497426  
5.74374914169  -0.487646952312  1.25832499538  -2.51907560782  0.237395930842  -0.17739691577  0.204929908658  
5.75182104111  -0.477099125663  1.26682693959  -2.5388965223  0.240477872463  -0.175135246558  0.202197007622  
5.75993800163  -0.479603775429  1.27398964563  -2.55652708481  0.236489021112  -0.172952913693  0.197053695896  
5.76802706718  -0.48306403338  1.26696448689  -2.56198779246  0.239452005356  -0.169158886353  0.192221923603  
5.77611303329  -0.478775497755  1.28581620719  -2.5802058237  0.238586189977  -0.168871897171  0.187709299233  
5.7842271328  -0.475953556596  1.29188057711  -2.56989553945  0.23497124313  -0.167010650574  0.18352042225  
5.79227399826  -0.474478406255  1.29489553678  -2.57396622725  0.240965389748  -0.165254536924  0.179657249033  
5.80036497116  -0.474374909381  1.29582676226  -2.57711588708  0.239657263383  -0.165309718133  0.178841430244  
5.80858016014  -0.474868378604  1.28191465406  -2.57059274867  0.238334620295  -0.165485827042  0.178338234542  
5.81668305397  -0.466667348086  1.28111324072  -2.56951440092  0.236884721172  -0.16406306781  0.172684723935  
5.82469105721  -0.469956750629  1.26445667636  -2.57592942129  0.241620013553  -0.162724286143  0.172758611704  
5.83279800415  -0.476567770198  1.26853106557  -2.55145248856  0.237117094905  -0.161496934973  0.170393025157  
5.8408639431  -0.494004763748  1.26694073177  -2.55126242074  0.238248718956  -0.160337819703  0.171011195874  
5.84896397591  -0.512722033504  1.26994292291  -2.52219399594  0.233464745913  -0.159284679527  0.169156608029  
5.85705208778  -0.52190359037  1.28817675071  -2.48994919472  0.232543757464  -0.158337723414  0.167533600252  
5.86507797241  -0.531057503658  1.29303337069  -2.44164092012  0.231971984192  -0.155776633212  0.168851394536  
5.87318301201  -0.560391943709  1.28691557796  -2.45740818389  0.232446442817  -0.154947544496  0.167653979125  
5.88131093979  -0.579394278203  1.28715329582  -2.43456034691  0.230778929334  -0.155955973305  0.166644781678  
5.88938713074  -0.598144773948  1.28742292459  -2.41132112704  0.229152744749  -0.153647538157  0.168531208632  
5.89771199226  -0.617049512  1.29040582032  -2.37776060357  0.23133071949  -0.153131271733  0.167858703152  
5.90573310852  -0.635077909065  1.29134817183  -2.35399863197  0.232964522797  -0.154403252006  0.170046045922  
5.91376399994  -0.654265748742  1.31082603123  -2.31856971173  0.235086281552  -0.10994552406  0.169640609872  
5.92182016373  -0.671694929468  1.31448952697  -2.27820973124  0.233622923472  -0.0670639070544  0.15294195395  
5.92994904518  -0.678491234932  1.33325147635  -2.23730487675  0.232409774817  -0.0255891267852  0.101139271433  
5.93797206879  -0.68539254376  1.35324730489  -2.18890384556  0.231534484574  0.0129423738919  0.0674602383617  
5.94605994225  -0.701515159218  1.35501758924  -2.15422639263  0.230040372374  0.0504613853549  0.0506668482952  
5.95420408249  -0.705997277783  1.35757643938  -2.1125312371  0.228856637887  0.0848054692408  0.0666936431473  
5.96227097511  -0.721356646923  1.36090283376  -2.07348214004  0.22435130398  0.116024910475  0.0760638395371  
5.97041416168  -0.747287055531  1.36610460612  -2.03546212754  0.223553352491  0.154495233331  0.118592781193  
5.97864699364  -0.77075601846  1.35614225776  -1.99407503771  0.21941160431  0.185697780388  0.186516237194  
5.98673701286  -0.792826758343  1.34697619212  -1.95550360236  0.215517403326  0.185560100084  0.198243687863  
5.9947271347  -0.813606446926  1.33921908316  -1.91894012985  0.215275546566  0.187083562133  0.203404348486  
6.00287914276  -0.844728721127  1.34602771775  -1.90047435791  0.214752622216  0.185181284784  0.208463838581  
6.01094412804  -0.872895212886  1.33834315943  -1.87719181242  0.214321467318  0.184937926877  0.210683950697  
6.01903915405  -0.888561537554  1.34482162863  -1.86309207667  0.213833542763  0.18636222824  0.215489150529  
6.02705001831  -0.914050417257  1.35284693016  -1.84999821408  0.213476982048  0.182660709236  0.217432184226  
6.03517103195  -0.937607573886  1.3615269906  -1.83763424834  0.216567318653  0.182323839339  0.219225369009  
6.04316616058  -0.948848348576  1.38517727242  -1.82538233263  0.216308521836  0.181966525985  0.223586632054  
6.05131101608  -0.946186987686  1.39210292927  -1.80866571831  0.216049835883  0.178183293568  0.225071734851  
6.05936217308  -0.96440814269  1.38547547579  -1.79464594002  0.219050592379  0.176123783127  0.22639570741  
6.06756305695  -0.958491168649  1.38039938744  -1.76650698573  0.215607283949  0.174050501394  0.227562962355  
6.07547712326  -0.941851250426  1.39233412291  -1.73801109526  0.216005442357  0.173684793734  0.231296955783  
6.08372616768  -0.94762104402  1.40461442713  -1.72023976657  0.216168940398  0.139012113153  0.232156544559  
6.09180212021  -0.952232537077  1.41677393762  -1.69725128451  0.216322075452  0.0779527581949  0.235579752708  
6.09973096848  -0.956097795431  1.44066716849  -1.69322858424  0.21267273223  0.0244016213888  0.238846258965  
6.10797905922  -0.959112362725  1.46482976124  -1.68888816968  0.216076594604  -0.0435899116094  0.241948109942  
6.1159350872  -0.960549725842  1.48522708533  -1.6960883503  0.215536460021  -0.121018019935  0.244880536684  
6.12404608727  -0.973812062061  1.52262535094  -1.70140596504  0.21199270257  -0.178555437367  0.250360551015  
6.13221502304  -0.985047343579  1.54499426463  -1.69847314739  0.218941416097  -0.180197027086  0.258379337588  
6.14029097557  -0.994578425467  1.56512349204  -1.69810197915  0.218647260306  -0.183444455427  0.266193589899  
6.14836096764  -0.991128540598  1.57264934838  -1.67353153263  0.219009051795  -0.186638497808  0.271049573618  
6.15660095215  -0.999433964106  1.59584673146  -1.6566867881  0.219335080428  -0.189717230737  0.278375345742  
6.16464209557  -1.00685553816  1.61998938814  -1.63189966832  0.219940618174  -0.192695420798  0.282710062634  
6.17279100418  -1.00174758147  1.64360225275  -1.60010242295  0.220729910456  -0.195581744761  0.289488475478  
6.18070816994  -1.00749940517  1.66640513241  -1.57078389436  0.218079409976  -0.198317944827  0.295980213806  
6.18880009651  -1.01346211487  1.7052676046  -1.54001440148  0.219227600773  -0.2009352599  0.299443180773  
6.19690513611  -1.01889487252  1.75574939053  -1.51908737966  0.216786934246  -0.201699273266  0.308049072728  
6.20498895645  -1.02217776139  1.78785352163  -1.49380661926  0.214510301168  -0.205732939119  0.308159994476  
6.21305799484  -1.02469071745  1.81909749837  -1.46220875039  0.209264490777  -0.20622366636  0.310665010981  
6.2211561203  -1.02699570454  1.85229427164  -1.41436570978  0.204987179077  -0.206570220337  0.312861059433  
6.22929310799  -1.03963963519  1.88190014598  -1.37809337227  0.204109163008  -0.20845501108  0.317490675547  
6.23756814003  -1.05143429153  1.91275030132  -1.326860174  0.200547106801  -0.21193743609  0.32183554155  
6.24558997154  -1.07377571766  1.9435390935  -1.27031956849  0.194199809648  -0.211859974186  0.325892676041  
6.25372505188  -1.10594376502  1.97328404633  -1.21597598248  0.195150328013  -0.215045466726  0.332393610678  
6.26183414459  -1.13471687734  1.98601813166  -1.15174252047  0.189653523717  -0.218118033181  0.335875765805  
6.26982498169  -1.1731316114  2.01053306189  -1.10702898334  0.187624217104  -0.222760045043  0.344524323408  
6.27784800529  -1.19667433669  2.0323396681  -1.05864667325  0.182644808051  -0.230745071086  0.352887889058  
6.28596401215  -1.22949189105  2.0527154493  -1.01362560207  0.181519927679  -0.238610440749  0.363679133566  
6.29404401779  -1.22407704649  2.07989319577  -0.983032425337  0.173479158581  -0.24297061499  0.368670861468  
6.30213809013  -1.27583827833  2.09551612904  -0.946520557059  0.168363787185  -0.253877587569  0.384246032543  
6.31023097038  -1.31021996695  2.14144801626  -0.901202486734  0.155135278085  -0.268351063271  0.4009815572  
6.31840109825  -1.31315221192  2.15973140812  -0.876661783902  0.143712444009  -0.27706308639  0.4085088706  
6.32640004158  -1.32520936064  2.17394940371  -0.864243687723  0.135949356148  -0.285495031794  0.415367050693  
6.33464217186  -1.29999970191  2.19598532411  -0.86350249027  0.128258716417  -0.290284721653  0.416352346693  
6.34270000458  -1.34479453579  2.22217832743  -0.862274693176  0.121345003406  -0.29974109934  0.422130340676  
6.35065197945  -1.21924076739  2.21057270442  -0.86647761345  0.110286753456  -0.295500846709  0.406434411995  
6.35873413086  -1.13604883056  2.21659219664  -0.876932616825  0.103456720334  -0.294137720294  0.396251245132  
6.36686611176  -1.30862818426  2.33719523806  -0.915716962422  0.0980283972154  -0.314248709107  0.420108838237  
6.37500715256  -1.32494377377  2.38740543383  -0.943686264597  0.0924387871283  -0.324298104242  0.42705919083  
6.38312506676  -1.41264021933  2.51435600929  -1.00136061943  0.0873092937919  -0.347697892158  0.449018546149  
6.39112210274  -1.38437334082  2.57563170305  -1.03658391233  0.0789123623507  -0.35569652797  0.451430172293  
6.39922499657  -1.33159447718  3.30619532991  -1.08203473602  0.0741546672756  -0.361554875789  0.453303033721  
6.40734601021  -1.28170132293  3.64665825668  -1.11479145474  0.0704492514216  -0.366922764428  0.454668506752  
6.41535711288  -1.23343553366  3.70416974682  -1.13904952713  0.0638333080994  -0.370070047738  0.452950278732  
6.42340612411  -1.17444022911  3.75017488109  -1.17359774335  0.0572200982602  -0.372722377972  0.445685630743  
6.43154907227  -1.11900259341  3.79414064607  -1.18828191086  0.0553273645396  -0.371430978393  0.446172867822  
6.43977403641  -1.0663794162  3.84287917966  -1.21993436875  0.0497680116552  -0.373058860333  0.441091568444  
6.44784402847  -1.00520084136  3.88494564975  -1.24237949672  0.0448568754463  -0.371701730315  0.435905867448  
6.45576000214  -0.959422913155  3.92076477875  -1.26411402518  0.0403830496417  -0.366901109371  0.433264132586  
6.46386909485  -0.894310063643  3.96407065316  -1.28376940932  0.0363939788992  -0.363739794948  0.427876979172  
6.47195410728  -0.833307523789  3.98683451016  -1.28750258256  0.0331595200848  -0.360501302864  0.425099027327  
6.48001003265  -0.766446643018  4.01881013139  -1.28920914369  0.0304191139491  -0.35559545943  0.419637372098  
6.48819613457  -0.69364047342  4.04434146596  -1.28267323487  0.0282314128775  -0.349095887306  0.416841410937  
6.49622297287  -0.603537727345  4.04968023187  -1.25306916898  0.0269014020257  -0.344388678848  0.406199497712  
6.50441598892  -0.521605857236  4.05108262581  -1.21604655758  0.0260927949604  -0.33647142103  0.398497112397  
6.51247406006  -0.446006480564  4.02891521397  -1.18452525729  0.0252105944802  -0.328753517575  0.388446615182  
6.52049994469  -0.369439921223  4.03915681671  -1.13324291764  0.0146151651912  -0.321293793065  0.378792685375  
6.52884817123  -0.298579865708  4.0087920089  -1.09002967616  -0.0280997753177  -0.312449535935  0.366958377101  
6.53682804108  -0.217795854382  3.94197266701  -1.03936433708  -0.332214847783  -0.303962734752  0.353079745926  
6.54487609863  -0.13891728169  3.88362374704  -1.01737924387  -0.381327011045  -0.29583539054  0.339903104122  
6.55297613144  -0.0555899691918  3.80714661186  -0.992079141183  -0.392424790598  -0.288020339361  0.327455313194  
6.56101202965  0.0305998482095  3.72944113099  -0.969226025622  -0.399641476052  -0.278076672738  0.315758101637  
6.56907200813  0.0976970978827  3.6329110953  -0.96161993165  -0.410680260173  -0.268302980383  0.304825223851  
6.57722306252  0.167551504743  3.53925832088  -0.947059036232  -0.421084347605  -0.258792316348  0.29205813322  
6.58534812927  0.239967437272  3.4472771311  -0.41575571776  -0.423843735189  -0.247859924983  0.280179006312  
6.59368896484  0.303841401821  3.35451406548  0.232602059528  -0.433805799184  -0.240688153056  0.266586636776  
6.60170912743  0.358573184885  3.26534991766  0.233483758365  -0.439682860814  -0.227012120464  0.256606250273  
6.60983204842  0.405725075753  3.17434989952  0.213322289813  -0.449409608945  -0.217122048812  0.247518428494  
6.61786198616  0.434321068938  3.07179400261  0.190950305587  -0.455175215546  -0.209377007087  0.236702897761  
6.62596297264  0.456517279609  2.96974915447  0.149564474841  -0.461048624568  -0.198688538028  0.226862055977  
6.63415002823  0.473037601266  2.85704282819  0.107419385193  -0.459264572487  -0.188467378348  0.220588716502  
6.64210605621  0.481960554436  2.77825819887  0.0426749089308  -0.464667312779  -0.180479660851  0.212536510348  
6.65013694763  0.856761143711  2.69105088645  -0.0120333697765  -0.462096825049  -0.171316280859  0.205394481621  
6.65828514099  1.47444775314  2.62450744558  -0.0725733723621  -0.466356463307  -0.164417106762  0.201743699181  
6.66639208794  1.49079410851  2.56424839378  -0.120731475823  -0.462575515516  -0.15811135945  0.190447891173  
6.67452216148  1.50046349203  2.52651708766  -0.16437255137  -0.461708857227  -0.152365492656  0.176491828848  
6.6827249527  1.53833104593  2.50412542925  -0.213845868259  -0.460673901536  -0.147219950503  0.166223492262  
6.69072699547  1.58003734151  2.48927890691  -0.241654749944  -0.454981623844  -0.137466462279  0.154189943297  
6.69882798195  1.60610405635  2.44589831129  -0.264546750922  -0.452766989158  -0.128193882527  0.148574533452  
6.70688295364  1.65776833037  2.43614126038  -0.289762420485  -0.446609460679  -0.117756389456  0.141176863354  
6.71498703957  1.67014594584  2.40329429785  -0.298752325367  -0.439916184686  -0.107796733207  0.134681131159  
6.72304201126  1.72154443739  2.38411150023  -0.314907699052  -0.433363268636  -0.0984447934797  0.129055754337  
6.73115706444  1.7318495062  2.3725457658  -0.327876607856  -0.426527740026  -0.0896203495567  0.121541563187  
6.73931908607  1.81316322281  2.38875385121  -0.337713424072  -0.423168459378  0.262905886725  0.112112669783  
6.74733495712  1.82083179895  2.38022910687  -0.3484781365  -0.416355658517  0.273897280448  0.103483510906  
6.75542807579  1.79306403139  2.34111737699  -0.371865019651  -0.410248018033  0.282674941254  0.0956487480492  
6.76363110542  1.67653309348  2.26738485712  -0.38880494561  -0.404193803716  0.282426241884  0.0940306725413  
6.77178812027  1.56223909559  2.19982186421  -0.403865878159  -0.398205790255  0.28154033168  0.0328891703571  
6.77968597412  1.44702444102  2.13834530996  -0.41709936112  -0.392315739733  0.280064410445  -0.266437654013  
6.7878279686  1.44873971073  2.1548269327  -0.419018245358  -0.385811547615  0.288233360733  -0.274567345272  
6.79583215714  2.21797281492  2.54306461224  -0.503538974761  -0.391230789045  0.357031306633  -0.372182516482  
6.80392503738  2.23052497849  2.54423877654  -0.538454481032  -0.386377411015  0.368378342824  -0.395732730703  
6.81208205223  2.23721736457  2.52892857395  -0.573519058211  -0.381860323448  0.380693223027  -0.421122080802  
6.82009410858  2.21524048405  2.51781341634  -0.686633620591  -0.380977196036  0.394014066151  -0.445604154107  
6.82820510864  2.16787500568  2.49408791734  -1.36025012291  -0.376718821726  0.403193246619  -0.460915406649  
6.83634305  2.12956817658  2.45663541214  -1.81910092747  -0.368892116118  0.413304500404  -0.483421054237  
6.84441614151  2.0774539157  2.42264717142  -1.83664724194  -0.368447345055  0.420946829566  -0.504954852618  
6.8526661396  2.02443029109  2.37706391043  -1.8444361916  -0.36446233508  0.427815958142  -0.525081043504  
6.86072516441  1.97105971758  2.32011367589  -1.8436243438  -0.360584109291  0.432199376592  -0.530531932052  
6.86876296997  1.89524160698  2.26807096673  -1.84934594964  -0.357105578705  0.430780226599  -0.534835227668  
6.87677502632  1.81983533278  2.22279337564  -1.84359998503  -0.353470753714  0.426791474739  -0.538053584097  
6.88487315178  1.74722865563  2.16367838683  -1.84016991046  -0.3539709305  0.4225024713  -0.537642062698  
6.89293503761  1.67592058263  2.1107187881  -1.83357932355  -0.347348598588  0.419602974813  -0.538994832722  
6.9010591507  1.58623851117  2.04759860183  -1.82844196776  -0.344712007139  0.414818873491  -0.536857360006  
6.90912008286  1.50989104615  2.00335739122  -1.82951534167  -0.346017730752  0.409870518657  -0.534014345692  
6.91720914841  1.4379263508  1.94713758435  -1.83125985267  -0.344115397624  0.404807636782  -0.530538385122  
6.92535996437  1.34725287808  1.90014573293  -1.82956302693  -0.338571850753  0.399682743895  -0.521282313678  
6.93371605873  1.27452716816  1.8343373684  -1.84960154192  -0.337793567474  0.394514741959  -0.516971966615  
6.94160795212  1.20537192286  1.77791355107  -1.85766785007  -0.336757380453  0.389347902861  -0.509639577251  
6.94976210594  1.12987042202  1.72711501838  -1.87260378653  -0.336087962398  0.385852274618  -0.504675154081  
6.95770311356  1.05917124652  1.68282541564  -1.88518095079  -0.335482248682  0.382359503508  -0.496815583738  
6.96583008766  1.00466009365  1.64050548066  -1.90615710329  -0.33896732196  0.378891057834  -0.491444545227  
6.97392606735  0.952264062565  1.62514158257  -1.91113193064  -0.338217114427  0.377098518957  -0.485901239371  
6.9820420742  0.904638074268  1.60260517837  -1.89763911498  -0.225406376853  0.373675283575  -0.485451149324  
6.9900560379  0.870986832886  1.59848583612  -1.89064696503  -0.10734962781  0.371961830557  -0.482091166816  
6.99817109108  0.851186037036  1.59973230233  -1.87346731033  0.00207981915062  0.370275781341  -0.478568422295  
7.00632309914  0.859916115388  1.61785279693  -1.80209803044  0.0415020316282  0.368644193078  -0.468672671523  
7.0145111084  0.876506821092  1.63294752132  -1.75803257398  0.0430232872257  0.367025732625  -0.464979222188  
7.02263212204  0.926079945878  1.64606748198  -1.7172354796  0.0405669442497  0.368722794957  -0.469082279818  
7.03056812286  0.96296723732  1.60154126904  -1.6761209114  0.0416678927749  0.368727053646  -0.465021234387  
7.0387430191  0.867503879694  0.993527612274  -1.63646481701  0.043261417507  0.358975595577  -0.445302408577  
7.04671502113  0.975065114083  0.771606158772  -1.60225592881  0.0400824797501  0.365860229789  -0.45236262948  
7.05470108986  0.989499090527  0.812997273324  -1.57140756315  0.0372172112464  0.36439005525  -0.446023276183  
7.0627989769  0.851854230128  0.875569805245  -1.53406536616  0.0386928376437  0.349973540906  -0.418994848667  
7.0708861351  0.723323960156  0.936117182624  -1.49900928147  0.0400390822061  0.336128068471  -0.393060542854  
7.07899808884  0.64741430404  0.98861185039  -1.46836004012  0.0410278332856  0.327778535064  -0.376124844522  
7.08711194992  1.46808046291  0.931871107222  -1.4876767464  -0.00258839939064  0.399617108298  -0.516638140505  
7.09520602226  1.50115155633  0.988694583454  -1.46178311659  -0.114216577489  0.403775088398  -0.523595093639  
7.10319805145  1.54298327757  1.02395190771  -1.44281860545  -0.384596306613  0.409266645505  -0.532470707618  
7.11135816574  1.54660026382  1.07889534221  -1.42913394817  -0.392711446809  0.407860560995  -0.53535070625  
7.11959409714  1.58059060529  1.12753964882  -1.41838520907  -0.39914738226  0.409581342416  -0.542902074899  
7.12759613991  1.59961245354  1.17596508451  -1.40831245342  -0.405247801337  0.411076543976  -0.544495588384  
7.13568305969  1.61533541616  1.22239164358  -1.39944579059  -0.41105747223  0.412351783785  -0.54819485921  
7.14380002022  1.63880296583  1.26526135406  -1.3922408605  -0.416615066758  0.41178213233  -0.548703578411  
7.15177512169  1.66821196712  1.32113108524  -1.38503917414  -0.428940609828  0.412706320972  -0.549433803818  
7.15987014771  1.69460125482  1.35882026323  -1.37264192812  -0.440932775301  0.411817576178  -0.546711510717  
7.16806912422  1.70649235525  1.3931418226  -1.37041894272  -0.452871976576  0.414100345543  -0.54372107757  
7.17612814903  1.71625805065  1.41010267676  -1.36269611364  -0.46436564573  0.412901407701  -0.537961802908  
7.18431615829  1.72142641972  1.44330420864  -1.35281754377  -0.475148370443  0.414860303495  -0.537266038545  
7.19242215157  1.72552935287  1.45532414791  -1.34872839934  -0.493097929504  0.411761122208  -0.528621158725  
7.20038604736  1.73729899308  1.46765569155  -1.33574347588  -0.506665294063  0.410256754093  -0.522742129391  
7.20861315727  1.73542979301  1.4775777574  -1.33281125709  -0.519990253748  0.408722975267  -0.516949258708  
7.21677613258  1.7308161573  1.48877738226  -1.32119578278  -0.532409933249  0.405505733048  -0.508731741546  
7.22488117218  1.66981908888  1.50387227071  -1.31669683221  -0.540598253312  0.397457386587  -0.495748023386  
7.23286008835  1.71957697408  1.5027358381  -1.31219330473  -0.563145712936  0.39617064005  -0.493613651158  
7.24100899696  1.70944521418  1.50959304541  -1.3040944012  -0.577494652247  0.391638053824  -0.488955145941  
7.24901103973  1.69767076604  1.51580068057  -1.29620354851  -0.587512063841  0.387248804673  -0.476876116207  
7.25705695152  1.67386881531  1.5210988988  -0.993944124356  -0.604116716611  0.383057321706  -0.465530575211  
7.26516509056  1.64959347964  1.52516081239  -0.691491750429  -0.614219390458  0.379048399617  -0.457473324282  
7.27330899239  1.62492132595  1.52869231656  -0.407128643139  -0.61628747771  0.371956154777  -0.447457129583  
7.28138303757  1.6110809449  1.52960425065  -0.127468976326  -0.617679531269  0.368451427335  -0.438196886324  
7.28948307037  1.58568820483  1.53109438321  -0.107328558143  -0.618289825553  0.363536779099  -0.432233081978  
7.29786705971  1.5715575187  1.5295589478  -0.105694302942  -0.621730587318  0.35891682177  -0.421763863994  
