Ethan-CYM/ros_catkin_ws/test/servol_正常操作2/ur_joint_actual_degree.txt
time  shoulder_pan_joint  shoulder_lift_joint  elbow_joint  wrist_1_joint  wrist_2_joint  wrist_3_joint
0.149019002914  1.56997692585  -1.22111064592  2.09334897995  -3.14938527742  -1.5711162726  0.189858213067  
0.157080173492  1.56995296478  -1.22111064592  2.09334897995  -3.14942151705  -1.57118779818  0.189690068364  
0.165250062943  1.56995296478  -1.22108680407  2.09337282181  -3.14962512652  -1.57121211687  0.189738377929  
0.173351049423  1.56992900372  -1.22111064592  2.09331321716  -3.1496608893  -1.57102042833  0.189798295498  
0.181420087814  1.56995296478  -1.22111064592  2.09333705902  -3.14986497561  -1.57121211687  0.189642131329  
0.189509153366  1.56998896599  -1.221098725  2.09330129623  -3.14997226397  -1.57102042833  0.18977431953  
0.19760799408  1.56995296478  -1.22108680407  2.09332513809  -3.15020019213  -1.57106858889  0.189642131329  
0.205693006516  1.56994104385  -1.22113448778  2.09330129623  -3.15041572252  -1.57108050982  0.18971440196  
0.213756084442  1.57002484798  -1.221098725  2.09334897995  -3.15067941347  -1.57091266314  0.189750358462  
0.221828937531  1.56996500492  -1.221098725  2.09332513809  -3.15081102053  -1.57102042833  0.189630135894  
0.229918956757  1.56991708279  -1.22111064592  2.09333705902  -3.15108663241  -1.57088882128  0.18977431953  
0.238041162491  1.56994104385  -1.22111064592  2.09338521957  -3.15127832094  -1.5708287398  0.189630135894  
0.246173143387  1.56997692585  -1.22108680407  2.09333705902  -3.15161353747  -1.57074481646  0.189762338996  
0.254238128662  1.56997692585  -1.22114688555  2.09336090088  -3.15179330507  -1.57080489794  0.18961815536  
0.26230096817  1.56995296478  -1.22113448778  2.09332513809  -3.15197307268  -1.57075673739  0.189810276031  
0.270401000977  1.56992900372  -1.22111064592  2.09334897995  -3.15204507509  -1.57064897219  0.189726382494  
0.278499126434  1.56996500492  -1.221098725  2.09331321716  -3.15218907992  -1.57079297701  0.189690068364  
0.286623001099  1.56991708279  -1.22108680407  2.09334897995  -3.15232068697  -1.57064897219  0.189750358462  
0.2946870327  1.57000088692  -1.22113448778  2.09334897995  -3.15244084993  -1.57067281405  0.189582198858  
0.302750110626  1.56995296478  -1.221098725  2.09336090088  -3.1525366942  -1.57073289553  0.189750358462  
0.310851097107  1.56994104385  -1.22112256685  2.09334897995  -3.15259629885  -1.5706132094  0.189678072929  
0.31901717186  1.56997692585  -1.2212899367  2.09334897995  -3.15264398256  -1.57070905367  0.189702421427  
0.327164173126  1.56997692585  -1.22148162523  2.09328889847  -3.15270406405  -1.57063705126  0.189786314964  
0.335266113281  1.56998896599  -1.22194892565  2.09321737289  -3.15273982683  -1.57057696978  0.18961815536  
0.343485116959  1.57015669346  -1.22282249132  2.0931930542  -3.15258437792  -1.57066089312  0.189690068364  
0.351604938507  1.57022857666  -1.22400743166  2.09304952621  -3.15250045458  -1.57048160235  0.189654111862  
0.359900951385  1.57038474083  -1.22575503985  2.09294176102  -3.15206891695  -1.57058889071  0.189606174827  
0.368000030518  1.57067275047  -1.22799331347  2.09278583527  -3.15167361895  -1.57037383715  0.18971440196  
0.3761241436  1.57099640369  -1.23077088991  2.09264183044  -3.15103894869  -1.57038575808  0.189570218325  
0.384228944778  1.57136785984  -1.23414642016  2.09233045578  -3.15004426638  -1.5702179114  0.189642131329  
0.392328977585  1.57194387913  -1.23798877398  2.09197044373  -3.14866620699  -1.57012206713  0.189606174827  
0.400421142578  1.57260370255  -1.24234611193  2.09151506424  -3.14697772661  -1.56991845766  0.189558237791  
0.408518075943  1.57337105274  -1.24715835253  2.09103536606  -3.14467698732  -1.56982261339  0.189642131329  
0.416579961777  1.57419872284  -1.25238925615  2.09041213989  -3.14202958742  -1.56955939928  0.189510300756  
0.424666166306  1.57511031628  -1.25806266466  2.08977651596  -3.13897496859  -1.56935531298  0.189654111862  
0.432801961899  1.57606983185  -1.26410752932  2.08908176422  -3.13550073305  -1.56914025942  0.189582198858  
0.440925121307  1.57712519169  -1.27048713366  2.08826637268  -3.13149911562  -1.56884032885  0.189522281289  
0.449044942856  1.57815659046  -1.2771542708  2.0873670578  -3.12717467943  -1.56855327288  0.189690068364  
0.457203149796  1.57912802696  -1.28400069872  2.08648014069  -3.12232286135  -1.56817037264  0.189510300756  
0.465288162231  1.5801473856  -1.29103881518  2.08547306061  -3.11747104326  -1.56785852114  0.189690068364  
0.473349094391  1.58119118214  -1.29831630388  2.08447790146  -3.11221200625  -1.56754714647  0.189666092396  
0.481412172318  1.58222222328  -1.30564147631  2.08347082138  -3.10661727587  -1.5671637694  0.189666092396  
0.489498138428  1.58314609528  -1.31318217913  2.08246421814  -3.10081893602  -1.56680471102  0.189810276031  
0.497596025467  1.58410525322  -1.32067424456  2.08136129379  -3.09454185167  -1.56638509432  0.189726382494  
0.505694150925  1.58489692211  -1.32821494738  2.08025836945  -3.08807307879  -1.56590634981  0.189930126071  
0.513792037964  1.58570063114  -1.33575517336  2.07911920547  -3.08156758944  -1.56552297274  0.189822256565  
0.52188205719  1.58636009693  -1.34325963656  2.07790851593  -3.07481128374  -1.56509191195  0.189858213067  
0.529981136322  1.58696007729  -1.35061961809  2.07654190063  -3.06797105471  -1.5646126906  0.189978063107  
0.538063049316  1.58752369881  -1.35801631609  2.075091362  -3.06095105806  -1.56420547167  0.189822256565  
0.546161174774  1.58790719509  -1.36520940462  2.07364082336  -3.05395538012  -1.56387025515  0.190026000142  
0.554267168045  1.5882191658  -1.37242633501  2.07207012177  -3.04677945772  -1.563498799  0.189966067672  
0.56235909462  1.58845889568  -1.37947494188  2.07040405273  -3.03978377977  -1.563103501  0.18999004364  
0.570420026779  1.58857905865  -1.38632089296  2.06858158112  -3.03252393404  -1.56275636355  0.190109878778  
0.578555107117  1.58874690533  -1.39305860201  2.06669950485  -3.02527696291  -1.56239730517  0.189954087138  
0.586646080017  1.58880674839  -1.39954549471  2.06473350525  -3.01808911959  -1.56213361422  0.190097898245  
0.594769954681  1.58871090412  -1.40592414538  2.0626115799  -3.01086599032  -1.56182223955  0.190014004707  
0.602832078934  1.58865094185  -1.41214687029  2.06041765213  -3.00370198885  -1.56160670916  0.190109878778  
0.610929012299  1.58847081661  -1.418094937  2.05806779861  -2.99663526217  -1.56130725542  0.19014583528  
0.619009971619  1.58827912807  -1.42385131518  2.05559825897  -2.98960334459  -1.56100780169  0.190061941743  
0.627103090286  1.5880869627  -1.42937976519  2.05296087265  -2.98249990145  -1.56085187594  0.190241709352  
0.63521194458  1.58784735203  -1.43476516405  2.05023956299  -2.97580367724  -1.56069642702  0.190133854747  
0.643300056458  1.58755970001  -1.44003039995  2.04732608795  -2.96894008318  -1.56054050127  0.190241709352  
0.651378154755  1.58735597134  -1.44493705431  2.04431724548  -2.96224338213  -1.56038505236  0.190253689885  
0.659476995468  1.58711588383  -1.44970018068  2.04115200043  -2.95573932329  -1.56027681032  0.190241709352  
0.667598962784  1.58688819408  -1.45427161852  2.03785514832  -2.94917518297  -1.56014520327  0.190421849489  
0.675661087036  1.58669602871  -1.45863944689  2.0343542099  -2.94274264971  -1.56010944048  0.190301626921  
0.683786153793  1.58650398254  -1.46274406115  2.03086614609  -2.93640596071  -1.55992967287  0.190421849489  
0.691888093948  1.58643198013  -1.4667280356  2.02718544006  -2.93017703692  -1.55989391008  0.190469786525  
0.699990034103  1.58652794361  -1.47054607073  2.02348089218  -2.9241159598  -1.5598338286  0.190445810556  
0.708055019379  1.58670806885  -1.474111859  2.01965665817  -2.91827088991  -1.55970222155  0.190577641129  
0.716156005859  1.58697211742  -1.47751075426  2.01575994492  -2.91254502932  -1.55969030062  0.190493747592  
0.72425198555  1.58733201027  -1.48065787951  2.0118393898  -2.90684348742  -1.55949861208  0.190661534667  
0.73234796524  1.58779931068  -1.48362571398  2.00785923004  -2.90106946627  -1.55953437487  0.190625578165  
0.740461111069  1.58832705021  -1.4864376227  2.00380706787  -2.89571553866  -1.55937892595  0.190661534667  
0.748526096344  1.58917868137  -1.48908216158  1.99970674515  -2.89025336901  -1.55934316317  0.190745428205  
0.75662112236  1.59005427361  -1.49163085619  1.99560642242  -2.88512641588  -1.55912715593  0.190673515201  
0.76472401619  1.59118187428  -1.49396449724  1.99151802063  -2.88010818163  -1.55903131167  0.190853282809  
0.772847175598  1.5925129652  -1.49621373812  1.98737001419  -2.87510091463  -1.55878001848  0.190781369805  
0.780936956406  1.59402406216  -1.49830800692  1.98323345184  -2.87023812929  -1.55852824846  0.190829306841  
0.789001941681  1.59569132328  -1.50023442904  1.97903728485  -2.86561423937  -1.55808526674  0.190985485911  
0.797099113464  1.59756243229  -1.50200540224  1.97475671768  -2.86088306109  -1.55762988726  0.190805345774  
0.805215120316  1.59961354733  -1.50363284746  1.97051239014  -2.85633165041  -1.55718690554  0.190973490477  
0.813284158707  1.60173630714  -1.50512868563  1.96628046036  -2.85194760958  -1.55669576326  0.190973490477  
0.821347951889  1.60417091846  -1.50648099581  1.96202421188  -2.84770709673  -1.5561688582  0.190961509943  
0.82946896553  1.60668992996  -1.507689778  1.95783996582  -2.84346706072  -1.55552226702  0.191093340516  
0.837584018707  1.6094121933  -1.50891000429  1.95378732681  -2.83939487139  -1.55482751528  0.190913200378  
0.845673084259  1.61226665974  -1.50984317461  1.94967460632  -2.83550197283  -1.55403691927  0.191045403481  
0.853793144226  1.61549305916  -1.51082450548  1.94552659988  -2.83158523241  -1.55315095583  0.191093340516  
0.861924171448  1.61898338795  -1.51168615023  1.94142580032  -2.82769233385  -1.55216867128  0.190985485911  
0.870048046112  1.6229172945  -1.51241618792  1.93740940094  -2.82393151919  -1.55106717745  0.191117301583  
0.878164052963  1.62717545033  -1.51319390932  1.93350076675  -2.82020599047  -1.54980928103  0.190985485911  
0.886255025864  1.6365185976  -1.51457006136  1.92587471008  -2.81272012392  -1.54689866701  0.191045403481  
0.89431810379  1.64149618149  -1.51526338259  1.9221701622  -2.80883962313  -1.54518634478  0.190913200378  
0.902416944504  1.64673781395  -1.51598197619  1.91844129562  -2.80520993868  -1.54333001772  0.191069364548  
0.91048002243  1.65235126019  -1.51664001146  1.91482019424  -2.8015092055  -1.54123431841  0.190961509943  
0.918565988541  1.65844416618  -1.51730996767  1.91131925583  -2.7975209395  -1.53893405596  0.190853282809  
0.926661014557  1.66489720345  -1.5181239287  1.9079375267  -2.79361564318  -1.53650314013  0.190817326307  
0.934777975082  1.67150616646  -1.51910525957  1.90476036072  -2.78960353533  -1.53385621706  0.190601617098  
0.94286608696  1.67830681801  -1.5201938788  1.90155935287  -2.7854235808  -1.53093415896  0.190421849489  
0.950960159302  1.6855880022  -1.52141458193  1.89850187302  -2.78117114702  -1.5279639403  0.190109878778  
0.959084033966  1.69307255745  -1.52276689211  1.89562368393  -2.77675182024  -1.52477819124  0.189642131329  
0.967283964157  1.70082104206  -1.5243695418  1.89284181595  -2.77226001421  -1.52120906511  0.189031302929  
0.975347042084  1.70865356922  -1.52616531054  1.89026403427  -2.767516915  -1.51758033434  0.188287526369  
0.983433961868  1.71679794788  -1.528175656  1.88779354095  -2.76253444353  -1.51366407076  0.187376365066  
0.99155497551  1.72536253929  -1.53046065966  1.88540792465  -2.75747996966  -1.50954419771  0.186021387577  
0.999647140503  1.73408293724  -1.5330212752  1.88315343857  -2.75200635592  -1.50520831743  0.184510633349  
1.00773715973  1.74267148972  -1.53586894671  1.881067276  -2.74637681643  -1.50072986284  0.182700261474  
1.01583003998  1.75148773193  -1.53899223009  1.8789806366  -2.74080735842  -1.4962981383  0.18065020442  
1.02392506599  1.76042425632  -1.54236632982  1.87700223923  -2.73504621187  -1.49159175554  0.178539484739  
1.03205299377  1.76916861534  -1.54592019716  1.87522792816  -2.72907001177  -1.48672944704  0.176153883338  
1.04012012482  1.77809345722  -1.5496895949  1.87359714508  -2.72264987627  -1.48179513613  0.173443570733  
1.04818916321  1.78731799126  -1.55382949511  1.87213468552  -2.71571523348  -1.47668105761  0.170458376408  
1.05628204346  1.79643464088  -1.55830508867  1.87077951431  -2.70862466494  -1.47131616274  0.1670293957  
1.0643761158  1.80521535873  -1.56329423586  1.86956834793  -2.70119887987  -1.46610671679  0.163336008787  
1.07247304916  1.81417608261  -1.56849891344  1.86842918396  -2.69383317629  -1.46069318453  0.15929543972  
1.08053517342  1.82340061665  -1.57414657274  1.86735010147  -2.68597633043  -1.45516044298  0.154954910278  
1.08863210678  1.83234941959  -1.58010560671  1.86651039124  -2.67785579363  -1.44959193865  0.150134623051  
1.09677100182  1.84085488319  -1.58644754091  1.86588716507  -2.66947204271  -1.44393903414  0.145230829716  
1.10486507416  1.84938395023  -1.59298020998  1.86531162262  -2.66112453142  -1.43829852739  0.140170872211  
1.11301207542  1.85791254044  -1.59972840944  1.86495161057  -2.65240508715  -1.4327061812  0.13490717113  
1.12108707428  1.86583042145  -1.60668021837  1.8648557663  -2.64347058931  -1.42687398592  0.129259601235  
1.12918710709  1.87360370159  -1.61390668551  1.8648557663  -2.63544589678  -1.42144900957  0.123372733593  
1.13728094101  1.88136529922  -1.62145644823  1.86503553391  -2.62580472628  -1.41571265856  0.117089629173  
1.14534401894  1.88881504536  -1.62925750414  1.86543130875  -2.61654693285  -1.41019231478  0.111022233963  
1.15343904495  1.89542508125  -1.63722545305  1.865899086  -2.60730106035  -1.40485126177  0.105015143752  
1.16155314445  1.90185499191  -1.64539796511  1.86652231216  -2.59813863436  -1.39958221117  0.0985039621592  
1.16964101791  1.9081890583  -1.65374881426  1.86729001999  -2.58846170107  -1.39438516298  0.0918733179569  
1.17776298523  1.91407930851  -1.66224366823  1.86821317673  -2.57902414003  -1.3893793265  0.0848228484392  
1.18587708473  1.91944146156  -1.67082149187  1.86938858032  -2.56959897677  -1.38449365297  0.0780839696527  
1.19394397736  1.9244685173  -1.67967492739  1.87065982819  -2.56004220644  -1.37984687487  0.0711892917752  
1.20204305649  1.92896664143  -1.68865996996  1.87205028534  -2.55052072207  -1.37512904802  0.0641867592931  
1.21010804176  1.93312966824  -1.69766885439  1.87362146378  -2.54090387026  -1.37080604235  0.0568966083229  
1.21818399429  1.9368366003  -1.70679742495  1.87527561188  -2.53156215349  -1.36657888094  0.0495102033019  
1.22627615929  1.94019556046  -1.7159259955  1.87705039978  -2.52196914354  -1.36251908938  0.0424956865609  
1.23442602158  1.94309866428  -1.72503024737  1.87902927399  -2.51231652895  -1.35874730745  0.0351931750774  
1.24254012108  1.94567787647  -1.73417073885  1.88122320175  -2.50290328661  -1.35511857668  0.0276509784162  
1.25063610077  1.94775342941  -1.74228173891  1.88346576691  -2.49322635332  -1.35161048571  0.0199410021305  
1.25873494148  1.9493252039  -1.75213987032  1.88580369949  -2.48382503191  -1.3484008948  0.0124946786091  
1.26686000824  1.9504648447  -1.76141149202  1.88824939728  -2.47449571291  -1.34538299242  0.00485623255372  
1.2749569416  1.95119667053  -1.77062303225  1.89076757431  -2.4649031798  -1.34256917635  -0.0029619375812  
1.28304696083  1.95152056217  -1.77982312838  1.89344120026  -2.45534640947  -1.34007865587  -0.0110195318805  
1.2911260128  1.95141279697  -1.78896266619  1.89617538452  -2.44576579729  -1.33769542376  -0.018598381673  
1.29919409752  1.9510165453  -1.79797059694  1.8990650177  -2.43635303179  -1.33550435701  -0.0265362898456  
1.30727314949  1.95017683506  -1.80705100695  1.90194272995  -2.4267838637  -1.33345634142  -0.0345228354083  
1.31533694267  1.94880914688  -1.81593925158  1.90485620499  -2.41731053988  -1.33166057268  -0.0426643530475  
1.32343912125  1.94704556465  -1.82467252413  1.90778207779  -2.40810138384  -1.33009177843  -0.0504468123065  
1.33155298233  1.94486224651  -1.83326131502  1.91071939468  -2.39864093462  -1.32870275179  -0.0582168737995  
1.33966517448  1.94228303432  -1.84173137346  1.91378879547  -2.38923961321  -1.32746917406  -0.0660713354694  
1.3477909565  1.93931949139  -1.84998542467  1.91690635681  -2.3801501433  -1.32643968264  -0.0739138762103  
1.35588717461  1.935937047  -1.85815602938  1.91995191574  -2.37104875246  -1.32566100756  -0.0810602347003  
1.36398100853  1.93234992027  -1.86595565477  1.92310523987  -2.36211473147  -1.325050656  -0.0882428328144  
1.37207102776  1.92840301991  -1.87365991274  1.92616271973  -2.35314542452  -1.32465535799  -0.0953539053546  
1.38016605377  1.92419242859  -1.88119584719  1.92930412292  -2.34471446673  -1.32442790667  -0.102536980306  
1.38823699951  1.91960954666  -1.88845712343  1.93237352371  -2.336271588  -1.32447559038  -0.109036270772  
1.39634394646  1.91466724873  -1.89552671114  1.93558692932  -2.32804376284  -1.32467919985  -0.115199391042  
1.40441393852  1.90947246552  -1.90241748491  1.9386920929  -2.31987649599  -1.32502681414  -0.121123139058  
1.41250896454  1.90393054485  -1.90912801424  1.94183301926  -2.31196099917  -1.3255294005  -0.126974884664  
1.42063498497  1.89825594425  -1.91555196444  1.94492721558  -2.30418903032  -1.32627183596  -0.132635418569  
1.42873907089  1.89248597622  -1.92173654238  1.94821214676  -2.29679996172  -1.32717019716  -0.137779537831  
1.43682599068  1.88646388054  -1.92783767382  1.95152139664  -2.28945905367  -1.3282473723  -0.142360035573  
1.44489097595  1.88014185429  -1.93372279802  1.95477056503  -2.28240567843  -1.32942134539  -0.146760765706  
1.45303010941  1.87329208851  -1.93944102923  1.95800733566  -2.27551919619  -1.33086997667  -0.150886360799  
1.46109294891  1.86632215977  -1.94491941134  1.96118497849  -2.26896888414  -1.3325102965  -0.154699627553  
1.46922206879  1.85944843292  -1.95020658175  1.96443414688  -2.26239425341  -1.33431893984  -0.15823728243  
1.47733306885  1.85239458084  -1.95525485674  1.96781492233  -2.25634700457  -1.33631831804  -0.161463085805  
1.48541116714  1.84492135048  -1.96035081545  1.97111225128  -2.25035936037  -1.33841401735  -0.164544884359  
1.49349713326  1.8371360302  -1.96519548098  1.97442150116  -2.24455100695  -1.34062940279  -0.167146984731  
1.5015630722  1.82942271233  -1.9700401465  1.97774219513  -2.23911458651  -1.34303647677  -0.169353310262  
1.5096590519  1.82152962685  -1.97462159792  1.98120737076  -2.23376161257  -1.34558660189  -0.171284023915  
1.51776409149  1.81331217289  -1.97917920748  1.98455238342  -2.22875577608  -1.3482931296  -0.172890488301  
1.5258500576  1.80483138561  -1.98354560534  1.98790931702  -2.22409707705  -1.35113078753  -0.174281899129  
1.53395414352  1.79656648636  -1.98785144487  1.9913020134  -2.21952230135  -1.3541486899  -0.175409142171  
1.54205203056  1.78826546669  -1.99200231234  1.99471902847  -2.21505576769  -1.35713035265  -0.176296536122  
1.55011701584  1.77923309803  -1.99616510073  1.99813604355  -2.2106850783  -1.3603161017  -0.176980320607  
1.55819010735  1.76120400429  -2.00428754488  2.00473022461  -2.20279294649  -1.36709338823  -0.177687470113  
1.56625509262  1.75227952003  -2.00817472139  2.00800323486  -2.199116532  -1.3705423514  -0.177783791219  
1.57431817055  1.74277937412  -2.0120270888  2.0114197731  -2.19557172457  -1.37405139605  -0.177687470113  
1.58238196373  1.73333919048  -2.01585466066  2.01476478577  -2.19218284289  -1.37785894076  -0.177424256002  
1.59047913551  1.72397124767  -2.01963454882  2.01815795898  -2.1890094916  -1.38153583208  -0.177004162465  
1.59857010841  1.71447110176  -2.02346259752  2.02146673203  -2.18590766588  -1.38542777697  -0.176548306142  
1.60666894913  1.7046957016  -2.02730256716  2.02476358414  -2.18280584017  -1.3893793265  -0.175960365926  
1.61476397514  1.69506347179  -2.0312016646  2.02806043625  -2.17980033556  -1.39337903658  -0.175265137349  
1.62288498878  1.6852401495  -2.03510123888  2.03136920929  -2.17697412172  -1.39737826983  -0.174497429525  
1.63094902039  1.67521262169  -2.03902465502  2.03457021713  -2.17421943346  -1.40162974993  -0.173646275197  
1.63905405998  1.66537702084  -2.04287654558  2.03771162033  -2.17157346407  -1.40601283709  -0.172674957906  
1.64722299576  1.65558958054  -2.04671651522  2.04088830948  -2.16891462008  -1.41031200091  -0.171679798757  
1.65532398224  1.64561009407  -2.05060416857  2.04408884048  -2.16629201571  -1.41473085085  -0.170624558126  
1.66338801384  1.63558351994  -2.05444366137  2.04717063904  -2.16372949282  -1.41913777987  -0.169544998799  
1.67145299911  1.6256762743  -2.05822354952  2.05009555817  -2.16132241884  -1.42354470888  -0.1683939139  
1.67955112457  1.61575710773  -2.0620396773  2.0529127121  -2.15887958208  -1.42785579363  -0.167206589376  
1.68761706352  1.60579025745  -2.06579572359  2.05568218231  -2.15643674532  -1.43239480654  -0.166019741689  
1.69573998451  1.59589540958  -2.06951553026  2.05846309662  -2.1539571921  -1.43670589129  -0.164844338094  
1.70386314392  1.58589231968  -2.07323581377  2.06111288071  -2.15139514605  -1.44119674364  -0.163693253194  
1.71199703217  1.57568597794  -2.07702809969  2.06375026703  -2.14883214632  -1.44586736361  -0.162530247365  
1.72016596794  1.56525182724  -2.08084375063  2.06642341614  -2.14622146288  -1.45047790209  -0.16143876711  
1.72826504707  1.55445742607  -2.08463555971  2.06908512115  -2.14368278185  -1.45525628725  -0.160407368337  
1.73637914658  1.54373562336  -2.08851129213  2.0716509819  -2.14114410082  -1.46021444002  -0.159340683614  
1.74444508553  1.53296554089  -2.09239846865  2.0742521286  -2.13836604754  -1.46516067186  -0.158356968557  
1.7525510788  1.52178835869  -2.09629804293  2.0768532753  -2.13567144076  -1.47019035021  -0.157445732747  
1.76064014435  1.51067078114  -2.10018617312  2.07941913605  -2.13304883638  -1.4753759543  -0.156714264547  
1.76874399185  1.4992774725  -2.1040614287  2.08191251755  -2.13028270403  -1.48070508638  -0.156018559133  
1.7768330574  1.48780035973  -2.10787707964  2.08438205719  -2.12751609484  -1.4860346953  -0.155538860952  
1.7849650383  1.47604763508  -2.11170512835  2.08686351776  -2.12467796007  -1.49145967165  -0.155191246663  
1.79303002357  1.46406710148  -2.11552077929  2.08941698074  -2.12173206011  -1.49689704577  -0.154987637197  
1.80116295815  1.4520150423  -2.11930066744  2.0918507576  -2.11884624163  -1.50258571306  -0.155095402394  
1.80922698975  1.4398072958  -2.12314063707  2.09427213669  -2.11593610445  -1.50837022463  -0.155347172414  
1.81729197502  1.42723953724  -2.12688476244  2.09666967392  -2.11319381395  -1.51416713396  -0.155742947255  
1.82539701462  1.41483962536  -2.1305568854  2.09898328781  -2.11030799547  -1.52015477816  -0.156294647847  
1.83349299431  1.40214049816  -2.13412171999  2.10135698318  -2.10745793978  -1.52619105974  -0.157049957906  
1.841588974  1.38940536976  -2.13757878939  2.10361099243  -2.10458404223  -1.53219157854  -0.158045593892  
1.8497159481  1.37649047375  -2.14095193544  2.10587644577  -2.10184127489  -1.53839522997  -0.159196201955  
1.85778212547  1.36340785027  -2.14425355593  2.10801029205  -2.09918290774  -1.54476720492  -0.160659615194  
1.86591315269  1.35025405884  -2.14744741121  2.11008405685  -2.09666806856  -1.55115110079  -0.162254158651  
1.87402105331  1.33695566654  -2.15054542223  2.11214637756  -2.09404546419  -1.55759412447  -0.164100948964  
1.88208794594  1.32363367081  -2.15355950991  2.11407613754  -2.09156686464  -1.56406194368  -0.166055504476  
1.89024806023  1.31006085873  -2.15638286272  2.11587429047  -2.08909923235  -1.57051736513  -0.168010536824  
1.89834308624  1.29649913311  -2.15907365481  2.11762475967  -2.08681232134  -1.57715255419  -0.170132939016  
1.9064309597  1.28298616409  -2.16152650515  2.11924266815  -2.08456117312  -1.58379966417  -0.172279183065  
1.91456198692  1.2693297863  -2.16379863421  2.12090921402  -2.08254892031  -1.590447251  -0.174473587667  
1.92264914513  1.25558912754  -2.16589194933  2.12235927582  -2.08062106768  -1.59728652636  -0.17678863207  
1.93075013161  1.24163281918  -2.16787797609  2.12379789352  -2.07888442675  -1.60405379931  -0.17909080187  
1.93885016441  1.22785687447  -2.16964799563  2.12505674362  -2.07718402544  -1.61097652117  -0.181536976491  
1.94693803787  1.21382939816  -2.1712992827  2.12638711929  -2.07562715212  -1.61775619188  -0.183983151113  
1.95501804352  1.20006549358  -2.17284185091  2.12745428085  -2.07440597216  -1.62455922762  -0.186417404805  
1.96310806274  1.18608593941  -2.1741698424  2.12850904465  -2.0732682387  -1.63136274019  -0.188923660909  
1.97124505043  1.17198717594  -2.1753299872  2.12955236435  -2.07232219378  -1.63828593889  -0.191393677388  
1.97933316231  1.15806829929  -2.1763346831  2.13043928146  -2.07158023516  -1.64522105852  -0.193876091634  
1.987429142  1.14419770241  -2.17712432543  2.13130187988  -2.07098132769  -1.65197688738  -0.196310822164  
1.99568414688  1.13047087193  -2.17778188387  2.13210582733  -2.07053834597  -1.6588400046  -0.198661152517  
2.00379610062  1.11670851707  -2.17823678652  2.13278865814  -2.07027465502  -1.66561967531  -0.20075971285  
2.01185798645  1.10346138477  -2.17861920992  2.13336420059  -2.07025033632  -1.6723874251  -0.202798191701  
2.01991915703  1.0901671648  -2.17877513567  2.13392782211  -2.07026225725  -1.67899972597  -0.204681221639  
2.02801704407  1.07684898376  -2.17876321474  2.13434696198  -2.07047826449  -1.68562347094  -0.206587616597  
2.03608703613  1.06362652779  -2.17863113085  2.13463449478  -2.07094508806  -1.69222432772  -0.208326164876  
2.04417800903  1.05040466785  -2.17832070986  2.13482666016  -2.07155591646  -1.6988957564  -0.210101429616  
2.0522840023  1.03743469715  -2.17772275606  2.13497066498  -2.07231027285  -1.70545989672  -0.211767975484  
2.06034612656  1.02451264858  -2.17699271837  2.13499450684  -2.07332832018  -1.71207219759  -0.213290993367  
2.06846308708  1.0119985342  -2.17610770861  2.13488674164  -2.07441789309  -1.71854049364  -0.214730087911  
2.07652401924  0.999496340752  -2.17511493364  2.13464689255  -2.07573539415  -1.72503310839  -0.216097180043  
2.08459210396  0.986958622932  -2.17399055163  2.13427495956  -2.07726794878  -1.73156196276  -0.217296425496  
2.09265494347  0.974780797958  -2.17262679735  2.13378381729  -2.07902843157  -1.73810226122  -0.218387428914  
2.10078406334  0.962578952312  -2.17109567324  2.13322019577  -2.08099252382  -1.74437934557  -0.219442669545  
2.10892105103  0.950652778149  -2.16928941408  2.13250112534  -2.08307582537  -1.75060874621  -0.220281902944  
2.11702609062  0.938858449459  -2.16743499437  2.1316857338  -2.0853155295  -1.75671798388  -0.221037689839  
2.12516307831  0.927244603634  -2.16536599794  2.13079881668  -2.08775836626  -1.76277953783  -0.221589867269  
2.13326501846  0.915990293026  -2.16299707094  2.12975597382  -2.09056073824  -1.76886493364  -0.22202092806  
2.14133214951  0.905083537102  -2.16050941149  2.12861728668  -2.0933268706  -1.77461511294  -0.222380940114  
2.14943003654  0.894320964813  -2.15787822405  2.1273226738  -2.09627277056  -1.78034097353  -0.222429100667  
2.15752911568  0.883822023869  -2.15498286883  2.1259560585  -2.09938604036  -1.78599578539  -0.222416702901  
2.16565513611  0.873623073101  -2.15187341372  2.1245174408  -2.10253554979  -1.79149419466  -0.222177330648  
2.17371511459  0.863579928875  -2.14853555361  2.12295913696  -2.10590058962  -1.79688531557  -0.221877400075  
2.18180704117  0.854111969471  -2.1450308005  2.12141275406  -2.10950547854  -1.8021085898  -0.22144538561  
2.18993616104  0.845087468624  -2.14121467272  2.11975812912  -2.11332542101  -1.80708009401  -0.220845524465  
2.19800400734  0.836195170879  -2.13721973101  2.1179599762  -2.1172173659  -1.81180030504  -0.220102135335  
2.20611095428  0.827638447285  -2.13296109835  2.11617422104  -2.12142068544  -1.81640035311  -0.219083134328  
2.21423912048  0.812142848969  -2.12364322344  2.11243391037  -2.13022262255  -1.82505017916  -0.216528717672  
2.22233009338  0.804713368416  -2.1185353438  2.11058759689  -2.1347134749  -1.82899171511  -0.215053860341  
2.23042607307  0.79751086235  -2.11326057116  2.10862159729  -2.1394794623  -1.8329094092  -0.213374916707  
2.23852109909  0.791111648083  -2.10775787035  2.1065955162  -2.14436561266  -1.83645517031  -0.211528603231  
2.24660611153  0.785287320614  -2.10203963915  2.10464143753  -2.14931136767  -1.83978540102  -0.209453884755  
2.25466895103  0.779583215714  -2.09607106844  2.10265159607  -2.15471202532  -1.84288865725  -0.207259003316  
2.26280713081  0.774034917355  -2.08993465105  2.10049390793  -2.16032821337  -1.84582406679  -0.204956833516  
2.27089595795  0.768989920616  -2.08355933825  2.09822797775  -2.16589719454  -1.84850722948  -0.202450577413  
2.27899312973  0.764711916447  -2.07690793673  2.09617853165  -2.17139369646  -1.85107118288  -0.199872318898  
2.28705906868  0.760889291763  -2.07035333315  2.09418821335  -2.17686635653  -1.85327560106  -0.197114292775  
2.29521298409  0.75721013546  -2.06376201311  2.09225845337  -2.18244678179  -1.8553240935  -0.194187943135  
2.30331707001  0.753927230835  -2.05711108843  2.09016036987  -2.18845826784  -1.85719329516  -0.190974537526  
2.3114130497  0.750955164433  -2.04994613329  2.08783483505  -2.19482976595  -1.85872680346  -0.187317196523  
2.31949901581  0.748318970203  -2.04223043123  2.08549690247  -2.20165521303  -1.86017686525  -0.183239761983  
2.32756209373  0.746018409729  -2.03408462206  2.08312320709  -2.20898420015  -1.8613746802  -0.178827110921  
2.33567714691  0.744053006172  -2.02532846132  2.08076190948  -2.21673232714  -1.86223727862  -0.174017731343  
2.34377408028  0.742399156094  -2.01623708407  2.0783162117  -2.22485143343  -1.86295634905  -0.168945614492  
2.35187506676  0.741176784039  -2.00693113009  2.07590675354  -2.23321038881  -1.86347133318  -0.163369480764  
2.35996413231  0.740206420422  -1.99725371996  2.07350873947  -2.24223977724  -1.86384231249  -0.157325569783  
2.36806297302  0.73954731226  -1.98730117479  2.07096719742  -2.25176030794  -1.86404592196  -0.151089970266  
2.37624502182  0.739199757576  -1.97719365755  2.06829404831  -2.26128036181  -1.86393815676  -0.144602600728  
2.38434004784  0.739079892635  -1.96692973772  2.06565666199  -2.27144748369  -1.86378223101  -0.138187233602  
2.39242696762  0.739236056805  -1.95649892489  2.06310319901  -2.28184253374  -1.86329156557  -0.131316010152  
2.40056300163  0.739499330521  -1.94594842592  2.06044197083  -2.29220134417  -1.86283618609  -0.124073330556  
2.40865015984  0.740074574947  -1.93528968493  2.05780410767  -2.30294353167  -1.86220103899  -0.116842095052  
2.41671204567  0.740661799908  -1.92436820665  2.0551071167  -2.31397277514  -1.86138660112  -0.109671417867  
2.4247751236  0.741536676884  -1.91355449358  2.05244541168  -2.32478696505  -1.86054784456  -0.102369133626  
2.4328789711  0.742531001568  -1.90259677569  2.04975986481  -2.33610374132  -1.85952932039  -0.0947783629047  
2.4409661293  0.743633508682  -1.89173490206  2.04697847366  -2.3474205176  -1.85839158693  -0.0872114340412  
2.44908499718  0.744975745678  -1.88087302843  2.04410123825  -2.35843831698  -1.85719329516  -0.0799329916583  
2.45718598366  0.746389508247  -1.86992723147  2.04130792618  -2.36979133288  -1.85580331484  -0.0727503935443  
2.46528506279  0.747959494591  -1.85912496248  2.03846645355  -2.38109618822  -1.85442620913  -0.0654476324665  
2.47338199615  0.7496971488  -1.84827500979  2.03569698334  -2.3921139876  -1.8529642264  -0.0581811110126  
2.48148703575  0.751530408859  -1.83749658266  2.03289222717  -2.40334731737  -1.85147887865  -0.0510223547565  
2.48958516121  0.753471434116  -1.82681352297  2.03012228012  -2.41442472139  -1.84999305407  -0.0443070570575  
2.49765896797  0.755412876606  -1.81633454958  2.0273771286  -2.42529899279  -1.84837562243  -0.0375435988056  
2.50574707985  0.75757008791  -1.80598622957  2.02453565598  -2.43625718752  -1.84681779543  -0.030721012746  
2.51384401321  0.759726822376  -1.79568607012  2.02182626724  -2.44691545168  -1.84521276156  -0.0242217222797  
2.52190709114  0.76213568449  -1.7857688109  2.01911687851  -2.45747834841  -1.84361917177  -0.0179746786701  
2.53001499176  0.764544129372  -1.77589828173  2.01641941071  -2.46781331698  -1.84191829363  -0.0121348539936  
2.53811597824  0.767108738422  -1.76629239718  2.0137462616  -2.47778922716  -1.8402894179  -0.00625926653017  
2.54618310928  0.769780874252  -1.75688916842  2.01120376587  -2.48756200472  -1.83869582811  -0.000503365193502  
2.55424809456  0.772633135319  -1.74760562578  2.00862646103  -2.49720222155  -1.83697015444  0.0050479802303  
2.56234502792  0.775604844093  -1.73859674135  2.00598907471  -2.50680715242  -1.83524543444  0.0104562360793  
2.57044410706  0.778756678104  -1.72976762453  2.00325536728  -2.51610118548  -1.83348399798  0.0155042167753  
2.57850909233  0.782051980495  -1.72117787996  2.00067806244  -2.52527457872  -1.83169919649  0.0204207450151  
2.58659696579  0.785443127155  -1.7126715819  1.99802827835  -2.53424483935  -1.82991391817  0.025300571695  
2.59468603134  0.788870632648  -1.70442849794  1.99548625946  -2.54264051119  -1.82808095614  0.0302051156759  
2.60278296471  0.792405605316  -1.69631702105  1.99282503128  -2.55113155047  -1.82620031038  0.0348456315696  
2.61087393761  0.795976877213  -1.6885283629  1.99029541016  -2.55940705935  -1.82434302965  0.0394022613764  
2.61897301674  0.799775481224  -1.68085939089  1.98775339127  -2.56762296358  -1.82241422335  0.0438626371324  
2.62707209587  0.803766608238  -1.67348987261  1.98521184921  -2.57530004183  -1.82038957277  0.0480353981256  
2.6352159977  0.8079007864  -1.66641885439  1.98270559311  -2.58195859591  -1.81844932238  0.0522560924292  
2.64327812195  0.812238752842  -1.65959960619  1.98024845123  -2.58965951601  -1.81635266939  0.056632578373  
2.65137696266  0.816672921181  -1.65295917193  1.97770595551  -2.59695321718  -1.81429225603  0.0609854757786  
2.65949010849  0.821131050587  -1.64662963549  1.97515296936  -2.60376817385  -1.81211167971  0.0653979182243  
2.66755199432  0.825661063194  -1.64039642016  1.97270679474  -2.61028319994  -1.80988341967  0.069714486599  
2.67561411858  0.830263018608  -1.63447362581  1.9702129364  -2.61678678194  -1.80755931536  0.0742231756449  
2.68367910385  0.835236430168  -1.62869531313  1.96774291992  -2.62303811709  -1.80509168306  0.0785996615887  
2.69178199768  0.840593397617  -1.62306005159  1.96526145935  -2.62909824053  -1.80254012743  0.0831319466233  
2.69988107681  0.846274316311  -1.61769944826  1.96277952194  -2.63491899172  -1.79994041124  0.0879406183958  
2.70800304413  0.852038323879  -1.61249524752  1.96036958694  -2.64049989382  -1.79713660875  0.092856772244  
2.71610212326  0.85774320364  -1.60752946535  1.95781612396  -2.64617711702  -1.79445344607  0.0979526937008  
2.7242269516  0.863711714745  -1.6027434508  1.95538187027  -2.65139943758  -1.7914703528  0.103096544743  
2.73235416412  0.870159626007  -1.59804135958  1.95294761658  -2.65654880205  -1.78849965731  0.108396194875  
2.74052095413  0.876966655254  -1.5939968268  1.95047807693  -2.66149503389  -1.78531247774  0.113707825541  
2.74862194061  0.883989810944  -1.58927089373  1.94804382324  -2.66633397738  -1.7819946448  0.119487591088  
2.75671815872  0.891060829163  -1.58497506777  1.94561052322  -2.67100507418  -1.77871257464  0.125554606318  
2.76478004456  0.898455858231  -1.58084756533  1.94340419769  -2.67578393618  -1.77527410189  0.131789773703  
2.77291798592  0.90625834465  -1.57674342791  1.94083833694  -2.68038255373  -1.77159625689  0.138228669763  
2.78101611137  0.914300143719  -1.57281858126  1.93846416473  -2.68475467363  -1.76776296297  0.144619256258  
2.78911209106  0.922414600849  -1.56914550463  1.93616247177  -2.6891263167  -1.76377374331  0.151453644037  
2.79724311829  0.930696427822  -1.56559116045  1.93370437622  -2.69342595736  -1.75968915621  0.158491760492  
2.80531001091  0.939625442028  -1.56208545366  1.93128204346  -2.69760543505  -1.75537616411  0.165734350681  
2.81341695786  0.948830783367  -1.55855590502  1.92893218994  -2.70153457323  -1.75087243715  0.173072054982  
2.82149004936  0.95793992281  -1.55520564715  1.92669057846  -2.70560676256  -1.74624807039  0.180565953255  
2.82959198952  0.967492878437  -1.55190307299  1.92436408997  -2.70966703096  -1.74132520357  0.188563540578  
2.83767700195  0.977321445942  -1.54870826403  1.92188215256  -2.71351129213  -1.73625737826  0.196680605412  
2.84573912621  0.987198293209  -1.54565745989  1.91967582703  -2.71741611162  -1.731010739  0.204774081707  
2.85384202003  0.997338831425  -1.54278546969  1.91737413406  -2.72134429613  -1.72557241121  0.213046938181  
2.86190795898  1.00797069073  -1.53998548189  1.91504764557  -2.72518951098  -1.71973878542  0.221787557006  
2.8700170517  1.0186868906  -1.5372932593  1.91274595261  -2.72896176973  -1.71395284334  0.230588108301  
2.87810397148  1.02952325344  -1.53485232988  1.91061115265  -2.73257953325  -1.7078798453  0.239041104913  
2.88619709015  1.05222654343  -1.53010207811  1.90633106232  -2.73995715777  -1.69484693209  0.257013708353  
2.8942501545  1.06385433674  -1.52783996264  1.90438842773  -2.74350244204  -1.68816310564  0.266017585993  
2.90231513977  1.07554221153  -1.52579385439  1.90253019333  -2.74703580538  -1.6813471953  0.274650365114  
2.91052913666  1.08748149872  -1.52386743227  1.90069532394  -2.75043708483  -1.67411262194  0.283666610718  
2.91862297058  1.09987735748  -1.52218038241  1.89898109436  -2.75375491778  -1.66673404375  0.292502731085  
2.92671895027  1.11191284657  -1.52055293718  1.89734983444  -2.75700074831  -1.65907985369  0.300859093666  
2.93481516838  1.12424874306  -1.51921254793  1.89575529099  -2.76006681124  -1.6515100638  0.309276163578  
2.94287800789  1.13683629036  -1.51795608202  1.8942565918  -2.76301366488  -1.64356834093  0.317632526159  
2.95097112656  1.14942467213  -1.51678353945  1.89281797409  -2.76581603685  -1.63549548784  0.32567730546  
2.95906996727  1.16230022907  -1.5158384482  1.89147472382  -2.76853496233  -1.62743407885  0.333086550236  
2.96725511551  1.17512822151  -1.51501256624  1.89015626907  -2.77108604113  -1.61901361147  0.340555727482  
2.97531604767  1.18838799  -1.51427060763  1.8888130188  -2.77339774767  -1.61042577425  0.347809195518  
2.98338198662  1.20144402981  -1.51368457476  1.88753032684  -2.77550584475  -1.60175401369  0.354570895433  
2.99146294594  1.21452450752  -1.51322967211  1.8863067627  -2.77756578127  -1.59293872515  0.360877215862  
2.99956202507  1.22760522366  -1.51289493242  1.88519191742  -2.77936250368  -1.58448249498  0.366752117872  
3.00765800476  1.24043393135  -1.51277476946  1.88398075104  -2.78107577959  -1.57572728792  0.372518420219  
3.01572108269  1.25349080563  -1.51272708574  1.88275766373  -2.78257257143  -1.56707984606  0.377937525511  
3.02380204201  1.26641571522  -1.51281100908  1.88172674179  -2.78383046785  -1.558324639  0.383092999458  
3.031924963  1.27928161621  -1.51303798357  1.88067150116  -2.78490811983  -1.54950982729  0.387756735086  
3.0399889946  1.29208707809  -1.51342088381  1.8796043396  -2.78572303454  -1.54063541094  0.391928732395  
3.04807496071  1.30479669571  -1.51399594942  1.87860918045  -2.78640538851  -1.53184444109  0.395681291819  
3.056194067  1.3176265955  -1.51471358935  1.87767410278  -2.78676492373  -1.52336484591  0.399169832468  
3.06425595284  1.33007335663  -1.51561099688  1.87684631348  -2.78696853319  -1.51468164126  0.402406692505  
3.07232093811  1.34253132343  -1.51677161852  1.87605571747  -2.78695661226  -1.50603515307  0.405212134123  
3.08038496971  1.35478627682  -1.51800424257  1.87537193298  -2.78668100039  -1.49766379992  0.407717943192  
3.08845305443  1.36690950394  -1.51958400408  1.87477207184  -2.78634530703  -1.48931628862  0.409875869751  
3.09655809402  1.37881696224  -1.52131873766  1.8741850853  -2.78569919268  -1.48124438921  0.411733776331  
3.10467100143  1.39062857628  -1.52322131792  1.87372922897  -2.78496820131  -1.47323209444  0.413280874491  
3.11275911331  1.40216445923  -1.52542335192  1.87335729599  -2.78403407732  -1.46537572542  0.414539217949  
3.12084794044  1.4136288166  -1.5277445952  1.87300920486  -2.78283626238  -1.45773536364  0.415474742651  
3.12891101837  1.42474496365  -1.53030473391  1.87279415131  -2.7815302054  -1.45020276705  0.416194170713  
3.13700199127  1.43586146832  -1.53306895891  1.8726143837  -2.77993709246  -1.44287330309  0.416625231504  
3.14510011673  1.44681024551  -1.53602487246  1.87251806259  -2.77814132372  -1.43578368822  0.416816979647  
3.15322399139  1.45761549473  -1.53901607195  1.87254190445  -2.77634460131  -1.42873031298  0.416792988777  
3.16128802299  1.46808481216  -1.5422466437  1.87257766724  -2.77435571352  -1.42196351687  0.4165173769  
3.16935706139  1.47845828533  -1.54558545748  1.87269830704  -2.77211648623  -1.41526967684  0.416133880615  
3.17744803429  1.48884379864  -1.54913932482  1.87292528152  -2.76975661913  -1.4087193648  0.415486723185  
3.18551301956  1.49896550179  -1.55281240145  1.8732252121  -2.76712161699  -1.40251619021  0.414599150419  
3.19358301163  1.50900387764  -1.55670100847  1.87338113785  -2.76433116594  -1.39654046694  0.413604438305  
3.20174694061  1.51884961128  -1.56063777605  1.87362146378  -2.7616241614  -1.39064866701  0.412237495184  
3.20986294746  1.5273771286  -1.56481391588  1.87389707565  -2.75864202181  -1.38508063952  0.410607278347  
3.21792697906  1.53773903847  -1.56902534166  1.87422084808  -2.75549155871  -1.37958318392  0.408713012934  
3.22600197792  1.54729759693  -1.57321340242  1.87455606461  -2.75223380724  -1.37415916124  0.406614661217  
3.23411202431  1.55649614334  -1.57753354708  1.87493991852  -2.74876004854  -1.3691294829  0.40415713191  
3.24223804474  1.56579113007  -1.58197242418  1.87517976761  -2.74526292482  -1.36427957216  0.401340097189  
3.25033307076  1.57514631748  -1.58638745943  1.87555170059  -2.74161035219  -1.35958558718  0.398270994425  
3.25853013992  1.5843693018  -1.59083825747  1.87597131729  -2.73774129549  -1.35495120684  0.395057737827  
3.26662707329  1.59340047836  -1.59539634386  1.87635469437  -2.73383695284  -1.35052043596  0.391580820084  
3.27469205856  1.60262346268  -1.59987193743  1.87672662735  -2.73005181948  -1.34635335604  0.387660861015  
3.2827539444  1.61177492142  -1.60434705416  1.87705039978  -2.72606355349  -1.34216243425  0.383476495743  
3.29084897041  1.62066268921  -1.60884601275  1.87733840942  -2.72190791765  -1.33842593828  0.378860682249  
3.29894709587  1.62987411022  -1.61333209673  1.8776140213  -2.71765548388  -1.33461791674  0.373837411404  
3.30706810951  1.6392775774  -1.61781961123  1.87788963318  -2.71328384081  -1.33083421389  0.368394345045  
3.31515908241  1.64827287197  -1.62226993242  1.87806987762  -2.70905620257  -1.32732564608  0.362927287817  
3.32322406769  1.65747261047  -1.62673312822  1.87818956375  -2.70455247561  -1.3239124457  0.357352375984  
3.3313190937  1.66693639755  -1.6310637633  1.87823724747  -2.70024091402  -1.32045203844  0.351262122393  
3.33942294121  1.6761841774  -1.63528758684  1.87812948227  -2.69586927096  -1.31713563601  0.344788044691  
3.34752297401  1.68537187576  -1.639462773  1.87797355652  -2.69162923494  -1.31391412417  0.337858140469  
3.35561203957  1.69488370419  -1.64341193834  1.87774610519  -2.68717414538  -1.31078845659  0.331000179052  
3.36370706558  1.7045994997  -1.64727574984  1.87747001648  -2.68282634417  -1.30768758455  0.324106633663  
3.37182211876  1.71384716034  -1.65108043352  1.87718248367  -2.67858678499  -1.30463391939  0.316769301891  
3.37993907928  1.72328734398  -1.65465814272  1.87675046921  -2.67423850695  -1.30174810091  0.309119969606  
3.38804101944  1.73302721977  -1.65811568895  1.8762588501  -2.67011911074  -1.29877883593  0.301326870918  
3.39612913132  1.74257528782  -1.66146546999  1.87561178207  -2.66623860994  -1.29592878023  0.293845713139  
3.40424394608  1.75196754932  -1.66467219988  1.87482023239  -2.66226226488  -1.2930911223  0.285980314016  
3.41230797768  1.76162385941  -1.66731673876  1.8740530014  -2.65842897097  -1.29008514086  0.277791708708  
3.42042398453  1.77134001255  -1.6704509894  1.87316560745  -2.65474063555  -1.28718740145  0.269494891167  
3.4285299778  1.78091239929  -1.67322618166  1.87219429016  -2.65103990236  -1.28418189684  0.261341512203  
3.43659496307  1.79064059258  -1.67583448092  1.87123537064  -2.64747077623  -1.28139192263  0.252877265215  
3.44462013245  1.80032086372  -1.67838269869  1.87015581131  -2.64405709902  -1.27849418322  0.244160234928  
3.45271611214  1.80961763859  -1.6808479468  1.86911249161  -2.64070398012  -1.2758119742  0.235576167703  
3.46078205109  1.81916642189  -1.68322879473  1.86794948578  -2.63742190996  -1.27305776278  0.226931035519  
3.46903705597  1.82913470268  -1.68552571932  1.86682224274  -2.63427240053  -1.27020818392  0.21786685288  
3.47712302208  1.83873140812  -1.6877506415  1.86559915543  -2.63114625612  -1.26744205156  0.208454743028  
3.48520708084  1.84816002846  -1.68998796145  1.86447238922  -2.62798434893  -1.26473647753  0.199474439025  
3.49332809448  1.85780465603  -1.69214183489  1.86334514618  -2.62495452562  -1.26200563112  0.190073937178  
3.50136899948  1.86728203297  -1.69424754778  1.86219406128  -2.62193662325  -1.25922805468  0.180194437504  
3.50947594643  1.87663865089  -1.69637662569  1.86112689972  -2.61893016497  -1.256629769  0.170793935657  
3.51755309105  1.88611590862  -1.69855434099  1.8601193428  -2.6159957091  -1.25405532518  0.161141768098  
3.52561807632  1.89559280872  -1.70080358187  1.85925626755  -2.61300164858  -1.25137311617  0.151010230184  
3.53371500969  1.90473413467  -1.70313626925  1.85840511322  -2.61004382769  -1.24879867235  0.140974193811  
3.54177808762  1.91401934624  -1.70552951494  1.85760164261  -2.60694152514  -1.24628431002  0.130842268467  
3.54984211922  1.92338871956  -1.70810157457  1.85701417923  -2.6038997809  -1.24374610582  0.12020701915  
3.55794715881  1.93242192268  -1.71073371569  1.85642623901  -2.60086948076  -1.24132711092  0.109811082482  
3.56601309776  1.94132316113  -1.71354514757  1.8559346199  -2.59767181078  -1.23890859285  0.0993795618415  
3.57411193848  1.95047688484  -1.71640474001  1.85556316376  -2.5944498221  -1.23657352129  0.088504254818  
3.58221411705  1.96788394451  -1.72258979479  1.85505962372  -2.58776694933  -1.23183185259  0.0669450089335  
3.59027695656  1.97664141655  -1.72583181063  1.85486745834  -2.58443767229  -1.22956878344  0.055673468858  
3.59833717346  1.98525512218  -1.72925311724  1.85487937927  -2.5809767882  -1.22720987002  0.044929984957  
3.60650396347  1.9935451746  -1.7327225844  1.85495138168  -2.57744342486  -1.22497064272  0.0340059883893  
3.61458015442  2.00184679031  -1.73628789583  1.85509538651  -2.57394630114  -1.22283965746  0.0226509347558  
3.62267804146  2.01038813591  -1.74000865618  1.85539531708  -2.57035380999  -1.22056466738  0.0118711236864  
3.63074016571  2.01885819435  -1.74382478396  1.85576725006  -2.56685668627  -1.21832544008  0.000827286043204  
3.63885116577  2.02677583694  -1.74780875841  1.85612678528  -2.563311402  -1.21631414095  -0.0104201475727  
3.6469810009  2.03474235535  -1.75184041659  1.85661840439  -2.55962258974  -1.21424276034  -0.0209606329547  
3.65506601334  2.04303216934  -1.75597983996  1.85722970963  -2.55604201952  -1.21209890047  -0.0319321791278  
3.66315507889  2.05101037025  -1.76017934481  1.85788917542  -2.55261689821  -1.20993215242  -0.042916123067  
3.671241045  2.05864048004  -1.76439029375  1.85869264603  -2.5490954558  -1.20794469515  -0.0533846060382  
3.6793050766  2.06658267975  -1.76861316362  1.85971164703  -2.54551440874  -1.20589715639  -0.0639727751361  
3.68738007545  2.07480072975  -1.77290803591  1.86083936691  -2.54214936892  -1.20380145708  -0.0746691862689  
3.69552302361  2.08262324333  -1.77722675005  1.86203813553  -2.53889161745  -1.20184976259  -0.0846336523639  
3.70359015465  2.09009766579  -1.78162938753  1.86324882507  -2.53575402895  -1.19979030291  -0.0948384443866  
3.71168494225  2.09779977798  -1.78609162966  1.8645324707  -2.53269988695  -1.19785100618  -0.105102841054  
3.71978402138  2.10571789742  -1.79051763216  1.86598300934  -2.52960998217  -1.1958993117  -0.114623848592  
3.72787213326  2.11333608627  -1.79501611391  1.86749410629  -2.52665216128  -1.19400722185  -0.124276940023  
3.73596596718  2.12072658539  -1.79949027697  1.8690404892  -2.52376538912  -1.1921637694  -0.134050194417  
3.74409794807  2.12850141525  -1.8040359656  1.87076759338  -2.52093917528  -1.19023543993  -0.143067661916  
3.75222706795  2.13644361496  -1.80861789385  1.87252998352  -2.51820832888  -1.18838006655  -0.152049843465  
3.76034116745  2.14419388771  -1.81323558489  1.87434053421  -2.51565772692  -1.18651181856  -0.161115471517  
3.76842904091  2.15168046951  -1.81790143648  1.87610340118  -2.51310664812  -1.18468028704  -0.170072857534  
3.77652311325  2.15944290161  -1.8225663344  1.87791347504  -2.51086694399  -1.18291980425  -0.178430859243  
3.78459095955  2.16756510735  -1.82733995119  1.87996387482  -2.50856811205  -1.18104058901  -0.186729256307  
3.79267907143  2.17547178268  -1.83207732836  1.88194274902  -2.50642425219  -1.17926818529  -0.195195500051  
3.80076503754  2.18299436569  -1.83693391482  1.88408899307  -2.5043519179  -1.17743617693  -0.203145805989  
3.80885195732  2.19084072113  -1.84179097811  1.88631916046  -2.502328221  -1.1757238547  -0.210676972066  
3.81698393822  2.19908332825  -1.84670764605  1.88851356506  -2.50044805208  -1.17396384874  -0.218243424092  
3.82507205009  2.20716953278  -1.85173207918  1.89070796967  -2.49872333208  -1.17221576372  -0.225810352956  
3.83316016197  2.21492004395  -1.85683995882  1.89293813705  -2.49704677263  -1.17047959963  -0.233077828084  
3.84127306938  2.22281455994  -1.86191207567  1.8952999115  -2.49538213411  -1.16877967516  -0.239924732839  
3.84940910339  2.23116493225  -1.86710387865  1.89767408371  -2.49381333986  -1.16704351107  -0.246676270162  
3.85747909546  2.23943185806  -1.87222415606  1.90007209778  -2.49232846895  -1.16529542605  -0.253440205251  
3.86555600166  2.2474822998  -1.87749940554  1.90243387222  -2.49111873308  -1.16367894808  -0.260202709829  
3.87362194061  2.25576066971  -1.88276273409  1.90490436554  -2.48965770403  -1.16212255159  -0.266378704702  
3.88171815872  2.26431512833  -1.8880742232  1.90739822388  -2.48828059832  -1.16044599215  -0.272363011037  
3.88980507851  2.27269005775  -1.8933857123  1.90997600555  -2.48696309725  -1.1588657538  -0.278395001088  
3.89786601067  2.28063249588  -1.89875680605  1.9125418663  -2.48566943804  -1.15734512011  -0.284402672444  
3.90596294403  2.2890791893  -1.90415174166  1.91525125504  -2.48442441622  -1.15584832827  -0.290530983602  
3.91406106949  2.29775357246  -1.90961867968  1.91802120209  -2.48311883608  -1.15430385271  -0.296226803456  
3.92218494415  2.30600810051  -1.91503793398  1.920814991  -2.48193294207  -1.15280753771  -0.301551167165  
3.93031311035  2.31413078308  -1.92050439516  1.92360877991  -2.48080712954  -1.151430432  -0.306936089193  
3.93842315674  2.32263731956  -1.92594749132  1.9265704155  -2.4797056357  -1.15000564257  -0.312212292348  
3.94654011726  2.33131146431  -1.93153363863  1.92969942093  -2.47854358355  -1.14854509035  -0.317596737538  
3.95460414886  2.33942222595  -1.93710834185  1.9328289032  -2.47743016878  -1.14713222185  -0.32305318514  
3.96274399757  2.34731721878  -1.94275457064  1.93615055084  -2.47640020052  -1.14574319521  -0.327981774007  
3.97084116936  2.35557174683  -1.94842464129  1.93953132629  -2.47541791597  -1.14433032671  -0.332790676747  
3.97890806198  2.3638381958  -1.95415431658  1.9430565834  -2.47449571291  -1.142953221  -0.337539498006  
3.98703098297  2.37170934677  -1.96003944079  1.94680929184  -2.4735139052  -1.14172059694  -0.342240158712  
3.99510908127  2.37938785553  -1.96604472796  1.95086193085  -2.47254354159  -1.14037877718  -0.346869293843  
4.00322008133  2.38748645782  -1.97220546404  1.9550819397  -2.47157365481  -1.13905030886  -0.351426426564  
4.01131606102  2.39520096779  -1.97858077685  1.95944643021  -2.47072345415  -1.13768560091  -0.355851475392  
4.01941108704  2.40224432945  -1.9850285689  1.96396636963  -2.46994525591  -1.13653594652  -0.35995275179  
4.02748203278  2.40925097466  -1.99177533785  1.96871423721  -2.46909457842  -1.13532668749  -0.363766018544  
4.03554606438  2.41667747498  -1.99868899981  1.97376203537  -2.4682562987  -1.1341770331  -0.367543522512  
4.04360604286  2.42379236221  -2.00580674807  1.97906112671  -2.46752578417  -1.13292009035  -0.371225659047  
4.05170512199  2.43005514145  -2.01301986376  1.98457670212  -2.46674758593  -1.13186628023  -0.374799076711  
4.05980110168  2.43601846695  -2.02056819597  1.99030733109  -2.46602899233  -1.13077718416  -0.378204170858  
4.06791305542  2.44213724136  -2.02835494677  1.99637365341  -2.46526223818  -1.12975961367  -0.381502453481  
4.07600998878  2.44816040993  -2.03640538851  2.00267982483  -2.46455604235  -1.12875348726  -0.384716812764  
4.08414316177  2.45366740227  -2.04469472567  2.00914239883  -2.46398097674  -1.12784368197  -0.387510601674  
4.09225416183  2.45864653587  -2.05335504213  2.01578378677  -2.46339399019  -1.12696963945  -0.390053097402  
4.10037302971  2.4632897377  -2.06220704714  2.02284526825  -2.46273595492  -1.12615567843  -0.392487351094  
4.10850715637  2.46772909164  -2.07113057772  2.03011035919  -2.46212464968  -1.12541276613  -0.394597832357  
4.11660695076  2.47184467316  -2.08032924334  2.03753137589  -2.46151382128  -1.12479049364  -0.39661246935  
4.12467217445  2.47569608688  -2.08971959749  2.04519224167  -2.46097499529  -1.12419206301  -0.398531262075  
4.13277101517  2.4793074131  -2.09943229357  2.05310487747  -2.46034032503  -1.12366515795  -0.400246445333  
4.14088797569  2.48242664337  -2.10922938982  2.06105327606  -2.45981294314  -1.12325793902  -0.401805226003  
4.14895200729  2.48524594307  -2.11915761629  2.0690369606  -2.45922643343  -1.12291080156  -0.403232399617  
4.15706396103  2.48763346672  -2.12919360796  2.07723760605  -2.45867568651  -1.12256318728  -0.404407326375  
4.16519117355  2.48975729942  -2.13921720186  2.08560466766  -2.45813686052  -1.12236005465  -0.405534569417  
4.17329597473  2.49156904221  -2.14940864245  2.09394836426  -2.45756179491  -1.1221926848  -0.406434361135  
4.18138194084  2.4929728508  -2.1595047156  2.10235214233  -2.45693904558  -1.12216836611  -0.407165829335  
4.18945002556  2.49411273003  -2.16962415377  2.11067152023  -2.45641214052  -1.12218076388  -0.407789532338  
4.19754004478  2.49485659599  -2.17981607119  2.11905097961  -2.45593339602  -1.12222844759  -0.408244911824  
4.20563411713  2.49525284767  -2.18993550936  2.127430439  -2.45541841189  -1.1223838965  -0.40859300295  
4.21372509003  2.49534869194  -2.19982797304  2.13576173782  -2.45491534868  -1.12253934542  -0.408868614827  
4.22182297707  2.4950363636  -2.20967275301  2.14396095276  -2.45447236696  -1.12279111544  -0.408940617238  
4.22991609573  2.49442481995  -2.21938544909  2.15217256546  -2.45378905932  -1.12300664583  -0.408904377614  
4.23801898956  2.49338102341  -2.22888356844  2.16005992889  -2.45320254961  -1.12337810198  -0.408772770558  
4.2461309433  2.49202537537  -2.23821336428  2.16787576675  -2.45267564455  -1.123796765  -0.40859300295  
4.25422596931  2.4902613163  -2.24732858339  2.17548751831  -2.45207673708  -1.1242278258  -0.408221069966  
4.2623269558  2.48569011688  -2.26478130022  2.18988323212  -2.45091516176  -1.12534124056  -0.407597366964  
4.27042007446  2.48277449608  -2.27314263979  2.19684743881  -2.45032817522  -1.1260116736  -0.407177750264  
4.27854514122  2.4795589447  -2.28132468859  2.20371580124  -2.44965774218  -1.12678987185  -0.40669852892  
4.2866101265  2.47594761848  -2.2892554442  2.21026086807  -2.4490831534  -1.12757999102  -0.406146351491  
4.294672966  2.47201228142  -2.29687530199  2.21657705307  -2.4485557715  -1.12849027315  -0.405618492757  
4.30276608467  2.46766877174  -2.30411273638  2.22258281708  -2.44800550142  -1.12947208086  -0.404995266591  
4.31085205078  2.46313381195  -2.31109840075  2.22841978073  -2.44731074968  -1.13050157229  -0.404323403035  
4.3189740181  2.45833468437  -2.31778508822  2.23404169083  -2.44671184221  -1.13160306612  -0.403712097798  
4.3270380497  2.45316386223  -2.32418519655  2.2394952774  -2.44617301622  -1.13276464144  -0.403064552938  
4.33516311646  2.44763278961  -2.33038121859  2.24455308914  -2.44562179247  -1.13399726549  -0.402368847524  
4.34323096275  2.44168138504  -2.33632642428  2.24952745438  -2.44504720369  -1.1352909247  -0.401709381734  
4.35132098198  2.43547844887  -2.34214002291  2.25428533554  -2.44446021715  -1.13661986986  -0.40101367632  
4.35948014259  2.42926359177  -2.34765512148  2.25892448425  -2.44395715395  -1.13805610338  -0.400318447744  
4.36754703522  2.42289233208  -2.35291845003  2.26337099075  -2.44334632555  -1.13955337206  -0.399586979543  
4.37564396858  2.41604161263  -2.35799056688  2.26751852036  -2.44274741808  -1.14109784762  -0.398794953023  
4.38374114037  2.40874695778  -2.36275130907  2.27137756348  -2.44226867357  -1.14271384874  -0.398039642964  
4.39180612564  2.40131998062  -2.3673213164  2.27492523193  -2.44169360796  -1.14440232912  -0.397212330495  
4.39990115166  2.39408540726  -2.37161571184  2.27824544907  -2.44119054476  -1.14612657229  -0.396301094686  
4.40799403191  2.38667035103  -2.37568265596  2.28139734268  -2.4406636397  -1.14788657824  -0.395317379628  
4.41608214378  2.3787279129  -2.37949878374  2.28423833847  -2.44020873705  -1.14968234697  -0.394166294728  
4.42418003082  2.37041306496  -2.38294393221  2.28674292564  -2.43974191347  -1.15153819719  -0.392954651509  
4.43227910995  2.36223077774  -2.38606626192  2.28908038139  -2.43928653399  -1.15341788927  -0.39146787325  
4.44033694267  2.35417962074  -2.3888891379  2.29123735428  -2.43877154986  -1.15528566042  -0.389849487935  
4.44844007492  2.34569740295  -2.39158088366  2.29321527481  -2.43832856814  -1.15726119677  -0.388098065053  
4.45657300949  2.33696293831  -2.39399701754  2.29486894608  -2.43790990511  -1.15939265886  -0.386035744344  
4.46463799477  2.32830023766  -2.39607888857  2.29618740082  -2.43756229082  -1.16148788134  -0.383793179189  
4.47273516655  2.31951785088  -2.39799338976  2.29741001129  -2.43717891375  -1.16355926195  -0.381274525319  
4.48083496094  2.31032729149  -2.39965564409  2.29838085175  -2.43692714373  -1.16587001482  -0.378660027181  
4.48893094063  2.30116081238  -2.40113908449  2.29917216301  -2.43654376665  -1.16813308397  -0.375758473073  
4.49706602097  2.29211449623  -2.4022157828  2.29973506927  -2.43623286883  -1.17039567629  -0.372652355825  
4.50518417358  2.28296017647  -2.40317279497  2.30019068718  -2.43596917788  -1.17271882692  -0.369438473378  
4.51325011253  2.27360153198  -2.40390235582  2.30028653145  -2.43568164507  -1.17517310778  -0.365984741841  
4.52138900757  2.26435112953  -2.40442878405  2.30037045479  -2.43541843096  -1.17759210268  -0.362423245107  
4.52955007553  2.2552087307  -2.40477544466  2.30021476746  -2.43519097963  -1.18004638353  -0.358813587819  
4.53763914108  2.2456703186  -2.40493137041  2.29992723465  -2.43493920961  -1.1824892203  -0.354903999959  
4.54574203491  2.23607254028  -2.40490752855  2.29955530167  -2.43465167681  -1.1850751082  -0.350790802632  
4.55380606651  2.22690606117  -2.40477544466  2.2989563942  -2.43431646029  -1.18761378924  -0.346545521413  
4.56191706657  2.21764373779  -2.40442878405  2.29832077026  -2.43404132525  -1.19016391436  -0.342144314443  
4.57000803947  2.20824933052  -2.40399820009  2.29752993584  -2.43363410631  -1.19290572802  -0.33774358431  
4.57810616493  2.19895100594  -2.40345985094  2.29665493965  -2.43319112459  -1.19556361834  -0.333329979573  
4.58622407913  2.18968915939  -2.40283805529  2.29566025734  -2.43274766604  -1.19819814364  -0.329049412404  
4.59434604645  2.18063092232  -2.40215570131  2.29460549355  -2.4321492354  -1.20090371767  -0.324744049703  
4.60245108604  2.17164421082  -2.40134221712  2.29347896576  -2.43157416979  -1.20349008242  -0.320138756429  
4.61051702499  2.16269421577  -2.40045768419  2.29232788086  -2.43083173433  -1.20610028902  -0.315486256276  
4.6186029911  2.15343236923  -2.39955979982  2.29099774361  -2.43006545702  -1.20893842379  -0.310809437429  
4.62666296959  2.14422988892  -2.39856702486  2.28960752487  -2.42916661898  -1.21179992357  -0.306191746389  
4.63476800919  2.13530397415  -2.39751416842  2.288169384  -2.4281132857  -1.21461373964  -0.301539246236  
4.6428899765  2.12614941597  -2.39646131197  2.28671908379  -2.42680770556  -1.21745139757  -0.296994511281  
4.65101313591  2.11669588089  -2.39540893236  2.28524494171  -2.42547828356  -1.22057658831  -0.292425457631  
4.65911006927  2.10746979713  -2.39429647127  2.28363895416  -2.42396957079  -1.22371369997  -0.287616554891  
4.66723108292  2.09848380089  -2.39320832888  2.2820687294  -2.42241269747  -1.22679073015  -0.282855812703  
4.67529511452  2.08910179138  -2.39205962816  2.28045034409  -2.42060453096  -1.22999984423  -0.278155151998  
4.68335914612  2.07969594002  -2.39098292986  2.27874851227  -2.41876012484  -1.23341256777  -0.273454491292  
4.6914601326  2.07027792931  -2.38994199434  2.27702283859  -2.41691571871  -1.23660976091  -0.268945042287  
4.69954895973  2.06069207191  -2.38887721697  2.27522516251  -2.41486817995  -1.23997384707  -0.264531914388  
4.70764613152  2.05111813545  -2.38781291643  2.27345085144  -2.4127963225  -1.24344617525  -0.260011021291  
4.71573400497  2.04161643982  -2.38684398333  2.27159309387  -2.41054469744  -1.24685937563  -0.255262200032  
4.72379612923  2.03230690956  -2.38585073153  2.26972341537  -2.40817338625  -1.25034314791  -0.250609223043  
4.73188304901  2.02260088921  -2.38488179842  2.26778173447  -2.40567046801  -1.25392371813  -0.245969120656  
4.73997807503  2.01276373863  -2.38392478624  2.2657084465  -2.40292817751  -1.25765926043  -0.241375748311  
4.74811005592  2.00302195549  -2.38298017183  2.26364660263  -2.40012580553  -1.26141912142  -0.236842934285  
4.75623416901  1.99300515652  -2.38208324114  2.2613697052  -2.39721519152  -1.26513082186  -0.232465569173  
4.76433300972  1.98314356804  -2.38124543825  2.25907993317  -2.39423352877  -1.26898700396  -0.227945152913  
4.77246999741  1.97327041626  -2.3804081122  2.25671863556  -2.39109594027  -1.27285463015  -0.223364178334  
4.78058600426  1.96316921711  -2.37966615358  2.25426149368  -2.38792258898  -1.27667409578  -0.218818966542  
4.78867316246  1.95303177834  -2.3789246718  2.25164890289  -2.38464147249  -1.28067332903  -0.214382473622  
4.79676198959  1.94288301468  -2.3782547156  2.24896430969  -2.38125163714  -1.28466064135  -0.209993187581  
4.8048760891  1.93248176575  -2.37763291994  2.24605131149  -2.37761146227  -1.28867227236  -0.205843750631  
4.81294107437  1.92179298401  -2.37698680559  2.24295902252  -2.37381488482  -1.29293519655  -0.201731030141  
4.82105398178  1.9111880064  -2.37635261217  2.23974704742  -2.36976749102  -1.29710179964  -0.197521988546  
4.82917499542  1.9005112648  -2.37574226061  2.23634290695  -2.36564761797  -1.30124551455  -0.193228546773  
4.83726096153  1.88970291615  -2.37508470217  2.23272275925  -2.3613002936  -1.30561620394  -0.189067665731  
4.84532594681  1.87878608704  -2.37447482744  2.22891139984  -2.35680944124  -1.30985480944  -0.184894863759  
4.85342311859  1.86754596233  -2.3738043944  2.22475194931  -2.35223466555  -1.31415349642  -0.180913273488  
4.86153006554  1.85647332668  -2.37309915224  2.22042512894  -2.34762412706  -1.31868011156  -0.17687255541  
4.86963009834  1.84536540508  -2.37244111696  2.21588230133  -2.34273845354  -1.3230026404  -0.173070732747  
4.87769198418  1.8343051672  -2.37169963518  2.21113538742  -2.33752853075  -1.32738525072  -0.169269386922  
4.88579106331  1.82299280167  -2.37093383471  2.20619726181  -2.33230716387  -1.3317917029  -0.165503803884  
4.89388012886  1.81172907352  -2.37020379702  2.20099496841  -2.32684642473  -1.33617479006  -0.161558930074  
4.9019780159  1.80064487457  -2.36939078966  2.19552898407  -2.32128984133  -1.34053355852  -0.157733742391  
4.91007614136  1.78965711594  -2.36860114733  2.18985939026  -2.31564981142  -1.34494048754  -0.153932396566  
4.91814112663  1.77841746807  -2.36772758165  2.184009552  -2.30980521837  -1.34937125841  -0.150262657796  
4.92630600929  1.75660991669  -2.36607677141  2.17180728912  -2.29731494585  -1.35795718828  -0.143163506185  
4.9343559742  1.74575412273  -2.36517984072  2.16541814804  -2.29167443911  -1.36211234728  -0.139841858541  
4.94242715836  1.73494696617  -2.3642466704  2.15875339508  -2.28487235705  -1.36631518999  -0.136472527181  
4.95049905777  1.72437906265  -2.36331350008  2.15201663971  -2.27817804018  -1.37045842806  -0.13298255602  
4.95863103867  1.71395504475  -2.36234456698  2.1451716423  -2.27117234865  -1.37432700792  -0.129601303731  
4.96671915054  1.70367598534  -2.3613875548  2.13811063766  -2.26403505007  -1.37832624117  -0.126243416463  
4.97480607033  1.69363617897  -2.36046678225  2.13096666336  -2.25695783297  -1.38226586977  -0.122874085103  
4.9829390049  1.68360877037  -2.35953361193  2.12364196777  -2.24985629717  -1.3860262076  -0.119660679494  
4.99100399017  1.67377305031  -2.35856420199  2.11628198624  -2.24234754244  -1.38976270357  -0.116530720388  
4.99911904335  1.66444146633  -2.35757142702  2.10899353027  -2.23482686678  -1.39336711565  -0.113497082387  
5.00720906258  1.65525364876  -2.35657865206  2.10153675079  -2.22711450258  -1.3968518416  -0.110631291066  
5.01527309418  1.64602994919  -2.35560971895  2.09393644333  -2.21949845949  -1.40032464663  -0.107897106801  
5.02336001396  1.63732266426  -2.35461694399  2.08608436584  -2.21160680452  -1.40361768404  -0.105139080678  
5.03148198128  1.62886667252  -2.35364801088  2.07835245132  -2.20375091234  -1.4068034331  -0.102453056966  
5.03955698013  1.62042272091  -2.35275108019  2.07049942017  -2.19557172457  -1.40995246569  -0.0998390356647  
5.04765796661  1.6122546196  -2.35194951693  2.06249141693  -2.18761998812  -1.41295844713  -0.0972965399372  
5.05574893951  1.60453045368  -2.35102874437  2.05456733704  -2.17929727236  -1.41580850283  -0.0949342886554  
5.06384515762  1.59722650051  -2.35025054613  2.04659509659  -2.17113000551  -1.41851503054  -0.0926917235004  
5.07195401192  1.58975434303  -2.34944945971  2.03852653503  -2.16272336641  -1.42129356066  -0.0905693213092  
5.08004307747  1.58253419399  -2.34874326388  2.03041028976  -2.15435296694  -1.42378455797  -0.0885546843158  
5.08815813065  1.57593762875  -2.34795409838  2.02218580246  -2.14588624636  -1.42605954805  -0.0866721312152  
5.09625506401  1.56967699528  -2.34734374682  2.01410531998  -2.13737184206  -1.42815524737  -0.0848854223834  
5.10431599617  1.56330883503  -2.3466981093  2.0060968399  -2.12896520296  -1.43026334444  -0.0832904020893  
5.11239910126  1.5570602417  -2.34617168108  1.9978723526  -2.12040311495  -1.43219119707  -0.08180362383  
5.12056493759  1.55126738548  -2.34569293657  1.98959970474  -2.11178094545  -1.43389159838  -0.0804002920734  
5.12865805626  1.54607403278  -2.34517890612  1.98148298264  -2.1029308478  -1.43549663225  -0.0791538397418  
5.13675498962  1.54102492332  -2.3447359244  1.9734621048  -2.09434491793  -1.43700534502  -0.0780027548419  
5.1448199749  1.53597581387  -2.3444369475  1.96538162231  -2.08559066454  -1.43841821352  -0.0769594351398  
5.1528840065  1.53108286858  -2.34417373339  1.95726394653  -2.07700473467  -1.43974763552  -0.0759280363666  
5.16098093987  1.52645325661  -2.34404260317  1.9492430687  -2.06844216982  -1.44089728991  -0.0750411192523  
5.16907811165  1.52218389511  -2.34399444262  1.94131803513  -2.05982000033  -1.44195110003  -0.0742371718036  
5.17718505859  1.51825046539  -2.34403068224  1.93345308304  -2.05112582842  -1.44288522402  -0.073530022298  
5.18527007103  1.51456868649  -2.34418565432  1.92574310303  -2.0425880591  -1.44364005724  -0.0729063192951  
5.19333410263  1.51099467278  -2.34446078936  1.91811704636  -2.03430062929  -1.44429856936  -0.0723789373981  
5.20143294334  1.50751662254  -2.34484416643  1.91046762466  -2.02593022982  -1.44490939776  -0.0719593206989  
5.20954298973  1.50412249565  -2.34534627596  1.90297365189  -2.01749927202  -1.4453643004  -0.0715873877155  
5.21763396263  1.50083625317  -2.34592086474  1.89567136765  -2.00896102587  -1.44568807284  -0.071275536214  
5.22572994232  1.49769449234  -2.34659034411  1.88851356506  -2.00090152422  -1.4459994475  -0.0710595289813  
5.23382711411  1.49474406242  -2.3474038283  1.88166666031  -1.99259072939  -1.44622642199  -0.0708678404437  
5.24192714691  1.49199819565  -2.34832460085  1.87489175797  -1.98447209993  -1.4462984244  -0.0707958380329  
5.25002503395  1.48935949802  -2.34941322008  1.86835718155  -1.97626859346  -1.44626266161  -0.0707958380329  
5.25812101364  1.48675739765  -2.35072929064  1.86207389832  -1.96835309664  -1.44616681734  -0.0707719961749  
5.26620697975  1.48433470726  -2.3521288077  1.85601902008  -1.96023399035  -1.44602328936  -0.0708916823017  
5.27433013916  1.48186409473  -2.35365993181  1.85025119781  -1.95241433779  -1.44577151934  -0.0709756056415  
5.28243017197  1.47936952114  -2.35539466539  1.84478330612  -1.94466573397  -1.44553214708  -0.0710952917682  
5.2904920578  1.47687530518  -2.35726052919  1.83956718445  -1.93720561663  -1.44529229799  -0.0712516943561  
5.29855704308  1.47444057465  -2.35929423967  1.83466291428  -1.9295890967  -1.44499284426  -0.0713475386249  
5.30665206909  1.47197031975  -2.36148387591  1.83011865616  -1.92230779329  -1.44466954867  -0.0715993086444  
5.31474208832  1.46942782402  -2.36387569109  1.82586145401  -1.9152062575  -1.44434625307  -0.0716112295734  
5.32283496857  1.46682572365  -2.36642390886  1.82189226151  -1.9084165732  -1.44395095507  -0.0718629995929  
5.33094215393  1.46425926685  -2.36907989184  1.8182592392  -1.90169889132  -1.44356805483  -0.0719230810748  
5.33904600143  1.46156096458  -2.37201053301  1.81492567062  -1.89496833483  -1.44319659868  -0.0721510092365  
5.34715914726  1.45897042751  -2.37501317659  1.81198740005  -1.88863355318  -1.44290906588  -0.0721266905414  
5.35525012016  1.45628404617  -2.37813502947  1.80930137634  -1.88250190416  -1.44252616564  -0.0722106138812  
5.3633389473  1.45346593857  -2.38140088717  1.80699920654  -1.87688571612  -1.44213086763  -0.0721510092365  
5.37137198448  1.45060026646  -2.38469058672  1.80485296249  -1.87123328844  -1.4417236487  -0.0719593206989  
5.37946105003  1.44750607014  -2.3881834189  1.80298233032  -1.86562854448  -1.44141275087  -0.0718153158771  
5.3875310421  1.44442427158  -2.39178449312  1.80138731003  -1.86049110094  -1.44110089937  -0.0714791456806  
5.39559698105  1.44112634659  -2.39544469515  1.80004405975  -1.85552150408  -1.44079000155  -0.0712035338031  
5.40368914604  1.43767261505  -2.39922553698  1.79877328873  -1.85083896319  -1.44051438967  -0.070711914693  
5.41178894043  1.43408668041  -2.40310079256  1.79781341553  -1.84639627138  -1.4402144591  -0.070160214101  
5.41987514496  1.43050158024  -2.40703660647  1.79692649841  -1.84207278887  -1.43999940554  -0.0694411436664  
5.42796397209  1.42696356773  -2.41094810167  1.796230793  -1.83785754839  -1.43985540072  -0.0686252752887  
5.43607902527  1.42339003086  -2.41495591799  1.79567909241  -1.83377343813  -1.43974763552  -0.0676663557636  
5.44414305687  1.41973257065  -2.41897565523  1.79534387589  -1.830037419  -1.43958026568  -0.0666349569904  
5.45227193832  1.41587102413  -2.42311460177  1.7950797081  -1.82639676729  -1.43965226809  -0.0654357115375  
5.46037101746  1.41185367107  -2.42727739016  1.79488801956  -1.82268506685  -1.43944818178  -0.0641763846027  
5.46846103668  1.40764498711  -2.43150026003  1.79486370087  -1.81941539446  -1.43958026568  -0.0626896063434  
5.47652602196  1.40323185921  -2.43581897417  1.79486370087  -1.81621772448  -1.43952018419  -0.0611665884601  
5.48463511467  1.39877104759  -2.44008952776  1.79486370087  -1.81310445467  -1.43972379366  -0.0593922773944  
5.49270510674  1.39431035519  -2.44443208376  1.79499578476  -1.8099787871  -1.43967610994  -0.0575693289386  
5.50079107285  1.38987314701  -2.44881087938  1.79509210587  -1.80682880083  -1.43996316591  -0.0556510130512  
5.50885796547  1.38534045219  -2.45317727724  1.79527187347  -1.8037870566  -1.43999940554  -0.0535524527179  
5.51698303223  1.38056778908  -2.45749551455  1.79541540146  -1.80086547533  -1.44028646151  -0.0514181295978  
5.52507615089  1.37561523914  -2.46186238924  1.79551124573  -1.79807502428  -1.44056207338  -0.0491517225849  
5.53320002556  1.37055492401  -2.4662287871  1.79563140869  -1.79524881044  -1.44095737139  -0.0468371550189  
5.54131603241  1.36555457115  -2.47053558031  1.79559516907  -1.79244643847  -1.4414246718  -0.0443547407733  
5.54940605164  1.36059010029  -2.47475797335  1.79563140869  -1.78965598742  -1.44191533724  -0.0417407194721  
5.55754613876  1.35567390919  -2.47881395022  1.7954993248  -1.78697330156  -1.44245416323  -0.0389469305622  
5.56561398506  1.35067343712  -2.48292905489  1.7953915596  -1.78419477144  -1.44312507311  -0.0361049810993  
5.57371115685  1.34549331665  -2.48688918749  1.79530763626  -1.78146535555  -1.44380742708  -0.0331552664386  
5.58174514771  1.34024119377  -2.49083692232  1.79509210587  -1.77873450914  -1.44453794161  -0.0301697889911  
5.58981108665  1.3350135088  -2.49470121065  1.79488801956  -1.77586013476  -1.44535237948  -0.0271118322956  
5.59791398048  1.32995319366  -2.49854118029  1.79458808899  -1.77292615572  -1.44621450106  -0.024065796529  
5.60599899292  1.32507288456  -2.50228578249  1.79427623749  -1.77010041872  -1.4471004645  -0.0209606329547  
5.61408901215  1.32014477253  -2.50595838228  1.79384469986  -1.76733380953  -1.44807082811  -0.0179627577411  
5.6221871376  1.3151447773  -2.50957137743  1.79325723648  -1.764483277  -1.44901687304  -0.0149768034564  
5.63029694557  1.30512070656  -2.5166776816  1.79199790955  -1.75866347948  -1.45099288622  -0.00894481340517  
5.63839006424  1.30037236214  -2.52009946505  1.79125452042  -1.75577718416  -1.45204669634  -0.005827728902  
5.64652109146  1.29585206509  -2.52335340181  1.79040288925  -1.75281936327  -1.45302850405  -0.00281793275942  
5.65461611748  1.29143917561  -2.52667886416  1.78945589066  -1.74986106554  -1.45410663286  0.000251668738201  
5.66270709038  1.28707504272  -2.52989751497  1.78840017319  -1.74667579332  -1.45514852205  0.00318930204958  
5.67079615593  1.28263866901  -2.53315145174  1.78722572327  -1.74334651629  -1.45622617403  0.00609135720879  
5.67885708809  1.2782381773  -2.53627378145  1.78588247299  -1.73996907869  -1.45734006563  0.00892113242298  
5.6869699955  1.27400588989  -2.53930074373  1.78445529938  -1.7365325133  -1.45830995241  0.0116913607344  
5.69503116608  1.26988112926  -2.5421722571  1.78292036057  -1.73299962679  -1.45928031603  0.0142690930516  
5.70309901237  1.26600825787  -2.54495937029  1.78124141693  -1.72929889361  -1.46029836336  0.0166914034635  
5.71119499207  1.26226735115  -2.54766303698  1.77947854996  -1.72559863726  -1.46128017107  0.0191253256053  
5.71928596497  1.25859832764  -2.550283734  1.77758359909  -1.72187406221  -1.46226197878  0.0214158110321  
5.72737503052  1.25501358509  -2.55278379122  1.77542591095  -1.71812564531  -1.46310073534  0.0237538572401  
5.73545908928  1.25150024891  -2.55528432528  1.77314758301  -1.71418553988  -1.46398669878  0.0259361099452  
5.74354910851  1.24802339077  -2.55774909655  1.77072477341  -1.70987445513  -1.46474105517  0.027998894453  
5.75164103508  1.2446782589  -2.56004602114  1.76813411713  -1.70568305651  -1.46553165117  0.029941463843  
5.75977015495  1.24152493477  -2.56225902239  1.76542425156  -1.70134765307  -1.4662621657  0.0317638143897  
5.76786208153  1.23859965801  -2.56440049807  1.76259422302  -1.69691640535  -1.4669807593  0.0334423556924  
5.77595305443  1.23582983017  -2.56633884112  1.75957202911  -1.6925089995  -1.46766311327  0.035025395453  
5.78404903412  1.23309624195  -2.56822902361  1.75638246536  -1.68800670305  -1.46823817888  0.0364882200956  
5.79211306572  1.23041069508  -2.57005960146  1.75306129456  -1.68334752718  -1.46877652804  0.0378072336316  
5.80020213127  1.22778499126  -2.57181865374  1.74957084656  -1.67847329775  -1.46931583086  0.0389584675431  
5.80832600594  1.22526717186  -2.57360107103  1.74602127075  -1.67357474962  -1.46979505221  0.04006139189  
5.81641602516  1.22277331352  -2.57530004183  1.74229192734  -1.66860515276  -1.47031003634  0.0410444736481  
5.82451701164  1.22038733959  -2.5768793265  1.73849058151  -1.66349107424  -1.47076541582  0.0419080853462  
5.83260297775  1.21802532673  -2.57845861117  1.73461675644  -1.65842515627  -1.4711244742  0.042699418962  
5.84069299698  1.21572363377  -2.5799296538  1.73053979874  -1.65319186846  -1.47148353258  0.0433948785067  
5.84878897667  1.21352934837  -2.58141357103  1.72630643845  -1.64785081545  -1.4718187491  0.0439585112035  
5.8568880558  1.21137142181  -2.58287316958  1.72195291519  -1.64244968096  -1.47208244005  0.0445101633668  
5.86497807503  1.20938098431  -2.5842850844  1.7175283432  -1.63695222536  -1.47236997286  0.0449180006981  
5.87307310104  1.20749866962  -2.5856607596  1.71313905716  -1.63150293032  -1.47260934511  0.0452415719628  
5.88116002083  1.20564043522  -2.58698875109  1.70864200592  -1.62606650988  -1.47280103365  0.045589491725  
5.88925004005  1.20380604267  -2.58835250536  1.70408439636  -1.62056953112  -1.47295648256  0.045805208385  
5.89735507965  1.20197176933  -2.58964473406  1.69944381714  -1.61478501955  -1.47305232683  0.0459729842842  
5.9055249691  1.20013737679  -2.59088880221  1.69469451904  -1.60913211504  -1.47319633165  0.0461651086807  
5.91359210014  1.19832706451  -2.5921810309  1.68986129761  -1.60347968737  -1.47320825258  0.0462370142341  
5.92168211937  1.19651663303  -2.5933898131  1.68504047394  -1.59781486193  -1.47320825258  0.0462609827518  
5.92978000641  1.19497036934  -2.59457379976  1.68013572693  -1.59216148058  -1.47328025499  0.046356856823  
5.93784594536  1.19293189049  -2.59575826326  1.67523050308  -1.58625728289  -1.4731724898  0.0462849512696  
5.94593596458  1.19103765488  -2.59691840807  1.67036151886  -1.58024532  -1.47320825258  0.0463089197874  
5.95404696465  1.18911933899  -2.59809142748  1.66552829742  -1.57430488268  -1.4731481711  0.046356856823  
5.96213793755  1.18718886375  -2.59924012819  1.66063547134  -1.56850845018  -1.47316056887  0.0463448725641  
5.97023105621  1.18525898457  -2.60037643114  1.65576601028  -1.56279594103  -1.47296840349  0.0462729670107  
5.97835612297  1.18335270882  -2.60148889223  1.65092086792  -1.55699950853  -1.47306424776  0.0464167781174  
5.9864461422  1.18147003651  -2.60261422793  1.64609956741  -1.55101091066  -1.47281295458  0.0463448725641  
5.99463009834  1.17952823639  -2.60372621218  1.64145851135  -1.54526263872  -1.4728491942  0.046572573483  
6.00270915031  1.17753815651  -2.6049469153  1.63678121567  -1.53951388994  -1.47265750567  0.0466324947774  
6.01078796387  1.17553603649  -2.60609561602  1.63215208054  -1.53390914599  -1.47265750567  0.0468965210021  
6.01885104179  1.17358148098  -2.60731584231  1.62751054764  -1.52839976946  -1.47254974047  0.0471002534032  
6.02691411972  1.17160332203  -2.60856038729  1.62302494049  -1.52263862291  -1.47235757509  0.0474841222167  
6.03495907784  1.16945743561  -2.60986406008  1.6185631752  -1.51684219042  -1.47236997286  0.0478792265058  
6.04304599762  1.16728746891  -2.61110812822  1.6142578125  -1.51118976275  -1.47214252154  0.0483469851315  
6.0511469841  1.16503369808  -2.61243659655  1.60995197296  -1.5056441466  -1.47210628191  0.0487907752395  
6.05922913551  1.16267204285  -2.6137641112  1.60571861267  -1.50029069582  -1.47191459337  0.0494023486972  
6.06729316711  1.16026210785  -2.61515218416  1.60149717331  -1.49479371706  -1.47183067003  0.0500498712063  
6.07535505295  1.15767276287  -2.61650449434  1.59727525711  -1.48915225664  -1.47175914446  0.0507093779743  
6.08344507217  1.15510702133  -2.6179040114  1.59325742722  -1.48378688494  -1.47162706057  0.0515126958489  
6.0915350914  1.15249335766  -2.61933976809  1.58927583694  -1.47834998766  -1.47162706057  0.0523040257394  
6.09962511063  1.14982008934  -2.62072784105  1.58537769318  -1.47300798098  -1.47160321871  0.0531916096807  
6.10775113106  1.14720678329  -2.62210351626  1.58153963089  -1.46773845354  -1.4716389815  0.0541507229209  
6.11584115028  1.14454519749  -2.62358743349  1.57779788971  -1.46238452593  -1.47172290484  0.0552060827613  
6.12393116951  1.14181160927  -2.62508327166  1.57414007187  -1.45761758486  -1.47175914446  0.0563209913671  
6.13205313683  1.13911414146  -2.62650663057  1.57056570053  -1.45213252703  -1.4719265143  0.0574958175421  
6.14014410973  1.13632106781  -2.62794238726  1.56693124771  -1.446935002  -1.47196275393  0.0587672702968  
6.14823317528  1.13339614868  -2.62937814394  1.56339359283  -1.44180852572  -1.47222644487  0.0601102523506  
6.15632414818  1.13043487072  -2.63083774248  1.55990314484  -1.43663436571  -1.47228604952  0.0615730769932  
6.16438412666  1.12734186649  -2.63223773638  1.55644845963  -1.43140060106  -1.4725616614  0.0631797090173  
6.17250609398  1.12421286106  -2.63367349306  1.55313873291  -1.4259985129  -1.47283727327  0.0648702383041  
6.18059301376  1.12100028992  -2.63504916826  1.54981660843  -1.42088443438  -1.47320825258  0.0666929632425  
6.1886780262  1.11779940128  -2.63648492495  1.54660224915  -1.41569835344  -1.4735677878  0.0686834678054  
6.19676494598  1.11456251144  -2.6378253142  1.54351949692  -1.41063243548  -1.47403461138  0.0706859529018  
6.20485115051  1.11137366295  -2.63922483126  1.54036521912  -1.40562564531  -1.47453719774  0.0729161426425  
6.21293997765  1.10825693607  -2.64052945772  1.53731822968  -1.40053540865  -1.47510034243  0.0752186179161  
6.22105407715  1.10509204865  -2.64165383974  1.53425979614  -1.39536124865  -1.47578317324  0.0775562897325  
6.22916507721  1.1017832756  -2.6430776755  1.53135728836  -1.39047462145  -1.47656137148  0.0800145491958  
6.23727798462  1.09841489792  -2.64440519014  1.52846670151  -1.38550407091  -1.47731572786  0.0826405957341  
6.24536895752  1.09494996071  -2.6456378142  1.52572011948  -1.38076144854  -1.47815448443  0.0854344218969  
6.25343704224  1.09125804901  -2.64684659639  1.52302122116  -1.37616187731  -1.47900468508  0.0883480831981  
6.26154994965  1.08754146099  -2.64799482027  1.52049064636  -1.37156230608  -1.47991449038  0.0914295241237  
6.26965999603  1.08389747143  -2.6490243117  1.5181517601  -1.36686784426  -1.48090869585  0.0945592820644  
6.27775406837  1.08024120331  -2.65004092852  1.51592111588  -1.36228019396  -1.48187905947  0.0977965220809  
6.28584098816  1.07657325268  -2.65099841753  1.51388168335  -1.35799247423  -1.4829805533  0.101226255298  
6.29392814636  1.07290494442  -2.65189534823  1.5119509697  -1.35389644304  -1.48421413103  0.104811035097  
6.30202317238  1.0691049099  -2.65285283724  1.51011562347  -1.34975177446  -1.48547155062  0.108396194875  
6.31008815765  1.06510102749  -2.65370208422  1.50844860077  -1.34599143664  -1.48681337038  0.112053632736  
6.31818699837  1.05669784546  -2.65538913408  1.50544977188  -1.33869678179  -1.48981887499  0.120219007134  
6.32629203796  1.05240631104  -2.65616685549  1.50416660309  -1.33519965807  -1.49154359499  0.124727323651  
6.33435702324  1.04810285568  -2.65693265596  1.50308704376  -1.33183318773  -1.49344760576  0.129439368844  
6.34244894981  1.04379975796  -2.65751868883  1.50217533112  -1.32869559923  -1.49545985857  0.134343534708  
6.35053515434  1.03934049606  -2.65812904039  1.50133609772  -1.32574922243  -1.49755555788  0.139319241047  
6.3586370945  1.0347853899  -2.65861970583  1.50070047379  -1.32294637362  -1.49975949923  0.144331261516  
6.36672496796  1.0300744772  -2.65903836886  1.50007677078  -1.32035857836  -1.50217849413  0.149643272161  
6.37482213974  1.02531599998  -2.65943319002  1.49958467484  -1.31787997881  -1.5046933333  0.155218556523  
6.38291096687  1.02047324181  -2.65969640413  1.4991645813  -1.31567556063  -1.50732833544  0.160938039422  
6.39097595215  1.015630126  -2.65988809267  1.49876928329  -1.31351977984  -1.51025087038  0.166897192597  
6.39907097816  1.01077580452  -2.65996009508  1.49844551086  -1.31157952944  -1.51328069368  0.172952219844  
6.40716004372  1.00576519966  -2.65982848803  1.49814558029  -1.30962735811  -1.51658612887  0.179222971201  
6.41522312164  1.00062322617  -2.65956527392  1.497797966  -1.30796224276  -1.5199397246  0.18587757647  
6.42328715324  0.995241224766  -2.65919429461  1.49747371674  -1.3063214461  -1.52354413668  0.192855775356  
6.43135809898  0.989931106567  -2.65865594545  1.49706602097  -1.30478793779  -1.52730495134  0.199941813946  
6.43945503235  0.98463332653  -2.65790206591  1.49676609039  -1.3033750693  -1.53106576601  0.206920012832  
6.4475440979  0.979550898075  -2.65707666079  1.496322155  -1.30208141008  -1.53504211107  0.214281693101  
6.45565104485  0.974396884441  -2.65601140658  1.49597454071  -1.30100328127  -1.53916198412  0.221883431077  
6.46373701096  0.969290852547  -2.65471917788  1.49545907974  -1.30005723635  -1.54343778292  0.229568690062  
6.47182703018  0.96411293745  -2.65322333971  1.49501466751  -1.29930240313  -1.54776126543  0.237050592899  
6.47991299629  0.958982944489  -2.6514766852  1.49442720413  -1.29851180712  -1.55204898516  0.244675934315  
6.48804211617  0.954020738602  -2.64958650271  1.49381542206  -1.29799682299  -1.55646878878  0.252673149109  
6.49612903595  0.949130415916  -2.64744455019  1.49325180054  -1.2974336783  -1.56078035036  0.26071831584  
6.5042321682  0.944359958172  -2.64514714876  1.49258041382  -1.29700261751  -1.56519967714  0.268559366465  
6.51232600212  0.939637422562  -2.64263517061  1.49196863174  -1.29679900805  -1.56970292727  0.276508659124  
6.52041602135  0.935130953789  -2.63985902468  1.49133253098  -1.29659587542  -1.57405072847  0.284517496824  
6.52848505974  0.930864214897  -2.63697559038  1.49076890945  -1.29646379152  -1.57847005526  0.292526692152  
6.53660106659  0.926837146282  -2.63392478624  1.49021720886  -1.29657155672  -1.58266240755  0.300104111433  
6.54470705986  0.923025786877  -2.63072997728  1.48970127106  -1.2966430823  -1.58687812487  0.30786088109  
6.55277109146  0.919478058815  -2.62747556368  1.48931789398  -1.29702693621  -1.59092647234  0.31559446454  
6.56085896492  0.916170060635  -2.62398225466  1.48895788193  -1.29736167589  -1.59492665926  0.323123544455  
6.56897711754  0.913149654865  -2.62041694323  1.48868179321  -1.29793674151  -1.5987833182  0.330293118954  
6.57710313797  0.910452842712  -2.61664802233  1.48849010468  -1.29871589342  -1.60258037249  0.33727055788  
6.58522605896  0.907924175262  -2.61280757586  1.4885263443  -1.29958993593  -1.60625774065  0.344296693802  
6.59350204468  0.905598819256  -2.60893088976  1.48851394653  -1.30070382753  -1.6097424666  0.351010084152  
6.60156798363  0.903489589691  -2.6051624457  1.48871803284  -1.30187780062  -1.61292916933  0.357376337051  
6.6096560955  0.90175151825  -2.60129768053  1.48898172379  -1.30331498781  -1.61601907412  0.363203287125  
6.61774301529  0.900361359119  -2.59750491778  1.48935365677  -1.30488378206  -1.61898976961  0.368898034096  
6.6258289814  0.89934271574  -2.59360438982  1.4897851944  -1.30668098131  -1.62164861361  0.374496936798  
6.63391804695  0.898635625839  -2.58971625963  1.49027681351  -1.30857307116  -1.6243074576  0.379771858454  
6.64198207855  0.898252129555  -2.58584005037  1.49090099335  -1.31056148211  -1.62664348284  0.384759157896  
6.65001511574  0.898180246353  -2.58201152483  1.49151229858  -1.31265765825  -1.62872773806  0.389303058386  
6.65813112259  0.898336052895  -2.57829124132  1.49222040176  -1.31483775774  -1.63065606753  0.393403530121  
6.66625809669  0.89867156744  -2.57464200655  1.49296379089  -1.31704169909  -1.63240462938  0.39722764492  
6.67438006401  0.899306774139  -2.57111245791  1.49369525909  -1.31936484972  -1.6339858214  0.400788456202  
6.68244600296  0.900181591511  -2.5675590674  1.49448728561  -1.32183248201  -1.63536340395  0.404097229242  
6.69054913521  0.901404380798  -2.5641134421  1.4951710701  -1.32432395617  -1.63652497927  0.407082408667  
6.69867300987  0.902926385403  -2.56069213549  1.49586629868  -1.32682687441  -1.63753158251  0.409696102142  
6.70675897598  0.904688060284  -2.55738956133  1.49647808075  -1.3294022719  -1.63839418093  0.411997824907  
6.71482110023  0.90672570467  -2.55413514773  1.49716186523  -1.33191711107  -1.63901693026  0.414035886526  
6.72291111946  0.909015119076  -2.55096561113  1.49776172638  -1.33448058764  -1.63941175142  0.415774345398  
6.73102998734  0.911567747593  -2.54772311846  1.49838542938  -1.33706790606  -1.63966352144  0.417248785496  
6.73911905289  0.914348065853  -2.54464847246  1.49900913239  -1.33947498003  -1.63959151903  0.418435961008  
6.74721813202  0.917440772057  -2.54160958925  1.49958467484  -1.34183484713  -1.63932782808  0.419370740652  
6.7553050518  0.920772373676  -2.53858310381  1.50011253357  -1.3441584746  -1.63889676729  0.419994294643  
6.76338100433  0.924439907074  -2.53572398821  1.50058031082  -1.34629041353  -1.63825017611  0.420317858458  
6.77144408226  0.928311169147  -2.53290015856  1.50104808807  -1.34841043154  -1.63743573824  0.420401751995  
6.77954602242  0.932542383671  -2.53006488482  1.50149202347  -1.35044700304  -1.63636953035  0.42023396492  
6.78764200211  0.936857044697  -2.52736121813  1.50188732147  -1.35232669512  -1.63516027132  0.420006275177  
6.79570508003  0.941363871098  -2.5247648398  1.50224733353  -1.35429126421  -1.63374692598  0.419442653656  
6.80379605293  0.946050107479  -2.5222047011  1.50259542465  -1.356051747  -1.63203365008  0.418519854546  
6.8118929863  0.951108157635  -2.51959687868  1.50277519226  -1.3578007857  -1.62997371355  0.417104959488  
6.81999111176  0.956609666348  -2.5169766585  1.50284719467  -1.35947734514  -1.62762576738  0.415198713541  
6.82807993889  0.962459146976  -2.51439315477  1.50289535522  -1.36104613939  -1.62489492098  0.412825107574  
6.83616995811  0.968859434128  -2.51170045534  1.50275087357  -1.36248428026  -1.62192422548  0.409899830818  
6.84425806999  0.975487470627  -2.50900918642  1.50258350372  -1.36382514635  -1.61860639254  0.406542748213  
6.85236597061  0.982127845287  -2.50632936159  1.5023431778  -1.36517888704  -1.61498910586  0.402538895607  
6.86043000221  0.989032268524  -2.50367385546  1.50207948685  -1.36638862291  -1.6110847632  0.398102849722  
6.86853694916  0.996559858322  -2.50114947954  1.5016002655  -1.36752635637  -1.60695249239  0.393343627453  
6.87663006783  1.0042911768  -2.49855310122  1.50114393234  -1.36855632464  -1.60250884691  0.388140231371  
6.88471913338  1.01184237003  -2.49608880678  1.50060415268  -1.36945468584  -1.59786159197  0.382205784321  
6.89278411865  1.01941823959  -2.49369603792  1.49999237061  -1.37031728426  -1.59314281145  0.37595936656  
6.90088200569  1.02744960785  -2.49135142962  1.49932098389  -1.37107164065  -1.58833963076  0.368993908167  
6.90899205208  1.03582799435  -2.48906642595  1.49862527847  -1.37171823183  -1.58324939409  0.361980140209  
6.91708898544  1.04399120808  -2.4868534247  1.49788188934  -1.37223321596  -1.57809859911  0.354739069939  
6.92520999908  1.05178320408  -2.48485547701  1.49704217911  -1.37279636065  -1.57278091112  0.346874028444  
6.93333816528  1.05997061729  -2.48284513155  1.49617815018  -1.37321550051  -1.56733161608  0.338457733393  
6.94140696526  1.06849372387  -2.48102695147  1.49531507492  -1.37347919146  -1.56178647677  0.330101370811  
6.94953513145  1.07651340961  -2.4793527762  1.49439144135  -1.37379056612  -1.55625278154  0.321445018053  
6.9576010704  1.08437693119  -2.47788030306  1.49334764481  -1.37396985689  -1.55070764223  0.312513023615  
6.96568703651  1.09268414974  -2.47645694414  1.49231672287  -1.37416154543  -1.54498273531  0.30300539732  
6.97377800941  1.10089635849  -2.47517711321  1.49124860764  -1.37420970598  -1.53915006319  0.293989509344  
6.98186802864  1.10846066475  -2.47414857546  1.49015712738  -1.37419730822  -1.53350860277  0.284409999847  
6.98995995522  1.11586916447  -2.47320300737  1.48899412155  -1.37420970598  -1.52784377733  0.274506539106  
6.9980430603  1.12361323833  -2.47237760225  1.48780632019  -1.37410194079  -1.52201158205  0.264866739511  
7.00610899925  1.13132166862  -2.47174340883  1.48651075363  -1.37395793596  -1.51620275179  0.254939287901  
7.01419711113  1.13859915733  -2.47119361559  1.48521566391  -1.37377864519  -1.51049024263  0.24456807971  
7.02226114273  1.15276932716  -2.4705713431  1.48257684708  -1.3734310309  -1.49886066118  0.224533453584  
7.03032398224  1.15999805927  -2.47053558031  1.48136520386  -1.37328702608  -1.49309999148  0.213934153318  
7.03841209412  1.16702389717  -2.47055942217  1.48014211655  -1.37305957476  -1.48725587526  0.203598871827  
7.04650306702  1.17365336418  -2.47079831759  1.47893047333  -1.37290412584  -1.4815676848  0.193287581205  
7.05456495285  1.18039119244  -2.47103816668  1.47768259048  -1.37266475359  -1.47577125231  0.182628363371  
7.06265902519  1.18747675419  -2.47133714357  1.47657966614  -1.37246114412  -1.46997481981  0.172184854746  
7.07074308395  1.19439470768  -2.47174340883  1.47547626495  -1.37217361132  -1.46438199679  0.161933466792  
7.07883310318  1.20077288151  -2.47223455111  1.47439622879  -1.37198192278  -1.45872956911  0.151573866606  
7.08692216873  1.2069350481  -2.47277242342  1.47340106964  -1.37185031572  -1.45322066942  0.141394004226  
7.09501314163  1.2133975029  -2.47329885164  1.47245359421  -1.37168246904  -1.44763976732  0.131058365107  
7.10307598114  1.22025549412  -2.47386104265  1.47161388397  -1.37176639238  -1.44189149538  0.120219007134  
7.11116504669  1.22717344761  -2.47445947329  1.4707736969  -1.3718140761  -1.43596297899  0.109415598214  
7.11926794052  1.23393547535  -2.475212876  1.47001838684  -1.37214929262  -1.43011933962  0.0984799936414  
7.12733197212  1.24082946777  -2.47583514849  1.4693107605  -1.37250882784  -1.42414313952  0.0867534354329  
7.13538813591  1.24813127518  -2.4765885512  1.46862697601  -1.37301189104  -1.41795236269  0.0752905234694  
7.14354205132  1.25574493408  -2.47722274462  1.46799135208  -1.3735631148  -1.41167718569  0.063539236784  
7.15160608292  1.26325082779  -2.47803622881  1.46741580963  -1.37428123156  -1.40527040163  0.0511767603457  
7.15970206261  1.27063643932  -2.47873002688  1.46682786942  -1.37519199053  -1.39906722704  0.039186168462  
7.16782402992  1.27840602398  -2.47943574587  1.46634817123  -1.37630588213  -1.39254075686  0.0265237111598  
7.17595601082  1.28660726547  -2.48002225557  1.4658446312  -1.37758714357  -1.38609773317  0.0138732390478  
7.18405508995  1.29466485977  -2.48059684435  1.46546077728  -1.37903672854  -1.37940389315  0.00109131354839  
7.19215011597  1.30261445045  -2.48119432131  1.46507692337  -1.3806775252  -1.37274581591  -0.0123027006732  
7.20024704933  1.3110678196  -2.48172122637  1.46472883224  -1.3825934569  -1.36601621309  -0.0251687208759  
7.20835208893  1.32004892826  -2.48215181032  1.4644408226  -1.38472587267  -1.35917836825  -0.0387428442584  
7.21647906303  1.3285984993  -2.48258191744  1.46418905258  -1.38707286516  -1.35224467913  -0.0519936720478  
7.22461414337  1.33726763725  -2.48304921785  1.46400928497  -1.38976794878  -1.34535915056  -0.0655434767353  
7.23270511627  1.34636890888  -2.48338395754  1.4638171196  -1.39266616503  -1.33848554293  -0.0792620817768  
7.2407720089  1.35564994812  -2.48368293444  1.46368551254  -1.3958161513  -1.3315170447  -0.0926917235004  
7.24886608124  1.36467897892  -2.48400623003  1.46361351013  -1.39949351946  -1.32467919985  -0.106734100972  
7.2569539547  1.37387645245  -2.4843767325  1.46354150772  -1.40332633654  -1.31785375277  -0.120139900838  
7.26506495476  1.38364958763  -2.48457986513  1.46350574493  -1.4073026816  -1.31078845659  -0.134134117757  
7.27315616608  1.39312279224  -2.48481971422  1.46358966827  -1.41156608263  -1.30397540728  -0.147360626851  
7.28126907349  1.40251195431  -2.48503476778  1.46369743347  -1.41612941424  -1.29736549059  -0.16103107134  
7.28938317299  1.41256117821  -2.48510677019  1.46375751495  -1.42117196718  -1.29055244127  -0.17452174822  
7.29756402969  1.42240655422  -2.48523837725  1.46393728256  -1.42621452013  -1.28376323382  -0.187724415456  
7.30562710762  1.4319164753  -2.48538190523  1.46418905258  -1.43191558519  -1.27729684511  -0.201215569173  
7.31371498108  1.44206142426  -2.48539382616  1.46436882019  -1.43784410158  -1.27079469362  -0.213938538228  
7.32179117203  1.45239901543  -2.48538190523  1.46464443207  -1.4437602202  -1.26437694231  -0.227117840444  
7.32987999916  1.46204066277  -2.48542958895  1.46490859985  -1.44994050661  -1.2580426375  -0.239552799855  
7.33797001839  1.47197031975  -2.48541766802  1.46506500244  -1.45655185381  -1.2518881003  -0.252132240926  
7.34606695175  1.48233187199  -2.48533374468  1.46542453766  -1.46342641512  -1.2457335631  -0.264472309743  
7.35418701172  1.4922375679  -2.48529845873  1.46583271027  -1.47030097643  -1.23983031908  -0.276092354451  
7.36228609085  1.50202381611  -2.48533374468  1.46619224548  -1.47743922869  -1.23413068453  -0.287916485463  
7.37039995193  1.51246953011  -2.48519021669  1.46658849716  -1.4848411719  -1.22834760347  -0.299368683492  
7.3785200119  1.52227973938  -2.48513061205  1.46702003479  -1.49230224291  -1.2223127524  -0.310221497213  
7.38662195206  1.53197014332  -2.4850824515  1.46746349335  -1.50008756319  -1.21702033678  -0.321349922811  
7.39468502998  1.54223608971  -2.48495132128  1.46790742874  -1.50780040423  -1.21186000506  -0.331555191671  
7.40277409554  1.55201077461  -2.48480779329  1.46845912933  -1.51581269899  -1.20679504076  -0.341592613851  
7.41086101532  1.56148540974  -2.48475963274  1.46905899048  -1.52406436602  -1.20201760927  -0.351582352315  
7.41895699501  1.57148814201  -2.48462802569  1.46952676773  -1.53238803545  -1.19724017779  -0.360984150563  
7.42708015442  1.58128702641  -2.48446065584  1.47003078461  -1.54049617449  -1.19261819521  -0.369882408773  
7.43521499634  1.59049808979  -2.48440057436  1.47064208984  -1.54899913469  -1.18825990358  -0.378792111074  
7.44327902794  1.60014128685  -2.48424512545  1.47115755081  -1.5578139464  -1.18406945864  -0.387462441121  
7.45138216019  1.60984396935  -2.48408967653  1.4717335701  -1.5664246718  -1.17997438112  -0.395269695912  
7.45944714546  1.61893546581  -2.48403007189  1.47234535217  -1.57504779497  -1.17613155047  -0.402992550527  
7.46754407883  1.62823081017  -2.48393422762  1.47293329239  -1.58401805559  -1.17241937319  -0.410463635121  
