Ethan-CYM/ros_catkin_ws/test/servol_正常操作2/ur_joint_actual_velocity.txt
time  shoulder_pan_joint  shoulder_lift_joint  elbow_joint  wrist_1_joint  wrist_2_joint  wrist_3_joint
0.149125099182  0.0  0.0  -0.0  -0.0215955749154  0.0138777326792  0.0215955749154  
0.157114982605  0.0  0.0  -0.0  -0.00814927369356  0.0438143275678  0.0353534631431  
0.165297985077  0.0  0.0  -0.0  -0.0239684507251  -0.0380618982017  -0.0446052886546  
0.173383951187  0.0  0.0  -0.0  -0.00762196723372  0.0259098950773  0.0398835018277  
0.1814661026  0.0  0.0  -0.0  -0.0377503111959  -0.0215955749154  -0.0209963619709  
0.189545154572  0.0  0.0  -0.0  -0.0112891402096  0.0134702697396  0.0125354994088  
0.197643995285  0.0  0.0  -0.0  -0.0368874445558  0.0537852048874  0.00378701533191  
0.205727100372  0.0  0.0  -0.0  -0.0185515806079  -0.0385652370751  -0.0492072291672  
0.213798999786  0.0  0.0  -0.0  -0.0335078947246  0.0185515806079  0.0398835018277  
0.221863985062  0.0  0.0  -0.0  -0.022003037855  0.00400273129344  -0.0220749434084  
0.229951143265  0.0  0.0  -0.0  -0.0303440578282  -0.0325491577387  0.0146686919034  
0.238082170486  0.0  0.0  -0.0  -0.0192946027964  0.0431911498308  0.0338674224913  
0.246299982071  0.0  0.0  -0.0  -0.0209244582802  0.0188871398568  0.0339632965624  
0.254270076752  0.0  0.0  -0.0  -0.0189350768924  0.0506693050265  -0.0259098950773  
0.262338161469  0.0  0.0  -0.0  -0.0190549176186  -0.0418728850782  0.020253341645  
0.270436048508  0.0  0.0  -0.0  -0.0182399917394  0.0372230038047  0.0358568020165  
0.278536081314  0.0  0.0  -0.0  -0.0156034613028  -0.0259098950773  -0.0512924864888  
0.286656141281  0.0  0.0  -0.0  -0.0165382307023  -0.00448210025206  0.0323813781142  
0.294718027115  0.0  0.0  -0.0  -0.00994690693915  0.0489435754716  -0.0185036435723  
0.302783966064  0.0  0.0  -0.0  -0.0133504271507  -0.0323813781142  0.0180242750794  
0.310884952545  0.0  -0.0115687716752  -0.0  -0.0140455123037  0.0160109251738  0.0328367762268  
0.319050073624  0.0  -0.0290433708578  -0.0  -0.00615989184007  0.00371510977857  -0.0433109886944  
0.327252149582  0.0  -0.0503784865141  -0.0124124614522  -0.028138961643  -0.0463789515197  0.0323813781142  
0.335302114487  0.0132945002988  -0.0863247737288  -0.00983026064932  -0.010761834681  0.0431911498308  -0.0131107429042  
0.343523025513  0.0131155364215  -0.133456334472  -0.0161579307169  0.0156513992697  -0.0259098950773  -0.00436225812882  
0.351639032364  0.0223705545068  -0.183566376567  -0.0115048559383  0.0324532836676  0.034083135426  0.0480807125568  
0.359990119934  0.0305006522685  -0.250179499388  -0.0193792916834  0.0448210015893  0.00515321688727  -0.0431911498308  
0.368035078049  0.0374546982348  -0.314440488815  -0.021220067516  0.0730079039931  0.0215955749154  0.0174969695508  
0.376165151596  0.0471443422139  -0.372309923172  -0.0312932096422  0.0968565121293  0.0464268885553  -0.0143571021035  
0.384279966354  0.0592500083148  -0.443831771612  -0.0389758944511  0.143906578422  0.00994690693915  -0.0305118374527  
0.392370939255  0.0737844780087  -0.504270613194  -0.0478090681136  0.178684800863  0.0354253686965  0.0387330166996  
0.400459051132  0.0865165218711  -0.56456887722  -0.0561053492129  0.233620494604  0.0185036435723  -0.0323813781142  
0.408553123474  0.0975995287299  -0.622642815113  -0.0654242783785  0.290905088186  0.0377023741603  0.0354972742498  
0.416612148285  0.110740631819  -0.675667405128  -0.0765584260225  0.334575593472  0.0191507916898  0.00469781644642  
0.424700975418  0.118180438876  -0.724115669727  -0.0856472626328  0.39492815733  0.0379660278559  -0.0484162718058  
0.432836055756  0.12284629792  -0.767463386059  -0.0948127955198  0.454130232334  0.0232733655721  0.048176586628  
0.440956115723  0.127230927348  -0.807909369469  -0.104131728411  0.51028829813  0.0399314388633  -0.0388049222529  
0.44907617569  0.128049045801  -0.841823101044  -0.110267654061  0.552856266499  0.0421365350485  0.0259098950773  
0.457309961319  0.128611505032  -0.867926359177  -0.114792898297  0.600649356842  0.0416811369359  0.0071425982751  
0.46532201767  0.129173964262  -0.892533957958  -0.119880601764  0.628428816795  0.0422563776374  -0.0268686339259  
0.473377943039  0.129825904965  -0.905790090561  -0.123958431184  0.66239207983  0.0405546203256  0.0531859919429  
0.48144197464  0.121721379459  -0.926831185818  -0.125390142202  0.713804423809  0.0464748255908  -0.0377023741603  
0.489531040192  0.117784157395  -0.929860830307  -0.129097267985  0.74484360218  0.0528024956584  0.0259098950773  
0.497631072998  0.109845809639  -0.942286074162  -0.138160541654  0.782378196716  0.0547679103911  -0.0143810706213  
0.505721092224  0.10250826925  -0.941992044449  -0.140078008175  0.804525017738  0.0496865995228  0.015291871503  
0.513829946518  0.0939818918705  -0.933798015118  -0.145025104284  0.817276239395  0.0504535883665  0.047625310719  
0.521916151047  0.0796391740441  -0.930167615414  -0.157463133335  0.843617558479  0.0540728233755  -0.0318061336875  
0.530013084412  0.0693359300494  -0.924683630466  -0.168354392052  0.860035955906  0.0554869621992  0.0323813781142  
0.538099050522  0.0572941824794  -0.916732490063  -0.182236924767  0.868904292583  0.0491592921317  -0.0185036435723  
0.546195030212  0.0476556718349  -0.903412461281  -0.189357146621  0.880049586296  0.0420406609774  0.0154836196452  
0.55430316925  0.0342461206019  -0.88393086195  -0.200823649764  0.891890048981  0.0460433922708  0.0486559532583  
0.562394142151  0.0246203914285  -0.869792699814  -0.213108286262  0.891890048981  0.047409594059  -0.0303200893104  
0.570453166962  0.0157872196287  -0.851205945015  -0.229777544737  0.901693105698  0.0427117794752  0.0354972742498  
0.578588962555  0.0107634318992  -0.828988790512  -0.24346832931  0.902939498425  0.0375345945358  -0.0185036435723  
0.586677074432  0.00538171594962  -0.802860021591  -0.256110876799  0.897522628307  0.0349460020661  0.0117685096338  
0.594805002213  -0.00792556721717  -0.780412733555  -0.271067202091  0.897522628307  0.0347542539239  0.0051052798517  
0.602864027023  -0.0149818789214  -0.760586023331  -0.286943882704  0.89682751894  0.0358328334987  -0.0458037108183  
0.610965013504  -0.0223705545068  -0.73710334301  -0.303178519011  0.880457043648  0.033028524369  0.0431911498308  
0.61904001236  -0.0264228191227  -0.713607907295  -0.316703110933  0.871756494045  0.0274918135256  -0.0185036435723  
0.627154111862  -0.0273048579693  -0.689255952835  -0.336031287909  0.874896407127  0.0262454543263  0.0185036435723  
0.635249137878  -0.0328271910548  -0.659790694714  -0.350067198277  0.859292924404  0.0170655362308  -0.0107858031988  
0.643330097198  -0.0332234688103  -0.635847806931  -0.365803301334  0.847692191601  0.0228419341147  -0.0283546764404  
0.651417016983  -0.0322135984898  -0.612620830536  -0.384786307812  0.838296592236  0.0161787047982  0.0587946102023  
0.659507036209  -0.0288644060493  -0.584753513336  -0.402171432972  0.820535957813  0.0169217269868  -0.0349460020661  
0.667631149292  -0.0263972524554  -0.561424195766  -0.417600721121  0.81193125248  0.0143810706213  0.0185036435723  
0.675696134567  -0.0221788063645  -0.532598137856  -0.434091001749  0.803638160229  0.00553671224043  -0.0118164466694  
0.683818101883  -0.0128470892087  -0.504858672619  -0.446145534515  0.783384859562  0.0185036435723  -0.0297208782285  
0.691920995712  -0.00489595532417  -0.487320154905  -0.459708482027  0.768380582333  0.00620782887563  0.0498543791473  
0.700026035309  0.0183438546956  -0.458046674728  -0.471520125866  0.754766523838  0.0209963619709  -0.0323813781142  
0.708194971085  0.0255919136107  -0.437184542418  -0.482782125473  0.742326915264  0.0140934493393  0.0185036435723  
0.716192007065  0.0418521091342  -0.415644884109  -0.488036006689  0.726675510406  0.0  -0.0126074049622  
0.724287033081  0.0540728233755  -0.389643907547  -0.494785517454  0.707237064838  0.0259098950773  -0.00651941867545  
0.732383966446  0.0685305967927  -0.367107182741  -0.500921428204  0.697481930256  0.0  0.046786416322  
0.740494966507  0.0872068107128  -0.34379068017  -0.508425176144  0.671739816666  0.0336037687957  -0.0379180908203  
0.748557090759  0.104706972837  -0.326264947653  -0.512030005455  0.665412127972  0.0115767614916  0.0272041913122  
0.756656169891  0.126783519983  -0.305568993092  -0.512030005455  0.646716713905  0.0404108092189  -0.0143810706213  
0.764758110046  0.149077370763  -0.286828845739  -0.515839397907  0.639789879322  0.0161787047982  -0.00349939381704  
0.772882938385  0.171371221542  -0.268472224474  -0.51931643486  0.618218243122  0.0430233702064  0.0561580806971  
0.780970096588  0.194495990872  -0.24943806231  -0.523726642132  0.607312619686  0.0458995848894  -0.0407463647425  
0.789036035538  0.213670745492  -0.232372522354  -0.526896834373  0.588928818703  0.0471938811243  0.0259098950773  
0.79714012146  0.23544049263  -0.216470256448  -0.529121100903  0.577376008034  0.0546480678022  -0.0259098950773  
0.805279016495  0.261096328497  -0.197730123997  -0.530028700829  0.567596912384  0.0591781064868  -0.0295051634312  
0.813321113586  0.285358786583  -0.180549547076  -0.529862523079  0.555588662624  0.0638998895884  0.0526586845517  
0.821381092072  0.305274963379  -0.163995325565  -0.524212360382  0.531548321247  0.0740864798427  -0.0431911498308  
0.829506158829  0.325817525387  -0.151429474354  -0.517232775688  0.515753149986  0.076387450099  0.0303440578282  
0.837613105774  0.3586191535  -0.137828171253  -0.515685975552  0.502810180187  0.0920628160238  0.0047697215341  
0.845704078674  0.388416737318  -0.124712638557  -0.510048627853  0.489555597305  0.0969763547182  -0.0415373258293  
0.853826999664  0.427597165108  -0.115432053804  -0.510099768639  0.489100217819  0.113274894655  0.0408422388136  
0.861960172653  0.464016407728  -0.104553572834  -0.508028864861  0.478074729443  0.128806456923  -0.0323813781142  
0.870079040527  0.497738420963  -0.0982514694333  -0.500652968884  0.473161190748  0.149706944823  0.0215955749154  
0.878205060959  0.573811113834  -0.0884084254503  -0.481644421816  0.464676350355  0.177702099085  -0.0579317472875  
0.886290073395  0.61625123024  -0.0865165218711  -0.475879192352  0.467121124268  0.198674485087  0.0404347777367  
0.89435505867  0.650791347027  -0.086107455194  -0.467621266842  0.467768281698  0.220893248916  -0.0259098950773  
0.902451038361  0.692451715469  -0.0886001735926  -0.453227430582  0.46570700407  0.241362303495  -0.00556068075821  
0.910509109497  0.727848351002  -0.0923839956522  -0.443997979164  0.472753733397  0.267775535583  0.0299605634063  
0.918598175049  0.766312897205  -0.0954647362232  -0.428440839052  0.486056208611  0.287118077278  -0.0541926659644  
0.926696062088  0.808420658112  -0.112006165087  -0.413458973169  0.498519808054  0.321177244186  -0.0129429632798  
0.934807062149  0.851142048836  -0.124712638557  -0.399947136641  0.506860852242  0.348333507776  -0.0441019497812  
0.942898988724  0.886116802692  -0.144309252501  -0.384581774473  0.518893003464  0.370312571526  -0.0399314388633  
0.950998067856  0.912156105042  -0.157041281462  -0.37138953805  0.531740069389  0.388576537371  -0.0417770110071  
0.959136009216  0.935702741146  -0.180549547076  -0.355065435171  0.553623259068  0.417458504438  -0.0654818043113  
0.967331171036  0.971712946892  -0.207381427288  -0.335929006338  0.566638171673  0.442505538464  -0.0828829035163  
0.97539305687  1.00923156738  -0.233689188957  -0.32133063674  0.591325640678  0.464005231857  -0.100571617484  
0.983467102051  1.04412961006  -0.268472224474  -0.305888563395  0.62447398901  0.493965804577  -0.141485765576  
0.991589069366  1.06413531303  -0.298039704561  -0.291712015867  0.648346602917  0.524549543858  -0.158767014742  
0.999680995941  1.08967602253  -0.3367215693  -0.273956179619  0.675598740578  0.539362072945  -0.199010044336  
1.00777006149  1.09706473351  -0.361763805151  -0.259651809931  0.694174289703  0.561532855034  -0.219479098916  
1.01586198807  1.09600377083  -0.392622381449  -0.251930773258  0.708986759186  0.57538664341  -0.239948153496  
1.02395796776  1.09600377083  -0.412615269423  -0.231848418713  0.727346599102  0.583440005779  -0.259003072977  
1.03208708763  1.12807667255  -0.475176125765  -0.219244211912  0.775139689445  0.605107486248  -0.31671911478  
1.04016208649  1.12099480629  -0.502851724625  -0.198688864708  0.811020493507  0.632455527782  -0.356674522161  
1.04821515083  1.123960495  -0.541623055935  -0.181751161814  0.847692191601  0.643289268017  -0.401375681162  
1.05631613731  1.13738286495  -0.585967898369  -0.161745488644  0.884459793568  0.6667304039  -0.436082005501  
1.06441617012  1.1269518137  -0.624010622501  -0.149230763316  0.925733447075  0.660115122795  -0.478434234858  
1.07250809669  1.11545968056  -0.667690694332  -0.134760215878  0.953273236752  0.692112982273  -0.51829379797  
1.08056402206  1.12025344372  -0.715640425682  -0.117848075926  0.982251107693  0.689236760139  -0.552017390728  
1.08866596222  1.10672879219  -0.759908556938  -0.0975483953953  1.01782023907  0.699926674366  -0.588137865067  
1.09680604935  1.06906962395  -0.787660777569  -0.0795241221786  1.04349052906  0.696571111679  -0.616252839565  
1.10490107536  1.05118596554  -0.823965013027  -0.0568084232509  1.06697952747  0.7186460495  -0.654434561729  
1.11304497719  1.04086995125  -0.856408715248  -0.0311270281672  1.09092402458  0.707692503929  -0.681878447533  
1.12112903595  0.999183952808  -0.892022609711  -0.0101114902645  1.10993099213  0.715913653374  -0.709633946419  
1.12922215462  0.960016310215  -0.923533141613  0.00926780048758  1.13552927971  0.691729485989  -0.73372220993  
1.13731598854  0.931088030338  -0.947833955288  0.0358312353492  1.14125776291  0.696043789387  -0.755102097988  
1.14537096024  0.892303884029  -0.977593183517  0.0552872270346  1.1497426033  0.683700084686  -0.775595068932  
1.15347313881  0.841298997402  -1.00303173065  0.0706909522414  1.1661850214  0.667593240738  -0.794985592365  
1.16158413887  0.797938466072  -1.03084790707  0.0876542180777  1.17373502254  0.660474658012  -0.818187057972  
1.16967201233  0.760649979115  -1.04938352108  0.106662802398  1.18229174614  0.641108095646  -0.833622694016  
1.17779707909  0.704276144505  -1.06619334221  0.126783519983  1.18792438507  0.623874783516  -0.845726788044  
1.18590903282  0.648234724998  -1.08726000786  0.14636734128  1.18849956989  0.605467021465  -0.862792313099  
1.19397211075  0.598814964294  -1.10487520695  0.166245177388  1.19602572918  0.580995261669  -0.871756494045  
1.20207810402  0.552105247974  -1.11360621452  0.183374628425  1.18828392029  0.567764639854  -0.883644878864  
1.2101521492  0.499937146902  -1.12881815434  0.199660390615  1.20038795471  0.546145141125  -0.898361504078  
1.21822214127  0.440789401531  -1.1402078867  0.217735797167  1.19475531578  0.51707136631  -0.900686442852  
1.22630906105  0.38787984848  -1.1418441534  0.235389351845  1.19267010689  0.489819258451  -0.911520183086  
1.23446106911  0.335622221231  -1.14415788651  0.255139350891  1.19120800495  0.469733685255  -0.927986502647  
1.24257016182  0.283786445856  -1.14813351631  0.273112505674  1.18394553661  0.447562873363  -0.933331489563  
1.25066995621  0.228933855891  -1.15573954582  0.287212342024  1.18538367748  0.420286774635  -0.938724398613  
1.25876808167  0.175998732448  -1.15494692326  0.302104741335  1.18684577942  0.390134483576  -0.952026844025  
1.26689696312  0.121900342405  -1.15219855309  0.310643911362  1.18792438507  0.364895701408  -0.962956488132  
1.27499103546  0.068773470819  -1.15235197544  0.322839051485  1.19413220882  0.336636900902  -0.976306915283  
1.28318405151  0.0132050178945  -1.14174187183  0.336325287819  1.18684577942  0.314178466797  -0.975563883781  
1.29117107391  -0.0329678058624  -1.13878905773  0.345439702272  1.18953025341  0.294931799173  -0.986205875874  
1.29924607277  -0.0855066478252  -1.12769317627  0.351869642735  1.18332242966  0.263077706099  -0.997039616108  
1.30730605125  -0.137751474977  -1.11730051041  0.360153138638  1.18497622013  0.245197251439  -0.995002269745  
1.31537008286  -0.189101487398  -1.10134708881  0.368244886398  1.18332242966  0.220078319311  -0.989034175873  
1.32347512245  -0.244925603271  -1.08862781525  0.371568500996  1.17536485195  0.198075279593  -0.985414922237  
1.33158802986  -0.284834682941  -1.06926131248  0.375838071108  1.16769492626  0.163033396006  -0.979854226112  
1.33969497681  -0.33493193984  -1.0463283062  0.378407508135  1.15475201607  0.142851963639  -0.965257465839  
1.34782600403  -0.385975152254  -1.02421343327  0.384057670832  1.14760947227  0.120513372123  -0.941696465015  
1.35592317581  -0.428300231695  -0.999183952808  0.385105878115  1.13289284706  0.0871972218156  -0.925373971462  
1.36401700974  -0.468464970589  -0.975982487202  0.386959433556  1.11506021023  0.0666322931647  -0.90588760376  
1.37222409248  -0.514970123768  -0.946990251541  0.390998929739  1.09921717644  0.0324293151498  -0.876382410526  
1.38021016121  -0.554355084896  -0.923482000828  0.390832751989  1.07251632214  0.0129429632798  -0.841819941998  
1.38827300072  -0.590774357319  -0.903706431389  0.391267389059  1.04840397835  0.00467384792864  -0.815143048763  
1.39637804031  -0.629775822163  -0.875749647617  0.392865270376  1.02239823341  -0.0482005551457  -0.780652463436  
1.40444993973  -0.659458339214  -0.848137974739  0.395370781422  1.01115703583  -0.067255474627  -0.747983455658  
1.41254711151  -0.691122293472  -0.822009205818  0.397211551666  0.98366522789  -0.0784966796637  -0.711839020252  
1.4206700325  -0.724818706512  -0.797657251358  0.39763340354  0.957491695881  -0.0979590564966  -0.66694611311  
1.42877197266  -0.751292645931  -0.771796882153  0.401302158833  0.929856061935  -0.121496073902  -0.628189146519  
1.43686008453  -0.779696881771  -0.747329890728  0.404817551374  0.907157897949  -0.141030371189  -0.593626618385  
1.44492411613  -0.808420658112  -0.719513714314  0.405341655016  0.87925863266  -0.159534007311  -0.552161216736  
1.45306611061  -0.841298997402  -0.699060618877  0.402912855148  0.851311445236  -0.194480016828  -0.511247038841  
1.46113705635  -0.867389440536  -0.679387331009  0.404024988413  0.817515909672  -0.21514081955  -0.472801655531  
1.46927809715  -0.892648994923  -0.657924354076  0.407668173313  0.795824468136  -0.234315574169  -0.429227024317  
1.47736811638  -0.913344979286  -0.638097643852  0.412794232368  0.767421841621  -0.254017651081  -0.38953524828  
1.48544597626  -0.935395956039  -0.618948459625  0.415159136057  0.739858150482  -0.268782198429  -0.341598361731  
1.49353003502  -0.966407895088  -0.602279245853  0.415644884109  0.708363592625  -0.291312545538  -0.305166304111  
1.50159716606  -0.988011479378  -0.585942327976  0.419914454222  0.67523920536  -0.31101462245  -0.271322876215  
1.5096950531  -0.999183952808  -0.572596669197  0.422483891249  0.655225515366  -0.326066792011  -0.237862899899  
1.51779699326  -1.01949644089  -0.558650255203  0.422100394964  0.622580528259  -0.343180269003  -0.205457553267  
1.52588415146  -1.04988205433  -0.545534729958  0.42055362463  0.594034075737  -0.356434822083  -0.170247912407  
1.53398895264  -1.07042455673  -0.530028700829  0.421410083771  0.571647524834  -0.373764008284  -0.13940051198  
1.54208612442  -1.07721245289  -0.519124686718  0.422752320766  0.545450031757  -0.386946678162  -0.110111065209  
1.55020904541  -1.097422719  -0.507018983364  0.424017876387  0.523279190063  -0.402813792229  -0.0816125720739  
1.55827212334  -1.1379070282  -0.492970317602  0.41591334343  0.479608714581  -0.429466694593  -0.0205888990313  
1.56628608704  -1.13411033154  -0.490068525076  0.417600721121  0.458852022886  -0.43512326479  -0.0117685096338  
1.57435107231  -1.16526293755  -0.487780332565  0.418853461742  0.444231271744  -0.4577254951  0.0259578321129  
1.58242917061  -1.1919670105  -0.481222569942  0.419224172831  0.42347458005  -0.468319565058  0.0577160306275  
1.59051394463  -1.18085849285  -0.479190051556  0.415683239698  0.407679378986  -0.474143892527  0.0508131161332  
1.59860610962  -1.1846678257  -0.478653162718  0.413625150919  0.391572594643  -0.482197284698  0.0690291374922  
1.60669803619  -1.22533106804  -0.478295207024  0.412116736174  0.377838671207  -0.502642393112  0.0792157277465  
1.61479902267  -1.22370767593  -0.482296347618  0.411515921354  0.366645395756  -0.505854129791  0.0947712510824  
1.62292098999  -1.21481049061  -0.48394536972  0.407668173313  0.352935433388  -0.51373976469  0.102537035942  
1.63099098206  -1.24294626713  -0.484111577272  0.401084840298  0.343683630228  -0.527761340141  0.117661125958  
1.63909316063  -1.24357271194  -0.481848955154  0.39185538888  0.336612910032  -0.528600215912  0.124132603407  
1.64728116989  -1.23314166069  -0.482539236546  0.391574174166  0.329877793789  -0.539362072945  0.13400760293  
1.65535902977  -1.24528563023  -0.48163163662  0.384390026331  0.324868381023  -0.543532550335  0.1326174438  
1.66342616081  -1.25595963001  -0.472376614809  0.374956041574  0.314729720354  -0.548470079899  0.141557663679  
1.6714861393  -1.22329854965  -0.46507743001  0.362914294004  0.308833479881  -0.540464580059  0.12959741056  
1.6795861721  -1.24294626713  -0.474447488785  0.355794072151  0.311134457588  -0.554246485233  0.12959741056  
1.68765306473  -1.25119149685  -0.467250555754  0.348712176085  0.304183602333  -0.552113234997  0.14294783771  
1.69577312469  -1.23314166069  -0.463402837515  0.33861348033  0.308569848537  -0.552976131439  0.15028218925  
1.70389795303  -1.2639746666  -0.474127918482  0.3367215693  0.312788277864  -0.571647524834  0.12959741056  
1.7120320797  -1.30068790913  -0.475163340569  0.331685006618  0.317150533199  -0.582313537598  0.12959741056  
1.72023415565  -1.31607890129  -0.477515459061  0.331160902977  0.314178466797  -0.591613292694  0.12959741056  
1.7283000946  -1.32934772968  -0.478538095951  0.328412503004  0.325156003237  -0.601680040359  0.12895026803  
1.73641109467  -1.36384952068  -0.477809458971  0.324500858784  0.332058906555  -0.615773439407  0.127080723643  
1.74448513985  -1.36384952068  -0.482296347618  0.321841955185  0.335989743471  -0.624785602093  0.117661125958  
1.75258708  -1.37847352028  -0.482539236546  0.31900408864  0.338242769241  -0.636338412762  0.103591643274  
1.76067399979  -1.42095196247  -0.484264969826  0.314440488815  0.345025837421  -0.644463717937  0.0911759883165  
1.76877593994  -1.42381548882  -0.483446836472  0.313967525959  0.34687140584  -0.658868730068  0.0756684020162  
1.77686715126  -1.44547009468  -0.478947162628  0.31001752615  0.352240353823  -0.670469462872  0.0528264641762  
1.78499913216  -1.48241353035  -0.478295207024  0.308445185423  0.356506735086  -0.685713410378  0.0297208782285  
1.79306101799  -1.49660277367  -0.475636333227  0.309710741043  0.355428159237  -0.688997089863  0.0190309491009  
1.80120611191  -1.52027726173  -0.471520125866  0.30593970418  0.35399004817  -0.713900327682  -0.0257900524884  
1.8092610836  -1.54519164562  -0.469091325998  0.302130311728  0.360293745995  -0.72348767519  -0.0526826530695  
1.81732606888  -1.54370880127  -0.464233726263  0.299139052629  0.356147199869  -0.732619643211  -0.0550555326045  
1.82543301582  -1.58232676983  -0.452422082424  0.292108297348  0.355955451727  -0.747695803642  -0.0814687609673  
1.83352708817  -1.57874751091  -0.447065919638  0.2902803123  0.352384150028  -0.756731927395  -0.109152324498  
1.84163498878  -1.60343182087  -0.43478128314  0.282482564449  0.344162970781  -0.772814750671  -0.128806456923  
1.84975099564  -1.62511205673  -0.41737061739  0.278276890516  0.34267693758  -0.77497190237  -0.149635031819  
1.85781812668  -1.63136303425  -0.408844232559  0.268127053976  0.339201509953  -0.793116033077  -0.1816329211  
1.8659491539  -1.66227269173  -0.391574174166  0.259114921093  0.328966975212  -0.801504969597  -0.203324362636  
1.87405896187  -1.65305602551  -0.378407508135  0.251304417849  0.316862910986  -0.799204051495  -0.21557225287  
1.88212895393  -1.68000304699  -0.358785331249  0.23789486289  0.314058601856  -0.817587852478  -0.241601988673  
1.89029216766  -1.68762183189  -0.343215435743  0.227067515254  0.296010375023  -0.822045981884  -0.252747327089  
1.89837813377  -1.69697904587  -0.323005229235  0.215191945434  0.282084703445  -0.826552033424  -0.264971226454  
1.9064719677  -1.71539962292  -0.301401674747  0.202511027455  0.26856648922  -0.836187362671  -0.278321653605  
1.9146001339  -1.70457231998  -0.279670268297  0.195288538933  0.253010958433  -0.843953132629  -0.288460314274  
1.92268395424  -1.73199212551  -0.254308462143  0.181917339563  0.234075888991  -0.84651774168  -0.295842587948  
1.93078613281  -1.72531938553  -0.240809425712  0.171166688204  0.218592271209  -0.850496530533  -0.305813461542  
1.93888497353  -1.74549126625  -0.216137900949  0.159482866526  0.195175096393  -0.851814746857  -0.306820124388  
1.94697713852  -1.73422920704  -0.197295501828  0.149665400386  0.178612887859  -0.849322080612  -0.308114439249  
1.95505309105  -1.74096596241  -0.177277043462  0.139093711972  0.160660520196  -0.859173059464  -0.31348335743  
1.96325206757  -1.75233018398  -0.155507311225  0.129825904965  0.134582847357  -0.860347568989  -0.308330148458  
1.97128200531  -1.74096596241  -0.136012971401  0.119356490672  0.113466642797  -0.861330270767  -0.303248852491  
1.97936916351  -1.75415825844  -0.113936424255  0.110919594765  0.0951068103313  -0.86324775219  -0.293086230755  
1.98746395111  -1.72304391861  -0.0931382030249  0.101293869317  0.067806750536  -0.861210405827  -0.284745186567  
1.99571895599  -1.73199212551  -0.0701796188951  0.091310210526  0.0426638424397  -0.856392741203  -0.276260375977  
2.00383400917  -1.68316042423  -0.0567061565816  0.080764092505  0.0185036435723  -0.840477705002  -0.270100474358  
2.01188802719  -1.66444587708  -0.0331595502794  0.0705886855721  0.0117445411161  -0.828829050064  -0.261687546968  
2.01995301247  -1.6633592844  -0.0125658595935  0.0597996860743  -0.0286183301359  -0.829548060894  -0.248432993889  
2.02805399895  -1.64853084087  0.0123613290489  0.0476556718349  -0.0525628142059  -0.831657290459  -0.239708483219  
2.03623199463  -1.66880500317  0.0363169945776  0.0344378687441  -0.0649784728885  -0.836858451366  -0.228443309665  
2.04422211647  -1.6271957159  0.0536254122853  0.0205425601453  -0.0855913385749  -0.829763770103  -0.219047665596  
2.0523250103  -1.63661694527  0.0779517889023  0.00653220154345  -0.10675548017  -0.828829050064  -0.206032797694  
2.06038212776  -1.58232676983  0.0972799509764  0.00442297803238  -0.125331029296  -0.818187057972  -0.189973935485  
2.06850004196  -1.56991434097  0.110740631819  -0.0240068007261  -0.137746691704  -0.813728928566  -0.173076182604  
2.07656002045  -1.57094979286  0.136549860239  -0.0386563166976  -0.175664782524  -0.805651545525  -0.16427975893  
2.0846259594  -1.53159034252  0.157041281462  -0.0525260604918  -0.196804955602  -0.807808697224  -0.152846813202  
2.09269714355  -1.54370880127  0.177213132381  -0.0655776783824  -0.222019761801  -0.804165482521  -0.12959741056  
2.10082197189  -1.49712693691  0.201219931245  -0.0778878778219  -0.246132016182  -0.78297740221  -0.11828430742  
2.10895800591  -1.48241353035  0.223667189479  -0.0931765511632  -0.264947265387  -0.781011939049  -0.105509117246  
2.11706209183  -1.46894001961  0.250090003014  -0.105998076499  -0.282540082932  -0.770561695099  -0.0882518365979  
2.12520599365  -1.42047905922  0.273112505674  -0.11866620183  -0.307611107826  -0.755245864391  -0.0658173635602  
2.13331413269  -1.41196548939  0.296326756477  -0.136728823185  -0.326066792011  -0.747048676014  -0.044341634959  
2.1413731575  -1.36516618729  0.320653110743  -0.149511992931  -0.35257589817  -0.726843297482  -0.0254305265844  
2.14947009087  -1.32091093063  0.345631450415  -0.159725755453  -0.371007651091  -0.712246477604  -0.00925182178617  
2.15756416321  -1.31302368641  0.374585330486  -0.174950510263  -0.390997350216  -0.695612370968  -0.00412257341668  
2.16569709778  -1.25396537781  0.393824011087  -0.184026569128  -0.411250680685  -0.67523920536  0.0428316220641  
2.17374396324  -1.20762634277  0.418175965548  -0.192067176104  -0.420957893133  -0.65616029501  0.0565176084638  
2.18184399605  -1.1906119585  0.455413341522  -0.201616212726  -0.447035580873  -0.638639390469  0.0657454580069  
2.1899740696  -1.12899708748  0.488508969545  -0.210270419717  -0.473185151815  -0.609589636326  0.0824514701962  
2.19804096222  -1.07036066055  0.516708672047  -0.21739064157  -0.489555597305  -0.590318977833  0.110015191138  
2.20625400543  -1.00111424923  0.581225335598  -0.233957648277  -0.533393919468  -0.547175765038  0.148244872689  
2.21429300308  -0.932928800583  0.62078922987  -0.237754240632  -0.559255838394  -0.518126010895  0.17602430284  
2.22238111496  -0.89046305418  0.640373051167  -0.242662981153  -0.58617246151  -0.491904526949  0.19692479074  
2.23046207428  -0.855155944824  0.661554813385  -0.245015084743  -0.596047461033  -0.468655109406  0.216003671288  
2.2385571003  -0.796813547611  0.680665612221  -0.250690817833  -0.608942449093  -0.436896920204  0.22827552259  
2.24663496017  -0.729957580566  0.747815668583  -0.254628032446  -0.640964329243  -0.410651475191  0.262981832027  
2.25470304489  -0.689434885979  0.757582008839  -0.255995839834  -0.662919402122  -0.380882650614  0.28697425127  
2.26284098625  -0.644962251186  0.777370333672  -0.265877217054  -0.680080831051  -0.356314986944  0.303943932056  
2.27092909813  -0.594673216343  0.79568862915  -0.271540164948  -0.695780158043  -0.327265232801  0.326785862446  
2.27902793884  -0.533275663853  0.817509531975  -0.261965572834  -0.69108235836  -0.298407226801  0.338961839676  
2.28709602356  -0.484124332666  0.818826198578  -0.251508951187  -0.693407297134  -0.268374741077  0.34720697999  
2.29525113106  -0.444956690073  0.819094598293  -0.247673988342  -0.689740121365  -0.242680564523  0.357753098011  
2.30335402489  -0.401084840298  0.89089769125  -0.265813320875  -0.761477708817  -0.21825671196  0.417194843292  
2.3114490509  -0.345043420792  0.91957038641  -0.2813192904  -0.800330519676  -0.1910045892  0.457629621029  
2.3195271492  -0.298397630453  0.98339676857  -0.292542934418  -0.862936139107  -0.163680553436  0.515249788761  
2.32759308815  -0.259217202663  1.04407846928  -0.298908948898  -0.914755940437  -0.1312032938  0.568148136139  
2.335709095  -0.216406345367  1.09884154797  -0.299343585968  -0.968013823032  -0.110902018845  0.616372704506  
2.34380912781  -0.175909250975  1.13985002041  -0.305032074451  -1.01614248753  -0.0784727111459  0.662272274494  
2.35191011429  -0.135744512081  1.18428432941  -0.304584681988  -1.06331241131  -0.0462830774486  0.707356929779  
2.35999703407  -0.0987755805254  1.21924626827  -0.308445185423  -1.1222268343  -0.0249511580914  0.745131194592  
2.36810207367  -0.0649513080716  1.2437261343  -0.318965733051  -1.1696844101  -0.0143810706213  0.785278379917  
2.3762819767  -0.0302194226533  1.26802694798  -0.326328843832  -1.2117729187  0.0287381727248  0.813057780266  
2.38437414169  -0.00837297830731  1.29287743568  -0.327888399363  -1.2599016428  0.0491592921317  0.843281984329  
2.39245915413  0.0188423972577  1.30394756794  -0.32932010293  -1.28617107868  0.0590582638979  0.867514133453  
2.40059304237  0.0573708824813  1.32622873783  -0.335379332304  -1.316203475  0.0725045651197  0.890475869179  
2.40867900848  0.0706653818488  1.34141504765  -0.333308458328  -1.34117865562  0.0936207696795  0.901693105698  
2.41674208641  0.089955188334  1.35124540329  -0.3367215693  -1.36375689507  0.104047045112  0.91439640522  
2.42480802536  0.110267654061  1.36209821701  -0.338140517473  -1.37562131882  0.116223014891  0.926092982292  
2.43291401863  0.127256497741  1.36868155003  -0.339815109968  -1.39748048782  0.131826475263  0.92784267664  
2.44099617004  0.145229637623  1.36340212822  -0.347536146641  -1.4091771841  0.1492036134  0.927507162094  
2.44923901558  0.159904718399  1.36253285408  -0.351703464985  -1.40464711189  0.149323448539  0.922210097313  
2.45722699165  0.177430450916  1.35574507713  -0.350067198277  -1.4026337862  0.160516709089  0.92151504755  
2.46531915665  0.194738864899  1.35203790665  -0.347267687321  -1.40383219719  0.170990929008  0.897354841232  
2.47341704369  0.21135699749  1.3495196104  -0.349658131599  -1.4018188715  0.186618357897  0.891937971115  
2.48152112961  0.228243559599  1.34311521053  -0.349466383457  -1.38899564743  0.188176304102  0.877077519894  
2.48961997032  0.239837899804  1.32212531567  -0.34776622057  -1.37809002399  0.190429344773  0.858166396618  
2.49768805504  0.254193395376  1.31155359745  -0.344046324492  -1.37550139427  0.197236374021  0.845966458321  
2.50577712059  0.270479172468  1.28824985027  -0.345784842968  -1.35505640507  0.191531896591  0.821566581726  
2.5138771534  0.290983378887  1.26116228104  -0.345209598541  -1.32790005207  0.20382770896  0.796903073788  
2.52193903923  0.308227866888  1.24166798592  -0.340224176645  -1.31471741199  0.198290988803  0.774204909801  
2.53005409241  0.321599066257  1.21808302402  -0.331685006618  -1.27898049355  0.207063451409  0.751890301704  
2.53814697266  0.33493193984  1.1942807436  -0.328412503004  -1.25546741486  0.203731834888  0.728808701038  
2.54629302025  0.34379068017  1.16537797451  -0.324897140265  -1.22730457783  0.207183286548  0.699351429939  
2.55428099632  0.362057834864  1.14713644981  -0.326431125402  -1.20635604858  0.206440269947  0.681087493896  
2.56237912178  0.376822382212  1.1163161993  -0.329038888216  -1.1857432127  0.215668126941  0.657023191452  
2.57047915459  0.390219151974  1.09503221512  -0.330521732569  -1.16095983982  0.218975767493  0.63871127367  
2.57854413986  0.403884381056  1.07078254223  -0.32813128829  -1.13751876354  0.225063756108  0.622292876244  
2.58662796021  0.423365920782  1.0469930172  -0.327990651131  -1.11213612556  0.22364962101  0.605419099331  
2.5947329998  0.436200231314  1.02082586288  -0.325817525387  -1.08104908466  0.2284912467  0.585381448269  
2.60281801224  0.452204763889  0.995962619781  -0.322238236666  -1.06065189838  0.22988140583  0.569969773293  
2.6109161377  0.469947814941  0.968389332294  -0.318607807159  -1.02889370918  0.239540696144  0.561628758907  
2.6190071106  0.489467710257  0.936584770679  -0.319822221994  -1.0070104599  0.239876255393  0.552017390728  
2.62710309029  0.501586139202  0.898465335369  -0.317623525858  -0.974533259869  0.249247923493  0.542669713497  
2.63525009155  0.517232775688  0.875174403191  -0.313008785248  -0.946370303631  0.247090756893  0.538810789585  
2.64331102371  0.537417411804  0.848393678665  -0.313622385263  -0.908284425735  0.261615633965  0.544491291046  
2.65155315399  0.546761870384  0.814901769161  -0.311270266771  -0.880720734596  0.268278867006  0.532219469547  
2.65952801704  0.569426476955  0.785257577896  -0.310899555683  -0.855937361717  0.270627766848  0.543532550335  
2.66757917404  0.588997483253  0.760816156864  -0.310963481665  -0.825257718563  0.28666266799  0.541447281837  
2.67564415932  0.609795749187  0.73710334301  -0.308905392885  -0.800138771534  0.297160863876  0.557026803493  
2.68371295929  0.641306221485  0.714068055153  -0.309084355831  -0.775882720947  0.303009152412  0.56299495697  
2.69181799889  0.663996398449  0.686954975128  -0.309365570545  -0.746329605579  0.321608662605  0.583152413368  
2.69991612434  0.692848026752  0.661644279957  -0.307550370693  -0.724949777126  0.332610189915  0.600122094154  
2.70803999901  0.726212084293  0.636691510677  -0.308905392885  -0.700190365314  0.339537084103  0.613520443439  
2.71613717079  0.750551223755  0.619421482086  -0.306476593018  -0.682357847691  0.350922077894  0.634948253632  
2.72426104546  0.785474896431  0.602368712425  -0.307064622641  -0.657286822796  0.360916942358  0.650983095169  
2.73239016533  0.806119680405  0.586134076118  -0.306489378214  -0.637560784817  0.380475193262  0.675886332989  
2.7405591011  0.841017782688  0.566920936108  -0.303677082062  -0.616852045059  0.39696547389  0.702754974365  
2.74865698814  0.882435262203  0.546761870384  -0.305364459753  -0.603741288185  0.413407832384  0.729264080524  
2.75675296783  0.91957038641  0.524212360382  -0.303907155991  -0.588113903999  0.428843528032  0.755988895893  
2.7648100853  0.951502740383  0.509038746357  -0.305492281914  -0.587946116924  0.44157075882  0.778231620789  
2.7729511261  0.971112132072  0.498556554317  -0.304789215326  -0.567357182503  0.468031942844  0.80332660675  
2.78105115891  1.01088058949  0.482743769884  -0.299023985863  -0.554725825787  0.481957614422  0.832687973976  
2.7891459465  1.04793894291  0.464566081762  -0.295470267534  -0.535551071167  0.496170908213  0.859988033772  
2.79727911949  1.06413531303  0.443729519844  -0.298908948898  -0.528600215912  0.514674544334  0.876909732819  
2.80534100533  1.10134708881  0.436634868383  -0.300954252481  -0.517502844334  0.5399132967  0.908428251743  
2.81345295906  1.14907944202  0.424580335617  -0.293476104736  -0.51028829813  0.579317450523  0.933427333832  
2.82156610489  1.18010425568  0.411835491657  -0.288171082735  -0.510048627853  0.593890249729  0.966599702835  
2.82962703705  1.19273400307  0.399320781231  -0.297758460045  -0.499478548765  0.622149050236  0.991862416267  
2.83770704269  1.22370767593  0.388749092817  -0.296198904514  -0.489555597305  0.63537967205  1.00868833065  
2.84577894211  1.26843595505  0.375646322966  -0.285154253244  -0.483707308769  0.668575942516  1.0300681591  
2.85387706757  1.28033709526  0.359028220177  -0.283760875463  -0.475893586874  0.683700084686  1.0552829504  
2.86194205284  1.31827759743  0.344468176365  -0.286688238382  -0.479177266359  0.726459801197  1.07352292538  
2.87004494667  1.36956369877  0.327466547489  -0.275554090738  -0.472346246243  0.739258944988  1.0883834362  
2.87813806534  1.37172400951  0.308777570724  -0.269648253918  -0.465491294861  0.770561695099  1.10039162636  
2.88628911972  1.45476353168  0.281332075596  -0.253170758486  -0.45547246933  0.830962240696  1.11585128307  
2.89449310303  1.44792449474  0.2614158988  -0.242317840457  -0.446484297514  0.850784122944  1.12241852283  
2.90235114098  1.48241353035  0.243532240391  -0.22863984108  -0.441450923681  0.881056308746  1.10331571102  
2.91058301926  1.51935684681  0.225328996778  -0.221762493253  -0.4238101542  0.904617249966  1.09523832798  
2.91865801811  1.50676548481  0.209273338318  -0.210781753063  -0.407823175192  0.929712235928  1.09236216545  
2.92675304413  1.53587269783  0.187209576368  -0.19592769444  -0.403341084719  0.941408813  1.06537365913  
2.93484807014  1.55638968945  0.16543982923  -0.1927446872  -0.384837448597  0.966455876827  1.04701387882  
2.94290995598  1.57386434078  0.151659563184  -0.184435620904  -0.367412388325  1.00130605698  1.01654994488  
2.95100498199  1.6066532135  0.134760215878  -0.173978984356  -0.350490659475  1.01410520077  0.976402759552  
2.95910310745  1.59158182144  0.115662157536  -0.170092910528  -0.327744603157  1.02870190144  0.951547503471  
2.96728897095  1.63799750805  0.0986733138561  -0.164123162627  -0.311422079802  1.05746412277  0.919309914112  
2.97536015511  1.6345076561  0.0826815664768  -0.165171384811  -0.285176634789  1.06554150581  0.8736500144  
2.98342609406  1.64210093021  0.0661017894745  -0.156977370381  -0.269716978073  1.08538734913  0.836259245872  
2.99150896072  1.64019620419  0.0498799420893  -0.152439340949  -0.250494271517  1.08509969711  0.791797757149  
2.99959611893  1.60281825066  0.0359079353511  -0.148540481925  -0.222858652472  1.08538734913  0.750811696053  
3.00769114494  1.64300847054  0.0150713613257  -0.144616037607  -0.203588023782  1.0963408947  0.70692551136  
3.01576113701  1.6066532135  0.00538171594962  -0.142609089613  -0.177126854658  1.08898258209  0.660234928131  
3.02383613586  1.61728870869  -0.0235210396349  -0.135463282466  -0.153541892767  1.10633575916  0.609397888184  
3.03195595741  1.61631727219  -0.0404715277255  -0.130580112338  -0.127512156963  1.09902536869  0.561628758907  
3.04002213478  1.58860337734  -0.058125089854  -0.127064749599  -0.101889885962  1.10039162636  0.518461585045  
3.04810500145  1.6066532135  -0.0801377147436  -0.118563935161  -0.0773461908102  1.09437549114  0.47670853138  
3.0562210083  1.56514620781  -0.100654706359  -0.114064253867  -0.0278513394296  1.08507573605  0.43124037981  
3.06428909302  1.56804800034  -0.126476719975  -0.101702928543  -0.0125594679266  1.07313942909  0.387426048517  
3.07235813141  1.54707074165  -0.148693874478  -0.0930103734136  0.0170175991952  1.05832695961  0.339057713747  
3.08042216301  1.51484441757  -0.175615236163  -0.0851870700717  0.0582433342934  1.05044126511  0.298527061939  
3.08847904205  1.52027726173  -0.206473812461  -0.0732859373093  0.0645470395684  1.03970348835  0.254089534283  
3.09659409523  1.46681797504  -0.22240164876  -0.0661017894745  0.0812051147223  1.01065373421  0.219479098916  
3.10470604897  1.4676617384  -0.250294536352  -0.0526794567704  0.104238793254  0.993660092354  0.177246689796  
3.11279201508  1.4401140213  -0.273841142654  -0.0417498461902  0.124444194138  0.966935217381  0.146543115377  
3.12088012695  1.4039375782  -0.299573659897  -0.0358312353492  0.151552513242  0.958354532719  0.11504856497  
3.12894105911  1.40888464451  -0.322851836681  -0.0237639192492  0.174969688058  0.937118470669  0.0795033499599  
3.13704204559  1.37768101692  -0.348315924406  -0.0173595491797  0.20059196651  0.902316272259  0.0267248228192  
3.14513397217  1.34572303295  -0.366276264191  -0.00837297830731  0.218975767493  0.889109671116  0.0104981809855  
3.15325903893  1.34333252907  -0.388621270657  0.00162346300203  0.240044027567  0.864565968513  -0.00270843482576  
3.16131901741  1.30912482738  -0.409330010414  0.00429514609277  0.260465145111  0.83455747366  -0.0522512234747  
3.16954517365  1.2875084877  -0.435893446207  0.0248632729053  0.277866244316  0.820655763149  -0.0676389709115  
3.17748904228  1.29340147972  -0.452000230551  0.0255152136087  0.305214256048  0.8007619977  -0.0913917049766  
3.18555617332  1.25712287426  -0.47134116292  0.0313699096441  0.328966975212  0.770106315613  -0.118811607361  
3.19361615181  1.22752976418  -0.482398629189  0.0336964465678  0.342844724655  0.750500142574  -0.145512461662  
3.20178198814  1.24641060829  -0.500627398491  0.0362019464374  0.358112633228  0.723128139973  -0.180434495211  
3.20990300179  1.21497666836  -0.517808020115  0.0378637611866  0.382943928242  0.702994644642  -0.211521580815  
3.21795916557  1.19275951385  -0.52601480484  0.0391932092607  0.400297105312  0.675406992435  -0.2421772331  
3.22603416443  1.18455278873  -0.532380819321  0.0438079349697  0.413240045309  0.653955221176  -0.271059215069  
3.23414611816  1.1736998558  -0.548883914948  0.0434372238815  0.43315783143  0.625169098377  -0.313339561224  
3.24227499962  1.14780116081  -0.55328130722  0.043040946126  0.445166021585  0.607120871544  -0.349100500345  
3.25037503242  1.16434252262  -0.552207529545  0.0475150570273  0.463573813438  0.581546545029  -0.388288915157  
3.25859713554  1.1498080492  -0.553358018398  0.0484354458749  0.476996153593  0.564456999302  -0.415037691593  
3.26666212082  1.13142585754  -0.562319040298  0.0472082607448  0.487230658531  0.542933344841  -0.468367487192  
3.27472305298  1.13108074665  -0.56041431427  0.0442169979215  0.491377204657  0.518557429314  -0.501947283745  
3.28278803825  1.15561163425  -0.566754758358  0.0401263833046  0.51151072979  0.499382674694  -0.549548625946  
3.29088497162  1.13527369499  -0.568135380745  0.0368666723371  0.52174526453  0.484066843987  -0.587131142616  
3.29898309708  1.13386750221  -0.564977943897  0.0307307485491  0.529415130615  0.471267670393  -0.622077167034  
3.30710196495  1.15852618217  -0.555620610714  0.0274326894432  0.531787991524  0.4577254951  -0.665412127972  
3.31521201134  1.15651929379  -0.549676477909  0.0195838212967  0.539481878281  0.440540134907  -0.700190365314  
3.32325816154  1.15054953098  -0.544908344746  0.0115432059392  0.54715180397  0.429370820522  -0.74700075388  
3.33135604858  1.167091012  -0.535397648811  0.00470420764759  0.548853576183  0.415684849024  -0.781371474266  
3.3395409584  1.17575800419  -0.520914316177  -0.018203239888  0.551442146301  0.410172104836  -0.816005885601  
3.34757804871  1.16255295277  -0.514356553555  -0.0259626246989  0.540680289268  0.398283749819  -0.843617558479  
3.35564613342  1.17193579674  -0.496153324842  -0.0358951501548  0.545066535473  0.390038609505  -0.867106616497  
3.36374306679  1.19890832901  -0.477170288563  -0.0400624647737  0.539841413498  0.382248848677  -0.899464070797  
3.37185716629  1.18505132198  -0.46218842268  -0.0479113347828  0.529558956623  0.371391147375  -0.921347260475  
3.37997508049  1.17896652222  -0.441939860582  -0.06031101197  0.526754617691  0.370240658522  -0.942631244659  
3.38807606697  1.20181000233  -0.427200883627  -0.070946611464  0.512996733189  0.370384484529  -0.957012295723  
3.39616203308  1.20053172112  -0.409035980701  -0.0824898183346  0.50350522995  0.366789191961  -0.97999805212  
3.40427899361  1.18313384056  -0.394424825907  -0.0976890102029  0.497369319201  0.358352303505  -1.00087451935  
3.41234302521  1.20145213604  -0.371913641691  -0.104924291372  0.481358408928  0.359191209078  -1.01338613033  
3.42045903206  1.22071635723  -0.357813805342  -0.112811505795  0.462231576443  0.352983385324  -1.02659273148  
3.42857813835  1.19168579578  -0.336964458227  -0.121184483171  0.447419077158  0.351545274258  -1.04102170467  
3.4366440773  1.19467699528  -0.325740814209  -0.126310542226  0.436010092497  0.358112633228  -1.05916583538  
3.44465494156  1.20990180969  -0.311973363161  -0.131321534514  0.421293467283  0.352384150028  -1.07354688644  
3.45275211334  1.19963693619  -0.302424311638  -0.137879312038  0.41194576025  0.351353526115  -1.08675348759  
3.46081900597  1.18953824043  -0.288171082735  -0.143503904343  0.404419660568  0.345361411572  -1.10961937904  
3.46907114983  1.21435034275  -0.281843423843  -0.142366200686  0.39804404974  0.347111105919  -1.13193404675  
3.47715497017  1.20694887638  -0.276794046164  -0.146418467164  0.395958811045  0.348141759634  -1.14125776291  
3.48524308205  1.18243074417  -0.270824313164  -0.146111667156  0.387833505869  0.341166913509  -1.16489064693  
3.49336314201  1.19491994381  -0.267999231815  -0.138480111957  0.378246128559  0.342485189438  -1.18394553661  
3.50140404701  1.1992661953  -0.271783053875  -0.13651150465  0.37467482686  0.33050096035  -1.19669675827  
3.50952100754  1.16847157478  -0.269776105881  -0.131577208638  0.373092919588  0.325755208731  -1.21009516716  
3.51759696007  1.17193579674  -0.277407646179  -0.122986912727  0.367795884609  0.334887206554  -1.23274540901  
3.52564907074  1.18618905544  -0.289756208658  -0.111520402133  0.368946373463  0.330021589994  -1.25019443035  
3.53375005722  1.16297483444  -0.298193097115  -0.101460047066  0.378581672907  0.320745795965  -1.26646900177  
3.54180908203  1.14374887943  -0.309966385365  -0.0892904698849  0.381985187531  0.318420857191  -1.28657853603  
3.54987502098  1.15598237514  -0.322174310684  -0.0752417594194  0.388288915157  0.316862910986  -1.30515408516  
3.55798006058  1.13985002041  -0.336223036051  -0.0667665153742  0.394352912903  0.307754904032  -1.316203475  
3.56604814529  1.10856962204  -0.352304250002  -0.0570768713951  0.398331671953  0.294548302889  -1.33839833736  
3.57414793968  1.11327373981  -0.364806205034  -0.0420949906111  0.402262508869  0.301714867353  -1.34395897388  
3.58230614662  1.07990968227  -0.396585166454  -0.0234699063003  0.415493100882  0.28246819973  -1.36179149151  
3.59030795097  1.06941473484  -0.416143417358  -0.0126425586641  0.422971248627  0.286542832851  -1.37032425404  
3.59838104248  1.07859301567  -0.42954018712  -0.00375825306401  0.429634481668  0.282851696014  -1.3737757206  
3.60656714439  1.05477797985  -0.445161223412  0.0132433678955  0.436729133129  0.268686324358  -1.38333916664  
3.61462807655  1.03389024734  -0.456819474697  0.027969583869  0.442553460598  0.27513384819  -1.38158941269  
3.62271308899  1.0380064249  -0.471520125866  0.0397556684911  0.447994321585  0.272952705622  -1.37983977795  
3.63077402115  1.0373673439  -0.483203947544  0.0487550236285  0.448857188225  0.265690267086  -1.37506997585  
3.63888502121  1.01139187813  -0.492625147104  0.0576265454292  0.45007956028  0.263581067324  -1.36862254143  
3.64701199532  1.00006604195  -0.50554895401  0.0701157078147  0.45007956028  0.263988524675  -1.35968232155  
3.65509915352  1.00898861885  -0.516759812832  0.0839726701379  0.444782555103  0.267559826374  -1.35630273819  
3.66319394112  0.994786560535  -0.521949768066  0.0965896621346  0.437639951706  0.263461202383  -1.33657670021  
3.67127394676  0.986119568348  -0.535346508026  0.109730757773  0.435482770205  0.255192101002  -1.32881093025  
3.67934513092  0.983256161213  -0.538184404373  0.125083357096  0.432798326015  0.260153561831  -1.31800115108  
3.68742513657  0.988126516342  -0.539552211761  0.140908926725  0.424145698547  0.257756710052  -1.29688489437  
3.69556903839  0.975982487202  -0.541188418865  0.15087980032  0.417458504438  0.252651453018  -1.27854907513  
3.70363116264  0.961499154568  -0.549152374268  0.160914584994  0.405018895864  0.250446349382  -1.26646900177  
3.7117190361  0.953548073769  -0.550238907337  0.169121384621  0.392099887133  0.2421772331  -1.23667621613  
3.71982002258  0.968389332294  -0.563188254833  0.182952776551  0.380882650614  0.239948153496  -1.22227120399  
3.72790598869  0.955005347729  -0.563188254833  0.191837087274  0.366477608681  0.229977279902  -1.19875812531  
3.73600101471  0.957063436508  -0.568096995354  0.202549383044  0.354876875877  0.238965451717  -1.17433428764  
3.74413299561  0.956181406975  -0.564786195755  0.21092236042  0.350131124258  0.23086412251  -1.15149235725  
3.75226306915  0.968082487583  -0.567624032497  0.220266863704  0.334623545408  0.234651133418  -1.13667976856  
3.76037502289  0.972837865353  -0.578592002392  0.225328996778  0.32177644968  0.233452707529  -1.11160886288  
3.76846194267  0.965078473091  -0.587067246437  0.230033203959  0.303128987551  0.23462715745  -1.08605849743  
3.77659201622  0.96783965826  -0.588486194611  0.240055218339  0.291264623404  0.229162365198  -1.06000471115  
3.78463697433  0.979983627796  -0.599812090397  0.250690817833  0.281988829374  0.229210302234  -1.04013490677  
3.79271006584  0.981837213039  -0.60431176424  0.261761039495  0.269189685583  0.22944997251  -1.01568710804  
3.8007979393  0.980137050152  -0.609412252903  0.269648253918  0.255383849144  0.224512472749  -0.988315105438  
3.80888295174  0.982118427753  -0.611291348934  0.273956179619  0.24119451642  0.220701500773  -0.968948602676  
3.81702113152  0.993917286396  -0.616059482098  0.277407646179  0.234003990889  0.218136876822  -0.943086624146  
3.82510709763  1.0074930191  -0.628369688988  0.282367527485  0.213127464056  0.221252769232  -0.921778678894  
3.83319211006  1.00079464912  -0.636742651463  0.28549939394  0.210131406784  0.209891721606  -0.891482532024  
3.84130215645  1.00565230846  -0.641817569733  0.289794534445  0.199585288763  0.213702708483  -0.866699159145  
3.84943699837  1.02762651443  -0.646751880646  0.294204741716  0.194623813033  0.210131406784  -0.849657595158  
3.85752797127  1.03326392174  -0.645908176899  0.296326756477  0.179883226752  0.209196642041  -0.829787790775  
3.86559700966  1.02669334412  -0.65626257658  0.298781126738  0.179835289717  0.205385655165  -0.804788649082  
3.87365913391  1.02887928486  -0.657924354076  0.305492281914  0.17753431201  0.20059196651  -0.786548674107  
3.88175415993  1.04891049862  -0.667128264904  0.315680474043  0.167443603277  0.200783714652  -0.773773491383  
3.88983607292  1.05238759518  -0.671666264534  0.32335036993  0.167036131024  0.19692479074  -0.753040790558  
3.89789700508  1.04150903225  -0.67337924242  0.327223688364  0.160588622093  0.193569213152  -0.736790180206  
3.90600013733  1.04023075104  -0.674286842346  0.338140517473  0.159725755453  0.181920543313  -0.720755279064  
3.91409611702  1.06072211266  -0.677495419979  0.349044561386  0.153733640909  0.187409311533  -0.706709742546  
3.92221903801  1.05380642414  -0.682659804821  0.354208946228  0.14575214684  0.180146872997  -0.688997089863  
3.93034815788  1.03345561028  -0.685919523239  0.361316412687  0.14683072269  0.184844687581  -0.681830525398  
3.93846011162  1.03610181808  -0.690099596977  0.376515597105  0.147957250476  0.185875341296  -0.667952775955  
3.94660305977  1.05269432068  -0.69454818964  0.392187774181  0.134031578898  0.186210900545  -0.659204304218  
3.95463299751  1.02981245518  -0.697552204132  0.40645378828  0.138010337949  0.178061619401  -0.636865735054  
3.96277594566  1.00570344925  -0.707804322243  0.417677402496  0.13357616961  0.169600754976  -0.626703083515  
3.97087717056  1.01563596725  -0.715487003326  0.435356527567  0.126169919968  0.17106282711  -0.611507058144  
3.97894906998  1.01563596725  -0.729727447033  0.460910111666  0.126457542181  0.174897789955  -0.600649356842  
3.98706412315  0.989277005196  -0.741935372353  0.480353325605  0.121831633151  0.167443603277  -0.585189700127  
3.99514317513  0.963710665703  -0.755063712597  0.505919635296  0.121999412775  0.164519444108  -0.567189395428  
4.00325512886  0.959428310394  -0.772589445114  0.533019959927  0.110039159656  0.1585752666  -0.546576559544  
4.01135015488  0.954711318016  -0.797938466072  0.555850744247  0.111213609576  0.162649899721  -0.532075643539  
4.01955413818  0.912156105042  -0.82226485014  0.577671587467  0.102680839598  0.159773692489  -0.516759812832  
4.02752614021  0.881182491779  -0.847460508347  0.612058341503  0.106276109815  0.142180845141  -0.494373261929  
4.03557515144  0.868603885174  -0.867389440536  0.642661273479  0.0973598435521  0.146638974547  -0.477451533079  
4.04364395142  0.841823101044  -0.898631513119  0.672113716602  0.0977193713188  0.146279454231  -0.457437872887  
4.05174207687  0.800814688206  -0.928032815456  0.70253765583  0.0915834531188  0.130987584591  -0.438358992338  
4.05983614922  0.759678423405  -0.957063436508  0.733281195164  0.0938844233751  0.131730601192  -0.417290717363  
4.06794810295  0.739800572395  -0.986976027489  0.769086837769  0.0851119682193  0.129237890244  -0.388983994722  
4.07604503632  0.703189611435  -1.01186490059  0.794960021973  0.0793355703354  0.114449352026  -0.364895701408  
4.08418607712  0.661836028099  -1.04976701736  0.82923167944  0.0800546258688  0.115479998291  -0.34687140584  
4.09229111671  0.611291348934  -1.08341228962  0.85351973772  0.074709661305  0.103447832167  -0.322064071894  
4.10040807724  0.577505409718  -1.10890197754  0.891460180283  0.0786165222526  0.0983904898167  -0.297400534153  
4.10862803459  0.544051885605  -1.1345705986  0.917000949383  0.0770106315613  0.0841771960258  -0.276787668467  
4.11664605141  0.499809294939  -1.16526293755  0.940854370594  0.0702275633812  0.0792157277465  -0.257804661989  
4.12470602989  0.458238422871  -1.18505132198  0.966586887836  0.0744220390916  0.0705870911479  -0.23549002409  
4.13280701637  0.417306691408  -1.20841896534  0.987270057201  0.0766271352768  0.0544563196599  -0.215260654688  
4.1409239769  0.375646322966  -1.22791326046  1.004514575  0.0701316893101  0.0490394495428  -0.187720909715  
4.14898204803  0.328936606646  -1.24357271194  1.01685035229  0.0737988576293  0.041129861027  -0.16902551055  
4.15709614754  0.287365734577  -1.25675213337  1.02762651443  0.0722648799419  0.0290976986289  -0.147813439369  
4.16522216797  0.249974951148  -1.2655980587  1.04086995125  0.0690291374922  0.0237047970295  -0.129645347595  
4.17333102226  0.207841619849  -1.26672303677  1.04793894291  0.0699159726501  0.0175688751042  -0.104023076594  
4.18142294884  0.164187073708  -1.26277303696  1.04908943176  0.0723607540131  0.0117685096338  -0.093788549304  
4.18949913979  0.121043868363  -1.26584100723  1.04988205433  0.0638998895884  -0.00124635943212  -0.0637081414461  
4.19758605957  0.0777216926217  -1.26479279995  1.04988205433  0.0655537098646  -0.00752609362826  -0.0440540127456  
4.20567011833  0.0301427226514  -1.25356912613  1.0380064249  0.0655297413468  -0.0296010375023  -0.0329086817801  
4.21375894547  -0.0214118156582  -1.24022352695  1.03138482571  0.0621981285512  -0.0196061935276  -0.0185036435723  
4.22185897827  -0.0612441860139  -1.22329854965  1.01320707798  0.065841332078  -0.0343228206038  -0.0135901113972  
4.22994995117  -0.105192735791  -1.19622385502  1.00096082687  0.0746856927872  -0.0471459440887  -0.00659132376313  
4.23804807663  -0.14709597826  -1.17858302593  0.984406650066  0.0707788318396  -0.0508131161332  0.0291935727  
4.24618601799  -0.194662168622  -1.15337467194  0.959620058537  0.0673273801804  -0.050621367991  0.0493750087917  
4.2542591095  -0.287621408701  -1.0917725563  0.914035260677  0.0708986744285  -0.0730558410287  0.0493031032383  
4.26236104965  -0.333052814007  -1.06413531303  0.88393086195  0.0691969171166  -0.0760039538145  0.0502618402243  
4.27054214478  -0.380734026432  -1.04055035114  0.859476685524  0.0754287168384  -0.0851119682193  0.0590822324157  
4.27858114243  -0.420911550522  -0.995029449463  0.83241468668  0.0752369686961  -0.0994211360812  0.0679265931249  
4.28664302826  -0.46653470397  -0.968056917191  0.804087162018  0.0725764706731  -0.0981747731566  0.0686456412077  
4.29470610619  -0.509716272354  -0.934462785721  0.772589445114  0.0739906057715  -0.118404150009  0.0699639096856  
4.3028011322  -0.550980329514  -0.895410180092  0.743916809559  0.0732715576887  -0.114928722382  0.0779693722725  
4.31088399887  -0.595120668411  -0.858172774315  0.718823432922  0.0729839354753  -0.132233947515  0.0765312612057  
4.31900811195  -0.629775822163  -0.825741887093  0.693704485893  0.0757163390517  -0.138273999095  0.0824514701962  
4.32707214355  -0.664367079735  -0.795535266399  0.665006279945  0.0738707631826  -0.141725450754  0.0830986201763  
4.33520913124  -0.705375492573  -0.764011919498  0.635617733002  0.0705151855946  -0.156250327826  0.0825473442674  
4.34326601028  -0.734035372734  -0.73494297266  0.605411112309  0.0738707631826  -0.165717869997  0.0869575366378  
4.35135507584  -0.776130378246  -0.704276144505  0.589981794357  0.0694366022944  -0.165310397744  0.0861905515194  
4.35952496529  -0.803064525127  -0.673941671848  0.562561929226  0.0694605708122  -0.171997606754  0.0885154902935  
4.36758303642  -0.836837649345  -0.649078428745  0.531447649002  0.0748534724116  -0.190836802125  0.0921107530594  
4.37568116188  -0.858441233635  -0.616059482098  0.503669798374  0.065625615418  -0.198794335127  0.0894023180008  
4.38377594948  -0.893991231918  -0.592448949814  0.467621266842  0.0656495839357  -0.207542821765  0.102153539658  
4.39184117317  -0.922433793545  -0.555633425713  0.43315783143  0.0669918209314  -0.218855917454  0.104382604361  
4.39993596077  -0.943423748016  -0.518447160721  0.40661996603  0.0647627562284  -0.222451195121  0.121040679514  
4.40802907944  -0.959351599216  -0.491845369339  0.377525448799  0.0614311397076  -0.223697558045  0.133504271507  
4.41611599922  -0.977030754089  -0.45578405261  0.345631450415  0.0614790767431  -0.233620494604  0.151768237352  
4.42421603203  -1.01881897449  -0.419927239418  0.308700859547  0.0607839897275  -0.234555259347  0.176120176911  
4.43231415749  -1.03515577316  -0.384786307812  0.280386120081  0.0579077787697  -0.240283712745  0.188607737422  
4.44037103653  -1.03452944756  -0.350936472416  0.252544373274  0.0552712492645  -0.240547373891  0.215787962079  
4.44865894318  -1.05741131306  -0.319183051586  0.226364433765  0.0531140863895  -0.246060118079  0.238653868437  
4.45660805702  -1.09763991833  -0.284451186657  0.191658124328  0.0502378717065  -0.260033726692  0.264755517244  
4.46468496323  -1.10623025894  -0.252339839935  0.161617666483  0.0439821071923  -0.262190878391  0.286782503128  
4.47276902199  -1.10125756264  -0.223283693194  0.135297104716  0.0380618982017  -0.259122908115  0.308306187391  
4.48087000847  -1.12881815434  -0.195020094514  0.112312965095  0.0376784056425  -0.273935437202  0.337116271257  
4.48896598816  -1.15787434578  -0.163279473782  0.0842027664185  0.037079192698  -0.282396286726  0.361779808998  
4.49709796906  -1.14374887943  -0.131820082664  0.061180267483  0.0346104428172  -0.287765234709  0.384406000376  
4.50521802902  -1.1405531168  -0.108005031943  0.037045635283  0.0337236113846  -0.290425717831  0.407056212425  
4.5132830143  -1.17054235935  -0.0819017961621  0.0159917492419  0.0312308911234  -0.302553743124  0.434068650007  
4.52142095566  -1.17680621147  -0.0558752529323  -0.00152119761333  0.0322135984898  -0.302601695061  0.454705476761  
4.52959108353  -1.15080523491  -0.0329422391951  -0.0259626246989  0.0283546764404  -0.309912055731  0.477211862803  
4.5376739502  -1.17032516003  -0.0108145652339  -0.0480391643941  0.033244241029  -0.315952122211  0.50084477663  
4.54577612877  -1.19348824024  0.011261976324  -0.0605922415853  0.0382296778262  -0.31746211648  0.518773138523  
4.55384016037  -1.16264235973  0.0301682893187  -0.0747559964657  0.0359526760876  -0.328703343868  0.528360545635  
4.56194806099  -1.1531573534  0.0449456386268  -0.0881016328931  0.0413695462048  -0.324796468019  0.536629617214  
4.57004094124  -1.18561375141  0.0587003342807  -0.103709883988  0.0485840514302  -0.337068319321  0.550866901875  
4.57814002037  -1.16292369366  0.0703074559569  -0.114754550159  0.0544323511422  -0.33105224371  0.552113234997  
4.58625411987  -1.12073922157  0.0794857740402  -0.124750986695  0.0610476434231  -0.326402366161  0.553143918514  
4.59438109398  -1.12004888058  0.0929592400789  -0.133366852999  0.0627014636993  -0.328823179007  0.554318368435  
4.60249114037  -1.14713644981  0.104706972837  -0.143708437681  0.0773941278458  -0.334383845329  0.567644834518  
4.61056303978  -1.12004888058  0.109794676304  -0.152273163199  0.0926380604506  -0.339968502522  0.570592939854  
4.61863493919  -1.13108074665  0.11521474272  -0.164327695966  0.0988698601723  -0.349723666906  0.578310787678  
4.62670993805  -1.15416717529  0.123766683042  -0.173096954823  0.121496073902  -0.358592003584  0.582337498665  
4.63480305672  -1.14303302765  0.131487727165  -0.179450184107  0.136404454708  -0.360797077417  0.582337498665  
4.64292311668  -1.13632190228  0.133021697402  -0.184333369136  0.151169016957  -0.368179380894  0.58389544487  
4.65104293823  -1.16025197506  0.133980438113  -0.192131102085  0.170919016004  -0.381290107965  0.583607792854  
4.65914607048  -1.16950702667  0.137278497219  -0.197551161051  0.190549179912  -0.387138426304  0.582313537598  
4.66726398468  -1.1398755312  0.135923489928  -0.201616212726  0.20004068315  -0.384837448597  0.576609015465  
4.67532706261  -1.15787434578  0.135463282466  -0.207509249449  0.219742760062  -0.399506151676  0.576632976532  
4.68340301514  -1.1819961071  0.133878171444  -0.211906671524  0.231607139111  -0.411178767681  0.574547708035  
4.69157505035  -1.18925702572  0.133366852999  -0.219793885946  0.242752462626  -0.412832587957  0.578310787678  
4.69959497452  -1.167091012  0.130324453115  -0.223769456148  0.260177522898  -0.419783443213  0.57900583744  
4.70768499374  -1.20731961727  0.128522023559  -0.232283040881  0.269405394793  -0.434500068426  0.580899357796  
4.71576309204  -1.19240164757  0.12563303113  -0.234405055642  0.287022203207  -0.4267103374  0.577376008034  
4.72382712364  -1.17632043362  0.124175749719  -0.23683385551  0.3005643785  -0.442936956882  0.574044406414  
4.73191308975  -1.21397960186  0.120800986886  -0.249885469675  0.315448790789  -0.455975800753  0.572438538074  
4.74001312256  -1.23326945305  0.119279794395  -0.258782565594  0.337116271257  -0.460985213518  0.571935176849  
4.74814295769  -1.21027255058  0.115470409393  -0.265468150377  0.343827426434  -0.465251594782  0.563330471516  
4.75626397133  -1.236733675  0.10997363925  -0.281076431274  0.36197155714  -0.477523446083  0.566014945507  
4.76436710358  -1.25675213337  0.106765061617  -0.287902623415  0.372277975082  -0.481070786715  0.564025580883  
4.77251005173  -1.25238025188  0.100117817521  -0.29970151186  0.385029196739  -0.483515560627  0.560885727406  
4.78065013885  -1.25158774853  0.0903514698148  -0.314120918512  0.398475497961  -0.490106880665  0.552281022072  
4.78872895241  -1.27795946598  0.0888302698731  -0.328795999289  0.41367149353  -0.499933958054  0.543173015118  
4.79679107666  -1.28376293182  0.0853915959597  -0.349146813154  0.434931516647  -0.505662381649  0.541567146778  
4.80491113663  -1.29236602783  0.0803294628859  -0.368960738182  0.456670880318  -0.504416048527  0.540752232075  
4.81297516823  -1.34173464775  0.0813393294811  -0.39185538888  0.475725799799  -0.52162539959  0.532842636108  
4.8210849762  -1.33777189255  0.0805212110281  -0.415644884109  0.497609019279  -0.522416353226  0.528336584568  
4.8292081356  -1.33697938919  0.0779517889023  -0.440584868193  0.518269836903  -0.530397832394  0.520810484886  
4.83729314804  -1.37517547607  0.0795496851206  -0.46507743001  0.548230350018  -0.535718858242  0.514027416706  
4.84535813332  -1.37350082397  0.0807385221124  -0.492625147104  0.555348992348  -0.535551071167  0.509904801846  
4.85345602036  -1.37852466106  0.0815310776234  -0.52067142725  0.575674235821  -0.544970691204  0.499238848686  
4.86158704758  -1.40419328213  0.0884467810392  -0.551120936871  0.598899662495  -0.551777720451  0.492983102798  
4.86966300011  -1.38697433472  0.0878459662199  -0.577249765396  0.61558175087  -0.547679126263  0.487086862326  
4.87772893906  -1.39381337166  0.0889069736004  -0.604388415813  0.639789879322  -0.554534077644  0.483299851418  
4.8858230114  -1.40970277786  0.0935600474477  -0.632485866547  0.656088411808  -0.550219774246  0.480471551418  
4.89392113686  -1.38613069057  0.093662314117  -0.658921480179  0.67924195528  -0.548853576183  0.474215805531  
4.90201401711  -1.39726483822  0.100066684186  -0.689255952835  0.697985231876  -0.552281022072  0.469613850117  
4.91010713577  -1.39740538597  0.102572187781  -0.716330707073  0.715889692307  -0.549021363258  0.458852022886  
4.9181740284  -1.36603546143  0.1033391729  -0.743482172489  0.741655766964  -0.539841413498  0.454897224903  
4.92633700371  -1.36193203926  0.10997363925  -0.789194762707  0.782378196716  -0.529558956623  0.442193955183  
4.93438816071  -1.33508741856  0.11086846143  -0.806886672974  0.80493247509  -0.522296488285  0.437280416489  
4.94246816635  -1.34572303295  0.11850001663  -0.831673264503  0.825257718563  -0.517502844334  0.435291022062  
4.95055103302  -1.3213583231  0.116250179708  -0.848904967308  0.847692191601  -0.50245064497  0.427573204041  
4.95866799355  -1.28221619129  0.11398755759  -0.862634122372  0.864278376102  -0.499238848686  0.422060459852  
4.96675395966  -1.28492629528  0.120903253555  -0.877079129219  0.885130941868  -0.494900584221  0.413168162107  
4.97483897209  -1.25452780724  0.120340794325  -0.892022609711  0.895581185818  -0.48143029213  0.408326536417  
4.98297405243  -1.21846652031  0.119215875864  -0.910392045975  0.908284425735  -0.470021307468  0.397588670254  
4.99103999138  -1.21509182453  0.121683031321  -0.921372771263  0.924103617668  -0.464173018932  0.386946678162  
4.99914908409  -1.18172764778  0.123217009008  -0.932110667229  0.942175805569  -0.449576228857  0.372829258442  
5.00724816322  -1.13108074665  0.121580764651  -0.939997851849  0.959217429161  -0.435051351786  0.361612021923  
5.0153131485  -1.12025344372  0.121683031321  -0.959134280682  0.969931304455  -0.428579866886  0.35065844655  
5.02339410782  -1.10092520714  0.120123483241  -0.972837865353  0.97915917635  -0.41453436017  0.343156307936  
5.03152513504  -1.04859089851  0.115265876055  -0.974461317062  0.990544140339  -0.397900253534  0.335989743471  
5.03959608078  -1.01807749271  0.112440794706  -0.984969079494  1.01070165634  -0.383159667253  0.316575288773  
5.04769611359  -1.00898861885  0.109845809639  -0.994786560535  1.0170532465  -0.362522810698  0.304950594902  
5.05578303337  -0.964810013771  0.103965550661  -1.00096082687  1.02503478527  -0.349723666906  0.288891732693  
5.06387996674  -0.917537868023  0.101958595216  -1.00332570076  1.03234517574  -0.332682102919  0.271059215069  
5.07198905945  -0.897391557693  0.0960911139846  -1.00243091583  1.04238796234  -0.318013399839  0.257061630487  
5.08007717133  -0.877897202969  0.0909139290452  -1.01417863369  1.04986608028  -0.298910558224  0.249439671636  
5.08819508553  -0.833143353462  0.0869127959013  -1.01959872246  1.05367708206  -0.283450901508  0.231319516897  
5.09629011154  -0.786689281464  0.0822213739157  -1.01582765579  1.06149077415  -0.263485193253  0.213702708483  
5.10435009003  -0.771656274796  0.0724294632673  -1.01411473751  1.06280899048  -0.247522190213  0.202892929316  
5.1124329567  -0.74363553524  0.0655776783824  -1.02453303337  1.06932842731  -0.232829526067  0.190645053983  
5.12062907219  -0.705822944641  0.0591733083129  -1.02453303337  1.07822072506  -0.212408408523  0.168474242091  
5.1287009716  -0.661836028099  0.0557090714574  -1.01472830772  1.09006118774  -0.198458775878  0.16030099988  
5.13679003716  -0.639209806919  0.0459427237511  -1.00778710842  1.08433270454  -0.185156285763  0.152031883597  
5.14485502243  -0.615765452385  0.0360868982971  -1.00898861885  1.07915556431  -0.169121384621  0.138058274984  
5.15291905403  -0.580969691277  0.0232142433524  -1.00792765617  1.07167732716  -0.160516709089  0.118212401867  
5.16101694107  -0.548180818558  0.0150841446593  -0.996844649315  1.07762157917  -0.14263625443  0.116294920444  
5.16911005974  -0.518280982971  0.00621262239292  -0.987551271915  1.0762553215  -0.121256396174  0.0943158566952  
5.17721915245  -0.492983072996  -0.0167715232819  -0.979063272476  1.06647622585  -0.117469377816  0.0890427976847  
5.18530201912  -0.467966407537  -0.0268574468791  -0.964784443378  1.06405544281  -0.0923025012016  0.0739906057715  
5.1933619976  -0.448267549276  -0.040791105479  -0.951796770096  1.05116033554  -0.0814208239317  0.0647148191929  
5.20157909393  -0.428108483553  -0.0508003309369  -0.938872933388  1.04758906364  -0.0675910338759  0.0534496456385  
5.20957708359  -0.412615269423  -0.0642865821719  -0.925731837749  1.04454505444  -0.0448449701071  0.0383015833795  
5.2176721096  -0.388212203979  -0.0786037370563  -0.901980698109  1.0488833189  -0.0385652370751  0.0331723354757  
5.22576594353  -0.374879360199  -0.0942886844277  -0.878907084465  1.03831326962  -0.0279951505363  0.0196541305631  
5.23386311531  -0.355512827635  -0.111955031753  -0.855155944824  1.0284383297  -0.0181920547038  0.0205649305135  
5.24196410179  -0.341502487659  -0.127409890294  -0.833143353462  1.02287757397  -0.0126793105155  0.00925182178617  
5.25006008148  -0.330521732569  -0.144360378385  -0.802860021591  1.01782023907  -0.00517718540505  0.00431432109326  
5.25815701485  -0.321599066257  -0.16464728117  -0.772589445114  1.00667488575  0.0186714231968  0.00395479425788  
5.26623916626  -0.314836770296  -0.182147443295  -0.741449654102  0.998549640179  0.0173531584442  -0.0174010954797  
5.27436614037  -0.309966385365  -0.20389162004  -0.705937981606  0.976474702358  0.0394041314721  -0.00994690693915  
5.28246307373  -0.310094237328  -0.222452789545  -0.676076471806  0.966503798962  0.0385412685573  -0.0403389036655  
5.29053616524  -0.309084355831  -0.243238225579  -0.638404488564  0.950157344341  0.0342269465327  -0.0178085584193  
5.29859399796  -0.307767689228  -0.263205528259  -0.599083423615  0.932971954346  0.0431911498308  -0.00709466123953  
5.30668497086  -0.308445185423  -0.284566223621  -0.557640373707  0.909123361111  0.0408901758492  -0.0269884746522  
5.31477308273  -0.313008785248  -0.303319126368  -0.516938745975  0.889589071274  0.0468583218753  -0.00721450382844  
5.32286810875  -0.319515407085  -0.326712340117  -0.475176125765  0.863511383533  0.0497345365584  -0.0210682675242  
5.33097696304  -0.324641466141  -0.343062013388  -0.436097949743  0.842874526978  0.0475773736835  -0.00719053531066  
5.33907699585  -0.331979006529  -0.364013642073  -0.396700233221  0.819433391094  0.0459954552352  -0.0323813781142  
5.34720396996  -0.336874961853  -0.381922870874  -0.355065435171  0.785518050194  0.0454441830516  -0.0106419920921  
5.35528111458  -0.350693583488  -0.398400396109  -0.316025614738  0.754670619965  0.0479848384857  -0.00479369005188  
5.36336898804  -0.360332101583  -0.411183565855  -0.283786445856  0.724086880684  0.0465946681798  0.00304399314336  
5.37141299248  -0.374329656363  -0.428108483553  -0.252953439951  0.701916098595  0.0419447906315  0.0363361723721  
5.37949800491  -0.385553300381  -0.442860275507  -0.22077819705  0.672291100025  0.0392842926085  0.0146926604211  
5.38758802414  -0.399320781231  -0.453368037939  -0.192552939057  0.644152104855  0.0374147519469  0.0339153595269  
5.39562916756  -0.410339862108  -0.463632911444  -0.167740806937  0.614718854427  0.0408662073314  0.0576441250741  
5.40372014046  -0.420221269131  -0.473245859146  -0.142417341471  0.584230959415  0.0323574095964  0.0612393915653  
5.41182494164  -0.43315783143  -0.482398629189  -0.121478497982  0.563330471516  0.0290257930756  0.0794554129243  
5.41991209984  -0.443729519844  -0.489646673203  -0.099683187902  0.538259506226  0.0257421154529  0.089114703238  
5.42799401283  -0.449673682451  -0.495143443346  -0.0794346407056  0.514698505402  0.0185036435723  0.10256100446  
5.43611502647  -0.463863015175  -0.501586139202  -0.0604132786393  0.492144197226  0.0161547362804  0.113682359457  
5.44417309761  -0.478052347898  -0.511569797993  -0.0427724979818  0.470860213041  0.0143810706213  0.136740013957  
5.45230913162  -0.497048139572  -0.518447160721  -0.0292351171374  0.455088973045  0.0  0.148508518934  
5.46040701866  -0.513730168343  -0.523074686527  -0.0147901317105  0.442385703325  0.020037624985  0.16686835885  
5.46850299835  -0.52445524931  -0.529121100903  -0.00752928899601  0.422635704279  -0.0259098950773  0.186810106039  
5.47657203674  -0.539117574692  -0.535551071167  -0.00288899731822  0.407679378986  0.0159150511026  0.202557384968  
5.48471593857  -0.553089559078  -0.539296507835  0.0101242735982  0.398187875748  -0.0114329513162  0.214541599154  
5.49274110794  -0.562804758549  -0.541955411434  0.0123229790479  0.386946678162  0.00855673663318  0.231607139111  
5.50082397461  -0.574731469154  -0.545279026031  0.0205553434789  0.377503097057  -0.0185036435723  0.248552829027  
5.50889205933  -0.58665817976  -0.552207529545  0.0213734656572  0.367292553186  -0.0371510982513  0.260752767324  
5.51701402664  -0.602087497711  -0.535793960094  0.0171678029001  0.36271455884  -0.0195342879742  0.273983359337  
5.52511310577  -0.610537171364  -0.547912359238  0.0156466048211  0.359574705362  -0.0580755546689  0.289131432772  
5.53323507309  -0.617401719093  -0.526896834373  0.00942119862884  0.354876875877  -0.0565655454993  0.307491242886  
5.54135203362  -0.626784563065  -0.535985708237  0.00538171594962  0.353702425957  -0.0599450953305  0.322351694107  
5.54945015907  -0.629775822163  -0.514126479626  -0.000766990415286  0.346320152283  -0.0638759210706  0.334072262049  
5.55760717392  -0.633649110794  -0.514356553555  -0.00875647366047  0.342485189438  -0.0781131833792  0.343491882086  
5.56564617157  -0.637228429317  -0.514586627483  -0.0186762157828  0.354996711016  -0.0841052904725  0.357872933149  
5.57374715805  -0.637279570103  -0.493200391531  -0.0205297768116  0.352983385324  -0.0879881829023  0.365902364254  
5.5817861557  -0.639567732811  -0.490413665771  -0.0292990338057  0.345744907856  -0.100571617484  0.372829258442  
5.58984398842  -0.635336518288  -0.486207991838  -0.0332618169487  0.34773427248  -0.0997566953301  0.375825315714  
5.5979449749  -0.635617733002  -0.464438259602  -0.0387074500322  0.341358661652  -0.111788854003  0.376424521208  
5.60602998734  -0.627283096313  -0.471149414778  -0.0469909459352  0.343683630228  -0.106995165348  0.382248848677  
5.614123106  -0.621300578117  -0.456691652536  -0.0567445084453  0.349963337183  -0.122670531273  0.380475193262  
5.62221908569  -0.60566675663  -0.448267549276  -0.0810580998659  0.357753098011  -0.128902330995  0.386994600296  
5.63033103943  -0.599083423615  -0.434423357248  -0.0890987217426  0.360293745995  -0.126625329256  0.386706978083  
5.6384999752  -0.590505897999  -0.423493742943  -0.0980213731527  0.367052853107  -0.130268529058  0.386994600296  
5.64657115936  -0.577671587467  -0.414801210165  -0.110791765153  0.379252791405  -0.134582847357  0.378845334053  
5.65464711189  -0.568544447422  -0.407271921635  -0.121900342405  0.387713670731  -0.125834360719  0.371103525162  
5.66274094582  -0.557959973812  -0.398541003466  -0.137189015746  0.399386286736  -0.138202086091  0.363385677338  
5.67083001137  -0.542441189289  -0.391919314861  -0.153922185302  0.410987019539  -0.132018223405  0.354709088802  
5.67888617516  -0.530527293682  -0.383341819048  -0.168776243925  0.422108381987  -0.12851883471  0.345696955919  
5.68700098991  -0.517808020115  -0.371760249138  -0.182147443295  0.430689096451  -0.130963608623  0.335989743471  
5.69506406784  -0.504871428013  -0.361546486616  -0.19765342772  0.444782555103  -0.120297655463  0.325036168098  
5.70313405991  -0.489071428776  -0.348878383636  -0.213006019592  0.455088973045  -0.125019446015  0.31348335743  
5.7112300396  -0.470817059278  -0.333845347166  -0.230033203959  0.466306209564  -0.11742144078  0.301211506128  
5.71932005882  -0.456998467445  -0.323759436607  -0.248671069741  0.47495880723  -0.115120470524  0.292822569609  
5.72741103172  -0.444598764181  -0.312395185232  -0.269878357649  0.486200034618  -0.111117735505  0.276356250048  
5.73550105095  -0.428108483553  -0.302283704281  -0.289104253054  0.494828671217  -0.106899291277  0.264755517244  
5.74358510971  -0.414609462023  -0.29336103797  -0.308445185423  0.51028829813  -0.099876537919  0.248720616102  
5.75167298317  -0.402797788382  -0.283927053213  -0.325293421745  0.523638725281  -0.0959217399359  0.229809507728  
5.75980615616  -0.38309893012  -0.271195024252  -0.345938235521  0.542118430138  -0.0899535939097  0.217250034213  
5.76789712906  -0.367886960506  -0.256967365742  -0.366097301245  0.550555288792  -0.0889708921313  0.200879588723  
5.77598500252  -0.353684842587  -0.246970906854  -0.38426220417  0.559759199619  -0.074374102056  0.186522483826  
5.78408503532  -0.343892931938  -0.234852463007  -0.403091818094  0.57644122839  -0.0729839354753  0.173699364066  
5.79214715958  -0.337833702564  -0.225738063455  -0.423685491085  0.58617246151  -0.0738947317004  0.161906883121  
5.80023694038  -0.328795999289  -0.221442908049  -0.439280986786  0.598060786724  -0.0606881156564  0.148316770792  
5.80836105347  -0.318339377642  -0.213913619518  -0.454186141491  0.615006506443  -0.0575003139675  0.128422960639  
5.81645894051  -0.303114622831  -0.206473812461  -0.471277266741  0.623970687389  -0.0612393915653  0.122718468308  
5.82455515862  -0.291839838028  -0.199340805411  -0.486553162336  0.632910907269  -0.0501899346709  0.102968461812  
5.83263301849  -0.283518016338  -0.194099709392  -0.501419961452  0.644056260586  -0.0438143275678  0.100379869342  
5.84072208405  -0.271859765053  -0.188053265214  -0.515059649944  0.655537128448  -0.0397157222033  0.0789041370153  
5.84882497787  -0.26559600234  -0.181239828467  -0.528213500977  0.663207054138  -0.0374387204647  0.0688853263855  
5.85692596436  -0.252953439951  -0.178414747119  -0.5394115448  0.672291100025  -0.0352575927973  0.0601847805083  
5.86501216888  -0.247968003154  -0.172739028931  -0.550750255585  0.680080831051  -0.0294332578778  0.0494708828628  
5.87310910225  -0.2418448627  -0.17045083642  -0.557806551456  0.683460354805  -0.0260776747018  0.0390685759485  
5.88119411469  -0.237281262875  -0.163854718208  -0.568787276745  0.691705524921  -0.0232014600188  0.0335318632424  
5.88928508759  -0.235977381468  -0.160352125764  -0.576994121075  0.695276796818  -0.0185036435723  0.0273480024189  
5.89739704132  -0.231937900186  -0.158127859235  -0.587616920471  0.707836270332  -0.0119602568448  0.019821908325  
5.90557003021  -0.233254566789  -0.155903577805  -0.591208994389  0.706086575985  -0.0125834364444  0.0192946027964  
5.91362810135  -0.231848418713  -0.15289953351  -0.602113068104  0.71325314045  -0.00807736814022  0.0107858031988  
5.9217171669  -0.2325514853  -0.152222037315  -0.604669690132  0.719580829144  0.0  0.0046019423753  
5.92981696129  -0.234226092696  -0.148796141148  -0.605871319771  0.719892442226  -0.0076459357515  0.0133743956685  
5.93788003922  -0.235708937049  -0.147684007883  -0.607916593552  0.725285291672  0.0201334990561  0.00982706528157  
5.94597196579  -0.234315574169  -0.145280763507  -0.609974682331  0.731277406216  -0.0171853788197  0.0022770029027  
5.9540810585  -0.234226092696  -0.144360378385  -0.606305897236  0.732164263725  0.0444614775479  -0.00349939381704  
5.96217012405  -0.232628196478  -0.142967015505  -0.608926475048  0.729072332382  -0.0311350170523  0.0304159633815  
5.9702630043  -0.232896640897  -0.141624778509  -0.60695785284  0.73094189167  0.0323813781142  -0.0378222167492  
5.97838902473  -0.23298612237  -0.141433030367  -0.601000905037  0.73060631752  -0.0197500027716  0.0259098950773  
5.9864821434  -0.236118003726  -0.14381070435  -0.59610491991  0.728209495544  0.0154356826097  0.0103783393279  
5.99466395378  -0.239403277636  -0.145740956068  -0.58638972044  0.724086880684  0.00366717297584  0.0430952757597  
6.00274395943  -0.245206832886  -0.148054718971  -0.581915616989  0.714811086655  -0.00337955146097  0.00774180982262  
6.01082396507  -0.248965084553  -0.151429474354  -0.574488580227  0.708675205708  0.0667281672359  0.0475294366479  
6.01888394356  -0.255254417658  -0.153577044606  -0.57110106945  0.707692503929  -0.00467384792864  0.0405546203256  
6.02694702148  -0.264777868986  -0.15645326674  -0.562165617943  0.707836270332  0.0515081994236  0.0463789515197  
6.03499317169  -0.273112505674  -0.159048244357  -0.548602700233  0.701316893101  0.00870054773986  0.056901101023  
6.0430791378  -0.28404211998  -0.163675755262  -0.542914152145  0.702419400215  0.0335798002779  0.059154137969  
6.05118107796  -0.290062993765  -0.16192445159  -0.538388907909  0.691226124763  0.0087724532932  0.0680464282632  
6.0592610836  -0.298474311829  -0.164059251547  -0.529670774937  0.690099656582  0.0360725186765  0.0809414610267  
6.06732606888  -0.306489378214  -0.168916851282  -0.521029353142  0.688014388084  0.0092038847506  0.0798628777266  
6.0753891468  -0.313264459372  -0.170936599374  -0.511799931526  0.686935782433  0.0241601988673  0.091775201261  
6.08348894119  -0.319515407085  -0.173621058464  -0.501113176346  0.681830525398  0.00752609362826  0.0977673083544  
6.09157896042  -0.324130147696  -0.175014421344  -0.492203325033  0.673609316349  0.00719053531066  0.106779448688  
6.09965610504  -0.327607184649  -0.177123650908  -0.480493932962  0.674879670143  0.00381098361686  0.113466642797  
6.10778594017  -0.333449095488  -0.178044036031  -0.469551533461  0.667401492596  0.0  0.12108861655  
6.1158721447  -0.342486798763  -0.180076569319  -0.461664319038  0.668695807457  -0.00795752555132  0.129333764315  
6.12396597862  -0.349351346493  -0.181917339563  -0.456001371145  0.660258889198  -0.00838895794004  0.146111682057  
6.13208913803  -0.351703464985  -0.180396139622  -0.446925312281  0.659204304218  -0.0234651137143  0.142684191465  
6.14018297195  -0.360498279333  -0.179130613804  -0.445723682642  0.652469158173  -0.00846086349338  0.159725755453  
6.14826607704  -0.369088560343  -0.178440317512  -0.4405592978  0.650431871414  -0.0315185114741  0.171566173434  
6.15635895729  -0.378215759993  -0.179526895285  -0.43276154995  0.649928510189  -0.0269884746522  0.188008531928  
6.16443014145  -0.381028056145  -0.178133517504  -0.425091654062  0.651678204536  -0.0259098950773  0.20133498311  
6.17255616188  -0.385105878115  -0.177430450916  -0.418175965548  0.649185478687  -0.0513404197991  0.21178522706  
6.18063402176  -0.390091329813  -0.176816850901  -0.409866899252  0.647363901138  -0.0454921200871  0.230480626225  
6.18871116638  -0.397007018328  -0.174656495452  -0.404817551374  0.64031714201  -0.0585549250245  0.246467575431  
6.19680094719  -0.400100558996  -0.171511843801  -0.395639210939  0.640964329243  -0.0601608119905  0.262598335743  
6.20488405228  -0.403667062521  -0.167191132903  -0.38644811511  0.633749783039  -0.0629171803594  0.274414807558  
6.21297216415  -0.407668173313  -0.165644362569  -0.382638722658  0.637177288532  -0.0779214352369  0.290425717831  
6.22108912468  -0.418840676546  -0.160032555461  -0.37138953805  0.626990675926  -0.0900254994631  0.30842602253  
6.22919917107  -0.424772083759  -0.161617666483  -0.362057834864  0.619896054268  -0.0889948606491  0.322207897902  
6.23731017113  -0.427379846573  -0.154497429729  -0.350067198277  0.612106323242  -0.10061955452  0.339201509953  
6.24540495872  -0.434627890587  -0.149128496647  -0.339942932129  0.601967632771  -0.101146861911  0.350562572479  
6.25346899033  -0.441134542227  -0.143401637673  -0.324500858784  0.59089422226  -0.112100444734  0.366477608681  
6.26160502434  -0.447334378958  -0.137099534273  -0.307767689228  0.578478574753  -0.111453294754  0.382943928242  
6.26969313622  -0.450415104628  -0.132305845618  -0.288938075304  0.569178819656  -0.128998205066  0.393609911203  
6.27778911591  -0.461510926485  -0.124776557088  -0.27000617981  0.556475520134  -0.125378966331  0.41194576025  
6.28587603569  -0.469794422388  -0.118090957403  -0.255356669426  0.535551071167  -0.140934497118  0.426542550325  
6.29396104813  -0.480736792088  -0.115853898227  -0.238201647997  0.520426988602  -0.156322240829  0.448545575142  
6.30206108093  -0.495565295219  -0.10997363925  -0.218464434147  0.502330780029  -0.160205125809  0.46570700407  
6.31012105942  -0.505919635296  -0.105844676495  -0.201871871948  0.488189399242  -0.17484985292  0.493893891573  
6.31828594208  -0.527139723301  -0.0979702398181  -0.167536273599  0.452979743481  -0.206991538405  0.533130228519  
6.32632708549  -0.535372078419  -0.0928441882133  -0.149831578135  0.432438790798  -0.223769456148  0.560142695904  
6.33439397812  -0.547733426094  -0.0866187810898  -0.130158275366  0.407943040133  -0.241601988673  0.586843550205  
6.34248113632  -0.559378862381  -0.0764178112149  -0.11342509836  0.385436654091  -0.248169332743  0.606833219528  
6.35056805611  -0.570001721382  -0.0669582635164  -0.097420565784  0.366094112396  -0.273575901985  0.635715246201  
6.35866904259  -0.574245691299  -0.0599914342165  -0.0823619887233  0.344354718924  -0.290425717831  0.650719463825  
6.36675310135  -0.577249765396  -0.0523726604879  -0.068747907877  0.320745795965  -0.303248852491  0.668959438801  
6.37485814095  -0.589611113071  -0.0401902981102  -0.0584063194692  0.308162361383  -0.322303771973  0.693599045277  
6.3829460144  -0.603838741779  -0.0278161857277  -0.0492152161896  0.287357747555  -0.341981858015  0.720755279064  
6.39100599289  -0.622936844826  -0.0150713613257  -0.0450223386288  0.264156281948  -0.369210004807  0.752441585064  
6.39910197258  -0.626055896282  -0.00588025990874  -0.0424784868956  0.253466367722  -0.391860187054  0.778231620789  
6.40720295906  -0.642661273479  0.0249144043773  -0.0412768684328  0.231319516897  -0.40935716033  0.810013771057  
6.41525697708  -0.642661273479  0.0387841500342  -0.0429003313184  0.219670847058  -0.435722470284  0.834701299667  
6.42332196236  -0.648055791855  0.058904863894  -0.0418393276632  0.195918112993  -0.458013117313  0.862169146538  
6.43139195442  -0.654664635658  0.0769291371107  -0.0455336645246  0.184581041336  -0.475605964661  0.881559610367  
6.4394929409  -0.652938961983  0.0991079434752  -0.0463390052319  0.15986956656  -0.492455780506  0.902532041073  
6.44759011269  -0.657055139542  0.120200179517  -0.0501739569008  0.151504576206  -0.505662381649  0.924103617668  
6.45569705963  -0.650254487991  0.145229637623  -0.0554278418422  0.13206616044  -0.521193981171  0.936423420906  
6.46376895905  -0.64411854744  0.171946465969  -0.0595568045974  0.111812822521  -0.530565619469  0.952793836594  
6.47186398506  -0.630581140518  0.196860864758  -0.0655776783824  0.102033697069  -0.539026498795  0.963196158409  
6.47994804382  -0.624803185463  0.223616048694  -0.0707932114601  0.0847764089704  -0.547175765038  0.97915917635  
6.4880759716  -0.618858993053  0.248159751296  -0.0734393298626  0.0698440670967  -0.549932122231  0.985151290894  
6.49616098404  -0.604848623276  0.275311201811  -0.0783097222447  0.0621262229979  -0.555253148079  0.99066400528  
6.50426602364  -0.594852209091  0.296889215708  -0.0787443518639  0.0424720942974  -0.558944284916  0.990975618362  
6.51236104965  -0.569145262241  0.320653110743  -0.0780157074332  0.0268926024437  -0.554917573929  0.996608197689  
6.5204501152  -0.537928700447  0.349044561386  -0.0772742852569  0.0167299788445  -0.549908161163  0.993372440338  
6.52851605415  -0.516184568405  0.370047301054  -0.0720971003175  0.014309165068  -0.535071671009  0.988315105438  
6.53664517403  -0.49151301384  0.391165107489  -0.0680448338389  -0.0204450879246  -0.535239458084  0.97460514307  
6.54474210739  -0.465921103954  0.405840188265  -0.0592755749822  -0.00788561999798  -0.524285912514  0.962237417698  
6.5528049469  -0.43983066082  0.423877239227  -0.0487933717668  -0.0484402403235  -0.510767698288  0.948143959045  
6.56089401245  -0.406274825335  0.437555253506  -0.0386563166976  -0.067806750536  -0.497441232204  0.923672199249  
6.56900906563  -0.372015923262  0.452422082424  -0.0274199079722  -0.0775619074702  -0.474143892527  0.902100563049  
6.57713699341  -0.333602488041  0.464847326279  -0.0160173159093  -0.0953225269914  -0.460553795099  0.880049586296  
6.58526110649  -0.301542282104  0.474127918482  -0.00538171594962  -0.119314946234  -0.440348386765  0.848483145237  
6.59354114532  -0.268127053976  0.478538095951  0.0198139194399  -0.13499031961  -0.41841724515  0.820535957813  
6.60160303116  -0.231848418713  0.477809458971  0.0299893245101  -0.157568588853  -0.398187875748  0.784127891064  
6.60969114304  -0.191926568747  0.484264969826  0.0411362536252  -0.180602282286  -0.376808017492  0.749277710915  
6.61777615547  -0.151045978069  0.48394536972  0.0508898124099  -0.199369579554  -0.350898116827  0.716728568077  
6.62586212158  -0.110510535538  0.481222569942  0.0594545416534  -0.221732139587  -0.330333203077  0.680775880814  
6.63395309448  -0.0705503374338  0.481388747692  0.0692208856344  -0.240115940571  -0.31101462245  0.638016164303  
6.64201307297  -0.0337475799024  0.474779844284  0.0767629593611  -0.253538280725  -0.28333106637  0.595855712891  
6.65004706383  -0.0115432059392  0.468937933445  0.0837936997414  -0.267368078232  -0.259122908115  0.55448615551  
6.65816307068  0.0297336615622  0.460309296846  0.0890987217426  -0.276907503605  -0.234555259347  0.514506757259  
6.66628694534  0.0682237967849  0.452204763889  0.0903131216764  -0.289946347475  -0.21351096034  0.475725799799  
6.67441511154  0.0948511511087  0.443972408772  0.0914380401373  -0.297903865576  -0.1823759377  0.438886314631  
6.68257498741  0.129429638386  0.437043905258  0.0903514698148  -0.303392648697  -0.159629881382  0.394784361124  
6.69058895111  0.163279473782  0.429335653782  0.0887535735965  -0.313339561224  -0.14587199688  0.354349583387  
6.69870495796  0.195953264832  0.419070780277  0.0838320553303  -0.314729720354  -0.116918101907  0.315736413002  
6.70679306984  0.229688063264  0.411298602819  0.0830906257033  -0.321177244186  -0.0975276231766  0.279400229454  
6.71485710144  0.263652950525  0.403257995844  0.0785526037216  -0.312788277864  -0.0701077207923  0.241913571954  
6.72294712067  0.299893260002  0.398541003466  0.0784886851907  -0.314729720354  -0.0370072871447  0.210083469748  
6.73106408119  0.333602488041  0.388621270657  0.0753184556961  -0.308569848537  -0.0117685096338  0.168881699443  
6.73915195465  0.367235004902  0.384057670832  0.0726084262133  -0.298766732216  0.00290018250234  0.137267321348  
6.74725413322  0.404702484608  0.3805167377  0.068683989346  -0.291384458542  0.0626055970788  0.104814037681  
6.75534415245  0.446925312281  0.373933404684  0.0633917599916  -0.282875657082  0.0757642760873  0.0649305358529  
6.76341295242  0.482948303223  0.362057834864  0.0595056712627  -0.275828927755  0.0891386717558  0.0190309491009  
6.7714779377  0.505306065083  0.351268827915  0.0569234713912  -0.269189685583  0.125738486648  0.00994690693915  
6.77958106995  0.5228317976  0.339252650738  0.0508898124099  -0.256486386061  0.134031578898  -0.0348740965128  
6.78767704964  0.536305248737  0.327658295631  0.0482692644  -0.243016123772  0.16018114984  -0.0754047483206  
6.79573702812  0.549420773983  0.321177244186  0.0439613349736  -0.232086509466  0.184005796909  -0.0704193115234  
6.80383610725  0.615765452385  0.328936606646  0.0318940170109  -0.223409935832  0.224272787571  -0.136524289846  
6.8119289875  0.664328753948  0.327223688364  0.0198011361063  -0.213822543621  0.268782198429  -0.193880796432  
6.82002401352  0.717915832996  0.327364295721  0.0107634318992  -0.201958164573  0.311685740948  -0.257996410131  
6.82811307907  0.752289772034  0.330764621496  0.00313187739812  -0.191795542836  0.350442707539  -0.322064071894  
6.83620595932  0.788760125637  0.332605391741  -0.0229713618755  -0.180506408215  0.38620364666  -0.38006773591  
6.84429216385  0.836045086384  0.336223036051  -0.0312676429749  -0.17106282711  0.423067122698  -0.439821064472  
6.85239815712  0.865331351757  0.332247465849  -0.0379021093249  -0.158000022173  0.457030415535  -0.503984630108  
6.86057114601  0.898951113224  0.327466547489  -0.0471571274102  -0.142923876643  0.487566232681  -0.563977658749  
6.86857700348  0.92620486021  0.322851836681  -0.0578182935715  -0.143738806248  0.52785718441  -0.626990675926  
6.87666201591  0.948255836964  0.312216222286  -0.0632383599877  -0.123964823782  0.554749786854  -0.690722823143  
6.88474917412  0.969718754292  0.306323200464  -0.0728640854359  -0.108744859695  0.574931204319  -0.746329605579  
6.89281916618  0.98285984993  0.297758460045  -0.0798564851284  -0.103831328452  0.600625395775  -0.80332660675  
6.90091896057  1.00240528584  0.289372712374  -0.0873985588551  -0.0916793271899  0.612609624863  -0.855050504208  
6.90902495384  1.02016115189  0.28158774972  -0.0907477512956  -0.0777296870947  0.643648803234  -0.900566577911  
6.91712403297  1.02016115189  0.265135794878  -0.0952090770006  -0.0734393298626  0.657023191452  -0.954040229321  
6.92524600029  1.01649236679  0.250179499388  -0.105026550591  -0.0584590509534  0.668575942516  -0.99929267168  
6.93337607384  1.01949644089  0.240809425712  -0.110037557781  -0.0440779812634  0.677588105202  -1.03754627705  
6.94144105911  1.02622044086  0.221212819219  -0.113335616887  -0.0367196649313  0.697793483734  -1.06882512569  
6.94957995415  1.02049350739  0.203520908952  -0.118116520345  -0.0307754911482  0.699926674366  -1.10353147984  
6.95763397217  1.00369644165  0.183285146952  -0.125786423683  -0.0194144453853  0.709801673889  -1.12932145596  
6.9657189846  0.998544812202  0.170374140143  -0.131960704923  -0.0204930249602  0.715074777603  -1.15403294563  
6.97380805016  0.994390308857  0.148156985641  -0.136012971401  -0.00762196723372  0.718262553215  -1.17943954468  
6.98190116882  0.969386398792  0.128854393959  -0.142212808132  -0.00390685768798  0.720323860645  -1.20002841949  
6.98998999596  0.948255836964  0.10874645412  -0.150330126286  -0.00390685768798  0.718406379223  -1.21807670593  
6.99808502197  0.945711970329  0.0931382030249  -0.154919281602  0.0200855620205  0.726843297482  -1.23588526249  
7.00614094734  0.928032815456  0.0757658705115  -0.15578854084  0.00989896990359  0.72681927681  -1.249786973  
7.01423597336  0.897110342979  0.0366237908602  -0.162499696016  0.00915594864637  0.716752529144  -1.27102303505  
7.02234101295  0.89089769125  0.022613434121  -0.160658925772  0.0284026134759  0.725836575031  -1.28657853603  
7.03035712242  0.884212136269  0.0062765381299  -0.155379474163  0.0237527340651  0.723583579063  -1.29731631279  
7.03853297234  0.869255781174  -0.00985582638532  -0.153692096472  0.027923244983  0.720084190369  -1.30335640907  
7.04656004906  0.855731189251  -0.0254129488021  -0.148374289274  0.0383495204151  0.724997699261  -1.30297291279  
7.05460000038  0.850579559803  -0.0359718501568  -0.146789178252  0.0183358639479  0.718933701515  -1.31176936626  
7.06269407272  0.848879396915  -0.0439357683063  -0.139515548944  0.0396438166499  0.717255890369  -1.30735909939  
7.07077598572  0.830586671829  -0.0505702346563  -0.134274452925  0.0211401730776  0.707356929779  -1.30429112911  
7.07886695862  0.81151419878  -0.0603365786374  -0.126706808805  0.0352336242795  0.70153260231  -1.28490066528  
7.08695697784  0.791086673737  -0.0689013078809  -0.12151684612  0.026964507997  0.682190060616  -1.26196289062  
7.0950460434  0.829781353474  -0.0738356113434  -0.117247268558  0.00788561999798  0.712462186813  -1.31800115108  
7.10312414169  0.841298997402  -0.0771848037839  -0.106496617198  -0.0123916892335  0.7186460495  -1.34395897388  
7.11120915413  0.861521959305  -0.0816077813506  -0.0989545434713  -0.0261735487729  0.738132417202  -1.36646533012  
7.11930298805  0.869255781174  -0.0857239589095  -0.0909139290452  -0.0332202725112  0.747048676014  -1.40464711189  
7.12736701965  0.888379454613  -0.0864781662822  -0.0884467810392  -0.0541447289288  0.752489507198  -1.4336489439  
7.1355471611  0.916591882706  -0.0871045440435  -0.0831545442343  -0.0612393915653  0.77152043581  -1.46437644958  
7.14361906052  0.92680567503  -0.0879482328892  -0.0761877149343  -0.076603166759  0.781275629997  -1.48930370808  
7.15163898468  0.946581244469  -0.0880249291658  -0.0705631151795  -0.0966407954693  0.792564749718  -1.51451849937  
7.15973711014  0.960169732571  -0.0872835069895  -0.0666642487049  -0.11699000746  0.806274712086  -1.54435920715  
7.16786193848  0.98048222065  -0.0824258998036  -0.0606433749199  -0.142588317394  0.811691582203  -1.57233035564  
7.17599105835  1.00792765617  -0.0752928927541  -0.0563865788281  -0.164855003357  0.82477837801  -1.59977424145  
7.18408703804  1.02453303337  -0.0723527595401  -0.0486144088209  -0.189734250307  0.828301727772  -1.61612069607  
7.19218611717  1.03681766987  -0.0699750930071  -0.0465179681778  -0.2119050771  0.840669453144  -1.63364171982  
7.20028209686  1.06087553501  -0.0634940192103  -0.0408294573426  -0.245628684759  0.847260773182  -1.65873658657  
7.20838093758  1.0854831934  -0.0562587454915  -0.0336836613715  -0.273767650127  0.85318094492  -1.67275822163  
7.21653413773  1.097422719  -0.0531268678606  -0.0275477394462  -0.302601695061  0.859820246696  -1.68754673004  
7.22466611862  1.10492634773  -0.0513755753636  -0.0239812340587  -0.337907224894  0.860563278198  -1.69459342957  
