Ethan-CYM/ros_catkin_ws/test/servol_正常操作/ur_joint_target_degree.txt
time  shoulder_pan_joint  shoulder_lift_joint  elbow_joint  wrist_1_joint  wrist_2_joint  wrist_3_joint
0.147970914841  1.57063341486  -1.22160105753  2.09417839063  -3.14376180752  -1.57070668933  -0.0371542578625  
0.156065940857  1.57060229046  -1.22157633973  2.09413698773  -3.14417609746  -1.57068619107  -0.0442527403223  
0.164242982864  1.57056984397  -1.22155057197  2.09409382613  -3.14460798552  -1.57066617418  -0.0516533671315  
0.172243118286  1.57053637943  -1.22152399571  2.09404931027  -3.1450534246  -1.57064568398  -0.0592867435345  
0.180588006973  1.5705021836  -1.22149683869  2.09400382163  -3.14551360609  -1.5706234213  -0.0670874172459  
0.188655138016  1.57046752552  -1.22146931458  2.09395771808  -3.14598244627  -1.57059966193  -0.0749939786787  
0.196532964706  1.57043265622  -1.22144162271  2.09391133356  -3.14645343697  -1.5705771742  -0.0829491282963  
0.204591035843  1.57039780853  -1.22141394801  2.09386497779  -3.14692348762  -1.57055495745  -0.0908997132241  
0.212656021118  1.5703631971  -1.22138646094  2.09381893629  -3.1473897534  -1.57053166542  -0.0987967352777  
0.220768928528  1.57032901843  -1.22135931755  2.09377347047  -3.14784963382  -1.57050752618  -0.106595332579  
0.228765010834  1.57029545108  -1.22133265965  2.09372881786  -3.14830577832  -1.57048526  -0.114254736922  
0.236814975739  1.57026265597  -1.22130661503  2.09368519251  -3.14875356274  -1.5704663228  -0.121738209041  
0.244924068451  1.57023077672  -1.22128129775  2.09364278547  -3.14918793083  -1.57044806905  -0.129012953891  
0.253065109253  1.57019994011  -1.22125680849  2.09360176539  -3.14960722782  -1.57043160052  -0.13605001802  
0.261130094528  1.57017025662  -1.221233235  2.09356227924  -3.15001502934  -1.57041583933  -0.14282417107  
0.269248962402  1.57014182098  -1.22121065251  2.09352445303  -3.15040761372  -1.57039936526  -0.149313773359  
0.277434110641  1.57008899741  -1.22116870206  2.09345418503  -3.15114629917  -1.57037116261  -0.161369843579  
0.285491943359  1.5700647262  -1.22114942679  2.09342189851  -3.15148529799  -1.57035688736  -0.166909636555  
0.293568134308  1.57004193775  -1.22113132908  2.09339158441  -3.1518023687  -1.57034214983  -0.172111196028  
0.301660060883  1.57002065841  -1.22111442984  2.09336327779  -3.15209724543  -1.57032958204  -0.176968491467  
0.309765100479  1.57000090312  -1.22109874094  2.09333699852  -3.15236982071  -1.57032055669  -0.181478097494  
0.317799091339  1.56998267618  -1.22108426581  2.09331275233  -3.15262013387  -1.57031235014  -0.185639012898  
0.32589006424  1.5699659721  -1.22107100007  2.0932905319  -3.15284835935  -1.57030348664  -0.189452478662  
0.334029912949  1.56995077634  -1.22105893217  2.09327031789  -3.15305980356  -1.57029407221  -0.19292179619  
0.342080116272  1.56993706613  -1.22104804405  2.09325208003  -3.15325237404  -1.57028671272  -0.196052146863  
0.350153923035  1.56992481125  -1.22103831169  2.0932357781  -3.15341840563  -1.57028025279  -0.198850413927  
0.358251094818  1.56991397479  -1.22102970579  2.09322136302  -3.15356101104  -1.57027570422  -0.20132500765  
0.366430997849  1.5699045139  -1.22102219232  2.09320877777  -3.15368404991  -1.57027440998  -0.203485694568  
0.374509096146  1.56989638053  -1.22101573311  2.09319795844  -3.15378827748  -1.57027612546  -0.205343431572  
0.382609128952  1.5698895221  -1.22101028641  2.09318883509  -3.15387450711  -1.57027810172  -0.206910205483  
0.39064002037  1.56988388221  -1.22100580742  2.09318133268  -3.15394360077  -1.57028134777  -0.208198878691  
0.398728132248  1.56987940127  -1.22100224883  2.09317537196  -3.15399645986  -1.57028470335  -0.209223041341  
0.406800031662  1.56987601713  -1.22099956128  2.09317087024  -3.15403902494  -1.57028667601  -0.209996870475  
0.414854049683  1.56987366564  -1.22099769382  2.0931677422  -3.15406974828  -1.57028736086  -0.210534996469  
0.422945022583  1.56987228124  -1.22099659438  2.09316590061  -3.15408643275  -1.57028685363  -0.210852377022  
0.430998086929  1.56987179744  -1.22099621016  2.09316525704  -3.15409006466  -1.57028525001  -0.210964178895  
0.439157009125  1.56987214733  -1.22099648803  2.09316572248  -3.15408163474  -1.57028264506  -0.210885667541  
0.447248935699  1.56987326402  -1.22099737486  2.09316720794  -3.15406213171  -1.57028163735  -0.210632104677  
0.455502986908  1.56987508104  -1.22099881787  2.09316962502  -3.15403253626  -1.57028106761  -0.210218653841  
0.463539123535  1.56987753275  -1.22100076493  2.09317288638  -3.15399882396  -1.57027944224  -0.209660293891  
0.471635103226  1.56988055467  -1.22100316482  2.09317690625  -3.15395944102  -1.57027685329  -0.208971740357  
0.479645967484  1.56988408376  -1.22100596748  2.09318160079  -3.15391214641  -1.57027339163  -0.208167374541  
0.487730026245  1.56988805874  -1.22100912426  2.09318688847  -3.15385784792  -1.57027165115  -0.207261180192  
0.49587893486  1.56989242033  -1.22101258807  2.09319269043  -3.15379742631  -1.57027297217  -0.206266687568  
0.503925085068  1.56989711144  -1.22101631357  2.09319893072  -3.153731732  -1.57027209997  -0.205196924649  
0.511995077133  1.56990207736  -1.22102025732  2.09320553659  -3.15366158211  -1.57026878845  -0.204064375265  
0.520117998123  1.56990726595  -1.22102437789  2.09321243865  -3.15358775798  -1.57026471037  -0.202880943845  
0.528141975403  1.5699126277  -1.22102863599  2.09321957106  -3.15351100311  -1.57025995056  -0.201657926499  
0.536278963089  1.56991811588  -1.22103299449  2.09322687167  -3.15343202147  -1.5702545915  -0.200405988127  
0.544369935989  1.56992368663  -1.22103741857  2.09323428209  -3.15335147619  -1.57025121761  -0.199135145217  
0.552503108978  1.56992929894  -1.22104187565  2.09324174781  -3.15326998864  -1.57024865422  -0.197854754008  
0.56069111824  1.56993491475  -1.22104633551  2.09324921818  -3.1531881378  -1.57024789582  -0.196573503665  
0.568714141846  1.56994049893  -1.22105077025  2.09325664648  -3.15310645996  -1.57024776548  -0.195299414132  
0.576794147491  1.56994601928  -1.2210551543  2.09326398987  -3.15302544868  -1.57024925679  -0.194035830894  
0.584872961044  1.56995144648  -1.22105946437  2.09327120934  -3.1529455551  -1.5702536977  -0.192791448329  
0.592957019806  1.56995675407  -1.22106367946  2.09327826971  -3.15286718838  -1.57026083168  -0.191574841232  
0.601037979126  1.56996191839  -1.22106778077  2.0932851395  -3.15279071644  -1.57027040538  -0.190391405323  
0.609211921692  1.56996691852  -1.22107175167  2.09329179086  -3.15271646687  -1.57027966531  -0.189245911535  
0.617173910141  1.56997173614  -1.22107557765  2.09329819946  -3.15264472805  -1.57028711523  -0.188142524901  
0.625306129456  1.56997635554  -1.2210792462  2.09330434436  -3.15257575038  -1.5702928494  -0.18708482574  
0.633512973785  1.56998076343  -1.22108274677  2.0933102079  -3.15251475604  -1.57029947009  -0.186075832823  
0.641459941864  1.56998494885  -1.22108607068  2.09331577552  -3.15245942123  -1.57030582584  -0.185118028229  
0.649605035782  1.56998890311  -1.221089211  2.09332103563  -3.15240672437  -1.57031293929  -0.184213383599  
0.657613039017  1.5699926196  -1.22109216249  2.09332597945  -3.15235678778  -1.57031966595  -0.183367394991  
0.665729045868  1.56999609371  -1.2210949215  2.09333060085  -3.15230970715  -1.57032453096  -0.182579093789  
0.673799037933  1.56999932269  -1.22109748583  2.09333489617  -3.15227056138  -1.57033015328  -0.181846553903  
0.681921005249  1.57000230553  -1.22109985469  2.09333886407  -3.15223689483  -1.57033539772  -0.181169993655  
0.689974069595  1.57000504283  -1.22110202854  2.09334250532  -3.15220556538  -1.57034130257  -0.180549266929  
0.698041915894  1.57000753664  -1.22110400903  2.09334582269  -3.15217658609  -1.57034924304  -0.179983892374  
0.706159114838  1.5700097904  -1.22110579888  2.09334882073  -3.1521499544  -1.57035650716  -0.17947308241  
0.714246034622  1.57001180874  -1.22110740177  2.09335150561  -3.15212565336  -1.57036414386  -0.179015771896  
0.722290039062  1.57001359742  -1.22110882227  2.09335388498  -3.1521036529  -1.57037353994  -0.178610646285  
0.730417966843  1.57001516317  -1.22111006573  2.0933559678  -3.15208391098  -1.57038199586  -0.178256169148  
0.738599061966  1.57001651356  -1.22111113816  2.09335776415  -3.15206637482  -1.57038806897  -0.177950608937  
0.746659994125  1.57001765694  -1.22111204619  2.09335928512  -3.15205599038  -1.57039441121  -0.177692064878  
0.754735946655  1.57001860228  -1.22111279694  2.09336054264  -3.15205018429  -1.5703999208  -0.177478491912  
0.762866973877  1.57001935908  -1.22111339796  2.09336154937  -3.15204070215  -1.57040316504  -0.177303717186  
0.770951986313  1.57001993729  -1.22111385715  2.09336231853  -3.15202997123  -1.57040429967  -0.177167480026  
0.779108047485  1.57002034718  -1.22111418267  2.09336286378  -3.15202108135  -1.5704034814  -0.177069975362  
0.787145137787  1.57002059927  -1.22111438287  2.09336319911  -3.15201394477  -1.57040086694  -0.177008801571  
0.795247077942  1.57002070424  -1.22111446624  2.09336333876  -3.15200846967  -1.57039911659  -0.176981517952  
0.803453922272  1.57002067288  -1.22111444133  2.09336329703  -3.15200456107  -1.57039963726  -0.176985662909  
0.811640977859  1.57002051594  -1.2211143167  2.09336308827  -3.1520021216  -1.57039974479  -0.177018770854  
0.819628953934  1.57002024417  -1.22111410087  2.09336272675  -3.15200606072  -1.57039800744  -0.177078387823  
0.827690124512  1.57001986816  -1.22111380225  2.09336222656  -3.15201377616  -1.57039457922  -0.177162085806  
0.835780143738  1.57001939833  -1.22111342913  2.09336160158  -3.1520270095  -1.57039211731  -0.177271483251  
0.843821048737  1.57001884489  -1.22111298961  2.09336086537  -3.1520431676  -1.57038952048  -0.177402239568  
0.851964950562  1.57001821776  -1.22111249157  2.09336003114  -3.15205899737  -1.57038535217  -0.177549543939  
0.860050916672  1.57001752655  -1.22111194264  2.09335911167  -3.15207442606  -1.57037976027  -0.17771119733  
0.868185043335  1.57001678054  -1.22111135018  2.09335811929  -3.15208938901  -1.57037289001  -0.17788508235  
0.876303911209  1.5700159886  -1.22111072126  2.09335706583  -3.15210382951  -1.57036488326  -0.178073177511  
0.884541988373  1.57001515922  -1.2211100626  2.09335596255  -3.15212270683  -1.5703583826  -0.178271545651  
0.892589092255  1.57001430046  -1.2211093806  2.09335482019  -3.15213846744  -1.57035477459  -0.178475816875  
0.900635004044  1.57001341991  -1.2211086813  2.09335364885  -3.15215041274  -1.57035385708  -0.178684264921  
0.908672094345  1.57001252475  -1.2211079704  2.09335245807  -3.15216169106  -1.57035542689  -0.178895271611  
0.91678404808  1.57001162166  -1.2211072532  2.09335125675  -3.15217228417  -1.57035677654  -0.179107328509  
0.924807071686  1.57001071687  -1.22110653464  2.09335005315  -3.15218217949  -1.5703564516  -0.179319037761  
0.932891130447  1.57000981611  -1.2211058193  2.09334885493  -3.15219136978  -1.57035207992  -0.179529112188  
0.94095993042  1.57000892468  -1.22110511136  2.09334766911  -3.15220486106  -1.5703450441  -0.179736374687  
0.949088096619  1.57000804738  -1.22110441464  2.09334650209  -3.15222015309  -1.57033956215  -0.179939756989  
0.957206964493  1.57000718855  -1.22110373259  2.09334535965  -3.15223408542  -1.57033701059  -0.180138297845  
0.965302944183  1.57000554148  -1.22110242455  2.09334316865  -3.15225795407  -1.57033734698  -0.180517530784  
0.973505973816  1.57000475972  -1.22110180371  2.09334212872  -3.15226794838  -1.57033605384  -0.180696812099  
0.981553077698  1.57000400943  -1.22110120786  2.09334113066  -3.15227669757  -1.57033341991  -0.180868423619  
0.989548921585  1.57000329282  -1.22110063875  2.0933401774  -3.15228424399  -1.57032956564  -0.1810318955  
0.997594118118  1.57000261173  -1.22110009786  2.09333927138  -3.15229063417  -1.57032460968  -0.181186844901  
1.0056450367  1.57000196763  -1.22109958634  2.09333841457  -3.15229591821  -1.57031866832  -0.181336979047  
1.01370310783  1.57000136164  -1.22109910508  2.09333760846  -3.15230014917  -1.57031185495  -0.181480073406  
1.02178907394  1.57000079457  -1.22109865474  2.09333685412  -3.15230338254  -1.57030427955  -0.181613445204  
1.02987098694  1.57000026692  -1.2210982357  2.09333615222  -3.15230567571  -1.5702960483  -0.181737021329  
1.03796601295  1.56999977889  -1.22109784813  2.09333550303  -3.15230708742  -1.57028726321  -0.181850795149  
1.04607009888  1.56999933045  -1.22109749199  2.0933349065  -3.15230767734  -1.57027802182  -0.181954821394  
1.05414509773  1.56999892131  -1.22109716707  2.09333436224  -3.1523075056  -1.57027092154  -0.182049211053  
1.0623819828  1.56999855095  -1.22109687294  2.09333386957  -3.15230663241  -1.57026479874  -0.182134126316  
1.0704460144  1.56999821866  -1.22109660905  2.09333342755  -3.15230511763  -1.57025815239  -0.182209775593  
1.07850003242  1.56999792355  -1.22109637469  2.09333303498  -3.15230302047  -1.57025106441  -0.182276408635  
1.08649396896  1.56999766457  -1.22109616901  2.09333269047  -3.15230039918  -1.57024361307  -0.182334311769  
1.0946199894  1.56999744051  -1.22109599107  2.09333239242  -3.15229731069  -1.57023587283  -0.182383803286  
1.10262393951  1.56999725006  -1.22109583983  2.09333213908  -3.1522988188  -1.57022791417  -0.182425228981  
1.11076593399  1.5699970918  -1.22109571414  2.09333192855  -3.15230247471  -1.57021980345  -0.182458957871  
1.11879706383  1.56999696419  -1.2210956128  2.0933317588  -3.15230516324  -1.57021160282  -0.182485378105  
1.12719106674  1.56999686567  -1.22109553455  2.09333162774  -3.15231195113  -1.57020587479  -0.182504893067  
1.13524007797  1.56999679457  -1.22109547809  2.09333153316  -3.15232039542  -1.57020142149  -0.182517917687  
1.14343500137  1.56999674921  -1.22109544207  2.09333147283  -3.15232738937  -1.57019670845  -0.182524874973  
1.15153312683  1.56999672789  -1.22109542513  2.09333144446  -3.15233300214  -1.57019178508  -0.182526192758  
1.15964698792  1.56999672885  -1.2210954259  2.09333144574  -3.15233730612  -1.57018669829  -0.182522300666  
1.16768503189  1.56999675037  -1.22109544299  2.09333147437  -3.15234538453  -1.57018399697  -0.182513627308  
1.17580008507  1.56999679072  -1.22109547503  2.09333152804  -3.15235481162  -1.5701824712  -0.182500597703  
1.18399906158  1.56999684818  -1.22109552066  2.09333160448  -3.15236249843  -1.57018057606  -0.182483630914  
1.19207906723  1.56999692107  -1.22109557855  2.09333170144  -3.15236853235  -1.57018085661  -0.182463137912  
1.20011305809  1.56999700774  -1.22109564738  2.09333181673  -3.15237300423  -1.57018460535  -0.182439519651  
1.20827102661  1.56999710658  -1.22109572588  2.09333194821  -3.15237600758  -1.57019152979  -0.18241316536  
1.21641898155  1.56999721603  -1.2210958128  2.09333209381  -3.15237763776  -1.57020134038  -0.182384451032  
1.2246389389  1.5699973346  -1.22109590696  2.09333225153  -3.15237799126  -1.57021375219  -0.182353738125  
1.23263812065  1.56999746083  -1.22109600721  2.09333241945  -3.15237716499  -1.57022848623  -0.182325379871  
1.24070692062  1.56999759335  -1.22109611245  2.09333259573  -3.15237525567  -1.57024276612  -0.182297703123  
1.24881696701  1.56999773084  -1.22109622164  2.09333277863  -3.15237235923  -1.57025757997  -0.182268485725  
1.25695705414  1.56999787208  -1.2210963338  2.0933329665  -3.15236857028  -1.57027425752  -0.182238028646  
1.26494598389  1.56999801588  -1.22109644801  2.0933331578  -3.15236398162  -1.57029255056  -0.182206617183  
1.27300095558  1.56999816116  -1.22109656338  2.09333335106  -3.15235868383  -1.57031222012  -0.182174520412  
1.28113293648  1.5699983069  -1.22109667913  2.09333354493  -3.15235276485  -1.57033303724  -0.182137983398  
1.28924798965  1.569996438  -1.22113476611  2.09332579454  -3.15235131795  -1.5703472702  -0.182087221769  
1.2972741127  1.56998751795  -1.22126379689  2.09329338715  -3.15236193996  -1.5703409341  -0.181994929158  
1.30546402931  1.56996778238  -1.22152973216  2.09321666279  -3.15239156356  -1.57029728981  -0.181830820491  
1.31348013878  1.5699410451  -1.22197411477  2.09307683053  -3.15243143753  -1.57020217055  -0.181557726388  
1.32155203819  1.56991036892  -1.22263415485  2.09285535298  -3.152474666  -1.57004679687  -0.181131009052  
1.32960796356  1.56987826372  -1.22354083639  2.09253310698  -3.15251070264  -1.56982240319  -0.180504101157  
1.3377199173  1.56985024444  -1.22472203816  2.09209374414  -3.1525240115  -1.56952237456  -0.179636959465  
1.34583210945  1.56983053477  -1.22619894166  2.09152543878  -3.15249539399  -1.56914254199  -0.178496481644  
1.35388898849  1.56982180248  -1.22798691283  2.09082380392  -3.15240447686  -1.56868205988  -0.177061846684  
1.36194109917  1.56982644038  -1.23009619546  2.08999001353  -3.15222784552  -1.56814211252  -0.175308336508  
1.37002801895  1.56984858623  -1.23252907945  2.08902849519  -3.1519365  -1.56752678995  -0.17321612272  
1.37803792953  1.5698931247  -1.23527733744  2.08794345302  -3.15150648629  -1.56683929085  -0.170773700359  
1.3862080574  1.56996039422  -1.23832392348  2.08674178351  -3.15091448819  -1.5660865597  -0.167980645568  
1.39429712296  1.57004821257  -1.24164093449  2.08543242687  -3.15014208858  -1.56527332384  -0.164843426294  
1.40248012543  1.57015443937  -1.24519228775  2.08402428868  -3.14918135453  -1.56440640215  -0.161374152587  
1.41051912308  1.57027497198  -1.24894091223  2.08252938677  -3.1480290638  -1.56349283908  -0.157596410657  
1.41865897179  1.57040476084  -1.25284939179  2.08096120806  -3.14668343428  -1.56253795902  -0.153530538068  
1.42669200897  1.5705370772  -1.25687905629  2.07933104687  -3.14514903123  -1.56154692931  -0.149204421891  
1.43480491638  1.57066653636  -1.26099431652  2.07764877395  -3.14343416304  -1.56052724491  -0.144648415746  
1.4428589344  1.57078936571  -1.26516298242  2.0759222223  -3.14155262257  -1.55948745991  -0.139893609912  
1.45092201233  1.57090011301  -1.26935503138  2.07415476494  -3.13951608454  -1.55843558915  -0.134972255723  
1.45911097527  1.57099063372  -1.27354462513  2.07234790383  -3.13733335273  -1.55737659562  -0.129915134614  
1.46711492538  1.57105437823  -1.27770711536  2.07050167121  -3.13501846369  -1.55631363812  -0.124751481894  
1.47520399094  1.57108463422  -1.28181876788  2.06861540686  -3.13258811094  -1.55525215943  -0.119512931668  
1.48332691193  1.57107424203  -1.28585800661  2.06668715377  -3.13005339954  -1.55419863378  -0.114231467746  
1.49137997627  1.57101886378  -1.28980537995  2.06471603136  -3.12742730409  -1.55315647881  -0.108940864759  
1.49944806099  1.57091394029  -1.29364351661  2.06270083057  -3.12472528515  -1.55212981772  -0.10367066574  
1.50769305229  1.57075439751  -1.29735707194  2.06063818019  -3.12196207379  -1.55112382059  -0.0984496599361  
1.51564407349  1.57053790847  -1.30093266587  2.05852113793  -3.11915163732  -1.55014312789  -0.0933024299217  
1.52374792099  1.57026184239  -1.3043588134  2.05634017655  -3.11630715187  -1.54919436736  -0.0882528582709  
1.53181505203  1.56992498021  -1.30762584883  2.05408437648  -3.11343597284  -1.54828241257  -0.0833207009445  
1.53990793228  1.56952775138  -1.31072784279  2.05174160208  -3.11054212489  -1.54741006707  -0.0785251177236  
1.54803013802  1.56907294106  -1.31366351676  2.04930186696  -3.10763947908  -1.54657967096  -0.0738812668737  
1.5561170578  1.56856465208  -1.31643389156  2.0467558996  -3.10473671784  -1.54579312221  -0.0694038543744  
1.56434893608  1.56800700044  -1.31904892889  2.04410127014  -3.10183098839  -1.5450493947  -0.0651037458043  
1.57245111465  1.5674040895  -1.32152145256  2.04133375919  -3.09892176174  -1.54434831759  -0.0609955353048  
1.58049201965  1.56676199897  -1.32386300788  2.03845282979  -3.09600648833  -1.54369093173  -0.0570921674378  
1.58847403526  1.566085742  -1.32608305856  2.03546561269  -3.09308493645  -1.54307792596  -0.0534019697008  
1.59660005569  1.56538099215  -1.32818192645  2.03239237765  -3.09016987616  -1.54250966014  -0.0499312998781  
1.60459494591  1.56465030773  -1.33017997279  2.02921579433  -3.08723381625  -1.54198117925  -0.0466806528453  
1.61270093918  1.56389587078  -1.33209862288  2.02591928714  -3.08425023996  -1.54148724427  -0.0436507853167  
1.62084794044  1.56312303198  -1.3339511266  2.02250548907  -3.0812096147  -1.54102427209  -0.0408433654065  
1.62892007828  1.56233801724  -1.33575011535  2.01897782584  -3.07810350238  -1.54058626074  -0.0382585509064  
1.63700699806  1.56154664469  -1.33750557403  2.01533922903  -3.07492953538  -1.54016856045  -0.0358951055553  
1.64508199692  1.56075432029  -1.33922781333  2.01159468832  -3.07168386852  -1.53977072411  -0.0337505149363  
1.65324306488  1.5599660362  -1.34092571898  2.00775039604  -3.06835546425  -1.53938866995  -0.0318170939113  
1.66124200821  1.55918637198  -1.34261046742  2.00381108933  -3.06493172958  -1.53902061801  -0.0300921168753  
1.66955208778  1.55766716789  -1.34597441897  1.99566378242  -3.05777322564  -1.53832611476  -0.0272375624673  
1.67749810219  1.55693174556  -1.3476676535  1.99146613686  -3.05403276151  -1.53799398941  -0.0260927690124  
1.68552803993  1.55621648363  -1.3493750643  1.98719329808  -3.05018296189  -1.53767020788  -0.0251307301782  
1.69355607033  1.55552425693  -1.3511007819  1.98284981973  -3.04621653512  -1.53735466936  -0.0243455712204  
1.7016479969  1.55485757414  -1.35284850303  1.97844034043  -3.04213749768  -1.537046188  -0.0237284344349  
1.70972204208  1.55421859059  -1.35461950187  1.9739711431  -3.03794608778  -1.53674216303  -0.0232660993786  
1.71782803535  1.5536091224  -1.35641364227  1.96944932519  -3.03364237984  -1.53644016792  -0.0229470773514  
1.72594213486  1.55303066143  -1.35823065456  1.96488016277  -3.02922505574  -1.53613795191  -0.0227622230016  
1.73411297798  1.5524843913  -1.36007214672  1.96026948214  -3.02469568824  -1.53583844961  -0.0227022681141  
1.74211406708  1.55197120388  -1.36193861911  1.95562225019  -3.02005434021  -1.53553976338  -0.0227618960747  
1.75025606155  1.55149171648  -1.36383120881  1.95094074679  -3.01529883881  -1.53523825302  -0.022929786983  
1.75848293304  1.55104628927  -1.36574997162  1.94622635392  -3.01043289826  -1.5349345462  -0.0231941529567  
1.76653909683  1.55063504304  -1.36769562741  1.9414805514  -3.00545854613  -1.53462819451  -0.0235458634323  
1.77467012405  1.55025787705  -1.36966784236  1.93670489816  -3.00038040884  -1.53431232821  -0.0239759544855  
1.78274798393  1.5499144868  -1.37166697459  1.9319010184  -2.99520131461  -1.53398275253  -0.0244756715375  
1.79085302353  1.54960438178  -1.37369635343  1.92707218521  -2.98992658204  -1.53363610518  -0.0250405148383  
1.7989320755  1.54932690296  -1.37575803092  1.92221771425  -2.98455962819  -1.53327043231  -0.0256602559788  
1.80700492859  1.54907922576  -1.37785053336  1.91734071887  -2.97910125001  -1.53288300886  -0.0263244450854  
1.81513690948  1.54885939743  -1.3799751398  1.91244634812  -2.97355275048  -1.53246748836  -0.0270255086874  
1.82324194908  1.54866460641  -1.38213516567  1.90754012504  -2.96791589048  -1.53201923263  -0.0277562323612  
1.83132910728  1.54849092784  -1.38433344919  1.90262815037  -2.96219284304  -1.53153563038  -0.0285097776397  
1.83953809738  1.54833461028  -1.38657237076  1.89771449065  -2.95638113885  -1.53101198766  -0.0292796952756  
1.84756493568  1.54819007135  -1.38885587198  1.89280516947  -2.95047612425  -1.53044276  -0.0300599350587  
1.85561013222  1.54805292687  -1.39118847911  1.88790758285  -2.9444790944  -1.52982812604  -0.0308408450187  
1.86371612549  1.54792026361  -1.3935740622  1.88302847956  -2.93838973256  -1.52916895392  -0.0316191920142  
1.87182092667  1.54778936636  -1.39601786079  1.87816918166  -2.93221040318  -1.5284623528  -0.0323926845548  
1.87983894348  1.54765772024  -1.39852151687  1.87333277459  -2.92594677194  -1.52770699213  -0.0331568981153  
1.88794612885  1.54752301003  -1.40108583672  1.8685215668  -2.91960458703  -1.52690341094  -0.0339078092531  
1.89603304863  1.54738110486  -1.40371235525  1.86373566682  -2.91318462921  -1.52605240556  -0.0346417894463  
1.90409803391  1.54722706302  -1.40640410023  1.85897821313  -2.90669018481  -1.52515249998  -0.0353555969589  
1.91221404076  1.54705237374  -1.40916262877  1.85425219229  -2.9001276728  -1.52419866903  -0.0360423595652  
1.9204211235  1.54684696185  -1.41198979371  1.84956242509  -2.89349842754  -1.52319015823  -0.036701580102  
1.93118214607  1.54660373917  -1.4148800509  1.84491978128  -2.88681619498  -1.52212953717  -0.0373336457219  
1.93932700157  1.54631959283  -1.41781922812  1.84034157316  -2.88011278068  -1.52102200448  -0.0379367410202  
1.94746899605  1.54596891409  -1.42081759526  1.835823839  -2.87336840436  -1.51986158637  -0.0385053639856  
1.95555400848  1.54552041855  -1.42388944268  1.83136067293  -2.86655793201  -1.51864580385  -0.0390403273978  
1.9635989666  1.54495945766  -1.42702966682  1.82695918605  -2.85968825043  -1.51738107116  -0.0395392572675  
1.9716861248  1.54426298837  -1.43023812138  1.82262290413  -2.85275982974  -1.5160725667  -0.0400035201861  
1.97977209091  1.54340722722  -1.43351725614  1.81835733331  -2.84576969877  -1.51472888466  -0.0404312592386  
1.9878680706  1.54237475583  -1.43686655719  1.81417084192  -2.83872343619  -1.51336109671  -0.0408243209906  
1.9959499836  1.54114859081  -1.44028511498  1.81007225482  -2.83162946234  -1.51197956467  -0.0411812913066  
2.00409412384  1.53971510707  -1.44377365892  1.80607329403  -2.82449082988  -1.51059643585  -0.0415044224709  
2.01224803925  1.53806621494  -1.44733359473  1.80218601968  -2.817312715  -1.50921937843  -0.041796676738  
2.02050614357  1.53619495242  -1.45096577588  1.79842245936  -2.81009805477  -1.50785751046  -0.0420546296286  
2.02852010727  1.53409510168  -1.45467253981  1.79479547039  -2.80285186705  -1.50652207422  -0.042277001734  
2.03662204742  1.53176637433  -1.45845474847  1.79132018926  -2.79558691182  -1.50522077053  -0.0424651749005  
2.04473209381  1.5292042225  -1.46231755668  1.78801150649  -2.78830798342  -1.50396403609  -0.0426206359862  
2.05289006233  1.52640320795  -1.46626272566  1.78488052319  -2.78101874634  -1.50276164265  -0.042744959479  
2.06100606918  1.52335896005  -1.47029186351  1.78193863693  -2.7737305805  -1.50162330776  -0.04283979092  
2.06911110878  1.52006576632  -1.47440427003  1.77919385695  -2.76645189343  -1.50055655548  -0.0429068311733  
2.0773639679  1.51272396104  -1.48287166819  1.77432240078  -2.75196411541  -1.49865956697  -0.0429645299734  
2.08555793762  1.5086790755  -1.48721777175  1.77220244311  -2.74478257434  -1.49784310018  -0.0429587377136  
2.09355092049  1.50439216644  -1.49162944813  1.77029564155  -2.73765997  -1.49712300464  -0.042932227516  
2.10162711143  1.49986833193  -1.49610154778  1.76860237221  -2.73060419827  -1.49650670894  -0.0428867723116  
2.1096971035  1.49511458224  -1.50062611694  1.7671216541  -2.72362212759  -1.49599937879  -0.0428241249949  
2.1177380085  1.49014200137  -1.50519315841  1.76585285693  -2.71672464453  -1.49560363948  -0.0427460090985  
2.12585806847  1.48496133372  -1.50978919018  1.76479181896  -2.70992419124  -1.49532372468  -0.0426541103737  
2.13398003578  1.47958461879  -1.5143992619  1.7639331406  -2.70323665179  -1.49515927439  -0.0425500692599  
2.14202213287  1.47401931302  -1.51900749843  1.76326832255  -2.69667890222  -1.49511132223  -0.0424354742185  
2.15014100075  1.46826993499  -1.52359810152  1.76278964877  -2.69026570223  -1.49518052034  -0.0423118559085  
2.15822005272  1.46234179511  -1.5281546099  1.76248911355  -2.68400976842  -1.49537028888  -0.0421806821723  
2.16638803482  1.45623888703  -1.53266088395  1.76235888938  -2.67792686317  -1.49568345603  -0.0420433538005  
2.17451810837  1.44996681625  -1.53710234928  1.76239163194  -2.67202836922  -1.49612290563  -0.0419012010422  
2.18258810043  1.44353096587  -1.54146596505  1.76258115198  -2.6663257234  -1.49669197713  -0.0417554808236  
2.19065308571  1.4369381555  -1.54574018577  1.76292170077  -2.66083619396  -1.49739294595  -0.0416113819974  
2.1987850666  1.43019884045  -1.54991291887  1.76340543923  -2.65556729365  -1.49822709227  -0.0414680068896  
2.20720601082  1.42331870799  -1.55397447192  1.76402491305  -2.65052373894  -1.49919477005  -0.0413238482284  
2.21838307381  1.41630437632  -1.55791776223  1.76477174091  -2.6457164169  -1.50029547706  -0.0411798616944  
2.22655510902  1.40916312159  -1.56173898952  1.76563647113  -2.64115182017  -1.5015304287  -0.0410369277085  
2.23458409309  1.40190529477  -1.56543457514  1.76660965325  -2.63683150525  -1.50289636688  -0.0408918444374  
2.24271011353  1.39453949218  -1.56900282925  1.76768349475  -2.63276040025  -1.5043890514  -0.0407473456105  
2.25073599815  1.38707195972  -1.57244415124  1.76884952031  -2.62894442957  -1.50600274324  -0.0406066239064  
2.25884699821  1.37951311773  -1.5757576987  1.77010000248  -2.62538246476  -1.50773243901  -0.0404662522468  
2.26692414284  1.37187147005  -1.57894431884  1.77142822322  -2.6220739711  -1.50957677161  -0.0403207263586  
2.27502703667  1.36415503483  -1.58200674908  1.77282750456  -2.61901980834  -1.51153272687  -0.0401690086334  
2.2831659317  1.35637083441  -1.58494828461  1.77429124585  -2.61621418155  -1.51359536874  -0.0400045068047  
2.29139709473  1.3485266044  -1.58777071641  1.77581135936  -2.61365228575  -1.51575697733  -0.0398205449327  
2.29950404167  1.34063102914  -1.59047726758  1.7773807008  -2.61133110239  -1.51801085933  -0.0396094206042  
2.30753612518  1.33269042338  -1.59307079906  1.77899170972  -2.60924635306  -1.52034922666  -0.0393618565754  
2.31565904617  1.32470971452  -1.59555548156  1.78063622213  -2.60738761467  -1.52276541304  -0.0390695215701  
2.32371306419  1.31669168221  -1.59793700601  1.78230490495  -2.60574595315  -1.52525424961  -0.0387210023833  
2.33175706863  1.30864197365  -1.60021926325  1.78398806409  -2.6043147069  -1.52781051801  -0.0383117939176  
2.33987212181  1.3005663334  -1.60240529032  1.78567666702  -2.60308642534  -1.53042898622  -0.037834784559  
2.34796500206  1.29246904439  -1.60449848629  1.78736075234  -2.60205297638  -1.53310945169  -0.0372831608322  
2.35606002808  1.28435217732  -1.60650256242  1.78903342042  -2.60120564987  -1.53585176431  -0.0366534432006  
2.36412811279  1.27621255916  -1.60841949651  1.79068704808  -2.60053525648  -1.53865644285  -0.0359429067023  
2.37226104736  1.26805109336  -1.61024848812  1.79231285306  -2.60002721279  -1.54152754648  -0.035149539158  
2.38049006462  1.25988234833  -1.61198817699  1.79390290666  -2.59966914255  -1.54445985215  -0.0342760061176  
2.3885269165  1.25170152161  -1.61363586428  1.79544692201  -2.59945162576  -1.54745232787  -0.0333195909433  
2.39657402039  1.24350020998  -1.61518846437  1.79693542658  -2.59936009201  -1.55050198691  -0.0322776272484  
2.40462303162  1.23527868645  -1.61664572015  1.79836096263  -2.59938240283  -1.55360383498  -0.0311505273297  
2.41271495819  1.22703850467  -1.61800715524  1.79971704146  -2.59950958178  -1.55675440453  -0.0299392006981  
2.42081999779  1.21880538179  -1.61927175739  1.80099970473  -2.5997326983  -1.55994268117  -0.0286530234849  
2.42896008492  1.21056474981  -1.62043919402  1.80220509326  -2.6000379104  -1.56317391855  -0.0272897608905  
2.43923211098  1.19402270783  -1.62248433451  1.80437440021  -2.60085319998  -1.56976991828  -0.0243296636093  
2.44729113579  1.18574223656  -1.6233643157  1.80533488282  -2.60134781676  -1.57311769767  -0.022748086924  
2.45552110672  1.17747322723  -1.62415158601  1.80621272998  -2.6018905  -1.57649154309  -0.0211062399589  
2.46349191666  1.16921020405  -1.62484845584  1.80700731064  -2.60247414956  -1.57989229406  -0.0194103036877  
2.4715731144  1.16095948502  -1.62545761739  1.80771762713  -2.60308695302  -1.5833155492  -0.0176726634408  
2.47971796989  1.15271407986  -1.62598209829  1.80834008944  -2.60371991681  -1.58676169635  -0.0158993283166  
2.48780012131  1.1444787338  -1.62642321806  1.80887165995  -2.60436754678  -1.59022782663  -0.0140993950058  
2.49587202072  1.13625778185  -1.62678354233  1.80931103495  -2.60501967602  -1.59371175305  -0.0122780865931  
2.50393199921  1.12805495334  -1.6270671067  1.8096591824  -2.60566898139  -1.59721176951  -0.0104436858853  
2.51204109192  1.11988230957  -1.62727611173  1.80991529867  -2.6063066424  -1.60072223443  -0.00860458953799  
2.52012109756  1.11175716964  -1.62741188212  1.81008054013  -2.60692667846  -1.60423641661  -0.00676623009956  
2.52815914154  1.10368749663  -1.62747409579  1.8101536109  -2.6075215998  -1.60775058875  -0.00493361336644  
2.5363740921  1.09567239398  -1.62746174487  1.81013108835  -2.60808172767  -1.61126778504  -0.00311532822875  
2.54450893402  1.08771958905  -1.62737636133  1.8100136044  -2.60859835063  -1.61478619844  -0.00131754158932  
2.55248498917  1.07984170586  -1.62721898047  1.80979940615  -2.60906871279  -1.61830978324  0.000456526728303  
2.56056213379  1.07204790945  -1.62698783823  1.80948467531  -2.60949348574  -1.62183798874  0.00220405409367  
2.56862092018  1.06434898278  -1.62668259623  1.80906811159  -2.60986856272  -1.62536943524  0.00391859440846  
2.57674098015  1.05675462188  -1.62630257101  1.80854848294  -2.61018252967  -1.62890074701  0.00559206566361  
2.5848069191  1.04927597233  -1.62584642869  1.80792435865  -2.61042732036  -1.63242838916  0.00722127555154  
2.59289503098  1.04192494963  -1.62531141366  1.8071950654  -2.61060385918  -1.63594808309  0.00880589468391  
2.60102009773  1.03471376582  -1.62469430626  1.80636223061  -2.61071133962  -1.63945446829  0.0103418890019  
2.60911297798  1.02765399349  -1.62399264607  1.80542733452  -2.61074151091  -1.6429426832  0.0118275061394  
2.6172311306  1.02075738121  -1.62320069202  1.80438984253  -2.61069433464  -1.64640835629  0.0132597762341  
2.62547802925  1.01403492891  -1.62231137355  1.80324896277  -2.61057109913  -1.6498450909  0.0146379573732  
2.63352012634  1.00749771557  -1.62131477675  1.80200140905  -2.61036552922  -1.65324570323  0.0159640420917  
2.64156913757  1.00115598702  -1.62020208659  1.80064454299  -2.61007443174  -1.656601287  0.0172361842793  
2.64972805977  0.995019994171  -1.61896706058  1.79917754387  -2.60970332749  -1.65990494851  0.0184506748854  
2.65776705742  0.989099091544  -1.61760470049  1.7976003381  -2.60926073114  -1.66314961015  0.0196084580111  
2.66585898399  0.983400572316  -1.61610918782  1.79591194324  -2.60875494012  -1.66633015092  0.020709090229  
2.67395496368  0.977933811086  -1.61447481464  1.7941112095  -2.60818899082  -1.66944120419  0.0217541835297  
2.68209004402  0.97270635536  -1.61269517986  1.79219617481  -2.60756313097  -1.67247678837  0.0227439032765  
2.69033002853  0.967726532521  -1.61076411361  1.7901664014  -2.60688297013  -1.67543185424  0.0236764046232  
2.69851493835  0.963002839616  -1.60867686502  1.78802153387  -2.6061569458  -1.67830224455  0.0245543484635  
2.70643806458  0.958543538179  -1.60642802278  1.78576102429  -2.6053931252  -1.68108214611  0.0253788615423  
2.71449303627  0.95435578373  -1.60401243159  1.78338508354  -2.60459918385  -1.6837678001  0.0261489736966  
2.72259497643  0.950444490688  -1.60142637122  1.78089462283  -2.60378238842  -1.68635528315  0.026860120426  
2.73073196411  0.94681247585  -1.59866746815  1.77828959679  -2.60294958327  -1.68883761806  0.0275101238402  
2.7388279438  0.943460603743  -1.59573460605  1.77557133828  -2.60210217168  -1.69121006339  0.0281037031095  
2.74686312675  0.940387932821  -1.59262783554  1.77274271274  -2.6012436214  -1.69347039064  0.0286438950585  
2.75496697426  0.937591861514  -1.58935028134  1.76980864695  -2.60038513571  -1.69561473589  0.0291314910494  
2.76312208176  0.935068273251  -1.58590505441  1.7667736751  -2.59952995577  -1.69764129678  0.0295715548338  
2.77118301392  0.932811679623  -1.58229689559  1.76364327037  -2.59868020702  -1.69954810063  0.0299633785343  
2.7794251442  0.930815360951  -1.57853435564  1.76042560613  -2.59784074257  -1.70133511267  0.0303059337993  
2.78741312027  0.929073517484  -1.57462345031  1.75712809618  -2.59702098409  -1.70300200302  0.030604926385  
2.79550600052  0.927578382713  -1.57056631575  1.7537539434  -2.59622741673  -1.70455025448  0.0308602159411  
2.80355095863  0.926320085108  -1.56636865907  1.75030790891  -2.59546794241  -1.70598343433  0.0310712694187  
2.81161093712  0.925288049338  -1.56205294147  1.74680629307  -2.59474254599  -1.70730053807  0.031244218187  
2.81971001625  0.924471116552  -1.55762080716  1.74325089144  -2.59406017674  -1.70850344249  0.0313832879286  
2.82777404785  0.923857658954  -1.55309012545  1.73965487068  -2.59342758289  -1.70959500937  0.0314902454711  
2.83591198921  0.923435688375  -1.54849667055  1.73604370609  -2.59284482706  -1.71057710623  0.0315669198136  
2.84399414062  0.923192958675  -1.54381787206  1.73239941703  -2.59232167503  -1.71145463974  0.031611178611  
2.85215902328  0.923117061783  -1.53903872204  1.72871011739  -2.59186760848  -1.7122342479  0.0316269298339  
2.8602540493  0.923195517286  -1.53416818339  1.72498193703  -2.59148801829  -1.71291765212  0.0316186299133  
2.86849713326  0.923415855522  -1.52921109307  1.72121757334  -2.59118741456  -1.71350912008  0.0315881975041  
2.87651205063  0.923765694149  -1.52417211366  1.71741946983  -2.59096946696  -1.7140160848  0.0315335323637  
2.88456296921  0.924234822353  -1.51906121853  1.71359581792  -2.59083203801  -1.71444091829  0.0314585212743  
2.89268612862  0.924812244064  -1.51388838972  1.7097555339  -2.59078475655  -1.71478840061  0.0313635431317  
2.90080404282  0.925485967969  -1.50866205096  1.7059044143  -2.59082969637  -1.71506384265  0.0312524038037  
2.90882992744  0.926244335873  -1.50339030438  1.70204853646  -2.59096943755  -1.71527363181  0.0311293889125  
2.91699409485  0.927078083105  -1.4980829035  1.69819447052  -2.59120661499  -1.71542052122  0.0309961839833  
2.92506504059  0.927979373079  -1.49275223209  1.69435146258  -2.59154513701  -1.71551202805  0.0308544069448  
2.93320798874  0.92894055822  -1.48741102466  1.69052824187  -2.59198589663  -1.71555481015  0.0307015960016  
2.94129610062  0.931022226078  -1.47673632586  1.68296284024  -2.59316277104  -1.71551078036  0.0303772101923  
2.94942998886  0.932134412709  -1.4714209518  1.67923035186  -2.59389224641  -1.71543476062  0.0302108596193  
2.95750594139  0.933290692306  -1.46613128664  1.6755354713  -2.59470577108  -1.71532997352  0.0300433849232  
2.96553301811  0.934490036238  -1.46087400928  1.67187888655  -2.59560178858  -1.71520076597  0.0298759129557  
2.97363805771  0.935731228543  -1.45565790836  1.66826325769  -2.59657418569  -1.71504983582  0.029709483072  
2.981746912  0.937012887658  -1.4504871745  1.66468785578  -2.59761099686  -1.71487730173  0.0295450474715  
2.98976898193  0.938335501831  -1.44536588589  1.66115215455  -2.59871080391  -1.71468695324  0.0293834720536  
2.99786806107  0.93969843006  -1.4403018305  1.65765888873  -2.5998677422  -1.71448031349  0.0292215304134  
3.00596499443  0.941101668353  -1.43530300383  1.65421125112  -2.60107520409  -1.71426097128  0.0290619224299  
3.01411604881  0.94254613934  -1.43037637576  1.6508119039  -2.60232970675  -1.7140302329  0.0289077988071  
3.02217102051  0.944032438078  -1.42552792695  1.64746300262  -2.60362273697  -1.71378895215  0.0287556831652  
3.03041505814  0.945562867681  -1.42076268892  1.64416622209  -2.6049432774  -1.713534436  0.0286080300733  
3.03842592239  0.947138440937  -1.41608678411  1.64092438244  -2.60628600442  -1.71326636545  0.0284677507577  
3.04644012451  0.948762663596  -1.4115044745  1.63773907949  -2.60764378716  -1.71298244808  0.0283351435499  
3.05467510223  0.950438806388  -1.40701794262  1.63460890342  -2.60901203768  -1.71268024579  0.0282104359974  
3.06263804436  0.95216838703  -1.40262860676  1.63153287521  -2.61038437644  -1.71235908619  0.0280937889464  
3.07074308395  0.953952473939  -1.39833717176  1.62850909192  -2.6117519674  -1.71201846677  0.0279812933965  
3.07883906364  0.95579171415  -1.39414767703  1.62553933557  -2.61310668995  -1.71165554023  0.0278709842442  
3.08692002296  0.957688376096  -1.39006155365  1.6226245181  -2.61444113377  -1.71126635607  0.0277673838138  
3.09503006935  0.959641344324  -1.38608114189  1.61976487199  -2.61574858969  -1.71084993783  0.027672955507  
3.10316491127  0.961652929158  -1.38220628267  1.61695960385  -2.61702804607  -1.71040701684  0.0275835661066  
3.1112279892  0.963724399438  -1.37843583707  1.6142083078  -2.61827666085  -1.70993843218  0.0275010455108  
3.1192650795  0.965856214686  -1.37476927403  1.61150961177  -2.61948907768  -1.70944261251  0.0274277138434  
3.1275241375  0.968049600601  -1.37120545915  1.60886258746  -2.62065557153  -1.70891681433  0.027363312951  
3.13550209999  0.970305305869  -1.36774270781  1.60626539412  -2.62177454934  -1.70835869368  0.0273035419619  
3.14365911484  0.972623634014  -1.36437883904  1.60371509135  -2.62284568031  -1.70776628902  0.0272500786693  
3.1516919136  0.975006490123  -1.3611132259  1.60121187158  -2.62387103908  -1.70714050821  0.0272010990665  
3.15974712372  0.977456407512  -1.35794384934  1.5987542917  -2.62484573147  -1.70647884983  0.0271582253095  
3.16786503792  0.979975306552  -1.35486708183  1.59633887052  -2.62576972322  -1.70577880803  0.0271195833296  
3.17593002319  0.98256251668  -1.35188100148  1.59396373427  -2.62664414114  -1.70503977274  0.0270827433477  
3.18400096893  0.985217832608  -1.34898444014  1.59162783821  -2.62746740585  -1.70426142305  0.0270477941522  
3.1920940876  0.987941818628  -1.34617776264  1.58933317072  -2.62823837814  -1.70344370697  0.0270188132213  
3.20022797585  0.990736583083  -1.34345991669  1.58707998156  -2.62895132266  -1.70258431684  0.0269978582507  
3.20824813843  0.993604807964  -1.34083021161  1.58486797523  -2.62960840143  -1.70168242399  0.0269804289279  
3.21648693085  0.996548511058  -1.33828663215  1.58269595893  -2.63021279906  -1.70073648673  0.0269680259326  
3.22445893288  0.999571098635  -1.33582761593  1.58056324884  -2.63076485352  -1.69974138851  0.0269586698618  
3.23257493973  1.00267438561  -1.33345236415  1.5784699045  -2.6312652015  -1.6986962608  0.0269538484442  
3.24061608315  1.00586239692  -1.33115962028  1.57641413974  -2.63171976033  -1.69760103535  0.0269515733856  
3.24869394302  1.00913865786  -1.32894771293  1.57439314079  -2.63212718035  -1.69644948765  0.0269533273183  
3.25683808327  1.01250670945  -1.32681459893  1.57240569305  -2.63249067474  -1.69523830895  0.0269611277058  
3.26493191719  1.01597042514  -1.32475990308  1.57045140299  -2.63280931443  -1.69396774375  0.0269704494145  
3.27300596237  1.01953278369  -1.32278395998  1.56852970319  -2.63308167724  -1.69263337723  0.0269827826641  
3.28110599518  1.02319592048  -1.32088658937  1.56663986797  -2.63330966505  -1.6912336159  0.0270001582356  
3.28940010071  1.02696319346  -1.31906713727  1.56478103018  -2.63349530757  -1.68976531335  0.0270220768271  
3.29742097855  1.03083621577  -1.31732251855  1.56294900218  -2.63364073978  -1.68822557089  0.0270480496981  
3.30553913116  1.03481665634  -1.31565225215  1.56114108594  -2.63374818052  -1.68661362169  0.0270735935691  
3.31356906891  1.03890656443  -1.31405576984  1.55935491204  -2.6338199122  -1.68493171105  0.0271002493653  
3.32168698311  1.04310715068  -1.31253092191  1.55758722616  -2.63385826173  -1.68318380766  0.0271260991207  
3.32985711098  1.04742085886  -1.31107528011  1.5558333151  -2.63386057342  -1.68137147697  0.0271487038177  
3.33796811104  1.05185645939  -1.3096861758  1.55408781356  -2.6338267042  -1.67949259526  0.0271721823721  
3.3461329937  1.05641474483  -1.30836273278  1.55234891573  -2.63375466395  -1.67754916252  0.0271986623367  
3.3541469574  1.0611038999  -1.30710090595  1.55061039122  -2.63364493673  -1.67554134164  0.0272277463346  
3.36254096031  1.06593084157  -1.30589624519  1.54886754957  -2.63350112936  -1.67346926051  0.0272590516738  
3.37045812607  1.07089840193  -1.30474345969  1.54711569493  -2.6333217711  -1.67133239483  0.0272922115825  
3.37855005264  1.07598532948  -1.30364217535  1.54535986806  -2.63310780874  -1.66914172255  0.0273228689391  
3.38670492172  1.08120146979  -1.30258323981  1.54359210404  -2.63285323949  -1.66689247854  0.0273526938941  
3.39467906952  1.08655883366  -1.30155893681  1.54180351812  -2.63255694365  -1.66457748083  0.027383907068  
3.40277600288  1.09204058209  -1.30056660401  1.53999483934  -2.63222399976  -1.66220387922  0.0274121996281  
3.41092896461  1.09764231495  -1.29960358731  1.53816553683  -2.63184930133  -1.65977550836  0.027439288857  
3.41912007332  1.10335689731  -1.29866725667  1.53631498019  -2.63143256291  -1.65729435994  0.0274634338447  
3.42713809013  1.10918895116  -1.29775502057  1.53444205592  -2.63097462586  -1.65475654834  0.0274823721435  
3.43517708778  1.11513766448  -1.29686433912  1.53254813633  -2.63047359557  -1.65216196566  0.0274963904006  
3.4434530735  1.12119416489  -1.2959927358  1.53063648324  -2.62992298285  -1.64951775851  0.0275057835504  
3.45150613785  1.12734674881  -1.29513980662  1.52871341074  -2.62932420191  -1.646827281  0.0275068450339  
3.4595811367  1.13358972752  -1.29430423203  1.52678508155  -2.62867969988  -1.64409349204  0.0274938666265  
3.467648983  1.13991797122  -1.29348351948  1.52485627898  -2.62798909224  -1.64132085307  0.0274616703917  
3.47582507133  1.14632789375  -1.29267327899  1.52292822238  -2.62724730101  -1.63850871151  0.0274096069605  
3.48397994041  1.15281601977  -1.2918702274  1.52100336008  -2.62645204227  -1.63565378373  0.0273355345324  
3.49195313454  1.15937143955  -1.29107245948  1.51908579736  -2.62560947688  -1.63275831594  0.0272352730584  
3.50012111664  1.16599222676  -1.29027818557  1.51717767894  -2.6247285075  -1.6298225492  0.0271011230068  
3.50819396973  1.17268325819  -1.28948573306  1.51528158823  -2.62381257489  -1.6268440291  0.0269278587871  
3.51643395424  1.1794465821  -1.28869354716  1.51340076613  -2.62286715247  -1.62382326192  0.0267132439797  
3.52452611923  1.18627843481  -1.28790219098  1.51153970606  -2.62189538907  -1.62076494494  0.0264554724697  
3.53246998787  1.19317659409  -1.28711334677  1.50970176748  -2.62089742617  -1.6176751066  0.0261531462421  
3.5405960083  1.20014095176  -1.28632855007  1.50788897279  -2.61987856602  -1.61455699866  0.0258012450744  
3.54870009422  1.2071709971  -1.28554919232  1.50610303133  -2.61884174721  -1.6114098284  0.0253931058147  
3.55679297447  1.21426383716  -1.28477652298  1.50434375604  -2.61778686484  -1.60823659049  0.0249189240651  
3.56487512589  1.22142530721  -1.28401165316  1.50260827979  -2.61671393376  -1.60503562185  0.0243677249358  
3.5730099678  1.22863805095  -1.28325755784  1.50089926586  -2.61562808881  -1.60181619822  0.0237378789634  
3.58102893829  1.23586725458  -1.28251608286  1.49922114008  -2.61453206369  -1.59859326423  0.0230330533498  
3.58915901184  1.24313793366  -1.28178768518  1.49756248945  -2.61341549836  -1.59535662278  0.0222370591003  
3.59722900391  1.25047077424  -1.28107270497  1.49591385067  -2.61227813909  -1.59209881153  0.0213358468516  
3.60546302795  1.26531383157  -1.27968581538  1.49263164454  -2.60993506433  -1.58552775174  0.0192017422328  
3.61347603798  1.2728183088  -1.27901706474  1.4909933215  -2.60872868436  -1.58221092013  0.0179595120767  
3.62153196335  1.28035822215  -1.27836679974  1.48935747027  -2.60750583516  -1.57887950639  0.0166027522666  
3.62958407402  1.28792900368  -1.27773562352  1.48772513519  -2.60627037686  -1.57553632731  0.0151327474656  
3.63765001297  1.2955188923  -1.27712480476  1.48609831755  -2.60502302178  -1.57218529283  0.0135500352639  
3.64573812485  1.30313989102  -1.27653455596  1.48447364291  -2.60375949165  -1.56881837969  0.0118444645587  
3.65386199951  1.31080912165  -1.27596577649  1.48284970935  -2.60247802343  -1.5654280614  0.0100060846283  
3.66191196442  1.31852460894  -1.27542033029  1.48122895153  -2.60117502056  -1.56201589842  0.00803122423724  
3.6700129509  1.3262815513  -1.27489979175  1.47961519165  -2.59985439074  -1.55858492912  0.00591734404538  
3.67811799049  1.33406838301  -1.27440545846  1.47801284493  -2.59851568184  -1.55514558598  0.00366697240637  
3.68613004684  1.34186148823  -1.27393836457  1.47642591279  -2.59716275442  -1.55171193292  0.00128963677491  
3.69436693192  1.3496726048  -1.27349929489  1.47485320047  -2.59579008311  -1.54828187986  -0.00122278192852  
3.70248293877  1.35748848149  -1.27308879932  1.4732971061  -2.5944039512  -1.54486222904  -0.0038645962467  
3.71048593521  1.36529397198  -1.27270520951  1.47175867773  -2.59301192528  -1.54145941455  -0.00662773171008  
3.71851396561  1.3730651218  -1.27234765038  1.47024076432  -2.59161016003  -1.53808343162  -0.0094949821853  
3.72659492493  1.38081426563  -1.27201632066  1.4687390864  -2.59019725143  -1.5347291496  -0.0124685179083  
3.73470211029  1.38856705825  -1.27171124079  1.46724559564  -2.58876989038  -1.53138750965  -0.0155540462899  
3.74278903008  1.39632480558  -1.27143226672  1.4657569437  -2.58732719709  -1.52805446733  -0.0187410987367  
3.75090909004  1.40407843123  -1.27117910351  1.46427187783  -2.58587138165  -1.52473124749  -0.022014707311  
3.75899410248  1.41182042671  -1.2709513189  1.46278762377  -2.58440456404  -1.52142184552  -0.0253605280029  
3.76709198952  1.41953705886  -1.27074835666  1.46130387791  -2.58293377709  -1.51812986069  -0.0287648824316  
3.77516007423  1.42722319553  -1.27056954965  1.45981743294  -2.5814684587  -1.5148560004  -0.0322187984669  
3.78333306313  1.43485718425  -1.27041413259  1.45833053172  -2.58001227201  -1.51160935938  -0.0357040121304  
3.79145503044  1.44243949567  -1.27028125441  1.4568355403  -2.57856561224  -1.5083864786  -0.0392164953052  
3.79945802689  1.44996671946  -1.2701699902  1.45532665234  -2.57712878425  -1.50518630053  -0.0427480402143  
3.80756807327  1.45742797435  -1.2700793527  1.45380100214  -2.57570701732  -1.50201001539  -0.0462896075888  
3.81569314003  1.46482320498  -1.27000830324  1.45225258805  -2.57430295861  -1.49885564639  -0.0498334730017  
3.82377409935  1.47214824395  -1.2699557622  1.45067667919  -2.57291601342  -1.4957262431  -0.0533741640101  
3.83182501793  1.4793990048  -1.26992061887  1.44906841927  -2.57154552696  -1.49262488546  -0.0569089931204  
3.8399579525  1.48656647684  -1.26990174081  1.44742738694  -2.57019079313  -1.4895527768  -0.0604275035838  
3.84802293777  1.49364218714  -1.26989798247  1.44575300168  -2.56885106287  -1.48651335021  -0.0639194771584  
3.85606908798  1.50061922962  -1.26991019166  1.44404626516  -2.56752555306  -1.48351353698  -0.067382002009  
3.86410713196  1.50749067037  -1.2699382204  1.4423101669  -2.5662184618  -1.48055593873  -0.0708069009958  
3.87228894234  1.51425076883  -1.26998066662  1.44054764522  -2.56493146379  -1.47764227098  -0.0741901979029  
3.88026595116  1.52089492144  -1.27003614756  1.43876157435  -2.56366806163  -1.47477530631  -0.0775291589182  
3.88838601112  1.52741758789  -1.27010530563  1.43695634996  -2.56242925686  -1.47195731265  -0.0808151892259  
3.89641404152  1.5338112213  -1.27018781744  1.43513707779  -2.56121289417  -1.46919508676  -0.0840423551828  
3.90451693535  1.54007049906  -1.27028413234  1.43330855549  -2.56001684624  -1.46649246868  -0.0872078906375  
3.91256809235  1.54618849423  -1.27039574703  1.43147686324  -2.55884403391  -1.4638522089  -0.0903096272015  
3.92068099976  1.55215935534  -1.27052594552  1.42965175705  -2.55769492439  -1.4612779203  -0.0933419535573  
3.9286980629  1.55797776156  -1.27067880892  1.42784246493  -2.55657188411  -1.45877252555  -0.09629778369  
3.93682694435  1.56363857459  -1.27085796085  1.42605966069  -2.55547485135  -1.45633578819  -0.0991710565275  
3.94484496117  1.56913601935  -1.27106658044  1.424313294  -2.55440569038  -1.45397061029  -0.101956693267  
3.95288705826  1.57446863453  -1.27131141399  1.42261458094  -2.55336887417  -1.45167714157  -0.104646546403  
3.96101403236  1.57963240667  -1.27159879571  1.42097543691  -2.55236331952  -1.4494571574  -0.107235362048  
3.96908092499  1.5846231658  -1.27193313626  1.41940488417  -2.55139492369  -1.4473147656  -0.109721262522  
3.97719502449  1.58943730242  -1.27232021109  1.41791148512  -2.55046473094  -1.44525076939  -0.112099147474  
3.98551106453  1.5940714072  -1.27276818635  1.41650678827  -2.54957262367  -1.4432664641  -0.114362641841  
3.99353599548  1.59852143889  -1.27328538339  1.41520116482  -2.54872118292  -1.44136401281  -0.116510582811  
4.00152111053  1.60278565001  -1.2738810463  1.41400582821  -2.5479075278  -1.43954239801  -0.118540949015  
4.0096590519  1.60686475888  -1.27456638038  1.41293230596  -2.54713084919  -1.43780122071  -0.120450264682  
4.01773309708  1.61075856346  -1.2753503336  1.411990474  -2.5463930977  -1.43614358139  -0.122236075283  
4.02588391304  1.61446886437  -1.27624737354  1.41119342101  -2.54569583087  -1.43457077992  -0.123896883481  
4.03397202492  1.61799963815  -1.27727281416  1.41055352514  -2.54504023402  -1.43307952137  -0.125432084126  
4.0420229435  1.62135365368  -1.27844081406  1.41008189327  -2.5444221327  -1.43166479697  -0.12684189874  
4.05013394356  1.62453539929  -1.27976471567  1.40978865946  -2.5438445355  -1.43032652056  -0.128131317274  
4.05849504471  1.62754924657  -1.28125985504  1.4096868576  -2.54330580077  -1.42906205547  -0.129300016223  
4.06650900841  1.63040110733  -1.28294164935  1.4097901224  -2.54280332922  -1.42786808965  -0.130351778797  
4.07450604439  1.63309861667  -1.28482715739  1.41011455135  -2.54232740654  -1.42674008921  -0.131291495436  
4.0825920105  1.63564977507  -1.28693118578  1.4106748215  -2.54186806392  -1.42567450457  -0.132122031264  
4.09061408043  1.63806286991  -1.28926686625  1.41148207477  -2.54141392091  -1.42466913729  -0.13284670671  
4.09872102737  1.6403443888  -1.29184803903  1.41254825124  -2.54095152273  -1.423719081  -0.133469241549  
4.10679101944  1.64250196991  -1.29468511476  1.41388302502  -2.54047351906  -1.42282301271  -0.133993700813  
4.11488413811  1.64454460422  -1.2977849402  1.41549112153  -2.53996613483  -1.42197729443  -0.134424442754  
4.12294507027  1.64647928414  -1.30115419803  1.41737746491  -2.53941600286  -1.4211778361  -0.134766069025  
4.13096904755  1.64831396677  -1.30479854712  1.41954514036  -2.53880897737  -1.42042204172  -0.135023377222  
4.13901305199  1.6500537607  -1.30870351359  1.42198152203  -2.53813945523  -1.41970724562  -0.135201315894  
4.14710593224  1.65170564174  -1.3128676025  1.42468500773  -2.53739849044  -1.41903073427  -0.135304942101  
4.15516901016  1.65327290146  -1.31727785597  1.42764288888  -2.53658244114  -1.41838976717  -0.135339381604  
4.1632130146  1.6547636268  -1.32193276322  1.43085210303  -2.53567923955  -1.41778410046  -0.135309791712  
4.17141509056  1.65618240276  -1.32681461367  1.43429735977  -2.53468454306  -1.41721224879  -0.135221326818  
4.17944502831  1.6575372547  -1.33192212314  1.43797625859  -2.53358866718  -1.41666866443  -0.135079106634  
4.18752813339  1.65883666009  -1.33726056398  1.44189142114  -2.53237953663  -1.41614909618  -0.134892194334  
4.19555091858  1.66008240132  -1.34281436974  1.44602860179  -2.53104964248  -1.41565344156  -0.134671568134  
4.20370292664  1.66127410195  -1.34855484508  1.45036288245  -2.52959781838  -1.41518041678  -0.134423556008  
4.21177005768  1.66241376449  -1.35446285132  1.45487684641  -2.52802166239  -1.41472723379  -0.134155830021  
4.21981811523  1.66350272191  -1.36051071353  1.45954612831  -2.52633183107  -1.41429370209  -0.133873923223  
4.22793412209  1.66454738354  -1.36669467212  1.46436539754  -2.52452259421  -1.41387848269  -0.133592708228  
4.23600912094  1.66554941004  -1.37299312339  1.46931497349  -2.52259982037  -1.41348126817  -0.133320900471  
4.24411201477  1.666519989  -1.37942236835  1.47440863859  -2.52054919639  -1.41309811736  -0.133071478634  
4.25216293335  1.66746780105  -1.38599451779  1.47965678939  -2.51835285552  -1.41272488585  -0.132859290438  
4.26043891907  1.6683951115  -1.3926848506  1.48503911985  -2.51601902864  -1.41236165714  -0.132691451675  
4.26853013039  1.66930816505  -1.39948563931  1.4905503111  -2.51355492326  -1.41200740486  -0.132575916996  
4.27659201622  1.67021314913  -1.40639308915  1.49619040141  -2.51096214275  -1.41165966337  -0.132526047245  
4.28457307816  1.67111464424  -1.41339720065  1.50195329147  -2.50824296509  -1.41131361395  -0.13255609885  
4.29268193245  1.67201488331  -1.42048615174  1.50783006181  -2.50540027567  -1.41096834711  -0.132678725731  
4.3007979393  1.67291677092  -1.42764734395  1.51381084465  -2.502437502  -1.41061843168  -0.132913039014  
4.3088619709  1.67382415236  -1.43487070695  1.51988749101  -2.49935855186  -1.41025950638  -0.133284662102  
4.31692790985  1.67474054028  -1.44214173855  1.52604802769  -2.49617275951  -1.40988802678  -0.133814711531  
4.32512593269  1.67566710514  -1.4494432635  1.532278088  -2.49288230554  -1.40949683362  -0.134519339595  
4.3331990242  1.67660368643  -1.45676124901  1.53856558757  -2.48949902619  -1.40908299134  -0.135428389631  
4.34130001068  1.67848989961  -1.47138499603  1.55126076482  -2.48249889019  -1.40817763653  -0.137957913527  
4.34936904907  1.67943044924  -1.47866094917  1.55764592084  -2.47890546787  -1.40767747387  -0.139620018538  
4.35757398605  1.68036211295  -1.4858957941  1.56404334779  -2.47526601768  -1.40714267362  -0.141575683761  
4.36562991142  1.68127778327  -1.49308196486  1.57044729176  -2.47158875069  -1.40656776356  -0.143846439685  
4.37374806404  1.68217184115  -1.50021579344  1.57685640862  -2.46788564048  -1.40594605989  -0.146445191162  
4.38185191154  1.68304041462  -1.50729388506  1.58327008994  -2.46417875354  -1.40527565567  -0.149386802767  
4.3899409771  1.68388009049  -1.51431062528  1.58968388579  -2.46048638417  -1.40455906206  -0.152673852353  
4.39793801308  1.68468789992  -1.52126287764  1.59609728126  -2.45681738167  -1.40379283209  -0.156309230582  
4.40602707863  1.68546130236  -1.52815048481  1.60251513435  -2.45318184556  -1.40297220914  -0.160300463812  
4.41417002678  1.68619615397  -1.5349757014  1.60894442939  -2.44959681855  -1.4020946069  -0.164652285519  
4.42249202728  1.68688769566  -1.54173816485  1.61538767756  -2.44608063325  -1.4011604979  -0.16936682387  
4.43040204048  1.68752979237  -1.54843959203  1.62184910154  -2.44264476269  -1.40017213171  -0.174443790286  
4.43858408928  1.68811591571  -1.55508827741  1.62833848225  -2.43929636418  -1.39912941596  -0.179884676019  
4.44659304619  1.68863837728  -1.56169253539  1.63486653338  -2.43604650551  -1.39803614851  -0.185694945268  
4.45473098755  1.6890893042  -1.56826314034  1.64144449646  -2.43290270098  -1.39689656782  -0.191879686725  
4.46279501915  1.6894618791  -1.57481057582  1.64808176707  -2.42987330581  -1.39571591208  -0.198445276479  
4.47084999084  1.68975030021  -1.58134348766  1.65478730615  -2.42696323382  -1.39450073107  -0.20539757297  
4.47900104523  1.68995175216  -1.58786194733  1.66155870283  -2.42417335019  -1.39325978493  -0.212727557257  
4.48705196381  1.69006132674  -1.59437343021  1.66840276881  -2.42150370686  -1.39200027238  -0.220449600218  
4.49519491196  1.69007271439  -1.60088388621  1.67532508354  -2.41894859725  -1.39072498122  -0.228585238384  
4.50323390961  1.68998271829  -1.6073861464  1.68231671407  -2.41650412901  -1.38944263095  -0.23713105843  
4.51129508018  1.68978818169  -1.6138769726  1.68937550644  -2.41416394205  -1.3881631929  -0.24610405808  
4.51956009865  1.68948566537  -1.62035212387  1.69649919905  -2.41192360528  -1.38689688706  -0.25551996409  
4.527531147  1.68907266739  -1.62680228457  1.70367996891  -2.40978133829  -1.38565201738  -0.265393190417  
4.53563308716  1.68854756631  -1.63321385279  1.71090132489  -2.40773489104  -1.38443715169  -0.275725187915  
4.54365897179  1.68790956223  -1.63957418568  1.71814792942  -2.405781593  -1.38325896513  -0.286521111239  
4.55183291435  1.68716063154  -1.64586711205  1.72540028909  -2.40392341128  -1.38212442826  -0.297772163611  
4.5598731041  1.68630446268  -1.65207263347  1.73263252519  -2.40215948723  -1.38104116279  -0.309439671718  
4.56792402267  1.68533908187  -1.65817767427  1.73982701564  -2.40048551731  -1.38001588046  -0.321508072527  
4.57603192329  1.68426384437  -1.66417030373  1.74696601734  -2.39890198275  -1.37905441206  -0.333955208237  
4.58417606354  1.68308119052  -1.67003588157  1.75402977321  -2.39740668347  -1.37815923508  -0.34673622917  
4.59242200851  1.68179403803  -1.67576052457  1.7609989294  -2.39599912505  -1.37733075992  -0.359799005689  
4.60049700737  1.68040572675  -1.68133230231  1.76785528906  -2.39468123329  -1.37657145561  -0.373087357811  
4.60851693153  1.67891996519  -1.68674115974  1.77458117162  -2.39345422791  -1.37588463292  -0.386537711681  
4.61654496193  1.67733876524  -1.69198283057  1.78116494002  -2.39232367882  -1.37527039133  -0.400093754802  
4.62458610535  1.67566339815  -1.69705475445  1.78759794506  -2.39129705128  -1.37473191815  -0.413699557811  
4.63271093369  1.67389562072  -1.70195645378  1.79387221288  -2.39037557685  -1.37426709582  -0.42729453493  
4.64070892334  1.67203762747  -1.70668971233  1.7999813751  -2.38955681228  -1.37387663785  -0.440824537687  
4.64880609512  1.67008998829  -1.71125722123  1.80592058258  -2.38883786641  -1.37356262596  -0.454242365186  
4.65692090988  1.66805462239  -1.71566448979  1.81168961298  -2.38822046201  -1.37332504247  -0.467501170375  
4.66504001617  1.66593099354  -1.71992076039  1.81729118676  -2.38770347519  -1.37316339667  -0.480552381453  
4.67319107056  1.66371478781  -1.72403666245  1.82272885403  -2.3872823195  -1.37307926862  -0.493358159521  
4.68134307861  1.66140545229  -1.72802087354  1.82800530787  -2.38695717875  -1.37307509797  -0.505885801418  
4.68943810463  1.65900138031  -1.73188504428  1.83312629614  -2.38672053483  -1.37315263892  -0.518112542382  
4.69750595093  1.65649731099  -1.7356410026  1.83809835508  -2.3865690691  -1.37331300229  -0.530023935758  
4.70552611351  1.65388783566  -1.73930315942  1.84293070137  -2.38650003571  -1.37356170712  -0.541612620858  
4.71361112595  1.65116459186  -1.74288772381  1.84763616787  -2.38650746382  -1.3739037178  -0.552876152235  
4.72167992592  1.64832426119  -1.74640613148  1.85222351784  -2.38658537147  -1.37433906615  -0.563810285359  
4.72977995872  1.64536401179  -1.74987100257  1.85670036743  -2.38672279455  -1.37486824363  -0.574410809011  
4.73785591125  1.64227962244  -1.75329664515  1.86107695917  -2.38691634228  -1.37549258463  -0.584679916803  
4.74594593048  1.63906797038  -1.75669849899  1.86536429788  -2.38716338268  -1.37621022421  -0.59462002314  
4.75403213501  1.63572495147  -1.76009012146  1.86957149058  -2.38745322048  -1.37701990458  -0.604237064181  
4.76213312149  1.63224843296  -1.76348491167  1.87370809954  -2.38777780759  -1.37791885323  -0.613544868787  
4.77026295662  1.62863643901  -1.76689637702  1.87778431696  -2.38813243153  -1.37890499956  -0.622564459002  
4.77848792076  1.6248868114  -1.77033687262  1.88181151517  -2.38851255918  -1.37997735591  -0.631315348237  
4.78655099869  1.6209984138  -1.77381761395  1.88579822719  -2.38890884199  -1.38112946736  -0.639814862246  
4.79453992844  1.61697105904  -1.77734869598  1.88975230614  -2.38930963035  -1.38235696712  -0.648088556672  
4.8026509285  1.61280543724  -1.78093911752  1.89368213106  -2.3897141692  -1.38365578159  -0.656166087411  
4.81078100204  1.60850102986  -1.78459481223  1.89759238526  -2.39011256463  -1.38502024777  -0.664080032231  
4.81886506081  1.60405905731  -1.78831968053  1.90148564329  -2.39049696756  -1.38644723927  -0.671863796711  
4.82700896263  1.59947864745  -1.79211689016  1.90536438562  -2.39086607811  -1.38793244257  -0.679549000888  
4.83915114403  1.58991954966  -1.79992158177  1.91307493562  -2.39153665968  -1.39105189317  -0.694722923239  
4.84726691246  1.58495318772  -1.80391408816  1.91689677139  -2.39182962181  -1.39267618673  -0.702242935285  
4.85537695885  1.57984128634  -1.80797216741  1.9207026204  -2.39209024683  -1.39434292304  -0.70978128447  
4.87119913101  1.56920493352  -1.81624606871  1.92824281244  -2.39251818181  -1.3977903926  -0.724937854492  
4.87931394577  1.56367313689  -1.82045370186  1.93197506431  -2.39268763851  -1.39957516128  -0.732597549832  
4.88729810715  1.55799680579  -1.82470285549  1.93568094015  -2.39282401095  -1.40139762861  -0.740339611181  
4.89549899101  1.55217890405  -1.82898409334  1.9393556143  -2.39293110355  -1.40325503625  -0.748173069358  
4.90354204178  1.54622186769  -1.83328934372  1.94299549437  -2.39300844204  -1.40514650862  -0.756101679757  
4.91165995598  1.54012679344  -1.83760818266  1.94659521905  -2.39305492971  -1.40706956292  -0.764125973502  
4.91972398758  1.53389437307  -1.84193057498  1.95014982331  -2.393072673  -1.4090242178  -0.772237832174  
4.92778110504  1.52752408311  -1.84624641163  1.9536543432  -2.39306379324  -1.41101175735  -0.780428549399  
4.93588900566  1.5210151203  -1.85054524105  1.9571035769  -2.39303041235  -1.41303316202  -0.788687939331  
4.94398903847  1.51436559024  -1.85481952728  1.96049466844  -2.39297463961  -1.41508912577  -0.797003840141  
4.95213007927  1.50757344167  -1.85906164079  1.9638246793  -2.39289855954  -1.41718007433  -0.80536067569  
4.96017694473  1.50063766764  -1.86326557501  1.96709194313  -2.39280422089  -1.41930868757  -0.81373747634  
4.96840214729  1.49356427289  -1.86742319751  1.97029304916  -2.39269362671  -1.42147616195  -0.822112435182  
4.97642803192  1.48636519403  -1.87152495952  1.97342339385  -2.39256872544  -1.42368189704  -0.830457435698  
4.98452091217  1.47903325871  -1.87556839538  1.97648396632  -2.3924314031  -1.42593011039  -0.838758076366  
4.99266314507  1.47156097897  -1.87955109908  1.97947571689  -2.39227846825  -1.42822485015  -0.847006706144  
5.00069904327  1.4639441749  -1.88346889304  1.98239808134  -2.39210414724  -1.43057060313  -0.85519424998  
5.0088160038  1.45616545128  -1.8873203253  1.98525256925  -2.39190324685  -1.43297766327  -0.863316723703  
5.01686692238  1.44822486188  -1.89109764255  1.98803712991  -2.39167615104  -1.43544805297  -0.871361175954  
5.02492594719  1.44015452942  -1.89478948313  1.99074590471  -2.39142630309  -1.43797238291  -0.87930110715  
5.03304314613  1.43195318552  -1.8983898944  1.99337622562  -2.39115201116  -1.44055125376  -0.887124070295  
5.04115605354  1.4236380567  -1.90189029367  1.99592478702  -2.39084893996  -1.44317967487  -0.894808639717  
5.04947113991  1.41516183427  -1.90529187312  1.99839677057  -2.39051326942  -1.44587296821  -0.902356263076  
5.05739998817  1.40651066766  -1.90859136089  2.00079184714  -2.3901466874  -1.44863591462  -0.909755797973  
5.06554603577  1.39765951478  -1.91178736091  2.00311164456  -2.38974886012  -1.45148039912  -0.916999192597  
5.07355809212  1.38857941516  -1.91487990105  2.00535800605  -2.38931674712  -1.45442002914  -0.924075667007  
5.08165192604  1.37928773183  -1.91786331769  2.00752708893  -2.38885777489  -1.45745339877  -0.930962942779  
5.08971309662  1.36974861558  -1.92073672442  2.00961875731  -2.38836477791  -1.46059928434  -0.937651325453  
5.09778594971  1.35993282328  -1.92349949228  2.01163297037  -2.38783467884  -1.46387391175  -0.944132116609  
5.10585999489  1.34988008761  -1.92614739409  2.01356670506  -2.38727364851  -1.46726764221  -0.950385885217  
5.11400294304  1.33962587963  -1.92867607613  2.01541673835  -2.38668757071  -1.4707720842  -0.95639544289  
5.12204504013  1.32921908019  -1.9310822632  2.01718061734  -2.38608202795  -1.47436963653  -0.962144785547  
5.13016700745  1.3186206602  -1.9333736869  2.01886460773  -2.3854522721  -1.47807978709  -0.967626439666  
5.13827204704  1.30775191292  -1.9355600319  2.02047645676  -2.38480324803  -1.48193613219  -0.972835849079  
5.14723992348  1.29659966784  -1.93764455129  2.02201709657  -2.38413839781  -1.4859478731  -0.977764153001  
5.15541911125  1.28517372021  -1.93962854252  2.02348662506  -2.38346015052  -1.49011876194  -0.982402582165  
5.16354298592  1.27348211133  -1.94150982949  2.02488330899  -2.38277375635  -1.49445169316  -0.986740840081  
5.17157793045  1.26153709809  -1.94328470741  2.02620413362  -2.3820841085  -1.49894185858  -0.99077295895  
5.17961406708  1.24935877732  -1.94495041961  2.02744678916  -2.38139574048  -1.50358342551  -0.994493668758  
5.18769598007  1.23696260798  -1.94650510106  2.02860963035  -2.38071282591  -1.50837404205  -0.997881672203  
5.19578409195  1.22436755043  -1.94794772073  2.02969003857  -2.38003918056  -1.51330706789  -1.00089800443  
5.20391893387  1.21159703384  -1.94927602461  2.03068517467  -2.37938327546  -1.51837256771  -1.00348998784  
5.2120680809  1.19867577193  -1.95048947418  2.03159454686  -2.37875574044  -1.52356055516  -1.00560063767  
5.22006702423  1.18562867257  -1.95158945342  2.03241757181  -2.37816620399  -1.5288585543  -1.00717403215  
5.22820997238  1.17248150475  -1.95257794321  2.03315331471  -2.37762331032  -1.53425291158  -1.00815557784  
5.23646092415  1.15925983456  -1.95345546453  2.03379985673  -2.37713474344  -1.53972793075  -1.00849224506  
5.24463295937  1.14598569222  -1.95422201882  2.03435345045  -2.37670725414  -1.54526466562  -1.00814078931  
5.25258207321  1.13268458848  -1.95488029462  2.03481347884  -2.37634669003  -1.55084629942  -1.00707595079  
5.26060795784  1.11937770901  -1.95543261341  2.0351786249  -2.37605802928  -1.55645349626  -1.00527953441  
5.26871109009  1.10607707309  -1.9558826049  2.035447995  -2.37584541732  -1.56207284939  -1.00271692143  
5.27678894997  1.09279943057  -1.95623342101  2.03562069451  -2.37571721467  -1.56769129861  -0.999357245069  
5.28490114212  1.07956479475  -1.95648741733  2.03569716135  -2.37568353447  -1.573296381  -0.995189679464  
5.29300808907  1.06639538619  -1.9566453692  2.03567613431  -2.37574810937  -1.57887313813  -0.990201914698  
5.30108904839  1.05331969084  -1.9567094189  2.03555838393  -2.37591585538  -1.58440752707  -0.984388678751  
5.30920696259  1.04036693134  -1.95667929568  2.03534388986  -2.37618858396  -1.58988581664  -0.977746901739  
5.31736207008  1.01494310198  -1.95632728271  2.03462023245  -2.3770508847  -1.60063175096  -0.961941519127  
5.32547497749  1.00253046398  -1.95599860241  2.03411056555  -2.37766026776  -1.60587848158  -0.952775791105  
5.33352613449  0.990358287163  -1.95556232891  2.03350144875  -2.37839300296  -1.61102561573  -0.942772924861  
5.34154510498  0.978458774227  -1.95501569171  2.03279331788  -2.37924790952  -1.61606230103  -0.931947397106  
5.3496389389  0.966866316722  -1.95436198483  2.03199132202  -2.38022606686  -1.6209727411  -0.920342385948  
5.35776495934  0.955607041876  -1.95359925241  2.03109626571  -2.38132770608  -1.62574523227  -0.907962169266  
5.36581206322  0.944703477946  -1.95272769234  2.03011052862  -2.38255227384  -1.63036775328  -0.894817126117  
5.37393712997  0.934184605566  -1.95175366378  2.02904126958  -2.38389348767  -1.63482722048  -0.880972364543  
5.3819861412  0.924071418467  -1.95068083888  2.02789334723  -2.38535191933  -1.63911007357  -0.866454911078  
5.39003300667  0.914378069414  -1.94951288098  2.02667146201  -2.38693322201  -1.64320343801  -0.851261093232  
5.39812994003  0.905120211093  -1.9482569257  2.02538294076  -2.38863182984  -1.64709411045  -0.835403742886  
5.40624809265  0.896315959133  -1.94692326729  2.02403748739  -2.39043602782  -1.65076970746  -0.818945909126  
5.41452097893  0.887979546341  -1.94551905407  2.022642143  -2.39233435402  -1.65422014204  -0.801904765384  
5.42241311073  0.880120019813  -1.94404898175  2.02120184407  -2.39432066143  -1.65744001243  -0.784251958841  
5.43047499657  0.872744777908  -1.94251978868  2.01972302128  -2.39638665219  -1.66042222167  -0.765992509144  
5.43853807449  0.865860829147  -1.94093522797  2.01820958184  -2.39851624242  -1.66315376394  -0.74712549067  
5.4466791153  0.859472765038  -1.93930076723  2.01666667423  -2.40069628456  -1.66562628136  -0.727685518284  
5.45473504066  0.853579728413  -1.93761410195  2.01509310426  -2.40291726509  -1.66783409496  -0.707688085602  
5.46283602715  0.848178693152  -1.93586959139  2.01348488945  -2.40516013686  -1.66976212831  -0.687134870773  
5.47091507912  0.843262977132  -1.93406355884  2.01183950548  -2.40741636951  -1.67140237722  -0.666057930876  
5.47907495499  0.838820213411  -1.93219099663  2.01015325562  -2.4096817816  -1.67275259365  -0.644497783531  
5.48716306686  0.834834882773  -1.93024852985  2.00842364896  -2.41194953318  -1.67381104137  -0.622504481117  
5.4954020977  0.831289831119  -1.92823264878  2.0066479922  -2.41422331935  -1.67457792986  -0.600129895219  
5.50324106216  0.828166503256  -1.92614340077  2.00482635024  -2.41650735497  -1.67505526237  -0.577437924531  
5.51148700714  0.825443152625  -1.92398162214  2.00295933828  -2.41880754559  -1.67524918831  -0.554482814179  
5.5194580555  0.823096061438  -1.9217413718  2.00104367155  -2.42113216497  -1.67516359339  -0.531278816601  
5.52753210068  0.821107059437  -1.91942814281  1.99908434751  -2.42347867541  -1.67481088807  -0.507908384008  
5.53567099571  0.819450624429  -1.91703764225  1.99707906003  -2.42585878241  -1.67419750815  -0.484377551807  
5.54364204407  0.818099295836  -1.9145658738  1.99502489084  -2.42828476269  -1.6733312049  -0.460694775834  
5.55177402496  0.817030217899  -1.91201749186  1.99292478793  -2.4307618017  -1.67222007884  -0.436882889982  
5.55989599228  0.816219720004  -1.90940043162  1.99078428819  -2.43328935678  -1.67087520362  -0.412979425257  
5.56798410416  0.815645201159  -1.90672760295  1.98861288078  -2.43586869681  -1.66931117093  -0.389026275324  
5.57607102394  0.81528351297  -1.90401359458  1.98642137848  -2.43849858734  -1.66754279988  -0.365059374216  
5.58421802521  0.815112820341  -1.90127611514  1.98422148038  -2.44117464979  -1.66558753182  -0.341126314279  
5.59230494499  0.815110960448  -1.89853397938  1.98202656115  -2.44389255946  -1.66346407795  -0.317277806368  
5.60046696663  0.815257280465  -1.89580257167  1.97984826021  -2.44664305859  -1.6611882362  -0.293568113369  
5.60847902298  0.815535001397  -1.89309684642  1.97769627797  -2.44941447929  -1.65877406045  -0.270051106744  
5.61657691002  0.815929007634  -1.89043160539  1.97557780346  -2.45219092058  -1.65624038175  -0.246787301035  
5.62471294403  0.816426649251  -1.88782024996  1.97349992365  -2.45495976722  -1.65360322839  -0.223837965236  
5.63279604912  0.81701477795  -1.88527480662  1.97146985562  -2.45770233897  -1.65087760436  -0.201261666769  
5.64088892937  0.81768154171  -1.88280595913  1.96949555608  -2.46039070678  -1.64807435275  -0.179116458773  
5.64896607399  0.818416697074  -1.88042308633  1.96758335441  -2.46299651971  -1.64520103004  -0.157467573765  
5.65709805489  0.819212385102  -1.87813430534  1.9657393669  -2.46549414019  -1.64226754571  -0.136375116088  
5.66515803337  0.82006014397  -1.87594851766  1.96396974668  -2.46785558447  -1.6392848765  -0.115896743708  
5.67334294319  0.820952683007  -1.87387246356  1.96227970659  -2.47005295961  -1.63626094753  -0.0960825011426  
5.68145799637  0.821884176288  -1.87191250932  1.96067196483  -2.47205654787  -1.633201862  -0.0769800988174  
5.68956112862  0.822849007899  -1.87007497422  1.95914918301  -2.4738372145  -1.63011346779  -0.058633806806  
5.69756293297  0.823841791144  -1.86836292872  1.95771262248  -2.47536947073  -1.62699883579  -0.0410797652416  
5.70562291145  0.824857384276  -1.86677725819  1.9563619775  -2.4766263391  -1.62386200275  -0.0243503976983  
5.71370601654  0.825888889055  -1.86531799482  1.95509643305  -2.47758672875  -1.62070829296  -0.00847283237928  
5.72186994553  0.826930681089  -1.86398438363  1.95391470911  -2.47823094458  -1.6175427223  0.00653319601234  
5.72991204262  0.827976671532  -1.8627749483  1.95281510475  -2.47854486463  -1.61437249522  0.0206508876136  
5.73802804947  0.829020041564  -1.86168755628  1.95179554084  -2.47851543144  -1.61120324474  0.0338719262288  
5.74608898163  0.83005451799  -1.86071948302  1.95085360302  -2.47812980564  -1.60803869703  0.0461925415152  
5.75448107719  0.831072355992  -1.85986747481  1.94998817926  -2.47738336499  -1.60488226002  0.0576125043126  
5.76253414154  0.832067352508  -1.85912581144  1.94919550637  -2.47627200395  -1.60173452201  0.0681371939589  
5.77057695389  0.833035104413  -1.85848736452  1.9484697948  -2.47479628239  -1.59859951756  0.0777731223179  
5.77866792679  0.833969705466  -1.85794691684  1.94780688763  -2.47296190541  -1.59547880635  0.0865334785944  
5.78678703308  0.834866751042  -1.85749821665  1.9472018961  -2.47077636112  -1.59237081187  0.0944341971677  
5.79489302635  0.83572157425  -1.85713376033  1.94664742038  -2.46824372758  -1.58927400135  0.101496977465  
5.80298995972  0.83653096992  -1.8568461043  1.94613698544  -2.46536699383  -1.58618939562  0.107749377028  
5.8111770153  0.837293440422  -1.85662790636  1.9456652786  -2.4621510532  -1.58311431497  0.11322585086  
5.81923294067  0.838007895676  -1.85647196272  1.94522875615  -2.45860252531  -1.58004580682  0.117965337205  
5.82727909088  0.838673628279  -1.85637124254  1.94482326669  -2.4547245714  -1.57698006529  0.12201634032  
5.83559799194  0.839290288183  -1.85631691966  1.94444385377  -2.45052423366  -1.57391209974  0.125432555494  
5.84352207184  0.83985785713  -1.85629939736  1.94408578256  -2.44601794471  -1.57083732102  0.128271456817  
5.85167312622  0.840376623008  -1.85630959552  1.94374455352  -2.44122568679  -1.56775654752  0.130583967366  
5.85968613625  0.840845140703  -1.85633896681  1.94341591167  -2.43616265742  -1.56466598394  0.132427663278  
5.86778211594  0.841263226328  -1.85637751028  1.94309265911  -2.43084162908  -1.56156280969  0.133861577168  
5.87595701218  0.841630185727  -1.85641877333  1.94276785733  -2.42528099225  -1.55844492382  0.134948376394  
5.88404011726  0.841946533317  -1.85645712462  1.942436049  -2.41950212405  -1.55531152097  0.135744685852  
5.89214205742  0.842214234485  -1.85648422173  1.94209064372  -2.41352609629  -1.55215840846  0.136299854784  
5.9002199173  0.84243540401  -1.85649327041  1.94172631183  -2.4073685602  -1.54898141958  0.136664905419  
5.90848493576  0.842612281338  -1.8564792836  1.94134078599  -2.4010471607  -1.54578082734  0.136890421175  
5.91648411751  0.842747207  -1.85643780439  1.940933039  -2.39458211703  -1.54256099737  0.137019917218  
5.92453694344  0.8428446143  -1.85636089572  1.94049906389  -2.38798796106  -1.5393150173  0.137103806482  
5.93252897263  0.842907987947  -1.85623912141  1.9400334596  -2.38127597179  -1.53602685285  0.137199902325  
5.94056510925  0.842939576648  -1.85606405634  1.93953303716  -2.37446730258  -1.53268802632  0.137351773866  
5.94865703583  0.842943665431  -1.85582826071  1.93899440758  -2.36758290795  -1.52928790897  0.137600252257  
5.95677304268  0.842923540249  -1.85552924588  1.9384185435  -2.3606546856  -1.52582771479  0.137967046429  
5.96489691734  0.842881205802  -1.85515945013  1.93780297893  -2.35370608267  -1.52229768017  0.138483781419  
5.97296404839  0.842818649022  -1.85470566956  1.93714035086  -2.34675007249  -1.5186775272  0.139196751002  
5.98101305962  0.842737828119  -1.85416507053  1.93643121982  -2.33981369363  -1.51497165138  0.140117721955  
5.98913908005  0.842640662658  -1.8535234309  1.93566986639  -2.33291050845  -1.51116024209  0.141293625955  
5.99716901779  0.842529024643  -1.85276374731  1.93484799771  -2.3260561407  -1.5072237683  0.142762881509  
6.00542402267  0.842269534542  -1.85084814656  1.93301071242  -2.31256565314  -1.49896600777  0.146664819639  
6.01357793808  0.842125122068  -1.84968533136  1.93199871538  -2.30596684083  -1.49465200494  0.149121098916  
6.02156209946  0.841975119136  -1.84838127664  1.93092854962  -2.29949405775  -1.49021201378  0.151925213662  
6.0296459198  0.841822067612  -1.84693853846  1.92980602855  -2.29316976365  -1.48565183122  0.155080208972  
6.03775191307  0.841673195915  -1.84534935488  1.92863483633  -2.28700373597  -1.4809541945  0.158613414349  
6.04579806328  0.841536661492  -1.84360895827  1.92741906932  -2.28101318408  -1.47610859302  0.162540711314  
6.0538880825  0.841418735558  -1.8417148997  1.92616145598  -2.27521666229  -1.47111336993  0.166865928261  
6.06204199791  0.841323072588  -1.83966836689  1.9248661033  -2.26962715352  -1.46596854468  0.171590800844  
6.07007908821  0.841251728611  -1.83747290596  1.92353890055  -2.26425534777  -1.46067548569  0.176712108218  
6.07818198204  0.841206449357  -1.83513154462  1.92218547634  -2.25910474484  -1.45523491244  0.182232433639  
6.08622503281  0.841188683237  -1.8326479815  1.92081118535  -2.25418429109  -1.44965341304  0.188144343874  
6.09444594383  0.841197581382  -1.83002451213  1.91941949729  -2.24950666289  -1.44393836076  0.194443549006  
6.10253691673  0.841233032149  -1.82726895005  1.91801598587  -2.2450820452  -1.43809842667  0.201118690593  
6.11051797867  0.841295944677  -1.82438882778  1.91660453767  -2.24090824474  -1.43214384763  0.208149935041  
6.11873292923  0.841389001385  -1.8213895313  1.91518691837  -2.236985846  -1.42608227279  0.215516777995  
6.12671709061  0.841517679664  -1.8182767685  1.91376479508  -2.23332468911  -1.41992496704  0.223190209288  
6.13487100601  0.841687987037  -1.81505650848  1.91233813674  -2.2299251373  -1.41368834606  0.23113287881  
6.14292597771  0.841911248168  -1.81173492375  1.91090601031  -2.22678505752  -1.40738700232  0.239306323238  
6.15096998215  0.842199095904  -1.80831833682  1.90946439549  -2.22390379824  -1.40103583837  0.247669625801  
6.15909314156  0.842562696172  -1.80481316935  1.90800777735  -2.22127414295  -1.39464786793  0.256185533163  
6.16716814041  0.843015068734  -1.80122989066  1.90653435968  -2.21888995593  -1.38823385963  0.264813064077  
6.17524313927  0.843566834389  -1.7975769808  1.90503966434  -2.21675198964  -1.38180140323  0.27351305023  
6.1833190918  0.844225995471  -1.79386435558  1.9035200893  -2.21485231836  -1.375363664  0.282247248556  
6.19134902954  0.845001280815  -1.79009987012  1.90197113745  -2.21318130827  -1.36892718985  0.290977830927  
6.19945597649  0.845899183289  -1.78628875597  1.90038857162  -2.21173158063  -1.36249466385  0.299665921534  
6.20746803284  0.846925767608  -1.78243812683  1.89876962689  -2.21049495595  -1.35607500855  0.308277592615  
6.21573901176  0.848087005636  -1.77855395833  1.89711197801  -2.20946256689  -1.34967679601  0.316780357957  
6.22374796867  0.84938958383  -1.77464080286  1.89541531591  -2.20862496674  -1.34330633643  0.325138581261  
6.23182606697  0.850839968723  -1.77070303912  1.893677337  -2.207972233  -1.33697178235  0.33332596345  
6.2400200367  0.852445221256  -1.76674485887  1.89189590413  -2.20749907493  -1.33068439832  0.341315975781  
6.24806213379  0.854212069869  -1.76277025542  1.89006865192  -2.2071974154  -1.32445574487  0.349080690948  
6.25609493256  0.856147731521  -1.75878301357  1.88819275041  -2.20706082218  -1.31829612006  0.356595748379  
6.26420402527  0.858238852297  -1.75480069154  1.88627708243  -2.20708025534  -1.31222962061  0.363836221641  
6.27229905128  0.860466424871  -1.75084363048  1.88433342879  -2.20724348165  -1.30628166577  0.370778482633  
6.28046107292  0.862859906961  -1.74689812508  1.88234698088  -2.20754333301  -1.30043697698  0.377414610257  
6.28855800629  0.865427019976  -1.74296392393  1.88031431514  -2.20797527667  -1.29469539675  0.383730193696  
6.29670214653  0.868180144085  -1.73903425781  1.87823058008  -2.20853932135  -1.289049077  0.389716587083  
6.30471205711  0.871130245071  -1.73510083449  1.87609027069  -2.20923257269  -1.28349162279  0.395366868615  
6.31277704239  0.874277638814  -1.73116503239  1.87389493043  -2.2100486324  -1.27802682633  0.400672057659  
6.32088303566  0.877622568643  -1.72722530855  1.87164565792  -2.21097582762  -1.27266011494  0.405630019973  
6.32897996902  0.881164032675  -1.72327992737  1.86934446466  -2.21200979315  -1.26739484485  0.410239276514  
6.33708906174  0.884903914698  -1.71932649241  1.86699126733  -2.21314167516  -1.26223201875  0.414498286402  
6.34514713287  0.888845073959  -1.71536367394  1.86458604312  -2.21436686315  -1.25717442959  0.418407802505  
6.35328912735  0.892968759249  -1.71140346161  1.86213802396  -2.21568136996  -1.2522354812  0.421970688692  
6.36136507988  0.897244775139  -1.70746390373  1.85966066229  -2.21707302854  -1.24743014956  0.425195745372  
6.36945605278  0.901694672757  -1.70353354216  1.85714576309  -2.21855225565  -1.24274491079  0.428087513705  
6.37771105766  0.906316319625  -1.69961338207  1.85459464193  -2.220117704  -1.2381794613  0.430651575793  
6.3857190609  0.911127613884  -1.69569065777  1.85199849713  -2.22178802447  -1.23371882064  0.432897455881  
6.39379692078  0.916141081299  -1.69175608053  1.84935239851  -2.22358021886  -1.2293484926  0.434835913914  
6.40184807777  0.92134617946  -1.68781083371  1.84665985025  -2.22549750708  -1.22506729258  0.436478782817  
6.40991592407  0.926730818105  -1.68385690594  1.84392663465  -2.22753707419  -1.22087253364  0.437834804673  
6.41797399521  0.932282731079  -1.67989735265  1.84116020457  -2.22969764616  -1.21676474686  0.438915489331  
6.42606401443  0.937977482788  -1.67594302075  1.83837243847  -2.23197020582  -1.21275181724  0.43973550346  
6.43489313126  0.943806741109  -1.67199456437  1.83556763438  -2.23435491507  -1.20883333775  0.440305986028  
6.44301795959  0.949766873068  -1.66805037242  1.83274745574  -2.236854997  -1.20501000671  0.44063241173  
6.45111393929  0.955849008807  -1.66411243537  1.82991380544  -2.23947479107  -1.20128626769  0.440714997553  
6.45922613144  0.962046224041  -1.66018254988  1.82706758925  -2.24221547398  -1.19766560088  0.44054910855  
6.46729207039  0.968350579922  -1.65626432198  1.82421131965  -2.2450744545  -1.19415057624  0.440125663791  
6.47530603409  0.974752912288  -1.65236017428  1.82134671163  -2.24805361679  -1.1907429089  0.439431538121  
6.4834189415  0.981244160501  -1.64847108642  1.81847446482  -2.25115187076  -1.18744351425  0.438453963496  
6.49163913727  0.987815415376  -1.64459786874  1.81559527178  -2.25436955365  -1.18425506872  0.437178915718  
6.49973607063  0.994455948691  -1.64074116971  1.81270981463  -2.25770916218  -1.18117831155  0.435588957848  
6.50771093369  1.00115425828  -1.63689948693  1.80981716284  -2.26117224201  -1.17821677675  0.433671627277  
6.51585292816  1.00789534865  -1.63307217195  1.80691716703  -2.26475945274  -1.17537593509  0.431419802321  
6.52395510674  1.01466881085  -1.62925770696  1.8040090705  -2.26847564083  -1.17265757895  0.428816968946  
6.53206014633  1.02146635916  -1.62545344454  1.80109129171  -2.2723223939  -1.17006364242  0.425847058115  
6.5401301384  1.02828103918  -1.62165687919  1.798162432  -2.27629743885  -1.1675966009  0.422499867807  
6.5482211113  1.03510750678  -1.61786565217  1.79522126963  -2.28040289113  -1.16526045421  0.418760315085  
6.55630993843  1.04194277312  -1.6140755565  1.79226515542  -2.28463280206  -1.16305954216  0.414624262446  
6.56451702118  1.04878520371  -1.61028153735  1.7892908053  -2.28898507655  -1.16099452372  0.410089365155  
6.57261109352  1.05563324675  -1.60648095479  1.78629690145  -2.29346287616  -1.15906369987  0.405151253482  
6.58075714111  1.06248543561  -1.6026705839  1.78328008855  -2.29806833746  -1.15726467047  0.399808399319  
6.58876895905  1.06933837794  -1.5988463434  1.78023714378  -2.30279763012  -1.15559690809  0.394065912702  
6.59687995911  1.07617769382  -1.59501254804  1.77717258426  -2.30763851657  -1.15406057473  0.387953364735  
6.6049349308  1.08301050192  -1.59115992227  1.77407846211  -2.3126061431  -1.15265249947  0.381479977175  
6.61308503151  1.08984460783  -1.58727751249  1.77094628166  -2.31771622621  -1.15137000261  0.374649787771  
6.6211669445  1.09667896658  -1.58335807237  1.76777151377  -2.3229735982  -1.15020879178  0.367471751926  
6.62934207916  1.11034264567  -1.57537848425  1.76127549657  -2.33394818124  -1.14823656303  0.352148014139  
6.63757705688  1.11716523695  -1.57130367579  1.75794493975  -2.33967643963  -1.14741722763  0.34403117548  
6.64568400383  1.12397690084  -1.56716545831  1.75455392726  -2.34557107414  -1.14670483209  0.335627899069  
6.65372014046  1.13077448976  -1.56296278236  1.75110034474  -2.35163311675  -1.14609445543  0.326953108495  
6.66172504425  1.13755518803  -1.5586950799  1.7475826301  -2.35785955446  -1.14558300778  0.318020587898  
6.66984796524  1.14431650367  -1.55436422898  1.74399974248  -2.36424658732  -1.14516744716  0.308838303486  
6.6778550148  1.1510562585  -1.54997352111  1.74035112793  -2.37078971297  -1.14484791819  0.299408804682  
6.68591594696  1.15777257724  -1.54552836269  1.73663668566  -2.37748881856  -1.14462187582  0.289737642967  
6.69402694702  1.16446387523  -1.54103524592  1.73285673238  -2.38434074945  -1.14448597011  0.279837788095  
6.70215296745  1.17112683275  -1.53650045645  1.72901196691  -2.3913437296  -1.14443801501  0.269724963552  
6.71026611328  1.17776141465  -1.53192605432  1.72510023848  -2.39849810981  -1.14448045667  0.259398965904  
6.71832203865  1.18436004837  -1.52731784505  1.72112610052  -2.40578824795  -1.14461541256  0.248871601058  
6.72663593292  1.19091210313  -1.52268489623  1.71709880818  -2.41319510227  -1.14484279847  0.238158700806  
6.73456406593  1.19740722487  -1.51803372674  1.7130272259  -2.42070831972  -1.14516446696  0.227271336684  
6.74269914627  1.20383302658  -1.51337529012  1.70892300329  -2.42832061832  -1.14559051844  0.216228817567  
6.75081801414  1.21017532245  -1.50872123908  1.70479895525  -2.43601965702  -1.14612900205  0.205046585487  
6.75889801979  1.2164183557  -1.50408512346  1.70067022114  -2.44379559617  -1.14678872619  0.193731060889  
6.76696395874  1.22254501797  -1.49948366378  1.6965542612  -2.45163179233  -1.14757998948  0.182298672913  
6.77505302429  1.22853907482  -1.49493323463  1.69246803461  -2.45951167539  -1.14851648346  0.170764311018  
6.78324103355  1.23438436197  -1.49045062103  1.68842700192  -2.46742261648  -1.14961536634  0.159133651719  
6.79125094414  1.24006571654  -1.48605405035  1.68444674291  -2.47535277531  -1.15088791068  0.147410187633  
6.79979991913  1.24556815602  -1.48176096813  1.68054218448  -2.48328610213  -1.15234551824  0.135601723153  
6.80764293671  1.25087779536  -1.47758882152  1.67672662671  -2.4912098562  -1.15400298799  0.123722333186  
6.81572508812  1.25598302401  -1.47355412028  1.67301178625  -2.49910525367  -1.15587168821  0.111787781221  
6.8237760067  1.26087440183  -1.46967123932  1.66940784479  -2.506954301  -1.15796183418  0.0998049346714  
6.83188891411  1.26554052118  -1.46595249518  1.66592669834  -2.51472858962  -1.16026290174  0.0878118093563  
6.83999896049  1.26997393239  -1.46240822938  1.66257244017  -2.52241363535  -1.16279223911  0.0757924781548  
6.84801697731  1.2741695483  -1.45904689756  1.65934818337  -2.52999331249  -1.16556780741  0.0637343477644  
6.85613703728  1.27812498986  -1.45587516337  1.65625719472  -2.53745463888  -1.16860045234  0.0516477895917  
6.86419796944  1.28183871648  -1.45289799627  1.65330232365  -2.54479222848  -1.17189796268  0.0395442129522  
6.87233901024  1.28531164514  -1.45011877214  1.65048788287  -2.55199186319  -1.17546545645  0.0274325808946  
6.88038706779  1.28854930669  -1.44753937609  1.64781631474  -2.55904044113  -1.17930493709  0.0153188696779  
6.88865208626  1.29155742548  -1.44516030648  1.6452880525  -2.56592974236  -1.18341259661  0.00322062565076  
6.89661192894  1.29434555761  -1.44298077945  1.64290100959  -2.57265317285  -1.18779431677  -0.00887109596419  
6.90469503403  1.29691818075  -1.44099883338  1.64065624162  -2.57919065369  -1.19243108515  -0.0209312245918  
6.91268897057  1.29927806996  -1.43921143244  1.63855504124  -2.5855210486  -1.19728371797  -0.032902388905  
6.92077994347  1.3014403514  -1.43761456888  1.63659198693  -2.59164410011  -1.20237337606  -0.0448260507871  
6.92889308929  1.30341601761  -1.43620336331  1.63476480822  -2.59754960233  -1.20770063227  -0.0567167977703  
6.93697309494  1.30521451049  -1.43497216271  1.6330742989  -2.60323281292  -1.2132663687  -0.0685935556687  
6.94512009621  1.30684195037  -1.43391463553  1.63152034274  -2.60868449066  -1.21905638382  -0.0804482049209  
6.95331811905  1.30830554227  -1.4330238637  1.63010198493  -2.61389878692  -1.22506721673  -0.0922927083343  
6.9613339901  1.30961530202  -1.43229243108  1.62881750304  -2.6188776339  -1.23129934213  -0.104144556627  
6.96951913834  1.31077940897  -1.43171250819  1.62766447736  -2.62362427439  -1.23774200298  -0.116005790077  
6.97768592834  1.31180714866  -1.43127593287  1.62663826352  -2.62813312336  -1.24438250734  -0.127866211207  
6.98567199707  1.31271112283  -1.4309742868  1.62573285732  -2.63240467059  -1.25121042474  -0.139717408882  
6.99369907379  1.31350490039  -1.43079896762  1.62494197093  -2.63644168518  -1.25821142568  -0.151552358067  
7.00184607506  1.31419966669  -1.43074125663  1.62425909408  -2.6402502594  -1.26536829233  -0.163366346162  
7.00993204117  1.31480719033  -1.43079238192  1.62367914791  -2.64383534829  -1.27266417553  -0.175153490028  
7.0179901123  1.31533601702  -1.430943577  1.62319774168  -2.64719998193  -1.28008016693  -0.186910195968  
7.02610206604  1.3157921643  -1.43118613472  1.62281021385  -2.65035333293  -1.28759661749  -0.198631672822  
7.0341899395  1.3161816337  -1.4315114568  1.62251168201  -2.65330810052  -1.29519477996  -0.210307370832  
7.04233503342  1.31650836072  -1.43191109869  1.62229709035  -2.65607723072  -1.30285935971  -0.221925502427  
7.0503950119  1.31677518803  -1.43237681006  1.62216125451  -2.65866880797  -1.31057479559  -0.233479559987  
7.0585000515  1.31698510945  -1.43290057096  1.62209890371  -2.66108846366  -1.3183274601  -0.244966280188  
7.06726193428  1.31714325318  -1.43347462372  1.62210472023  -2.66334245958  -1.32610351175  -0.256379063126  
7.07519507408  1.3172578617  -1.4340915007  1.62217337601  -2.66543760028  -1.33389107953  -0.26770993924  
7.08321094513  1.31733798443  -1.43474404817  1.62229956654  -2.66738615705  -1.34168060538  -0.278956073724  
7.09135007858  1.3173941961  -1.43542544636  1.62247804199  -2.66919827616  -1.34946326126  -0.290117719073  
7.09942698479  1.31743153405  -1.4361292258  1.62270363552  -2.67087622759  -1.35721091221  -0.30116357565  
7.10767197609  1.31745928737  -1.43684928036  1.62296969245  -2.67243002817  -1.36491617103  -0.31209084046  
7.11570310593  1.3174907903  -1.4375798769  1.62327048722  -2.67387053254  -1.37257752456  -0.322903382886  
7.12379312515  1.31753630507  -1.43831566192  1.62360145592  -2.67521554766  -1.38018903736  -0.333601791024  
7.13180804253  1.31760000526  -1.43905166531  1.62395820163  -2.67647291739  -1.38772446796  -0.34415593529  
7.13997793198  1.31768931583  -1.43978330145  1.62433650878  -2.67766167551  -1.39517195919  -0.354565934593  
7.14802503586  1.31781244262  -1.4405063678  1.6247323552  -2.67880149319  -1.40252573527  -0.364840852124  
7.15607714653  1.31797556824  -1.4412170413  1.62514192211  -2.67990997446  -1.40978020622  -0.37498218695  
7.16414308548  1.31818011878  -1.44191187258  1.62556160202  -2.68100146896  -1.41692624567  -0.384982472114  
7.172301054  1.31842479915  -1.44258777841  1.62598800471  -2.68208138132  -1.42394420599  -0.394812643077  
7.180382967  1.31871017999  -1.44324203237  1.62641796143  -2.68316186005  -1.43082739601  -0.404465631869  
7.18858504295  1.31903771131  -1.44387225412  1.62685012381  -2.68426496885  -1.43758176483  -0.413952408251  
7.19672894478  1.31940645504  -1.44447639728  1.62728257082  -2.68539881836  -1.44420504516  -0.423268093626  
7.20476913452  1.31981814125  -1.44505273621  1.6277157889  -2.68657193726  -1.45070012397  -0.432415913325  
7.21279907227  1.32027645238  -1.44559985184  1.62815049155  -2.68778778378  -1.45707130428  -0.441405242416  
7.22088813782  1.3207865096  -1.44611661666  1.6285847982  -2.68904843811  -1.4633203975  -0.45024337073  
7.22907400131  1.32135389208  -1.44660217908  1.62901604368  -2.69035846652  -1.46944482337  -0.458937960736  
7.23709011078  1.32197936198  -1.44705594732  1.62944178872  -2.69171175686  -1.47543003179  -0.467476936109  
7.24519014359  1.32267903347  -1.44747757289  1.62985662416  -2.69311157694  -1.48129017037  -0.475890508372  
7.25330400467  1.32346380276  -1.44786693389  1.63025695603  -2.69455440524  -1.48703053885  -0.484197688713  
7.26137804985  1.325314287  -1.44854541011  1.63100567956  -2.69756074601  -1.4981605709  -0.500591324137  
7.26972007751  1.32637689284  -1.44882926681  1.63134715918  -2.69911317883  -1.50354121791  -0.508698954124  
7.27765893936  1.32752451643  -1.44906883888  1.63165911727  -2.70068833252  -1.5087995451  -0.516781872762  
7.28566598892  1.32875216879  -1.44925940796  1.63193657422  -2.70227759169  -1.51394206699  -0.524872371971  
7.29376792908  1.33004837013  -1.4494004294  1.63217795345  -2.70386999613  -1.51896214506  -0.532952734211  
7.30186796188  1.33140378042  -1.44948971004  1.63238042565  -2.70546042589  -1.52387507009  -0.541028696704  
7.30993103981  1.33281177089  -1.44952637854  1.63254228777  -2.70704208845  -1.52869271294  -0.549102607583  
7.31808304787  1.33427395644  -1.44950912715  1.63266155623  -2.70861085532  -1.53343640653  -0.557198660741  
7.32620191574  1.33579418317  -1.44943791543  1.63273733018  -2.71015590737  -1.53812296677  -0.565336064036  
7.33423399925  1.33737446134  -1.44931420837  1.63276998287  -2.71166656823  -1.54275447066  -0.57351422295  
7.34233593941  1.33902030064  -1.44913568651  1.63275533266  -2.71313613044  -1.54733776176  -0.581738008097  
7.35060405731  1.34074074297  -1.44889821573  1.63268701486  -2.71455866241  -1.55188133709  -0.590016311801  
7.35875892639  1.34254081431  -1.44859834829  1.63256108866  -2.71592898494  -1.5563843046  -0.598340969603  
7.36676311493  1.34441424708  -1.4482372884  1.63237840699  -2.71723763609  -1.56083168607  -0.606678770153  
7.37484502792  1.34637426468  -1.44780687188  1.63212919168  -2.71847835355  -1.5652241925  -0.615041725137  
7.38295507431  1.34844060532  -1.44729698939  1.63180216045  -2.71964870949  -1.56956701394  -0.623455166016  
7.39104104042  1.3506232573  -1.44670114513  1.63139178748  -2.72074189335  -1.57385584714  -0.631924764428  
7.39917111397  1.35292433018  -1.44601587959  1.63089602486  -2.72175418421  -1.57808162715  -0.640446713718  
7.40717506409  1.35534469516  -1.4452397244  1.63031444788  -2.72268557823  -1.58223492064  -0.649014836932  
7.41528701782  1.35788760611  -1.44436989124  1.62964559866  -2.72353156514  -1.58630747673  -0.657623150023  
7.42338013649  1.36056252149  -1.44339922501  1.62888454298  -2.7242855883  -1.59029218653  -0.666281912594  
7.43159413338  1.3633667791  -1.44232741044  1.62803182823  -2.72494717986  -1.59417552496  -0.674981590067  
7.4396340847  1.36630902279  -1.44114746515  1.62708267252  -2.72551439976  -1.59794876909  -0.683732808038  
7.44770598412  1.36940008008  -1.43985260911  1.62603245581  -2.72598311774  -1.60160143338  -0.692546083789  
7.45578503609  1.37263826581  -1.43844280286  1.62488194486  -2.72636015339  -1.60512270953  -0.701411012659  
7.46388292313  1.3760195963  -1.4369198915  1.62363180689  -2.72664820153  -1.60850490723  -0.710312994325  
