Ethan-CYM/ros_catkin_ws/test/servol_正常操作/ur_joint_target_current.txt
time  shoulder_pan_joint  shoulder_lift_joint  elbow_joint  wrist_1_joint  wrist_2_joint  wrist_3_joint
0.14808011055  -0.197352958084  -2.02192286381  -1.32876877288  -0.37253655994  0.0430436225228  -0.541046537864  
0.15615105629  -0.205542066863  -2.01557015487  -1.34248498246  -0.371456037686  0.0478194245188  -0.517185698618  
0.164272069931  -0.211914502718  -2.01064754569  -1.35310709945  -0.370300507117  0.0416152620738  -0.493564986703  
0.17226600647  -0.216281978733  -2.00707530429  -1.36080687665  -0.369082791393  0.0475039639378  -0.470312384067  
0.180613040924  -0.218976430725  -2.00560213492  -1.36606536068  -0.37146933259  0.0510836223538  -0.447543652176  
0.188719987869  -0.220268147161  -2.0035809457  -1.36812529683  -0.366512897772  0.0540685129137  -0.425362562135  
0.196636915207  -0.220100326472  -2.00356107818  -1.36813535974  -0.365156040127  0.0461716582659  -0.403861181373  
0.204641103745  -0.218382927216  -2.0045560558  -1.36594963899  -0.363784247167  0.0504723562345  -0.383120210719  
0.212723016739  -0.215535772576  -2.00648080501  -1.36175230472  -0.362407189024  0.0525684788696  -0.363209365869  
0.220844984055  -0.211568159791  -2.00925107791  -1.355726055  -0.361033864284  0.054175518897  -0.344187797432  
0.228816986084  -0.206603097519  -2.01361438629  -1.34835302196  -0.363326662148  0.0450072266322  -0.326104543937  
0.236849069595  -0.20081196068  -2.01692707473  -1.33887700899  -0.358334356747  0.0378303851308  -0.308999012459  
0.245002031326  -0.194040102622  -2.02174300451  -1.32842951252  -0.356995423647  0.0412871836668  -0.292901481704  
0.253123044968  -0.186779927998  -2.02708412521  -1.31684895188  -0.355691123116  0.0323517274804  -0.277833622713  
0.261184930801  -0.17864433918  -2.03370672107  -1.30459734526  -0.358080658623  0.0357762444976  -0.263809032566  
0.269381046295  -0.161465683257  -2.04629166148  -1.27716012439  -0.355670445185  0.0278881626286  -0.238906936345  
0.277569055557  -0.152295547004  -2.05212187127  -1.26226350384  -0.3508806646  0.0310329940092  -0.228021155647  
0.285547971725  -0.142902842907  -2.0590392033  -1.24729671637  -0.349775300253  0.0321837073452  -0.21816318782  
0.293646097183  -0.133352621234  -2.06608535457  -1.2320576699  -0.34873177533  0.0330453669844  -0.209314434317  
0.301738977432  -0.123812967606  -2.07320632689  -1.21666285016  -0.347751810996  0.0233276515023  -0.201451475823  
0.309814929962  -0.114149974982  -2.0803520091  -1.20122058389  -0.346836628995  0.0157790703589  -0.194546591873  
0.317835092545  -0.104433407827  -2.08747597834  -1.18583095091  -0.345986922009  0.0190231582852  -0.188568266829  
0.325950145721  -0.0949204622601  -2.09453549424  -1.17058579961  -0.345202888749  0.0203400321163  -0.176419889108  
0.334089994431  -0.0854723524343  -2.10232181354  -1.15586812832  -0.348136327886  0.0214285791934  -0.16466993723  
0.342134952545  -0.0764966094573  -2.10823885802  -1.14082974592  -0.343832115918  0.011995864186  -0.153997136371  
0.350222110748  -0.0675519368608  -2.11405646193  -1.12618927963  -0.339566407245  0.0150818965866  -0.144386836492  
0.358487129211  -0.0589046222901  -2.12140713437  -1.11260525761  -0.342668722526  0.00597560677499  -0.135816916991  
0.366533994675  -0.0505540916491  -2.12763443704  -1.09918106871  -0.342206451197  -0.000901599020107  -0.128258741152  
0.374597072601  -0.0425395053397  -2.13361751634  -1.08628717136  -0.341803270006  -0.00689164812722  -0.121678087441  
0.38267993927  -0.0347881875383  -2.13933828552  -1.07396227909  -0.34068291176  -0.00255374151483  -0.116036045929  
0.390675067902  -0.0276165786077  -2.14478152031  -1.06223848601  -0.301475221662  -0.00990015285678  -0.111289870333  
0.398756027222  -0.0206389714591  -2.14993522802  -1.051141694  -0.264493953065  -0.00525099236802  -0.107393778314  
0.406831026077  -0.0140863831681  -2.15561989636  -1.04099065458  -0.251745901297  -0.00248769798283  -0.104299694613  
0.414943933487  -0.00812802397323  -2.15926814912  -1.03087733668  -0.214146513862  7.63818007565e-05  -0.101957933389  
0.422991037369  -0.00249672501821  -2.16350682603  -1.02175899404  -0.18252240638  0.00255719408891  -0.100317817761  
0.431107997894  0.00271209900668  -2.16743348212  -1.01331549799  -0.153249901176  0.00485545569049  -0.00653303330542  
0.439222097397  0.00746394416298  -2.17130027556  -1.00584893833  -0.12622043811  0.00694546184157  0.260047208874  
0.447425127029  0.0116967754905  -2.17489410685  -0.999093510367  -0.101476905847  -0.00145254286997  0.259765043782  
0.455610990524  0.0157214981883  -2.1781563049  -0.992966749572  -0.0790007024198  0.00263508668469  0.25905112609  
0.463645935059  0.0193262748201  -2.18192225442  -0.987757087804  -0.0807799923209  0.00484724956669  0.257938184843  
0.471734046936  0.0223596759971  -2.18363839263  -0.982528284057  -0.0575558323407  0.00685782628142  0.256459324733  
0.479679107666  0.02510499989  -2.18594449996  -0.978212392034  -0.0401074201102  0.00867003281795  0.254647826025  
0.487817049026  0.0273852548816  -2.18794998082  -0.974466296319  -0.0247550048016  -1.20269828892e-05  0.252536943537  
0.495943069458  0.0294148880181  -2.18966577473  -0.971269202957  -0.0114344982163  -0.00616126103317  0.250159707751  
0.503984928131  0.0312969645748  -2.19110373036  -0.968598489682  -7.37106678257e-05  0.00822516398673  0.247548730938  
0.512059926987  0.0325498544715  -2.1922762287  -0.966429947097  0.00940663277655  0.00830976566176  0.244736020968  
0.520164966583  0.0335996597772  -2.1931967612  -0.964738184187  0.0170916400683  0.00989358773635  0.241752805161  
0.528183937073  0.0343593373703  -2.19387910915  -0.963496755249  0.023071424825  0.0112932479064  0.238629366244  
0.536368131638  0.0348466727756  -2.19433751378  -0.962678461461  0.0274400512287  0.0125143295818  0.23539489211  
0.544464111328  0.0349834865053  -2.19458645597  -0.962255562206  0.0279838521734  0.00326204181653  0.232077340779  
0.552588939667  0.0350849777165  -2.19464079257  -0.962200036613  0.027751190985  0.00656592787567  0.228703321559  
0.560785055161  0.0347681288093  -2.19451509678  -0.962483681107  0.0275148228398  -0.00222712355493  0.225297993119  
0.568786144257  0.0344525100996  -2.19422432065  -0.963078438217  0.0272764489926  0.0014237075726  0.22188497883  
0.576857089996  0.033754864578  -2.19378289281  -0.963956414578  0.0270377590354  -0.00669305321211  0.221209322058  
0.584911108017  0.0329980316885  -2.19320539989  -0.965090181342  0.025362191704  -0.0125274982009  0.215115461139  
0.592988014221  0.0320950334898  -2.19250594707  -0.96645280814  0.0212383082988  -0.0178321751139  0.211788365939  
0.601089000702  0.0310628335847  -2.19169835118  -0.968018040121  0.0162985529376  -0.0226151015724  0.208533059449  
0.60939002037  0.0300141625361  -2.19079607234  -0.969760408513  0.0106374639793  -0.017076620688  0.205364799704  
0.617274045944  0.028764260283  -2.18981197919  -0.971655295871  0.00434678969716  -0.013419802843  0.20229714921  
0.625338077545  0.0274328007586  -2.18875858649  -0.973679075266  -0.00248496158071  -0.00996380717295  0.199341993153  
0.633606910706  0.0260237919635  -2.18847805219  -0.976109099668  -0.0318370670842  -0.0165220418327  0.196509577274  
0.641533136368  0.024583795264  -2.18642064905  -0.977998118455  -0.0343007031666  -0.0111030763096  0.193808556423  
0.649662971497  0.0229961270735  -2.1852288178  -0.980277196528  -0.0407045938325  -0.0174013791924  0.191246052491  
0.657644987106  0.0215815336453  -2.18401237949  -0.982601721274  -0.0473593675659  -0.0117369139539  0.186107614554  
0.665765047073  0.0200465299594  -2.18278067107  -0.984953687365  -0.0542038502365  -0.00799707132073  0.186567589868  
0.673874139786  0.0184956442344  -2.18237282569  -0.98761643871  -0.0832025083532  -0.0143052104601  0.184465461202  
0.681975126266  0.0169716328745  -2.18023586752  -0.989648285479  -0.0850624560236  -0.00866988283538  0.182514942258  
0.690056085587  0.0153537210668  -2.17900910498  -0.991986850501  -0.0905933282334  -0.0147831076424  0.180716624237  
0.698077917099  0.0138624222531  -2.17779903215  -0.994293469444  -0.0961323203773  -0.0187730823084  0.179070038141  
0.706243038177  0.0124971669221  -2.17661186015  -0.996556295655  -0.101644303409  -0.0125280123312  0.177573751591  
0.714443922043  0.010967810281  -2.17545306701  -0.998764656821  -0.107097048585  -0.0180559168721  0.17622545685  
0.722509145737  0.00958542084143  -2.1743277589  -1.000909094  -0.112461283599  -0.0214855484437  0.175022058175  
0.730459928513  0.00834717029328  -2.17324031727  -1.00298125819  -0.1177105468  -0.0147060848353  0.173959757776  
0.73867893219  0.00705699769505  -2.17219447973  -1.00497388611  -0.122821145563  -0.00991965462857  0.173034139732  
0.746761083603  0.005812559112  -2.17202381835  -1.00718098274  -0.149738920359  -0.0152510628201  0.172240251325  
0.754806995392  0.00465000210834  -2.17016983031  -1.008670842  -0.149323190927  -0.00870867476063  0.171572681321  
0.762937068939  0.00345257991606  -2.16843615834  -1.01009130498  -0.130390539513  -0.00417808032895  0.173741107786  
0.771034002304  0.00249798462191  -2.16848584139  -1.01204003814  -0.138431490335  2.6311241366e-05  0.170579129772  
0.7791929245  0.00151638509241  -2.16768762753  -1.01356206718  -0.142644572522  0.00409282342201  0.170238646291  
0.78720498085  0.000601602627632  -2.16694305611  -1.01498163478  -0.146644851235  0.00786226979809  0.097146768057  
0.795287132263  -0.000666478617529  -2.16599149906  -1.01679618922  -0.150424073109  0.000990676453831  0.0218927647485  
0.803527116776  -0.00111862172919  -2.16601731761  -1.01754825197  -0.153976017764  -0.00362966974947  -0.0465242219393  
0.81170296669  -0.00173424197941  -2.16511233412  -1.01871515247  -0.157296340845  0.00211186024878  -0.108466386363  
0.819692134857  -0.00230198017564  -2.16545669761  -1.02007547834  -0.182284776405  0.00599063846366  -0.16499637147  
0.827741146088  -0.00298259462409  -2.16411840767  -1.02070433061  -0.179948879076  0.00953168917957  -0.189146582023  
0.835848093033  -0.00351690816937  -2.164558706  -1.02185651668  -0.20293506009  0.00243858335573  -0.191661633189  
0.843868970871  -0.00396660135158  -2.16331456542  -1.02228237725  -0.198619586695  0.00773840593811  -0.188664964696  
0.852010011673  -0.00436742640408  -2.16301639014  -1.02293732812  -0.197749848499  0.0110219162946  -0.188328955596  
0.860121011734  -0.00471002726863  -2.16276202217  -1.0234990128  -0.196720406544  0.013982566991  -0.187947599065  
0.868240118027  -0.00499679588854  -2.162549637  -1.02397118017  -0.195550055441  0.0166269760432  -0.187526690941  
0.876367092133  -0.00523028536366  -2.16237729455  -1.0243578456  -0.194257020853  0.0189632115437  -0.189795636097  
0.884640932083  -0.00542381923965  -2.16307320594  -1.02496334971  -0.214781949312  0.0106973369938  -0.186582483799  
0.89265704155  -0.00572931591116  -2.16124361028  -1.02456562806  -0.186187030895  0.00456553045107  -0.186059365601  
0.900675058365  -0.00571858411621  -2.16208000268  -1.02504783637  -0.188271286594  -0.00101369076339  -0.185519224775  
0.908764123917  -0.00575883726009  -2.16204718885  -1.02513658138  -0.18668149109  -0.00604594208125  -0.184966705784  
0.916855096817  -0.00566393762122  -2.16204363289  -1.02516235479  -0.185056728402  -0.000754449176121  -0.184406189348  
0.924883127213  -0.00563752207608  -2.16206701189  -1.02512987101  -0.183409806622  0.00268841648753  -0.183841773178  
0.932966947556  -0.0054819000011  -2.16211516891  -1.02504386986  -0.18175270272  0.0162275944895  -0.183277267304  
0.941054105759  -0.00541119566019  -2.16301604342  -1.02520908332  -0.202010101005  0.0167598843028  -0.182716191586  
0.949131011963  -0.0054837094162  -2.16220627406  -1.02470397697  -0.195182061013  0.00840154812844  -0.182161775291  
0.957272052765  -0.00533462573621  -2.16231568559  -1.02448508197  -0.192016549032  0.0021988410038  -0.181616958584  
0.965470075607  -0.00487828222611  -2.16258203798  -1.02394645209  -0.185864122858  0.00149698685104  -0.180566460297  
0.973591089249  -0.00468074187042  -2.16273487256  -1.02363516021  -0.182905750232  0.00457185667327  -0.180065250873  
0.981647014618  -0.00446948108481  -2.16289824815  -1.02330126973  -0.180042349674  0.00738007087641  -0.179582599371  
0.989686965942  -0.00424687621592  -2.16307033208  -1.0229486084  -0.1772843159  0.00992485063416  -0.179120079552  
0.997652053833  -0.00401519001827  -2.16324937987  -1.02258082331  -0.174640578778  0.0122107987457  -0.178679016933  
1.00570607185  -0.00377656593742  -2.16343373928  -1.02220137222  -0.172118662333  0.0142437720655  -0.180983951919  
1.01379299164  -0.00353302406196  -2.16362185339  -1.02181351686  -0.169724747871  0.0160307480728  -0.177858983453  
1.02185606956  -0.00328645815713  -2.16381226285  -1.02142031782  -0.167463740502  0.0175796946925  -0.177471487697  
1.02998495102  -0.00303863371388  -2.16400360738  -1.02102463119  -0.165339338373  0.0188994439433  -0.177109931097  
1.03802514076  -0.00279118694666  -2.16419462653  -1.0206291067  -0.163354103958  0.0199995699179  -0.176774540314  
1.04611802101  -0.00254562467267  -2.16438415972  -1.02023618729  -0.161509536805  0.0208902715363  -0.176465373132  
1.05420613289  -0.00239960508224  -2.16457109784  -1.01984810062  -0.159803080115  0.0112786933617  -0.176182318071  
1.06252002716  -0.00205746747916  -2.16475462426  -1.01946690866  -0.158235631994  0.0142039518623  -0.175925108351  
1.07049107552  -0.00182539891883  -2.16493372361  -1.01909441486  -0.156807935277  0.0152567107254  -0.158486156808  
1.07860398293  -0.00160001683568  -2.16510767437  -1.01873226536  -0.155518034494  0.0161331704146  -0.138554441495  
1.08657097816  -0.0013822006525  -2.16527579645  -1.01838190513  -0.154363256311  0.0168415714398  -0.119316252349  
1.0947060585  -0.00117271507237  -2.16543749877  -1.01804459374  -0.153340294525  0.0173905520434  -0.100836960433  
1.10270404816  -0.000886547409107  -2.16642255283  -1.01802143283  -0.174365992451  0.0177890993782  -0.0831720693805  
1.11085796356  -0.000788425490357  -2.16566929595  -1.01738730833  -0.168416866538  0.0180463299531  -0.0663676535857  
1.11883401871  -0.000607362603762  -2.16580928357  -1.01709476612  -0.166228092077  0.0181716958892  -0.0504608201602  
1.12724494934  -0.000447196864084  -2.16717804905  -1.01711877047  -0.186079808049  0.00787212449639  -0.0354801896498  
1.13541102409  0.000108269608586  -2.16627836566  -1.01653379776  -0.178988222099  0.0101830290807  -0.0214463908629  
1.14356708527  0.00010030978486  -2.1662794594  -1.01593034362  -0.175680252857  0.0106940952465  -0.00837256549137  
1.1516160965  9.23452901675e-05  -2.16628087551  -1.0159402971  -0.172539378094  0.0110992225529  0.00378228105266  
1.15969991684  8.44259792312e-05  -2.16628257523  -1.0159504806  -0.169572072322  0.011404125653  0.0152661819758  
1.16772913933  6.59926361877e-05  -2.16711473852  -1.01626078498  -0.188687096706  0.00131426471954  0.0257667488192  
1.17585492134  6.97915291012e-05  -2.16621629086  -1.01594525659  -0.180897444822  0.00385718307753  0.0352946100682  
1.18403792381  6.22558299747e-05  -2.16621890178  -1.01534878196  -0.176933931061  0.0046215439356  0.043865646277  
1.19219207764  -4.13621036149e-05  -2.16622203877  -1.01521768508  -0.173180777423  -0.00479833999378  0.0515004881714  
1.20014810562  0.000528413537625  -2.16622574635  -1.015102264  -0.169644912288  -0.0116683187218  0.0582240226401  
1.20842313766  0.000601548902874  -2.16674568916  -1.01500200772  -0.166331350448  -0.0179338433317  0.0640649092308  
1.21652913094  0.000665272859412  -2.16680048171  -1.01491636148  -0.163243351497  -0.0236027090303  0.0690551095074  
1.22470402718  0.000719920393548  -2.1668481892  -1.01484472285  -0.160381814765  -0.0286858192987  0.0732294313693  
1.23270893097  0.000765856835744  -2.16688906539  -1.01478644921  -0.157740125462  -0.0331968885468  0.0594558145095  
1.24074697495  0.000899752723142  -2.16692343293  -1.01474087384  -0.155324501792  -0.027339219406  0.0660517049295  
1.24889993668  0.000825110088119  -2.16695144193  -1.01470726626  -0.153132399654  -0.0331361605026  0.0692241795768  
1.2570669651  0.00084741895778  -2.16697355681  -1.0146849344  -0.151160160089  -0.0367203539457  0.0717204959368  
1.26503491402  0.000862736272781  -2.16699004876  -1.014673132  -0.14940298599  -0.0397985668653  0.0735775557261  
1.27308106422  0.000871509054827  -2.16700125185  -1.01467111495  -0.147855126778  -0.0423908641338  0.0748333776636  
1.28120493889  0.000874190889494  -2.16700750707  -1.01467813614  -0.146509974493  -0.0445187789129  0.0927008911552  
1.28945493698  -0.0129696625876  -2.81778084807  -1.17826136737  -0.176400611428  -0.0168691038667  0.140483537431  
1.29748106003  -0.0812519013331  -3.17488533878  -1.50567056979  -0.221850247428  0.0451773524414  0.20776854002  
1.30552697182  -0.151470934725  -3.39460021867  -1.86986037247  -0.282211357023  0.148918583347  0.221074226622  
1.31353497505  -0.137718649344  -3.59916524885  -1.95695768252  -0.290041566615  0.200060893353  0.242336753158  
1.32160806656  -0.149513822213  -3.78842067636  -2.04896017173  -0.303179049149  0.205123956792  0.266037111897  
1.32965993881  -0.128088142491  -3.94796571168  -2.14166768035  -0.270210846174  0.211864562247  0.292081939604  
1.33777308464  -0.0533176699362  -4.10705188882  -2.219786402  -0.202379284895  0.216848966374  0.314939226011  
1.34587001801  0.0217057506257  -4.21924106428  -2.2803700903  -0.0789929867367  0.221536738626  0.337247790513  
1.35394501686  0.111739156834  -4.31519276087  -2.30834527391  0.00655077482506  0.224318533339  0.353494474328  
1.36197495461  0.212854768875  -4.38242707659  -2.32174858536  0.0199751416784  0.226882326378  0.377252739025  
1.37008404732  0.355335721619  -4.40903054789  -2.31966641438  0.0382382864174  0.227623681762  0.394867552296  
1.37811803818  0.521746725936  -4.38547800064  -2.32097443589  0.0541131733358  0.229841527508  0.411731474468  
1.38638305664  0.645728363771  -4.32196806204  -2.29988660715  0.0747353216845  0.228225791929  0.422349817841  
1.39452505112  0.659034159283  -4.19822020036  -2.27311891521  0.0931842749709  0.229820380687  0.432146838737  
1.40260696411  0.641199927618  -4.04671465649  -2.24389052452  0.108327883621  0.227832541494  0.438388233555  
1.41063594818  0.61162283611  -3.8943655136  -2.19698928427  0.123097256662  0.22727358138  0.438324150707  
1.41872811317  0.582133312398  -3.73083110397  -2.14995837114  0.137584520376  0.226579775887  0.439336179588  
1.42674899101  0.539849367847  -3.5540461134  -2.11291725296  0.147992118388  0.225663697697  0.429626891322  
1.434871912  0.513656089409  -3.39833666613  -2.0780831423  0.157041924164  0.223043856976  0.422427680712  
1.44290614128  0.488761685693  -3.25217475561  -2.05401100588  0.161489288556  0.220322797161  0.41248058247  
1.45099806786  0.451955394283  -3.11406562771  -2.04927726506  0.16857634786  0.217421511403  0.402561604463  
1.45921111107  0.405991268516  -2.9972060233  -2.04646764898  0.174516662506  0.21608361596  0.392730172543  
1.46717691422  0.208463560599  -2.87652699078  -2.05153883376  0.176367537232  0.214842296419  0.383040024599  
1.47526311874  -0.056712720756  -2.7630069646  -2.05681905645  0.177557532898  0.211782723931  0.37093391776  
1.48352313042  -0.361471203415  -2.65818309156  -2.07073427734  0.181602563082  0.208724606245  0.359175539674  
1.49167704582  -0.670167168738  -2.55687171603  -2.07488357668  0.181462481692  0.207500737493  0.34520352076  
1.4996471405  -0.751107404665  -2.46233573446  -2.08832270669  0.180638695276  0.204503564492  0.334385244214  
1.50774693489  -0.781146794163  -2.37628989247  -2.1102740524  0.179128544368  0.201549677226  0.32143425782  
1.51576304436  -0.795882088892  -2.30095451476  -2.14912002437  0.176794282437  0.198757375219  0.311705294272  
1.52379703522  -0.821388839562  -2.23266918596  -2.19559156049  0.173953613258  0.194216512937  0.299899839735  
1.5318441391  -0.831429608201  -2.17282022497  -2.24819353877  0.174218820096  0.191563044953  0.291361160309  
1.53996014595  -0.838407986517  -2.13547334762  -2.30858306237  0.17358940817  0.189010597946  0.280779861701  
1.54811191559  -0.829038535871  -2.12016594417  -2.35819296088  0.16503091138  0.186672304925  0.273488980322  
1.55617904663  -0.819141983811  -2.10881748448  -2.41318975936  0.163470685565  0.184437817047  0.264169560447  
1.56442809105  -0.802642959927  -2.15469914355  -2.43340555891  0.164210675897  0.184031450897  0.258145217966  
1.57256603241  -0.78800981836  -2.19256475867  -2.48689438905  0.161229944062  0.182041523142  0.247482844223  
1.58053207397  -0.759336534164  -2.22719037036  -2.49939095595  0.162486886481  0.180260457316  0.236517013858  
1.58855295181  -0.744512490733  -2.24553041983  -2.49076040832  0.160938889022  0.17847819496  0.22541869098  
1.59666109085  -0.719620225655  -2.2014139727  -2.41141763515  0.154883393347  0.176902483439  0.214920674889  
1.60465908051  -0.714151742308  -2.36079524613  -2.5971936893  0.171997444227  0.178681373829  0.207784549808  
1.61277294159  -0.698375214023  -2.4133839044  -2.62879308967  0.176400042341  0.178976289207  0.198560398459  
1.62090706825  -0.669582049018  -2.46367587134  -2.6387666248  0.181075764471  0.179474893132  0.189973923273  
1.62898492813  -0.642013623045  -2.51392368453  -2.65587805251  0.185586069694  0.181764856609  0.182033338266  
1.63708209991  -0.616771703018  -2.54872008689  -2.66954537803  0.186875851006  0.182425280065  0.174741199149  
1.64516210556  -0.591419868587  -2.59516247061  -2.67311944025  0.191405649556  0.181431249747  0.168094891394  
1.65335893631  -0.544784688948  -2.68276843538  -2.68410499372  0.207442712717  0.182982473285  0.156702090022  
1.66138100624  -0.524834377879  -2.70970014592  -2.68447491253  0.212094397697  0.18209612995  0.154639698361  
1.66964197159  -0.517649179673  -2.74792568041  -2.68248547002  0.219807728257  0.184545619747  0.150439907088  
1.67757201195  -0.499307048544  -2.7706910037  -2.66928765785  0.220618762598  0.183733693125  0.146795219387  
1.68557810783  -0.482639251061  -2.79130482198  -2.6640477749  0.228360932557  0.184634348708  0.140963286942  
1.6936879158  -0.467368855458  -2.81030170945  -2.65811816963  0.235627431245  0.183847644686  0.138372675164  
1.70171308517  -0.453070740087  -2.82947787347  -2.65235566151  0.231850411815  0.184776909913  0.1362841899  
1.70980000496  -0.441301931814  -2.82868254314  -2.63473347576  0.235583936079  0.185714870297  0.137386536195  
1.71791195869  -0.430633754974  -2.82805170953  -2.6178566652  0.235489760152  0.186664096349  0.13620211844  
1.7259979248  -0.421485185324  -2.82709801887  -2.61000767651  0.238448003566  0.187615322509  0.135414886691  
1.73416495323  -0.412099309884  -2.84005923778  -2.59521200632  0.237289221134  0.185154072989  -0.0128726393295  
1.74219512939  -0.405181288132  -2.8368556452  -2.58779261339  0.239742916206  0.18778710612  -0.227080600052  
1.75044202805  -0.398385797435  -2.84956322785  -2.59115656663  0.241174388168  0.188732647885  -0.224279971814  
1.75856614113  -0.393901858451  -2.8465034383  -2.59261302042  0.239411506348  0.18795970018  -0.223914035674  
1.7666311264  -0.38911444421  -2.85702676288  -2.59500356932  0.240462566126  0.188874734413  -0.223292573801  
1.77473592758  -0.386254576115  -2.8518183326  -2.59556807779  0.238356047  0.193194225446  -0.222437341387  
1.78280901909  -0.383306950722  -2.86031944471  -2.59718996271  0.239098955816  0.194102507286  -0.221370073178  
1.79095196724  -0.379563990938  -2.88226077813  -2.59166855247  0.23588512157  0.196683756752  -0.222839048734  
1.79897594452  -0.378831344678  -2.8902197024  -2.61099898389  0.236098540284  0.197520030022  -0.2186824177  
1.80707597733  -0.392100357738  -2.87412031395  -2.59132814422  0.237428406458  0.199894549957  -0.217090716133  
1.8152680397  -0.389961798951  -2.89142697819  -2.58516837252  0.237257001103  0.204054350436  -0.21537240662  
1.82342100143  -0.401381605965  -2.90396732331  -2.57055265624  0.237195170002  0.206347603752  -0.21354722498  
1.83159899712  -0.412780713213  -2.91472786756  -2.55684471035  0.236997764397  0.208570016131  -0.211634231588  
1.83963704109  -0.424283636025  -2.9243396105  -2.55264984098  0.239893491654  0.212421690434  -0.20965170634  
1.8476369381  -0.446840116451  -2.94333492393  -2.53299773128  0.24237583079  0.216091905209  -0.207617079689  
1.85567092896  -0.455746146434  -2.96228121677  -2.51501336561  0.24109332689  0.216369493586  -0.202818694261  
1.86374902725  -0.464492581461  -2.9778177341  -2.49807747144  0.243149483133  0.218229376499  -0.203458635002  
1.87187194824  -0.471992706715  -3.01241269021  -2.5120484228  0.24042842773  0.221701303075  -0.201379804199  
1.87993097305  -0.481505145801  -3.0074049542  -2.49456651326  0.239370071797  0.22334973465  -0.19930763969  
1.88798213005  -0.489650861569  -3.01984108318  -2.49868072564  0.237337235548  0.224883820413  -0.197254671586  
1.89610600471  -0.510424753534  -3.02758904934  -2.50277035856  0.238778352977  0.226187374225  -0.195232355779  
1.90416502953  -0.528188302652  -3.04656940736  -2.49151853455  0.23647454692  0.229093699803  -0.193251098577  
1.91240501404  -0.572027876248  -3.04594151065  -2.48885814609  0.234673211022  0.233390669502  -0.188592861  
1.92046093941  -0.611830801003  -3.05491612029  -2.47045396938  0.2361656838  0.234186626976  -0.189451034715  
1.93132591248  -0.640702270788  -2.99745186916  -2.41971239676  0.229964523212  0.234950059778  -0.187661910648  
1.93950104713  -0.65667464254  -2.90763783519  -2.34264914671  0.218915791287  0.233975031653  -0.185943719846  
1.9475479126  -0.810437646413  -3.02445946042  -2.42237912212  0.236818732492  0.240204708962  -0.181575382263  
1.95561003685  -0.92134523012  -3.05145645865  -2.42584036014  0.240479095366  0.239923480804  -0.18274459546  
1.96365499496  -0.967386903928  -2.98256393324  -2.38152262919  0.237375819968  0.238362469007  -0.178558896413  
1.9717400074  -1.10397607987  -3.00450890558  -2.38999876956  0.240963192157  0.237578585536  -0.17991509495  
1.97983407974  -1.1941178741  -2.98999370557  -2.35837192218  0.242567184255  0.233661654183  -0.175920255985  
1.98793792725  -1.27608771023  -2.97576261112  -2.33034838452  0.240552501884  0.229691694284  -0.177468583648  
1.9960091114  -1.36282571825  -2.95767527648  -2.29646452019  0.238832419732  0.225585785331  -0.173666861961  
2.00415802002  -1.42686060123  -2.95199681247  -2.2455436452  0.240350816854  0.219884547973  -0.175406907722  
2.01236200333  -1.4703664983  -2.94767207174  -2.19236676237  0.238211091096  0.217731161901  -0.174519824218  
2.02055501938  -1.52046262825  -2.9379345077  -2.13313307409  0.239805295145  0.212104305561  -0.170992276943  
2.02857494354  -1.56203420455  -2.94269595189  -2.07144280187  0.237476029835  0.206545303568  -0.170277235978  
2.03671002388  -1.57258972263  -2.92975353969  -1.99349536046  0.232688780084  0.202990979951  -0.169659363358  
2.04482197762  -1.62556374556  -2.95691306053  -1.92718267975  0.233537049913  0.195718881313  -0.169134858919  
2.05296206474  -1.66275979879  -2.93693223381  -1.86862897597  0.232249615031  0.190386268444  -0.168699653975  
2.06107401848  -1.70317527708  -2.94113422181  -1.80178742443  0.226985844273  0.183431326399  -0.168349433147  
2.06918597221  -1.75271645399  -2.91083055608  -1.75396587537  0.226125511168  0.178263903067  -0.117178938502  
2.077450037  -1.8040616301  -2.86706741206  -1.65848567437  0.217654987583  0.167183255779  -0.00860073287646  
2.08563709259  -1.80342571295  -2.82339760034  -1.61535704898  0.211164803917  0.161259972646  0.0405573046563  
2.09362006187  -1.79250261642  -2.78007873779  -1.57700701918  0.208494146709  0.155595200324  0.0861897421098  
2.10168600082  -1.78847370719  -2.75300711068  -1.54631079449  0.205519177151  0.148406803401  0.127790671693  
2.10972499847  -1.77030735909  -2.69582653743  -1.51567683606  0.203824332943  0.143307122166  0.165406063663  
2.11777091026  -1.73619745361  -2.64205449236  -1.48130966788  0.199049940387  0.138626673526  0.1910039702  
2.12590909004  -1.7156408073  -2.56135397807  -1.46620832765  0.195317199851  0.132433605886  0.190788589465  
2.13406205177  -1.67967083942  -2.4863427182  -1.44693897634  0.188644025465  0.130076659117  0.190537674942  
2.14208197594  -1.68107986365  -2.39989167903  -1.44891419638  0.182710021188  -0.0398674069378  0.190255496465  
2.15018892288  -1.67841028151  -2.31606582312  -1.436100401  0.177722973074  -0.217122951237  0.189946193198  
2.15831303596  -1.67402175639  -2.22475170029  -1.43455200903  0.17346251378  -0.224062533791  0.189613757889  
2.16654396057  -1.67834533883  -2.13884780997  -1.34062778129  0.166483834168  -0.229098994379  0.189262023132  
2.17458295822  -1.66687456446  -2.06116074159  -0.258941811427  0.163420229569  -0.235418936064  0.188894649601  
2.18273901939  -1.6648081702  -1.98878871691  -0.248624278244  0.157610607136  -0.241531004949  0.188515116199  
2.19072008133  -1.64727910933  -1.92655151665  -0.242519816947  0.148874889204  -0.24720895232  0.185411329652  
2.19886112213  -1.61742147457  -1.85672158662  -0.245557608518  0.1479451139  -0.252474198747  0.187746204545  
2.20735907555  -1.62133330474  -1.80585459706  -0.245519121438  0.143757039321  -0.257708971295  0.18736487586  
2.21848511696  -1.59777218177  -1.76133513575  -0.258215840362  0.136280970893  -0.262382453855  0.186981921663  
2.22659611702  -1.58379829705  -1.73544871997  -0.274987210128  0.132444447981  -0.268529858896  0.186599876669  
2.23472809792  -1.54526882551  -1.70108518255  -0.291086473178  0.129578510584  -0.270726398155  0.188936421973  
2.24275898933  -1.52939249089  -1.68454759711  -0.302720648828  0.122795143734  -0.274477725401  0.185833820832  
2.25076913834  -1.51219842187  -1.67432288716  -0.325367992165  0.10842125364  -0.276170916466  0.185451786314  
2.25890612602  -1.47160250191  -1.65171084731  -0.336620662721  0.0990806325499  -0.279048869124  0.187795478463  
2.26696491241  -1.45419974337  -1.64804530061  -0.352461926318  0.0862931264289  -0.283535016621  0.190137319568  
2.27510404587  -1.42403635597  -1.64930443454  -0.369272000075  0.0741331126881  -0.285914159371  0.1897475523  
2.28322696686  -1.40627194715  -1.6510837408  -0.386372755991  0.0664171150022  -0.288093788112  0.194773069159  
2.29150891304  -1.377554526  -1.64394088253  -0.411770396987  0.0560087039954  -0.288156764734  0.197044346385  
2.29959702492  -1.34789968405  -1.65434624389  -0.430463131483  0.0460157391734  -0.289635705669  0.201978127476  
2.30762290955  -1.33238256703  -1.65109981595  -0.45657109795  0.0370983272345  -0.289239273151  0.206837648737  
2.31570601463  -1.31549189565  -1.66582998216  -0.484365955934  0.0319962556022  -0.290286180607  0.211599197445  
2.32374095917  -1.31053199484  -1.68364095898  -0.521855257115  0.0237793208386  -0.291196321865  0.218958526181  
2.331813097  -1.28271409934  -1.68943465752  -0.555977453064  0.0167288770435  -0.291693952842  0.220735786354  
2.33989906311  -1.26780146069  -1.69548822624  -0.589289489499  0.0104222483214  -0.292093544361  0.227791351467  
2.34802293777  -1.25340845813  -1.70503798336  -0.630946752728  0.00451772692642  -0.295746898717  0.231953421838  
2.35612797737  -1.25100321113  -1.71072517512  -0.652401113431  -0.000129880664654  -0.297643679712  0.235922950906  
2.3641679287  -1.27353778908  -1.70268136248  -0.689513418874  -0.00405653578928  -0.301284458461  0.239692475164  
2.37241911888  -1.26022542385  -1.68424702855  -0.72200362742  -0.0033988228759  -0.30620227046  0.243254748587  
2.38057899475  -1.18771019302  -1.6768633583  -0.753490092215  -0.00615921445728  -0.303617997959  0.243884096381  
2.38858509064  -1.2632573051  -1.64162276966  -0.800594654998  -0.00775111906054  -0.308892015793  0.249746680104  
2.39660906792  -1.2742483744  -1.6151040387  -0.83519974252  -0.0809868219649  -0.308348056232  0.252678680211  
2.40465092659  -1.2706313608  -1.61072199928  -0.87078771989  -0.3376952144  -0.309215618525  0.25539079879  
2.41274905205  -1.26818638355  -1.59251223867  -0.901919654085  -0.377615502092  -0.309924902007  0.257883175595  
2.42087101936  -1.12384193682  -1.59279058081  -0.92103015153  -0.378342189952  -0.30416231348  0.254711735139  
2.42905402184  -1.29557392819  -1.55765928102  -0.948729221417  -0.373910208673  -0.314560728414  0.262231076028  
2.43946814537  -1.27415788914  -1.54228422781  -0.988588943435  -0.373184414575  -0.313286645588  0.263061944423  
2.44741511345  -1.17521297458  -1.54820287221  -1.00060525812  -0.372794726982  -0.309109501786  0.261810717396  
2.45557594299  -1.16495157161  -1.54520528955  -1.01147870197  -0.371798401542  -0.310668663826  0.263108385214  
2.46355414391  -1.20235430323  -1.54041741398  -1.0303926251  -0.370703432478  -0.312553649821  0.261520858066  
2.47165703773  -1.14330813424  -1.5485805794  -1.04633555489  -0.366268550015  -0.310140897398  0.257055785601  
2.47975301743  -1.21739905411  -1.54665494156  -1.08044281218  -0.365247931138  -0.313869374334  0.257917445024  
2.48789596558  -1.14706961751  -1.54649890581  -1.0996260722  -0.363993692512  -0.311215677114  0.253230478354  
2.49592900276  -1.162149757  -1.55266352872  -1.11885504222  -0.359142987914  -0.312610728937  0.253910426339  
2.50396609306  -1.12918567925  -1.56525597301  -1.12702153099  -0.357824026392  -0.3118530549  0.249079597153  
2.51208305359  -1.07668951378  -1.56806075185  -1.14924808246  -0.352901321589  -0.309133037186  0.246924699823  
2.52022504807  -1.00431077804  -1.572214181  -1.15115108929  -0.351160317656  -0.306176982599  0.244750973848  
2.52819299698  -0.997763378626  -1.27615247581  -1.47292671944  -0.345760184479  -0.305407415267  0.242572912399  
2.53649806976  -1.00441716713  -0.817907219404  -2.20126956101  -0.340348604278  -0.30818260273  0.237677630684  
2.5446100235  -0.951019429008  -0.595338668374  -2.3688690196  -0.335299723891  -0.305352668757  0.235535131612  
2.55252504349  -0.903903134567  -0.594704552816  -2.39746211534  -0.334230982656  -0.30942102708  0.233443899064  
2.56062507629  -0.873903277053  -0.5776775062  -2.42134256317  -0.332637363941  -0.306776371546  0.231413182533  
2.56869006157  -0.822496188168  -0.578903419135  -2.4351508707  -0.327908227352  -0.307365373954  0.22672506611  
2.57679796219  -0.789169631095  -0.564503195837  -2.45353611764  -0.319279197019  -0.304637993862  0.222117380683  
2.58484911919  -0.736245074089  -0.556036942482  -2.47038453445  -0.314555759477  -0.303439321007  0.220339121244  
2.59296894073  -0.689946440974  -0.534141996247  -2.48356306036  -0.313113624805  -0.30055428784  0.218679976623  
2.60108304024  -0.637089751236  -0.513307679364  -2.4849191874  -0.30804472212  -0.297593293095  0.214417289965  
2.60920000076  -0.590128060647  -0.495760751706  -2.49371537915  -0.115510328319  -0.294681099433  0.213006157744  
2.61747598648  -0.539808082166  -0.453761123033  -2.50692010917  0.0596222014379  -0.291732391976  0.209008550084  
2.6255440712  -0.49548800779  -0.414531449239  -2.51785246878  0.0764618125733  -0.287139457736  0.207876222248  
2.63358998299  -0.448382581506  -0.351110904612  -2.54065775126  0.0850630583926  -0.28251219416  0.206892313181  
2.64164805412  -0.405638862783  -0.308357682604  -2.55509215667  0.0893989469272  -0.276274706351  0.203328246754  
2.6498260498  -0.357066722962  -0.272612491467  -2.56837218772  0.0896878733276  -0.271775986612  0.199908760223  
2.65784692764  -0.314892774747  -0.241122280994  -2.57993540188  0.0896458821398  -0.265716392326  0.199366933081  
2.66592311859  -0.280582369825  -0.199562771024  -2.59687337546  0.0895737300877  -0.261532687217  0.196259156948  
2.67404198647  -0.228528354449  -0.164799192707  -2.61123414564  0.0927352556685  -0.255639200288  0.196027413183  
2.68213105202  -0.196911407518  -0.118932610612  -2.63093057367  0.0959665951391  -0.250042233428  0.193226997742  
2.69041991234  -0.147396332032  -0.0806379540354  -2.63986027982  0.0954037452056  -0.244480663825  0.190576660062  
2.69860601425  -0.105052404885  -0.0493850345285  -2.65660213736  0.0942736706174  -0.239180405824  0.190802028479  
2.70659208298  -0.05906835245  -0.00833167576473  -2.66906655991  0.0933853996649  -0.232320270403  0.1884565175  
2.71457314491  -0.0203133420034  0.02707885488  -2.67988542669  0.0922288119163  -0.227453058159  0.186256044666  
2.7226600647  0.0216367316437  0.056989311786  -2.68909451657  0.0908354534297  -0.221176172772  0.181484268682  
2.7307870388  0.0613846184341  0.079653843111  -2.70610429681  0.0889652955103  -0.213482231764  0.179592010707  
2.73889398575  0.0946004602951  0.10011486089  -2.71127463277  0.0908404134201  -0.207794554978  0.180584598346  
2.7469329834  0.121832036426  0.11440302972  -2.7156988208  0.0888982285  -0.202454186093  0.179011559302  
2.75505399704  0.14497846814  0.10840725353  -2.71245461827  0.0828513101426  -0.195759526631  0.177583303263  
2.76321101189  0.160653440807  0.11506312917  -2.71386596491  0.0842708870934  -0.191101122515  0.179014822684  
2.77121400833  0.172861398317  0.101774431285  -2.7078728734  0.0816561135637  -0.185112119681  0.175138995044  
2.77949309349  0.181501692613  0.0705974742872  -2.69416446014  0.0786668641431  -0.181205803607  0.174112251558  
2.78752207756  0.194748703442  0.0653988954616  -2.68504023048  0.0727870914469  -0.175844739815  0.175934717948  
2.79555511475  0.189142428082  0.0635730070684  -2.69115349456  0.0705629614891  -0.172653924693  0.172439474214  
2.80358314514  0.182887888014  0.0254002782114  -2.6831278519  0.064063393846  -0.169868924767  0.171780316037  
2.81164693832  0.183464625206  -0.114240144454  -2.63457335903  0.0625572534925  -0.164084679501  0.173955173509  
2.8197889328  0.158788492464  -0.0477807678677  -2.66640374444  0.0549999910192  -0.161910945483  0.173513031264  
2.8278260231  0.155936498434  -0.219953361826  -2.60443915811  0.0493378701931  -0.158562411436  0.173161063089  
2.8359811306  0.149192719258  -0.384127641224  -2.54414580184  0.0439866563386  -0.155541320516  0.14029635217  
2.84408211708  0.0967686836241  -0.137083574949  -2.6596103705  0.0405760978008  -0.154247349881  0.0597609265989  
2.85221600533  0.471152545182  -0.18260576148  -2.65007946212  0.0345513795832  -0.153507775803  0.00489061475414  
2.86027693748  1.03866910806  -0.228597346946  -2.64038876623  0.0287049060508  -0.149651550664  -0.0470780868464  
2.86862802505  1.00942816667  -0.246164990561  -2.64424596013  0.0236523512617  -0.149462399598  -0.0943671708336  
2.87657999992  0.980772385996  -0.28016323794  -2.64082264492  0.0184716857824  -0.14957394538  -0.154198396541  
2.88461613655  0.967012322793  -0.342172834941  -2.61356236039  0.0167582829938  -0.146436022909  -0.186372524426  
2.89271402359  0.937757827973  -0.390357437257  -2.59578960882  -0.154063046362  -0.147058589897  -0.188906403128  
2.9008641243  0.907666938862  -0.436878611926  -2.58596052777  -0.361756814652  -0.146197057522  -0.185944263653  
2.90898799896  0.877394153701  -0.482912375083  -2.56832139195  -0.37461440862  -0.147259483175  -0.185656752296  
2.91705799103  0.861211306982  -0.545090156664  -2.553232899  -0.379326720142  -0.145013487198  -0.185336651963  
2.92513298988  0.845652290802  -0.618714657053  -2.52330005741  -0.387431949735  -0.133073549992  -0.184988395305  
2.93339300156  0.823917985639  -0.745298656733  -2.49085668345  -0.395606387812  0.0562933972432  -0.184218257101  
2.94142913818  0.818889539095  -0.812389302077  -2.47249151179  -0.399357295448  0.133643471954  -0.18379426729  
2.94950795174  0.811499969421  -0.861328141274  -2.46177212025  -0.402427178959  0.187943114541  -0.183359689532  
2.95760703087  0.817562111879  -0.924680398685  -2.45385203951  -0.402147995312  0.186082605037  -0.182917995527  
2.96556091309  0.821045796244  -0.971758748947  -2.4544663423  -0.408478909971  0.185824765053  -0.182472476832  
2.97374200821  0.82609719335  -1.04277572518  -2.44089664463  -0.407820578499  0.185481107323  -0.18202619729  
2.98184514046  0.825398173626  -1.06518852678  -2.44800055026  -0.405805767716  0.186812430312  -0.181581990955  
2.98985314369  0.839859391346  -1.11866562216  -2.44323298227  -0.411530048793  0.184744156837  -0.181142461634  
2.99795198441  0.840902698178  -1.17907644687  -2.43115067277  -0.409914673739  0.185906149852  -0.183433492357  
3.00606799126  0.85382006858  -1.237388194  -2.42039460471  -0.411689187371  0.183717762551  -0.180280455401  
3.01417398453  0.865173658318  -1.29085390562  -2.41034091342  -0.413165389848  0.184880721785  -0.179851844795  
3.02222108841  0.874603734771  -1.3385278221  -2.40040025211  -0.41070597378  0.184313036894  -0.182160954588  
3.03051400185  0.895878870693  -1.38309843575  -2.39112738447  -0.408017731404  0.187225748788  -0.179032597018  
3.03848195076  0.902942510969  -1.43753640932  -2.37679782276  -0.409030252047  0.186565772269  -0.178634536466  
3.04655814171  0.933675217502  -1.4736946559  -2.36910255593  -0.405936954911  0.189508677879  -0.178255994258  
3.05474591255  0.948133353403  -1.50746420292  -2.37221949906  -0.406516710711  0.190575652278  -0.177897774917  
3.06270599365  0.960463979171  -1.53363283925  -2.36563657682  -0.402998153327  0.191598973235  -0.17756053471  
3.07081413269  0.970713976913  -1.5582552411  -2.36907582867  -0.399590701821  0.192555441719  -0.179967873122  
3.07890796661  0.98213783482  -1.60630355768  -2.35043664023  -0.39644963679  0.195140544949  -0.179667199131  
3.08697795868  1.00201262713  -1.62087297001  -2.3457073892  -0.392558448885  0.197807637912  -0.176648870087  
3.09511899948  0.995087301243  -1.66560694001  -2.33821481725  -0.389441547166  0.198437986963  -0.176367207726  
3.10320997238  1.02489475806  -1.68205826523  -2.3352504149  -0.389120391324  0.199356115636  -0.178833118561  
3.11128807068  1.02588502437  -1.70625549031  -2.3259582214  -0.385373377904  0.19994612216  -0.173740263556  
3.11948513985  1.03892978933  -1.73057898304  -2.32668085822  -0.381919514504  0.202272149202  -0.153377173528  
3.12759304047  1.04972906789  -1.74782580046  -2.31780824083  -0.374524328012  0.20453588121  -0.133649193551  
3.13560605049  1.05854209359  -1.76641614345  -2.32027318881  -0.374727340205  0.206695183228  -0.131384410777  
3.14372396469  1.06522637147  -1.78054774223  -2.32237724702  -0.371328667031  0.208772182178  -0.10922458454  
3.15175700188  1.08525933057  -1.80692861068  -2.30951802347  -0.371775079402  0.209146966527  -0.107362663099  
3.1598110199  1.10110280178  -1.81462238294  -2.31196040393  -0.36487379844  0.212841542827  -0.0857306601007  
3.1679110527  1.11459688524  -1.82192626319  -2.31591133573  -0.365335019194  0.214720697228  -0.0844946894801  
3.17600512505  1.11326837497  -1.8391562695  -2.31310668748  -0.362526311073  0.216364833256  -0.0803289382575  
3.18407201767  1.12413954686  -1.85476416973  -2.31056448235  -0.35982904403  0.218015954349  -0.0759878370281  
3.1921620369  1.13427730175  -1.8801569178  -2.29266532999  -0.357286252345  0.219543574315  -0.0547742362165  
3.20028400421  1.15451208427  -1.88965234294  -2.29070444329  -0.351123295062  0.222790040079  -0.0373748045077  
3.20838713646  1.17351053143  -1.91391374539  -2.2840254891  -0.352705379497  0.224185101032  -0.0378276986032  
3.21654391289  1.18825048256  -1.91846470654  -2.2835666092  -0.350372803606  0.227172843229  -0.0187821720325  
3.22453403473  1.21591853596  -1.93720629477  -2.27700232062  -0.348543368369  0.231851676739  -0.0203274971839  
3.23261904716  1.2260238472  -1.9514793007  -2.27106106051  -0.346738909335  0.232864076422  -0.00240305054047  
3.24067997932  1.26176057765  -1.96927477402  -2.27535764327  -0.349040218807  0.235649758612  -0.00507898828614  
3.24874591827  1.27960473902  -1.98024703249  -2.27855818881  -0.344033202693  0.241595172666  0.011980651931  
3.25687503815  1.30849809234  -1.98991685258  -2.27365895343  -0.346177228134  0.244097019496  0.025284846434  
3.2650001049  1.33487478264  -2.01231437054  -2.27096010452  -0.341719198413  0.246407886282  0.0202489027397  
3.27306509018  1.35788075396  -2.03258884058  -2.26911710807  -0.340924572596  0.25194986637  0.0351328349095  
3.28114891052  1.37709023487  -2.04972721514  -2.26749471434  -0.340181682122  0.253907871704  0.046145357675  
3.28950595856  1.40720237591  -2.06524690497  -2.26595931162  -0.339536207029  0.259204118963  0.0560190056054  
3.29750800133  1.41754051551  -2.06367828066  -2.28033354819  -0.338783877259  0.262492617614  0.0647803301084  
3.30563092232  1.44119890368  -2.0919079612  -2.28161159866  -0.338854211203  0.265675141464  0.0552935466645  
3.31363201141  1.4559241628  -2.10135916884  -2.28907422929  -0.289584436868  0.266942478523  0.0658667527624  
3.32175397873  1.46704184833  -2.10821054152  -2.29623982263  -0.214244951867  0.26798163386  0.0555428917017  
3.32989907265  1.4887482997  -2.11534592101  -2.31170627909  -0.122902487345  0.270636705789  0.0481778781373  
3.33803606033  1.54875628558  -2.12548064434  -2.32677090509  -0.0420279774041  0.275154331656  0.0582487498195  
3.34624505043  1.53292253516  -2.13759120534  -2.32537992094  0.0387263173425  0.275434657935  0.064676046035  
3.35420894623  1.61097962516  -2.13268236413  -2.35487621222  0.038430246321  0.279776762531  0.0702034456355  
3.36261796951  1.62622006866  -2.13072795728  -2.35849043625  0.0384892337322  0.281699543078  0.0748662470874  
3.37059807777  1.64988132739  -2.11462470169  -2.3765324159  0.0421894197044  0.285254979351  0.0787023794442  
3.37861013412  1.50347571533  -2.11771681837  -2.33941468609  0.042831706298  0.278585799253  0.064581158741  
3.3867521286  1.66588462831  -2.07154121071  -2.39338042295  0.0500227458509  0.289861918529  0.0708259392857  
3.39474511147  1.6655307338  -2.06922114892  -2.40391993358  0.0495283570968  0.292731937523  0.0736451006439  
3.40285396576  1.56268243769  -2.05089332008  -2.39562567018  0.0498798413022  0.289431687096  0.0586192211697  
3.41100597382  1.60489990123  -2.04945155231  -2.40375689493  0.0563085380976  0.292308756745  0.0640647172484  
3.41934299469  1.5427191018  -2.0369584947  -2.40374838815  0.0560529471081  0.292434910795  0.0490233106579  
3.42719507217  1.6237195737  -2.03987958373  -2.41110811368  0.0584812621664  0.298777072024  0.0373496218584  
3.43524909019  1.58329155251  -2.02542963241  -2.39989074314  0.0618208746152  0.298835715923  0.0263533755227  
3.44353699684  1.55667199933  -2.01137884039  -2.38812225603  0.0686129217108  0.297131834145  0.0160498914085  
3.45158910751  1.50272178943  -2.00976587322  -2.36249390184  0.067980380816  0.29842599571  -0.0105065529561  
3.45965003967  1.50505909087  -1.99702095655  -2.34287357678  0.0709531011262  0.298393348214  -0.0486904899982  
3.46768403053  1.47672473113  -1.9817237351  -2.32421538288  0.0738695570381  0.297958178912  -0.0978725742698  
3.47589612007  1.47532909886  -1.95587811496  -2.32108513468  0.0802435575609  0.301082304431  -0.140166934941  
3.48403811455  1.45956703887  -1.94382582864  -2.30350158306  0.0827318916661  0.303979557693  -0.189004324704  
3.49202799797  1.40012452282  -1.92924801273  -2.28768329609  0.0815370057112  0.302973366881  -0.191545004205  
3.50023412704  1.42856650313  -1.9266382267  -2.28149767411  0.079512272435  0.306019404111  -0.196742415591  
3.50828194618  1.45370748283  -1.92055300905  -2.26584321627  0.0812413059915  0.308950411506  -0.199135231866  
3.51657891273  1.46139327172  -1.91473240736  -2.25183593385  0.0792229530194  0.309908093431  -0.20142763874  
3.52466011047  1.4395675383  -1.92075206631  -2.23218120472  0.0804553520511  0.30875632092  -0.203613671001  
3.53254914284  1.44599083279  -1.93209072163  -2.22282374263  0.0812060436847  0.307712201679  -0.205688415545  
3.54066491127  1.45064022531  -1.9441121102  -2.21482673974  0.0782284991454  0.308248429425  -0.210373032053  
3.54878902435  1.45342186693  -1.95438247093  -2.20691422584  0.0788264213812  0.310406340981  -0.214935392138  
3.55684995651  1.43984203741  -1.96527149803  -2.20916516112  0.0791713393607  0.308924795336  -0.222085098607  
3.56491994858  1.49753340653  -1.98534059148  -2.22060569512  0.0789237677703  0.313105845122  -0.229078170834  
3.57312893867  1.35024020816  -1.99274675395  -2.19964313899  0.0762853778768  0.305160349341  -0.230431532894  
3.5811021328  1.19510072966  -1.98139883223  -2.18541480111  0.0776827555948  0.298744555802  -0.23157791141  
3.58929800987  1.45998772886  -2.04443905891  -2.26440080906  0.0785968960057  0.311412000071  -0.252380539713  
3.59740209579  1.46717415799  -2.05605148568  -2.28386379359  0.0819386651919  0.311487230941  -0.258336573269  
3.60553812981  1.41653266525  -2.0721759988  -2.27876270284  0.082052809923  0.310986285874  -0.261289538002  
3.61353611946  1.46715228327  -2.08950158875  -2.30726272343  0.0812966072776  0.316480726613  -0.272152232357  
3.6215839386  1.29832817525  -2.08702280852  -2.28362345427  0.0787738136522  0.308033664407  -0.269082149484  
3.62963104248  1.36854440893  -2.09856484337  -2.29298271784  0.0784399922498  0.311845273317  -0.276614925946  
3.63773608208  1.24733378191  -2.1002741053  -2.2782620002  0.079062832842  0.307116533124  -0.278411697529  
3.64579200745  1.40610499393  -2.12285826469  -2.30531909417  0.0814729694896  0.316788426473  -0.290848359674  
3.65391492844  1.43994001106  -2.14088468703  -2.298398104  0.0811957863183  0.318544573039  -0.297553954082  
3.66196894646  1.41245300572  -2.15033864231  -2.29130512539  0.0848071935433  0.317994003755  -0.303936717983  
3.67005896568  1.40015062796  -2.15978754093  -2.27625447816  0.0813089633361  0.317500087067  -0.309986126637  
3.67818713188  1.32919616588  -2.15980011069  -2.26083240188  0.0853108900998  0.311275364912  -0.312952567848  
3.68622112274  1.20430817586  -2.15556262949  -2.24768444134  0.0822240147276  0.304476974817  -0.312818026469  
3.69449806213  1.36181941714  -2.18297648036  -2.25983822787  0.0880803035565  0.310389953585  -0.326027722291  
3.70254993439  1.17614303099  -2.16875049925  -2.23846987076  0.0818482451082  0.301349956913  -0.322513543344  
3.71057391167  1.17426857798  -2.15937986202  -2.24062770064  0.0819226672405  0.300736767394  -0.326825256164  
3.71858906746  1.00007683315  -2.14125313987  -2.21854363868  0.0865287305591  0.291783707203  -0.319850264094  
3.72665405273  1.18564004912  -2.17586249296  -2.25249489479  0.0843546630581  0.299712693643  -0.331718141487  
3.73476314545  1.2581366978  -2.1939457844  -2.27561895929  0.0866064205582  0.301642994678  -0.335153336589  
3.74283313751  1.22470581094  -2.19589989413  -2.28021845864  0.0862271548968  0.302700728729  -0.332801243281  
3.75095510483  1.1784725801  -2.19544255508  -2.28463535017  0.0859001957989  0.30026314185  -0.330124128634  
3.75905108452  1.14963311054  -2.19833354138  -2.29805878306  0.0852346364343  0.297985413383  -0.32716001728  
3.76715898514  1.06506055969  -2.19015516588  -2.2930374853  0.0817140472536  0.295236392173  -0.323947899983  
3.77521896362  1.073321496  -2.19851374897  -2.31569450049  0.0769836685151  0.295059029465  -0.323272566212  
3.78339791298  0.907420174074  -2.17322921492  -2.29069349196  0.0780647732516  0.286527949166  -0.314193675447  
3.79156303406  1.00015998541  -2.19798193841  -2.34955986515  0.0756366127903  0.292310126716  -0.318664333909  
3.79963302612  0.913834427176  -2.18664952228  -2.35040271646  0.0757555432748  0.288058822768  -0.312104768532  
3.8076300621  0.878029184579  -2.18622433587  -2.37000358476  0.0715308493957  0.287725371312  -0.310913008701  
3.81578612328  0.889402667272  -2.28375297266  -2.39687640354  0.0705859139998  0.287884103634  -0.306929272074  
3.82384705544  0.843354078508  -2.3830625034  -2.41303809504  0.0702901290608  0.284170727928  -0.30564462501  
3.83187413216  0.830984527132  -2.48080892672  -2.43718673472  0.0696981429978  0.282508056694  -0.304355701187  
3.84000205994  0.763218367638  -2.55693992775  -2.43192058395  0.0702852578341  0.280417066344  -0.297574639609  
3.84808802605  0.730555539756  -2.63568979882  -2.44483409043  0.0702496980839  0.277003138183  -0.293521577222  
3.85612297058  0.688943341751  -2.74449185622  -2.44136733771  0.0702595939419  0.271845655863  -0.292257450198  
3.86418104172  0.651205255837  -2.82689864392  -2.43456103637  0.0673381074547  0.270222554127  -0.285576136742  
3.87242603302  0.618127742566  -2.89990254924  -2.42683629014  0.068093300987  0.267041132552  -0.284440030641  
3.8804359436  0.589884753837  -2.96614623456  -2.41959209686  0.0652341767075  0.264008610773  -0.280675480184  
3.88847398758  0.552951269527  -3.0572859285  -2.4057128907  0.0657470201024  0.26100534505  -0.274265311342  
3.89644503593  0.505038059195  -3.07338591303  -2.38853546048  0.067051578455  0.254596568616  -0.270704092737  
3.90455412865  0.479371607119  -3.07515450636  -2.37523047194  0.0676560003697  0.251918339103  -0.267293319036  
3.91260194778  0.429412611262  -3.07209718659  -2.35357165779  0.0650639471279  0.247471734764  -0.264042824775  
3.92074608803  0.401780244162  -3.08214234076  -2.31667292343  0.065987527663  0.243359693781  -0.258216260987  
3.9287481308  0.364790362708  -3.09395887877  -2.29120389656  0.0630922802548  0.239341129995  -0.252553394115  
3.93691301346  0.333707173251  -3.09806007408  -2.24743043783  0.0644542859247  0.237250322612  -0.247078942095  
3.94492411613  0.293507490012  -3.10418496446  -2.21568457382  0.0619825042156  0.231862683108  -0.241813901949  
3.95296406746  0.291732952431  -3.14391062025  -2.17376578871  0.0586680958245  0.230405055278  -0.234035514855  
3.96105694771  0.24839891989  -3.15675422686  -2.12982791493  0.0599586896785  0.225359542389  -0.229233501692  
3.96914196014  0.226356276828  -3.17499820732  -2.09890167168  0.0536754658319  0.220699603157  -0.224706937725  
3.97723793983  0.196462784519  -3.20325367225  -2.06285118162  0.0544525424681  0.217868264933  -0.217724084893  
3.98556900024  0.173890140019  -3.2431206546  -2.01449665509  0.0516228679112  0.213608499505  -0.211023889344  
3.99359703064  0.142218597854  -3.28101208988  -1.97834051167  0.0487085101451  0.20948535389  -0.207367400463  
4.00158405304  0.132672043267  -3.32862180475  -1.92878598499  0.0494400821266  0.207474114907  -0.201302963881  
4.00971007347  0.129224827962  -3.39173846415  -1.88649542861  0.0460475632809  0.204051838644  -0.19555920313  
4.01782608032  0.107290864854  -3.42939576945  -1.84354234577  0.0435814899044  0.199025327748  -0.190149359466  
4.0259411335  0.110646349778  -3.52991880637  -1.78977263112  0.0394313753814  0.196148198783  -0.185083177408  
4.03402113914  0.116123819513  -3.60642833113  -1.74513613785  0.0359676690712  0.195232547782  -0.180367162147  
4.04209899902  0.111659851582  -3.6885266173  -1.6972947018  0.0361251316171  0.194466441343  -0.176004792237  
4.0502409935  0.125522517652  -3.76635098045  -1.6541379785  0.0292430471991  0.190679515697  -0.174728348396  
4.05856394768  0.13038660153  -3.86049735528  -1.21143086125  0.029534715165  0.190406549292  -0.168341499895  
4.06658506393  0.152729910091  -3.9476058215  -0.367429359279  0.026472493923  0.188804440796  -0.167746120936  
4.07455706596  0.179680899914  -4.05106704898  -0.288581853295  0.0305607400722  0.189125630092  -0.164762371175  
4.08264708519  0.20639689545  -4.12882920201  -0.220612742783  0.0317409351443  0.187939263335  -0.16209551379  
4.09066605568  0.235542029167  -4.21370001743  -0.159780027912  0.0361962538998  0.186947395694  -0.1597374273  
4.09880900383  0.252566640485  -4.29890386601  -0.0877459068719  0.0409179214683  0.187717349494  -0.15767847486  
4.10690712929  0.28367757133  -4.35960195513  -0.0266528524583  0.0425726523295  0.185368916271  -0.155907766586  
4.11494708061  0.315031456395  -4.41030522759  0.0220038037205  0.0514246026537  0.186566651277  -0.154413352525  
4.12299203873  0.33352331849  -4.46345356604  0.0812695935339  0.0567835614016  0.186098234378  -0.153182406115  
4.13101100922  0.36681926644  -4.50919257485  0.127485971285  0.0655772183717  0.185889154015  -0.152201397241  
4.13910794258  0.358002851411  -4.40043641441  0.124490196549  0.0709096953308  0.185434613588  -0.151456254231  
4.14716696739  0.397519411878  -4.46251272689  0.190356356412  0.0787019452147  0.185513901684  -0.144017928213  
4.15527200699  0.375614912  -4.32720699505  0.169965758336  0.0836323832446  0.185179188614  0.00495037342413  
4.16324591637  0.432139970614  -4.39359166676  0.235377622833  0.0944447661545  0.183905243939  0.145751230305  
4.1714849472  0.407724864468  -4.21389569425  0.205223236189  0.100132253081  0.183725956049  0.208478995246  
4.17952108383  0.467566123205  -4.30359917517  0.275710483437  0.109819003332  0.186080208859  0.208215947846  
4.18759298325  0.48719525712  -4.28514605561  0.305869739202  0.118276626136  0.18647003305  0.205099465686  
4.19558501244  0.469183748503  -4.16511266638  0.272053518414  0.128855825892  0.184893326512  0.201870441802  
4.2037730217  0.448899013059  -4.00174274661  0.21928717193  0.136418556033  0.185071342373  0.201272974895  
4.21182703972  0.453635074556  -3.93599936449  0.201959238733  0.144846066105  0.185538062459  0.197889114491  
4.21987700462  0.433231852588  -3.74880263314  0.135048362721  0.144861287834  0.184157199162  0.197172354631  
4.22799992561  0.480048869962  -3.81312063642  0.165531627456  0.156603465034  0.185091254657  0.188270158299  
4.23607611656  0.442743123054  -3.59282690727  0.0846728418196  0.15664583338  0.183664652523  0.187526199864  
4.24421310425  0.547560917691  -3.82297914494  0.198073865221  0.171455831771  0.186880198781  0.178659768315  
4.25226306915  0.550366632704  -3.7557497885  0.187380362615  0.181984225116  0.187568816171  0.172578272027  
4.2605381012  0.542756122251  -3.5851930211  0.13208413157  0.183534360147  0.186512850634  0.169318179515  
4.26861095428  0.580979567557  -3.60258580492  0.158690803437  0.187675387124  0.187564093059  0.163465379443  
4.27664613724  0.59553776596  -3.5342183629  0.161661841133  0.193625585536  0.188425587867  0.0263223551161  
4.28462791443  0.609119125574  -3.46908156459  0.153211006  0.198820533023  0.191016912745  -0.171132697225  
4.29275012016  0.606569519157  -3.38788798268  0.137358665636  0.203977649592  0.190081397853  -0.220551673804  
4.30085802078  0.617615995133  -3.31045689986  0.12046634995  0.208577286161  0.194377493272  -0.233917956949  
4.30895709991  0.629039285981  -3.25026694469  0.108735067483  0.212376362092  0.195284582423  -0.249751651229  
4.31698393822  0.635074835121  -3.14740138164  0.0773462834002  0.213063869917  0.197835749093  -0.262549861917  
4.325496912  0.621460042653  -2.96733404036  0.0217422646812  0.216318258636  0.202662312257  -0.297926193145  
4.33344697952  0.588258630712  -2.87268694141  -0.00843519885837  0.219307487034  0.204781177853  -0.314990000693  
4.34147691727  0.565815571559  -2.74015726284  -0.0485097275369  0.215688701777  0.206953431059  -0.328813231283  
4.34953713417  0.541258699425  -2.70222539619  -0.0495099610904  0.216961390427  0.210747794467  -0.353019514853  
4.35764408112  0.50931174544  -2.57946929876  -0.0892950412816  0.212502679696  0.211023935361  -0.368472762338  
4.36566591263  0.476459819631  -2.55106131632  -0.0895225245215  0.213042396582  0.216313439654  -0.391498579504  
4.37380099297  0.455999283145  -2.49652787379  -0.0947911248502  0.206888441887  0.219947957019  -0.40567184586  
4.38189411163  0.43903626015  -2.46214864128  -0.0949005043071  0.196437526463  0.221814596808  -0.427344155342  
4.38999295235  0.420568956792  -2.40229826255  -0.116419690667  0.189733651185  0.221841835271  -0.437338572176  
4.39797592163  0.407370868012  -2.371093346  -0.10581325881  0.18649341989  0.226881263396  -0.454754892736  
4.40609097481  0.395827931019  -2.34158860604  -0.0879215045575  0.179798140188  0.23013157898  -0.468683460652  
4.41424393654  0.375016609065  -2.32920847564  -0.0661810822351  0.169095976879  0.23318732511  -0.476303930267  
4.4225730896  0.353243802414  -2.29131249495  -0.0681194482816  0.158648080579  0.234404972122  -0.482945269046  
4.43055605888  0.324455830885  -2.28124161818  -0.0482306161006  0.151638406681  0.235399088857  -0.488642263169  
4.43878293037  0.301758503614  -2.30184091208  -0.0176011580139  0.144173802024  0.238012973257  -0.496042091438  
4.44665813446  0.267662168352  -2.30396444136  0.0125848190808  0.133901328141  0.236984662655  -0.505074187185  
4.45486211777  0.240073316171  -2.3365209857  0.0442790218665  0.126609896109  0.237573914812  -0.513055314352  
4.46284604073  0.214016048637  -2.35308344597  0.0660637056303  0.116259129404  0.236350691682  -0.522625722199  
4.47087907791  0.190954782859  -2.36478284593  0.0952925888153  0.110171575394  0.235006510681  -0.531102229091  
4.47904992104  0.176761175699  -2.32519245314  0.0682883382836  0.10454607075  0.231943881495  -0.530688264146  
4.48712992668  0.117417267623  -2.36294602057  0.116987634954  0.0989071209222  0.230342675267  -0.550455478039  
4.49526500702  -0.530337219439  -2.34269454259  0.117963140822  0.0977654771075  0.230376810512  -0.563485222928  
4.50330305099  -0.888909002575  -2.27007197641  0.0815733233701  0.0939766854294  0.225334326968  -0.56478526751  
4.51145005226  -0.911333618658  -2.25076709257  0.100145831542  0.0939526836384  0.221871139939  -0.586136432733  
4.51965594292  -0.93509899246  -2.19245022248  0.0866852219478  0.0909803077714  0.216685153098  -0.595403345542  
4.5276350975  -0.956816836247  -2.12378588853  0.065950966008  0.0883970580639  0.213217592539  -0.611298877203  
4.53574109077  -0.978286571656  -2.03767370498  0.0044078270484  0.0855291464636  0.208108270094  -0.615268938215  
4.54371714592  -0.994606652488  -1.96832616016  -0.0295929370065  0.0831502685898  0.204770441275  -0.628656856417  
4.55187702179  -1.00056714916  -1.86852625958  -0.101364911638  0.0773120101907  0.199914795059  -0.627596985524  
4.55993509293  -1.00556877718  -1.76380049543  -0.184523277411  0.0751556512702  0.195148189985  -0.615287146109  
4.56796908379  -1.03864955445  -1.70222673112  -0.224465198832  0.0731713350252  0.190240537632  -0.621285799527  
4.57608699799  -1.04708485127  -1.62671732502  -0.294234661261  0.0674409376204  0.185696482595  -0.608886016522  
4.58422899246  -1.05428351646  -1.54175944886  -0.356145995187  0.06604310355  0.182997136589  -0.591422933098  
4.59250307083  -1.0586969702  -1.46846409285  -0.423420921649  0.0608165281521  0.180512270719  -0.571859863233  
4.6006090641  -1.06070288897  -1.40331353859  -0.485431103417  0.0557465281472  0.176511266492  -0.550441859686  
4.60871696472  -1.06041215277  -1.34790406409  -0.551318515364  0.0505515849553  0.172706325895  -0.524865875403  
4.61661696434  -1.06632508548  -1.32548424006  -0.589238696696  0.041839381277  0.170735010208  -0.505697009158  
4.62461900711  -1.0715702299  -1.29402778099  -0.629484106044  0.0336194637341  0.165550635478  -0.482473200854  
4.63278007507  -1.07278736548  -1.28324798154  -0.6665853831  0.0287980779274  0.165700736049  -0.458115024326  
4.64077210426  -1.07222773784  -1.27660056215  -0.698805185791  0.0243545548459  0.160960364473  -0.437904424529  
4.64883708954  -1.08120521611  -1.27230924648  -0.726377059366  0.0203187870061  0.158029141928  -0.419142621926  
4.65699195862  -1.07466575959  -1.28623272242  -0.734072205295  0.0130403625185  0.155417975957  -0.399293894865  
4.66507601738  -1.08819588619  -1.31404970321  -0.740002888294  0.00935926477549  0.152854559176  -0.37852512007  
4.67325592041  -1.11075109143  -1.34127848277  -0.742674871958  0.00614550811226  0.094528713255  -0.364620811648  
4.68143010139  -1.10884544799  -1.35518542702  -0.749961719759  -0.000214157008238  -0.0812189721071  -0.349589876326  
4.68954110146  -1.12519577327  -1.38992405029  -0.738650571526  0.000789051616012  -0.196428833995  -0.34119675702  
4.69759202003  -1.15165855097  -1.41111473019  -0.733706070735  -0.00484650061751  -0.200061440066  -0.331683635287  
4.70558595657  -1.17205905542  -1.45999384156  -0.711642126524  -0.101103173555  -0.206867236082  -0.324635730485  
4.71368694305  -1.21217276352  -1.50292333316  -0.679272307389  -0.273713849097  -0.211935884909  -0.318473043664  
4.72174406052  -1.21714722006  -1.522987018  -0.669756835991  -0.379307382947  -0.214782883271  -0.31055596164  
4.72981905937  -1.23969008699  -1.56849831484  -0.653028320561  -0.376969382412  -0.219231870054  -0.30357125947  
4.73790812492  -1.25888726284  -1.61223131678  -0.627450881135  -0.381285557551  -0.223418302889  -0.300098906074  
4.74597811699  -1.27359099521  -1.66850601064  -0.60286451357  -0.382174727272  -0.225618053264  -0.294777423852  
4.75409412384  -1.29855587851  -1.70516446957  -0.584330672217  -0.378849703346  -0.229363002124  -0.292894446598  
4.76221108437  -1.30719198574  -1.75576328921  -0.558858937478  -0.37913356365  -0.231026196648  -0.294301697604  
4.77050805092  -1.32473307203  -1.80129171898  -0.533415125137  -0.379108725779  -0.234221411792  -0.298842876218  
4.77856492996  -1.33932728143  -1.84164477226  -0.498996903375  -0.378548122523  -0.237179086529  -0.301136822275  
4.78667497635  -1.35112533988  -1.88089238555  -0.486497445163  -0.374763340647  -0.236444551109  -0.303844529501  
4.79459309578  -1.35648564818  -1.91471867426  -0.464693580598  -0.370442258831  -0.238876996101  -0.312135739149  
4.80270504951  -1.3558878422  -1.94671665475  -0.444025152391  -0.373278456927  -0.239356459326  -0.320522822236  
4.81086707115  -1.36587323613  -1.95852722499  -0.437912010892  -0.36512822752  -0.239716252956  -0.331554910398  
4.81890106201  -1.36176629199  -1.97085537248  -0.432683386696  -0.364199305895  -0.241467488297  -0.342457801007  
4.82710909843  -1.37760298538  -1.97730961609  -0.427000886431  -0.363119981235  -0.24148451172  -0.353172884975  
4.83920311928  -1.30255846121  -1.88621073281  -0.473587641015  -0.356288122169  -0.238466902416  -0.355463893619  
4.84730005264  -1.38808541843  -1.91958739108  -0.442202856204  -0.351753392485  -0.241945834349  -0.381751410469  
4.8555431366  -1.44832177482  -1.90875425435  -0.434209689653  -0.35044857159  -0.243395156732  -0.399233717471  
4.8712310791  -1.43670566137  -1.81014534051  -0.468789107736  -0.347476337082  -0.244927224076  -0.404265824194  
4.8795170784  -1.46638112493  -1.78995364728  -0.466080515608  -0.346355157847  -0.249244780216  -0.418105366953  
4.88745212555  -1.46178958217  -1.74597930118  -0.477344965565  -0.341491555896  -0.246365179144  -0.423448300128  
4.89556407928  -1.46750021179  -1.69011815397  -0.496907793903  -0.343810161468  -0.248540011922  -0.42842483364  
4.90357804298  -1.46902903767  -1.64843235978  -0.50642120638  -0.305418944295  -0.248906552089  -0.430423353853  
4.91169309616  -1.48184714571  -1.58095584922  -0.53115156239  -0.234645075814  -0.24924285968  -0.432163311588  
4.91977095604  -1.49000787655  -1.5306873344  -0.547030415627  -0.169253233058  -0.251170599873  -0.428436486224  
4.92783713341  -1.50755911058  -1.46839908248  -0.569503294844  -0.108643929935  -0.253093479104  -0.427302043771  
4.93594694138  -1.52152791594  -1.41010815941  -0.590689723289  -0.0529028925395  -0.254913824429  -0.423455266343  
4.94405293465  -1.5414188628  -1.36774091871  -0.602912052702  -0.00216268011629  -0.256697460328  -0.419632258991  
4.95219302177  -1.5589961608  -1.31509752712  -0.621648374712  0.0363366504444  -0.258376290993  -0.413244706746  
4.96025800705  -1.57145327759  -1.27982619753  -0.631346222029  0.0366758725023  -0.261651864813  -0.404424136578  
4.96849298477  -1.55117754553  -1.22515568511  -0.655213914005  0.0370582665998  -0.262900051149  -0.395915226396  
4.97647714615  -1.51901009928  -1.1763534512  -0.677533868703  0.0372733577902  -0.26397012464  -0.382528672215  
4.98459410667  -1.58960123942  -1.15733931001  -0.675369625152  0.0374135794376  -0.269120784664  -0.380165226821  
4.99271798134  -1.60257070443  -1.1178902203  -0.686857775849  0.0411488985869  -0.272070427842  -0.375369630744  
5.00075101852  -1.63361623332  -1.07775890339  -0.697146217963  0.0448760018622  -0.276763233931  -0.370861911272  
5.00889801979  -1.72282954278  -1.04619206318  -0.698587900521  0.0486130402831  -0.285211143969  -0.369256549619  
5.01692295074  -1.69130323565  -0.979544894979  -0.721119073672  0.0488868618518  -0.285838131387  -0.360009400612  
5.02500295639  -1.56268259726  -0.932278713992  -0.751526487161  0.0482398023583  -0.282158929659  -0.346056263162  
5.0331029892  -1.66144186544  -0.884777146081  -0.764198622562  0.0518549332048  -0.288483812968  -0.343289177911  
5.041203022  -1.53162987149  -0.830655066882  -0.788984768098  0.0550170476531  -0.28451792017  -0.327805422954  
5.04959607124  -1.86844140113  -0.798904285864  -0.766173835462  0.0592960313095  -0.302545185934  -0.334068182234  
5.05750107765  -1.7630040193  -0.751595060659  -0.799180758129  0.0582328065878  -0.300269935125  -0.319467055289  
5.06565093994  -1.97490686018  -0.717535329401  -0.789371535293  0.061858603173  -0.3154728752  -0.318767803099  
5.07362008095  -2.0234698435  -0.683501719875  -0.80368633816  0.0645108228292  -0.32259322818  -0.307953305633  
5.0817091465  -1.92930753889  -0.647511154358  -0.833428051472  0.059331365882  -0.323357682528  -0.295271178108  
5.08976411819  -2.19476034102  -0.604380317956  -0.83537350496  0.069809454377  -0.343586077989  -0.291274196254  
5.09785604477  -2.21832329706  -0.573466620291  -0.85371940611  0.0683411363272  -0.351736060323  -0.282590736502  
5.10589909554  -2.02454989751  -0.562258521668  -0.878008018549  0.0658623251892  -0.347785950761  -0.269422705  
5.11407899857  -1.97686773709  -0.535128481214  -0.900600486637  0.0639351883901  -0.351316207011  -0.259811744086  
5.12210202217  -1.76935169646  -0.533366030495  -0.92117998708  0.0611851952828  -0.343123431886  -0.248431021745  
5.13021111488  -2.10598953723  -0.526682667135  -0.899918459502  0.0674735630249  -0.369294544112  -0.24320806111  
5.13841104507  -2.33546997878  -0.512234871913  -0.895838793836  0.0624222862354  -0.387871642032  -0.236086006026  
5.14730405807  -2.29453724108  -0.509535348911  -0.914151750787  0.063252192729  -0.392600105375  -0.227147958871  
5.15552210808  -2.29350965816  -0.503485224383  -0.922142319148  0.0608842169479  -0.398554772229  -0.219091866796  
5.16360211372  -2.2800011592  -0.475306970932  -0.944493011516  0.0586246633526  -0.402304115795  -0.209289968481  
5.17164993286  -2.25110913285  -0.45287616733  -0.965093773233  0.0562267573626  -0.402265831587  -0.201183975802  
5.17967104912  -2.18250414969  -0.438628039428  -0.983908025641  0.0536361906558  -0.403351112653  -0.186177801362  
5.18777894974  -2.1562566355  -0.422137413418  -1.00102092879  0.0512111314183  -0.406042415235  -0.161109503172  
5.19585704803  -2.08572080714  -0.416256023337  -1.02579730602  0.0482715714979  -0.404795962346  -0.128732066824  
5.20396113396  -2.01770721077  -0.399400718418  -1.04761317239  0.042158787099  -0.403329258617  -0.0891649678598  
5.21212005615  -1.93919323487  -0.400707366123  -1.05957634078  0.0359072985442  -0.401591912027  -0.0480782453848  
5.22014808655  -1.86320657947  -0.405615943382  -1.07924967891  0.0294348541614  -0.398044741425  -0.00572661445176  
5.22829198837  -1.77961985865  -0.413931217934  -1.09685559201  0.0230654666697  -0.394341701338  0.0376293794052  
5.23655295372  -1.70127037678  -0.410607054492  -1.12028951597  0.0170007555021  -0.388949777868  0.0817271082856  
5.24470996857  -1.6372650369  -0.40941008988  -1.15091358873  0.0108748709047  -0.382015726059  0.479669821145  
5.25267291069  -1.54385074501  -0.426567988038  -1.16163274473  0.00504673937416  -0.376625357591  0.511623653682  
5.26069998741  -1.48896064547  -0.428377255366  -1.1877382766  -0.000564529861938  -0.368267105446  0.544989314771  
5.26875901222  -1.45723974794  -0.442510754435  -1.20350499933  -0.00592691186522  -0.365191493271  0.59069883837  
5.27684402466  -1.38705776795  -0.450852383921  -1.22561474866  -0.0147043228927  -0.358643795808  0.629672884657  
5.2849509716  -1.32205665151  -0.459055477703  -1.51271104331  -0.213962614279  -0.353963482462  0.651857610551  
5.29306197166  -1.24270431344  -0.45828604548  -2.25484257359  -0.397511616343  -0.346059721857  0.672495294426  
5.30115914345  -1.13707632085  -0.16248309845  -2.42937794668  -0.405272198584  -0.339916545371  0.685546858557  
5.30927801132  -1.04325435229  0.406638865342  -2.44711803155  -0.408778872856  -0.332442597976  0.70173700874  
5.3174829483  -0.852063605247  0.517536721095  -2.4760477975  -0.421728086384  -0.321671642442  0.735176505921  
5.32557702065  -0.745161700131  0.53045410172  -2.48737538577  -0.43126765543  -0.313360150954  0.747259683452  
5.33362793922  -0.640531643203  0.555223001316  -2.50315520221  -0.433065243776  -0.307094378792  0.7598849345  
5.34157204628  -0.518939626098  0.560654513323  -2.50981631115  -0.438339320769  -0.299492263452  0.765215605859  
5.34968113899  -0.383157706664  0.535280514355  -2.49916371318  -0.443564854562  -0.288976306828  0.755750646723  
5.35782504082  -0.298150464454  0.567951596583  -2.51875989887  -0.447750525719  -0.282568216055  0.770695330532  
5.3658721447  -0.198143934735  0.554915790446  -2.51286959799  -0.452045883202  -0.273263155568  0.761252745527  
5.37400507927  -0.0664528248043  0.523342024813  -2.49737213359  -0.452601807542  -0.264312586472  0.730583888467  
5.3820540905  0.0061334889147  0.523396043288  -2.49830932111  -0.459621132877  -0.25464923561  0.735914756066  
5.39011096954  0.0797217713664  0.50775317465  -2.49026711183  -0.466494377906  -0.245608941556  0.739399841716  
5.39818811417  0.164430663936  0.477510930666  -2.47222809938  -0.465908656888  -0.23133392511  0.73357976233  
5.4064040184  0.259414030492  0.431963858447  -2.44618399782  -0.46513635538  -0.217043909776  0.701447628161  
5.41458296776  0.327725416006  0.41657342632  -2.43590187932  -0.463661583462  -0.203445173846  0.713214739306  
5.4224691391  0.384234814301  0.400807959075  -2.42606736051  -0.465525344908  -0.192248989231  0.727933573817  
5.4305100441  0.441508891465  0.371569204314  -2.40750763469  -0.463620531364  -0.178267943668  0.720064859546  
5.43860006332  0.495032661102  0.369913768552  -2.40394380465  -0.457520920703  -0.161477008087  0.729109442157  
5.44681811333  0.540055429045  0.340524467121  -2.38534938616  -0.455102430028  -0.148865259298  0.705866810827  
5.45479202271  0.556444825923  0.381154925305  -2.40582682317  -0.451734852085  -0.135400097696  0.713324692474  
5.46290302277  0.575821766863  0.406298198097  -2.41598497247  -0.441077566451  -0.115805940436  0.711459295963  
5.47099304199  0.575433579937  0.428632278165  -2.4275614061  -0.441245640411  -0.103959280913  0.695873904958  
5.47911000252  0.55511451175  0.464932969225  -2.44524405226  -0.437541681693  -0.0913722559218  0.682764577029  
5.4872610569  0.539209212335  0.485070760123  -2.45403747381  -0.433969253727  -0.0796939273298  0.661937834274  
5.49551606178  0.528567660844  0.514980018721  -2.47108836846  -0.437592562986  -0.0689339635181  0.644153886474  
5.50336694717  0.514010994002  0.516122932289  -2.47073760618  -0.437908369982  -0.0590938834456  0.61667756274  
5.51160502434  0.481041248552  0.530044870002  -2.47821034935  -0.441699598181  -0.0519410124158  0.600544330371  
5.51950597763  0.438948598055  0.583798351419  -2.49846192765  -0.444764339249  0.295243812995  0.602657646173  
5.52763199806  0.434785974141  0.534783949824  -2.47148495349  -0.4420678374  0.29738793255  0.551014024274  
5.53572297096  0.358860033707  0.613663577648  -2.50754429702  -0.451993729603  0.307032151373  0.578439630023  
5.54371595383  0.309822442474  0.616709001623  -2.51118880542  -0.455879222  0.311055040765  0.558105337984  
5.55183196068  0.270663122832  0.602872352438  -2.50632093024  -0.459894382798  0.317905151466  0.556554425267  
5.55994105339  0.219360984342  0.576746651079  -2.49265518579  -0.460245480198  0.320648865337  0.534615616883  
5.56802296638  0.180168170074  0.520906538429  -2.46434383544  -0.464494104937  0.322821045757  0.521598175944  
5.57610607147  0.128144188888  0.468804755415  -2.43597553267  -0.464876855091  0.324326574646  0.506859573512  
5.58440995216  0.0887549373435  0.388221510013  -2.40252012254  -0.465764352496  0.323607568838  0.485546173437  
5.59245800972  0.886453822751  0.313805554929  -2.36080416153  -0.466090829021  0.322269917157  0.46580428953  
5.60056996346  0.985509248569  0.255740826239  -2.32766943212  -0.462451807957  0.322224651095  0.442581317763  
5.60856294632  0.955273497863  0.184110600824  -2.29781276927  -0.459147042932  0.321791385749  0.421293357032  
5.61663603783  0.923943424398  0.11587335994  -2.27813485075  -0.452278604102  0.317503361051  0.394342675406  
5.62476611137  0.903082966253  0.0508621028326  -2.2509096578  -0.448638396237  0.316303482926  0.369839183635  
5.63287401199  0.870186838668  -0.00668450624129  -2.22388713764  -0.43749766613  0.312987363238  0.345219262491  
5.64098405838  0.848007303362  -0.0592889938548  -2.18849640905  -0.422332132594  0.31287336205  0.32061871083  
5.64903497696  0.82530732438  -0.109243715065  -2.1647021953  -0.407433338454  0.312514119733  0.29110984874  
5.65715909004  0.813056748469  -0.155062487765  -2.13335217602  -0.392351821509  0.310292432909  0.267286891373  
5.66527414322  0.790569275374  -0.209453912356  -2.10536910652  -0.374187587592  0.307768974649  0.241301871304  
5.67348504066  0.777417747397  -0.245442251453  -2.0777468745  -0.355816502882  0.306858635611  0.221013871725  
5.68163013458  0.765165596369  -0.293066968081  -2.06291278811  -0.334898675917  0.30579577267  0.198550625103  
5.68961691856  0.752480668187  -0.334452369772  -2.04046722566  -0.314075039178  0.304610359301  0.179223928867  
5.69761300087  0.738083808934  -0.35756786605  -2.02770297267  -0.293597581286  0.305038683333  0.162909479629  
5.70568609238  0.723414571699  -0.376066841462  -2.01604623441  -0.270113082183  0.303675106958  0.146948724621  
5.71375894547  0.697973445015  -0.390481027479  -2.00684037788  -0.250979278724  0.302145720375  0.133914117163  
5.72192597389  0.683985467372  -0.402197987179  -1.99857606977  -0.229112118342  0.300626003525  0.123659503949  
5.7299489975  0.659348276057  -0.410197711558  -1.99260133539  -0.211775960048  0.297252910862  0.113505803704  
5.73809695244  0.63553055257  -0.414407328163  -1.98740800295  0.178246406866  0.295546442823  0.108535952068  
5.74618196487  0.612654611342  -0.415984986522  -1.98363950827  0.19714728801  0.293829523993  0.103123569842  
5.75456595421  0.580001815602  -0.413088083981  -1.97253886637  0.211884998664  0.292038830137  0.0888772331959  
5.76258206367  0.558393244062  -0.396483929785  -1.97926661716  0.229193945877  0.292063220416  0.0768956257877  
5.77066802979  0.538011343431  -0.37951258246  -1.98756552182  0.241932565064  0.288687770876  0.0644700067288  
5.77870607376  0.509625548243  -0.373637642418  -1.98906775477  0.25359096613  0.288676548492  0.0568205920816  
5.78682112694  0.492448228557  -0.354003693433  -1.99898458081  0.264441680686  0.288807637107  0.0485155353094  
5.79493498802  0.465593582661  -0.332772290019  -2.01811757314  0.277773308128  0.288917551553  0.0447658222506  
5.80304908752  0.451517178761  -0.31110722624  -2.02791816848  0.290441954634  0.287441215421  0.0427398743179  
5.81131696701  0.438944628743  -0.289191449087  -2.03807867534  0.30218383866  0.28942977649  0.0449231648667  
5.81942510605  0.427632526005  -0.265726128118  -2.03915291399  0.313289222693  0.2897697271  0.0484750336189  
5.82732009888  0.417584110013  -0.243065582512  -2.0495397926  0.326825410368  0.291863311559  0.0543163887601  
5.83563804626  0.407438739482  -0.445230612026  -2.05895743723  0.325299736246  0.294004661567  0.0525146356286  
5.84355711937  0.398724042292  -0.601210255297  -2.06928609607  0.319626257921  0.296177291881  0.055655484371  
5.8517229557  0.391139799282  -0.716761757099  -2.07970282796  0.313587731641  0.294928396907  0.0553010725605  
5.85972094536  0.373989486262  -0.782689979291  -2.08946086395  0.31069914467  0.298727681518  0.0648532538367  
5.86785101891  0.367890860727  -0.771617448446  -2.11609911329  0.307158675223  0.299202479888  0.0731858865331  
5.87600898743  0.355226594249  -0.767441690179  -2.13701121691  0.299213922146  0.301292708244  0.0882314598977  
5.88409996033  0.353467448382  -0.708772179764  -2.15527428771  0.291612422268  0.301734213633  0.0988769158335  
5.89222812653  0.351391263894  -0.580318613261  -2.18036217862  0.284121810539  0.305573138388  0.110364744141  
5.90026497841  0.351666454554  -0.434458147253  -2.19618786445  0.279840642283  0.307689380882  0.125246032984  
5.90854597092  0.352830720083  -0.271490949669  -2.20258740763  0.272273639538  0.308042227016  0.140639400672  
5.91655611992  0.354704573986  -0.0860043490296  -2.20858677058  0.264763160968  0.306605310656  0.153676513304  
5.92458510399  0.365553730395  0.118260995162  -2.22849705073  0.261020522528  0.31375445121  0.163021895635  
5.93264102936  0.186960065747  0.160116720872  -2.24748780288  0.257199692985  0.322565678025  0.199321636181  
5.94065308571  -0.00246967050093  0.198251189686  -2.25755392746  0.246787628462  0.326218733767  0.215342186426  
5.94869399071  -0.146025370974  0.230794294153  -2.27559971082  0.239784227314  0.335003406002  0.236639149085  
5.95680904388  -0.286578994872  0.233126912774  -2.2703258821  0.222833544664  0.333328134627  0.244098364551  
5.9649541378  -0.420510601638  0.290992636722  -2.29273137367  0.217592060219  0.345180111783  0.267565886339  
5.97299599648  -0.543320214527  0.357600567044  -2.32146445777  0.212692014704  0.356995802847  0.293391498014  
5.98105502129  -0.60123631133  0.347604528228  -2.31326073649  0.197062460323  0.353239754909  0.296992599014  
5.98919701576  -0.607157892298  0.465449782186  -2.35074856964  0.197909204983  0.374925447756  0.338198168499  
5.99720311165  -0.607885905488  0.52932654679  -2.37552586475  0.187708954394  0.382881464115  0.35436194063  
6.0055680275  -0.605940327078  0.628133448776  -2.3937880363  0.172898177181  0.388983072702  0.395575538003  
6.0136089325  -0.599159427344  0.61896416781  -2.38498041321  0.163852925788  0.386448729671  0.404181125402  
6.02169513702  -0.588068184435  0.677505482019  -2.38588793496  0.153695661772  0.395258805218  0.425656899409  
6.02970314026  -0.579699505593  0.644176772142  -2.36943342988  0.142642527205  0.390432493519  0.43544848332  
6.03780603409  -0.550858384735  0.738661518145  -2.36257356473  0.142289665158  0.408565669275  0.46906213897  
6.04588913918  -0.525620738052  0.735091423722  -2.35070241988  0.129958874811  0.409465280213  0.481307525063  
6.05399298668  -0.505772210133  0.771389125415  -2.35120347528  0.12279448873  0.414929644727  0.491023821089  
6.06210207939  -0.4934716879  0.760674928369  -2.33833099107  0.115732278008  0.416601013806  0.496993832504  
6.07014298439  -0.371254194979  0.76182433115  -2.32371360212  0.109915309179  0.419559330973  0.501973520566  
6.0782251358  -0.195688508414  0.759815665323  -2.30870523453  0.108237255415  0.422135970531  0.511223059008  
6.08628511429  -0.0131362031209  0.752380387524  -2.29568146533  0.100245346047  0.421099107686  0.511528981778  
6.09451293945  0.141852944524  0.756746334935  -2.29058977935  0.0933159697224  0.421386793263  0.518908885701  
6.10260391235  0.31924032541  0.712854740963  -2.27261869409  0.0865293087484  0.419898924125  0.517443204263  
6.11058092117  0.498602586097  0.696811651191  -2.26870637518  0.0876829285102  0.418211422598  0.515330911903  
6.11879301071  0.559867408182  0.675007070572  -2.26653037052  0.0764134193381  0.418103296302  0.512635573062  
6.12674713135  0.588296298058  0.64882653458  -2.26516938504  0.0593827320466  0.414627869683  0.504204553322  
6.13495707512  0.614784137239  0.621075254732  -2.2717359553  0.0501193956261  0.409459840439  0.492931303401  
6.14298200607  0.67306276051  0.586595467589  -2.27871820085  0.0379403910456  0.40621261841  0.481606966266  
6.15102100372  0.716607940602  0.549693112886  -2.30422279375  0.0259833108392  0.401257612077  0.467699467467  
6.15916991234  0.768374297354  0.511650512663  -2.32770331203  0.0185511543069  0.398083900291  0.456603329362  
6.16722512245  0.830829481049  0.443504042855  -2.33580825586  0.00809688807311  0.395050246593  0.44045444314  
6.17528891563  0.874834579424  0.403655653963  -2.36830732345  -0.00519651164147  0.393614332685  0.427354042844  
6.18340301514  0.917901965595  0.338355604184  -2.38254569174  -0.010514381131  0.38728371936  0.412039300981  
6.19140601158  0.965785001041  0.300212530089  -2.41129976686  -0.0183896335448  0.387756736639  0.39727751836  
6.19968509674  0.998322793274  0.265952496035  -2.42886865076  -0.0250522112913  0.386468138747  0.380511142324  
6.20765805244  1.03996953256  0.215507092172  -2.44698786745  -0.0313867015195  0.38206024284  0.367107907015  
6.21588802338  1.07619269809  0.182167496068  -2.46160877733  -0.0364763929672  0.379420395565  0.351781004438  
6.22379493713  1.11990343256  0.1498661695  -2.46540473903  -0.040531149156  0.376963856307  0.334669793514  
6.23187208176  1.15915364842  0.115397163023  -2.48714198607  -0.044557204355  0.373021335004  0.323734445981  
6.24009203911  1.20553371482  0.0815129355297  -2.49843811624  -0.0512278898376  0.367709935524  0.308346388189  
6.24812602997  1.24716774626  0.0482194623858  -2.5170671819  -0.0539396597835  0.362651044369  0.293948730049  
6.25614404678  1.2956629483  0.0140549598557  -2.53475118647  -0.0685877734755  0.357950601286  0.28055494827  
6.26429796219  1.23546158115  -0.0997306152911  -2.4987248782  -0.420913387331  0.342923822097  0.265562650167  
6.27237796783  1.20641193088  -0.184655986901  -2.47780724457  -0.433270772423  0.332097808369  0.251690231367  
6.2807431221  1.4056662511  -0.0905407792099  -2.56731895471  -0.43661513667  0.346459789145  0.246758888457  
6.28869795799  1.36365740566  -0.175450380305  -2.543045094  -0.440670019778  0.335855085202  0.232171946063  
6.29680800438  1.48647766111  -0.110860244909  -2.58819466653  -0.44624635792  0.344980961038  0.226596440726  
6.3047850132  1.50623695887  -0.119666819901  -2.5956389029  -0.448592640879  0.341778468192  0.216649209343  
6.31280708313  1.53493627276  -0.143449058698  -2.59436766713  -0.4506748875  0.338925019772  0.207733736937  
6.32097196579  1.55600839708  -0.135649688449  -2.5966029729  -0.448093969002  0.334620387492  0.202432679212  
6.3290541172  1.57472560556  -0.144015299112  -2.59210399761  -0.452608670643  0.332294514926  0.195389878246  
6.3371989727  1.61087082964  -0.141110965341  -2.60197007902  -0.449755077493  0.330364705204  0.189285412952  
6.34520196915  1.64328207826  -0.154147893041  -2.60479396622  -0.453995687961  0.32707192389  0.179425870803  
6.35334300995  1.55772489908  -0.236208477929  -2.57198028047  -0.455119945624  0.316732500206  0.167920223925  
6.36140203476  1.47347946495  -0.313529985338  -2.53883895844  -0.452242533449  0.308590540213  0.160215371428  
6.36964511871  1.65830266775  -0.231499944915  -2.60132077636  -0.465841030954  0.319383523192  0.148092384103  
6.3777821064  1.56232756272  -0.308356260718  -2.56579689237  -0.46247313966  0.309914867257  0.13971106362  
6.38576602936  1.73544782857  -0.213723555353  -2.63448771586  -0.482720621181  0.322686261683  0.132331209152  
6.39386510849  1.72565119183  -0.235873842997  -2.62493352846  -0.489115307009  0.322362876679  0.125918690196  
6.40190696716  1.69968900945  -0.241703695464  -2.62216487567  -0.494988987796  0.320454889631  0.120434867835  
6.40997099876  1.67345892154  -0.259108255302  -2.60126846425  -0.496690930429  0.320368916352  0.113114449281  
6.41804003716  1.64539710962  -0.276881156499  -2.58121314416  -0.501697108315  0.317181904337  0.109367929416  
6.4260969162  1.55184087116  -0.341238951453  -2.54073346689  -0.499799526678  0.309919359006  0.106433812218  
6.43497109413  1.57881782256  -0.3218521834  -2.54405231099  -0.507465622767  0.308991701699  0.101542960512  
6.44308996201  1.55953040278  -0.340470443879  -2.53417173473  -0.511872843092  0.302865629178  0.0946608442952  
6.4511449337  1.53894754279  -0.360996711411  -2.53450871354  -0.519947829908  0.296999565138  -0.113254266401  
6.45930314064  1.52895225606  -0.381217923274  -2.53362214019  -0.524051939083  0.291446400403  -0.284655628847  
6.46733498573  1.50718593185  -0.413117776652  -2.52532558642  -0.527912379107  0.286070716478  -0.298075923619  
6.47534608841  1.48314555866  -0.430216693345  -2.52496309213  -0.53490253838  0.280965013304  -0.313632540203  
6.48370695114  1.45857951432  -0.445527079196  -2.52356007823  -0.537881334127  0.276125326872  -0.328581502992  
6.49170613289  1.4337005899  -0.460915492013  -2.52267574543  -0.544144986171  0.269878329427  -0.345626278641  
6.49983811378  1.39699013333  -0.474015640888  -2.5216564727  -0.550046661598  0.265539354782  -0.364755135964  
6.50782012939  1.35935146269  -0.472178175611  -2.52749453082  -0.555404259595  0.258066461931  -0.380476439189  
6.51592993736  1.30060043594  -0.481612730997  -2.52589906446  -0.56052409508  0.250720322129  -0.395476653172  
6.52401900291  1.27858292682  -0.482004086929  -2.53174288409  -0.568891909861  0.245700180757  -0.417962510842  
6.53210306168  1.24521223493  -0.479991832313  -2.53638733278  -0.57321239931  0.239195447337  -0.437000102149  
6.5401930809  1.22523903303  -0.479820590362  -2.54050722385  -0.576545287178  0.233126462959  -0.455266962573  
6.54829096794  1.20610077168  -0.480832760472  -2.54490314699  -0.579590819191  0.225709805735  -0.478234479217  
6.55637097359  1.19821937509  -0.467539697882  -2.55433246928  -0.57515492335  0.218672309777  -0.48582227694  
6.56463909149  1.19098436374  -0.457323520047  -2.56464509525  -0.577539851039  0.213749863481  -0.495100511938  
6.57270598412  1.18568492224  -0.462475192172  -2.56714929547  -0.579705538044  0.209236698764  -0.503262743234  
6.58081698418  1.17910059472  -0.455607587472  -2.58562465713  -0.581581095789  0.205109416084  -0.510344397712  
6.58880114555  1.16084797875  -0.445377339358  -2.59285320924  -0.579264063487  0.199508045677  -0.513776055809  
6.59696507454  1.08938955932  -0.485219758956  -2.5709929516  -0.573987719948  0.193873664794  -0.503274773079  
6.60499691963  1.16610389174  -0.422497292308  -2.62539480817  -0.588271245306  0.191537591406  -0.513367939356  
6.6131799221  1.16021551263  -0.405587085603  -2.63812478409  -0.59143204182  0.187159715303  -0.514556045835  
6.62125897408  1.15350044354  -0.376448270595  -2.65678208003  -0.593896339241  0.184825096386  -0.517636439524  
6.6296620369  1.12997522916  -0.328662952347  -2.69080253367  -0.600816252373  0.177727397906  -0.51402169542  
6.63767814636  1.1124654184  -0.297007780672  -2.71240274373  -0.601487714008  0.176312328986  -0.512658785129  
6.64573693275  1.09936856987  -0.300935443041  -2.72857507684  -0.60592579637  0.171918204552  -0.513397119981  
6.65382814407  1.08762728989  -0.306152977888  -2.74254261569  -0.606342734311  0.171218823649  -0.510959556184  
6.66181397438  1.07692096962  -0.313402597148  -2.75498624813  -0.606345432729  0.167419423164  -0.510717706381  
6.66995406151  1.06895303776  -0.338933487926  -2.76853800768  -0.606529230018  0.165657634813  -0.512610225549  
6.67794394493  1.06180569834  -0.365146874002  -2.78048605772  -0.606316850103  0.160762376316  -0.516568484248  
6.68600702286  1.05734875376  -0.409378664297  -2.79422693065  -0.609747424671  0.159607309537  -0.517296481714  
6.69410610199  1.05349250872  -0.451873626755  -2.80556830129  -0.609180553955  0.156995279271  -0.514931907857  
6.70225596428  1.0380445398  -0.493122694822  -2.81614272939  -0.611659704831  0.0149861310325  -0.512231806078  
6.7103331089  1.0457526469  -0.50787237748  -2.8386234311  -0.613199446255  -0.181322626424  -0.519675182001  
6.7184009552  0.99582885157  -0.551763517416  -2.81821008334  -0.603943506114  -0.192777588941  -0.513377923141  
6.72670412064  0.961862701364  -0.597011164879  -2.79394186974  -0.598346081146  -0.196564825376  -0.512169421665  
6.73464107513  0.916561206277  -0.623841951298  -2.76793755812  -0.5955867146  -0.201941275844  -0.510660992758  
6.7427649498  0.866388466154  -0.693797956185  -2.73237593495  -0.593731294167  -0.212189163454  -0.503666096036  
6.75087213516  0.80608041411  -0.741358446772  -2.69543460675  -0.587711725995  -0.21896256474  -0.501874680562  
6.75903201103  0.740729457715  -0.81489647607  -2.64824038969  -0.585706167981  -0.228883534574  -0.502501748039  
6.76701498032  0.669152962498  -0.894972211924  -2.59628582307  -0.576981482497  -0.238629337045  -0.495025941833  
6.77517914772  0.603195222778  -0.970897747734  -2.54856494594  -0.571975289327  -0.25145608798  -0.492844483337  
6.78329396248  0.531601947741  -1.05661295476  -2.50712439625  -0.567611864316  -0.265728459183  -0.4931678372  
6.79132795334  0.468027947622  -1.15062152313  -2.45812112068  -0.563664677382  -0.276189770941  -0.493297122943  
6.79985594749  0.397513131806  -1.23464698251  -2.40889208739  -0.556318838803  -0.289782742062  -0.490638204587  
6.80768013  0.335303020024  -1.32924125107  -2.36555191892  -0.553280638491  -0.304600223878  -0.485315110318  
6.81580400467  0.279658166991  -1.41495985447  -2.32331888571  -0.543479837104  -0.317305652808  -0.480070037549  
6.82386493683  0.230592802377  -1.50375651947  -2.28427047446  -0.537585263052  -0.331214035087  -0.48014762779  
6.8319170475  0.162836628695  -1.5752081933  -2.22743655115  -0.521118364994  -0.33116619406  -0.45664832359  
6.84007000923  0.127205002719  -1.65763960119  -2.22297864393  -0.520655020852  -0.357536958709  -0.480689982837  
6.84807610512  0.0855507067421  -1.72155475867  -2.19007015822  -0.509157363994  -0.37006980428  -0.474994532379  
6.85618591309  0.0582575752856  -1.78446655401  -2.17022983252  -0.505534189861  -0.387010421806  -0.472128472461  
6.8642411232  0.019992970697  -1.83678526366  -2.14318844036  -0.501899946857  -0.400101106294  -0.466848427347  
6.87237501144  0.000898948327217  -1.87962643672  -2.10781808913  -0.491503082471  -0.414232935376  -0.464417537338  
6.88044404984  0.000472625596552  -1.92119564635  -2.08526168597  -0.485603978735  -0.425866409616  -0.46212757152  
6.88871407509  -0.00859432013006  -1.95505402093  -2.06517215147  -0.480156304144  -0.430663281958  -0.452360109726  
6.8966460228  0.0127979036461  -1.98798597095  -2.05646436894  -0.475543376024  -0.441406432335  -0.463585961318  
6.90479803085  -0.0143219647387  -1.99952395505  -2.02026201656  -0.460169105901  -0.432142209945  -0.441066139671  
6.9127240181  -0.0226754781869  -2.01136084699  -1.99707768057  -0.44967168913  -0.420834613202  -0.416720228928  
6.92085599899  0.0369372864402  -2.03495910843  -2.00546901634  -0.451238275415  -0.448150376088  -0.455765624299  
6.92894506454  0.0332281570201  -2.03312513939  -1.97603281924  -0.438124677001  -0.440427139716  -0.441172946081  
6.93704104424  0.0585645512092  -2.03328545049  -1.95088953622  -0.436385751423  -0.453510007948  -0.461136929885  
6.94519495964  0.0473534550373  -2.02238677018  -1.92707664926  -0.424748823287  -0.444777707886  -0.443809126941  
6.95340299606  0.0653252760515  -2.01320461112  -1.90684715125  -0.421034572431  -0.455281540475  -0.461127613308  
6.96140503883  0.0859506891802  -2.00122984067  -1.88929789841  -0.417986795854  -0.456826021863  -0.462124979961  
6.96962308884  0.0952784304501  -1.98509307712  -1.87431901775  -0.415472358811  -0.456353491708  -0.463068932712  
6.97779011726  0.119750689306  -1.9681886196  -1.86977318851  -0.406980035055  -0.455376771476  -0.456130022013  
6.9857609272  0.158770552618  -1.95282255082  -1.86829154363  -0.406303721453  -0.455535992723  -0.454685265815  
6.99376893044  0.198048134415  -1.93429343114  -1.86796174474  -0.401051004623  -0.45206140799  -0.450706526909  
7.00192904472  0.224127655122  -2.28413787384  -1.86991749632  -0.394307596904  -0.44845387294  -0.449524996507  
7.01001310349  0.263699799806  -2.84676729299  -1.86335332963  -0.384476868272  -0.444567046375  -0.445820090082  
7.01807594299  0.276414564365  -2.81782915481  -1.85873621221  -0.375270255261  -0.439112824041  -0.444921903001  
7.02614498138  0.289986274537  -2.78952049764  -1.85638895643  -0.370494378916  -0.433568449338  -0.441507373411  
7.03423309326  0.304134814899  -2.76086111514  -1.85555833708  -0.366486704499  -0.427990606397  -0.435684360812  
7.04239106178  0.305448983002  -2.7305424258  -1.85618066738  -0.363135347322  -0.424170571824  -0.430178413416  
7.05061411858  0.307846851955  -2.69931950384  -1.85752172354  -0.356811280278  -0.418698531908  -0.427607874533  
7.05868291855  0.311133900587  -2.66850189733  -1.53019010648  -0.351112989614  -0.414923788323  -0.4252596818  
7.06737208366  0.328567642809  -2.63979259238  -1.05301075724  -0.346105014721  -0.409428684338  -0.420521178947  
7.07524299622  0.359034100354  -2.61314784405  -0.702099561196  -0.3417513615  -0.405580609798  -0.416109672453  
7.08327507973  0.317906972576  -2.588228712  -0.707371085136  -0.341632516534  -0.401820335329  -0.414636017022  
7.09156298637  0.238178635153  -2.56432010291  -0.712814924305  -0.338472721051  -0.398076694383  -0.413379927847  
7.0995850563  0.125820668284  -2.53576168957  -0.718704037162  -0.331979732964  -0.381688998943  -0.391458375119  
7.10772609711  0.151437434543  -2.5185359237  -0.735423306099  -0.333732057136  -0.385071745633  -0.399323506627  
7.11573791504  0.254237275948  -2.49854705862  -0.742423509931  -0.33205093529  -0.380274371378  -0.394054722993  
7.12386202812  0.394830534662  -2.48007847948  -0.751104262123  -0.338028370672  -0.377463216593  -0.394427601191  
7.13186192513  0.517384973191  -2.45631665137  -0.758522609329  -0.333333356566  -0.360332794678  -0.371518030208  
7.14006614685  0.620451081101  -2.44256797658  -0.768338342299  -0.343740045967  -0.359909018951  -0.381096460893  
7.14808607101  0.649174618711  -2.42587677765  -0.777174775688  -0.347110269107  -0.353260299599  -0.377520687364  
7.15611505508  0.67555186277  -2.41125473986  -0.786683774814  -0.354352025758  -0.35028639412  -0.376949550454  
7.16425895691  0.673728396065  -2.39354694694  -0.795743251057  -0.357999972297  -0.342921630625  -0.368824777871  
7.1723780632  0.671445174464  -2.37605358785  -0.804216919995  -0.358121235521  -0.331077791868  -0.350848924297  
7.18044304848  0.681245824775  -2.3635188001  -0.813713760384  -0.365687741413  -0.32956306551  -0.352168987035  
7.18873310089  0.689818568274  -2.35089854165  -0.814283995164  -0.376750122782  -0.330009746342  -0.353770288215  
7.19680094719  0.684103756084  -2.33692798722  -0.82266343025  -0.377087902363  -0.324265036983  -0.345183366045  
7.20483112335  0.703993945898  -2.3249313623  -0.813272793407  -0.384314374791  -0.325292358519  -0.347694421085  
7.21283793449  0.721915934291  -2.31425521383  -0.812604876843  -0.384468643287  -0.323278347731  -0.347812539233  
7.22095894814  0.751118483908  -2.3096336911  -0.822026065726  -0.388505812043  -0.321459897516  -0.348223562341  
7.22923207283  0.77795082714  -2.3058202387  -0.831224641827  -0.392445606108  -0.316673472095  -0.348902300899  
