Ethan-CYM/ros_catkin_ws/test/servol_正常操作/ur_joint_target_velocity.txt
time  shoulder_pan_joint  shoulder_lift_joint  elbow_joint  wrist_1_joint  wrist_2_joint  wrist_3_joint
0.148046970367  -0.00376864599815  0.00299291422457  -0.00501320184723  -0.0501636119117  0.0023862670594  -0.859456781497  
0.156105995178  -0.00395864712097  0.00314380583484  -0.00526594884984  -0.0526926747615  0.00266305116478  -0.90287111786  
0.164258003235  -0.00410932515576  0.00326346855558  -0.00546638672666  -0.0546983166988  0.00240609577277  -0.937310626939  
0.172255039215  -0.00422279750573  0.00335358394729  -0.00561733213114  -0.0562087220088  0.00264987401161  -0.96325826091  
0.180601119995  -0.0043012481472  0.00341588644025  -0.00572169027486  -0.0582442192904  0.00285827868542  -0.981212192044  
0.18868803978  -0.00434690890449  0.00345214846382  -0.00578243001878  -0.0587688937532  0.00303276200923  -0.991681538781  
0.19659614563  -0.00436204188162  0.00346416649431  -0.00580256050303  -0.0588880334931  0.00267915277775  -0.995182355653  
0.204606056213  -0.00434892306978  0.0034537480367  -0.00578510934105  -0.0586323819507  0.00283208543463  -0.992233891459  
0.212671995163  -0.00430982714123  0.00342269954853  -0.00573310239179  -0.0580326217978  0.00295556606473  -0.983355118095  
0.220799922943  -0.0042470134319  0.00337281530782  -0.00564954511319  -0.0571191897775  0.00305111425203  -0.969061530584  
0.228785037994  -0.00416271310732  0.00330586722071  -0.00553740548981  -0.0569133647635  0.0026245839354  -0.949862217096  
0.236835002899  -0.00405911749979  0.00322359555934  -0.00539959851848  -0.0553789766127  0.00221487367716  -0.926257196208  
0.244976043701  -0.00393836759821  0.00312770061504  -0.00523897222724  -0.0536199449031  0.00231894270416  -0.898735017172  
0.253098011017  -0.00380254466629  0.00301983524771  -0.00505829519536  -0.0516646290122  0.00190481714521  -0.867770617673  
0.261152982712  -0.00365366195996  0.00290159830802  -0.0048602455354  -0.0505316620106  0.00200673777172  -0.833823432386  
0.269269943237  -0.00349365750972  0.00277452890555  -0.00464740129217  -0.0481817218275  0.00208828995864  -0.797335744604  
0.277535915375  -0.00314762321709  0.00249972173154  -0.00418709280052  -0.0440643983873  0.00174046300447  -0.718413979183  
0.285515069962  -0.00296504248195  0.0023547231088  -0.00394421669088  -0.041353987409  0.00180864775547  -0.67676710071  
0.293612957001  -0.00277823058722  0.00220636426127  -0.00369571212553  -0.0385972894161  0.00186031217838  -0.634152374342  
0.301706075668  -0.00258867562386  0.00205582697375  -0.00344355862188  -0.035815009713  0.00140069690117  -0.590909463021  
0.309787034988  -0.00239776718696  0.00190421480941  -0.00318960467422  -0.0330264050091  0.000968067074659  -0.547355560437  
0.317817926407  -0.00220679539631  0.00175255233196  -0.00293556645092  -0.030249276342  0.00105873503473  -0.503785166396  
0.325909137726  -0.00201695061063  0.00160178487866  -0.00268302741417  -0.0274999715855  0.00113579294261  -0.460470020515  
0.334061145782  -0.0018293237831  0.00145277884273  -0.002433438793  -0.0257846540458  0.00119981836948  -0.417659182329  
0.342112064362  -0.00164490740642  0.00130632242382  -0.00218812084042  -0.0230511880286  0.000755704559516  -0.375579245982  
0.350193023682  -0.00146459699566  0.00116312680569  -0.00194826480598  -0.0193953942531  0.000837097449747  -0.334434677687  
0.358425140381  -0.00128919305798  0.00102382772045  -0.00171493555596  -0.0168944517897  0.000411255200235  -0.294408264354  
0.366461992264  -0.00111940349923  0.000888987359796  -0.00148907477465  -0.0144827928492  1.59182536491e-05  -0.255661661961  
0.374567985535  -0.000955846418438  0.000759096594284  -0.00127150468184  -0.0121684547781  -0.000348826769738  -0.218336032523  
0.382636070251  -0.00079905324292  0.000634577463127  -0.00106293220314  -0.00995824842598  -0.000187369709733  -0.182552758823  
0.390661001205  -0.000649472157973  0.000515785897911  -0.000863953532352  -0.00785780951562  -0.000533003848472  -0.148414226441  
0.398741960526  -0.000507471787033  0.00040301464524  -0.000675059026929  -0.00587165488644  -0.000352777173458  -0.116004662989  
0.406815052032  -0.000373345080009  0.000296496354707  -0.000496638380424  -0.00499449816982  -0.000184351097608  -0.0853910249124  
0.414906024933  -0.000247313369503  0.00019640680018  -0.000328986018209  -0.00316317886887  -2.78559047094e-05  -0.056623922659  
0.422966957092  -0.000129530556685  0.000102868204071  -0.000172306665702  -0.00145439121973  0.000116663191629  -0.0297385754865  
0.431051969528  -2.00873907955e-05  1.59526359496e-05  -2.67210411296e-05  0.000130768106186  0.000249238828367  -0.00475578768948  
0.43919301033  8.09841915722e-05  -6.43145413667e-05  0.000107728372189  0.0015920568674  0.000369975246763  0.0183170614814  
0.447284936905  0.000173706698983  -0.000137951203316  0.000231071516036  0.00293002054362  -1.66786761979e-05  0.0394850214145  
0.455569028854  0.000258152718761  -0.000205014995968  0.000343404948938  0.00414592779745  0.000122507296612  0.0587645739357  
0.463581085205  0.000334440578703  -0.000265599890726  0.000444886075209  0.00425044992445  0.000250128606218  0.0761826434775  
0.471693992615  0.000402730061655  -0.000319832781003  0.000535727444303  0.00531172785343  0.000366289787833  0.0917756192692  
0.47966504097  0.00046321819544  -0.000367870138747  0.000616191150417  0.00625764694224  0.000471159452064  0.105588394685  
0.487771987915  0.000516135138429  -0.000409894746915  0.000686583359313  0.00709128880611  6.92425623428e-05  0.117673428378  
0.495906114578  0.000561740178869  -0.000446112522297  0.000747248986465  0.00781619497477  -0.000301903739967  0.128089831344  
0.503961086273  0.000600317863971  -0.000476749441379  0.000798566547817  0.00843630700961  0.000348985523575  0.13690248356  
0.512018918991  0.000632174272701  -0.000502048580349  0.000840943201709  0.00895591098167  0.000451553005385  0.144181183392  
0.520143985748  0.000657633444283  -0.00052226727874  0.000874809997919  0.00937958412124  0.0005433538004  0.149999832501  
0.528161048889  0.000677033972455  -0.000537674434721  0.000900617347223  0.00971214380192  0.000624655110567  0.154435658564  
0.536297082901  0.000690725773794  -0.000548547938628  0.000918830722478  0.00995859899442  0.00069576735955  0.157568477681  
0.544417142868  0.000699067036621  -0.000555172249898  0.000929926599947  0.0101241042998  0.000261319630853  0.15947999798  
0.552523136139  0.000702421355434  -0.000557836121348  0.000934388647397  0.0102139166472  0.000354695926333  0.160253165543  
0.560742139816  0.000701155054228  -0.000556830473457  0.000932704163489  0.010233354718  -5.70976167401e-05  0.159971553416  
0.568738937378  0.000695634700685  -0.000552446420229  0.000925360771036  0.0101877611365  5.915063457e-05  0.158718794168  
0.576832056046  0.000686224811811  -0.000544973447101  0.000912843364968  0.0100824674475  -0.000329711883097  0.157371201831  
0.584893941879  0.000673285750433  -0.00053469774042  0.000895631314158  0.00992276188146  -0.000686341020761  0.154358214385  
0.592973947525  0.000657171810773  -0.000521900667081  0.000874195914783  0.00971385989042  -0.00101102398235  0.15062096355  
0.601067066193  0.000638229490314  -0.000506857402105  0.000848998091489  0.00946087742383  -0.00130422536765  0.146238876135  
0.609257936478  0.000616795944228  -0.000489835701206  0.000820486341409  0.00916880689618  -0.00107084882113  0.141289213406  
0.61722111702  0.000593197617767  -0.000471094814697  0.00078909491492  0.00884249578732  -0.000848941047342  0.13584676187  
0.625319957733  0.000567749051323  -0.000450884538502  0.000755242226083  0.00848662780368  -0.000638990655714  0.12998356116  
0.633577108383  0.000540751852137  -0.000429444397534  0.00071932948477  0.00711445094333  -0.000937092859319  0.123768670106  
0.641506910324  0.000512493826128  -0.000407002956222  0.000681739541787  0.00679588881105  -0.000710517251056  0.117267969458  
0.649621009827  0.000483248262779  -0.0003837772506  0.000642835937606  0.00645987550321  -0.000992839275337  0.110543999661  
0.65763092041  0.000453273365661  -0.000359972336051  0.00060296214482  0.00610984842354  -0.000751362581611  0.102862675058  
0.665750026703  0.000422811820799  -0.000335780944514  0.000562440993974  0.00574906824883  -0.000523966537835  0.0959323091725  
0.673816919327  0.00039209049488  -0.000311383244817  0.000521574272099  0.00438935392515  -0.00080669131521  0.0889444716681  
0.681947946548  0.00036132025508  -0.00028694669959  0.000480642483046  0.00409920218478  -0.000566741740697  0.0819469979349  
0.689993143082  0.000330695902198  -0.000262626012161  0.000439904758536  0.00380613338414  -0.000837620291878  0.0749840722461  
0.698058128357  0.000300396208707  -0.000238563156779  0.00039959890878  0.00351218981865  -0.00108227229289  0.0680962343149  
0.706202030182  0.000270584053351  -0.000214887485499  0.00035994160152  0.00321926402644  -0.000805493367856  0.0613204105811  
0.71440911293  0.000241406643949  -0.00019171590513  0.000321128658413  0.00292909530667  -0.00104091953351  0.0546899654992  
0.722481012344  0.000212995820176  -0.000169153117689  0.000283335457806  0.00264327081921  -0.00125160948813  0.0482347709547  
0.730437994003  0.00018546842824  -0.000147291917956  0.000246717433142  0.00236322754338  -0.000942453975662  0.0419812919715  
0.738657951355  0.000158926759537  -0.000126213541841  0.000211410656481  0.0020902550168  -0.00065144675956  0.0359526869139  
0.74671292305  0.000133459045607  -0.000105988059449  0.000177532496901  0.000834243839952  -0.000874707089246  0.0301689204348  
0.754784107208  0.000109140001933  -8.66748069531e-05  0.000145182343891  0.000661811795653  -0.000579487606516  0.0246468874807  
0.762892961502  8.60314134293e-05  -6.8322851565e-05  0.000114442386189  0.00149010133954  -0.00030358755472  0.0201936915885  
0.770998001099  6.41827547424e-05  -5.09714841527e-05  8.5378436922e-05  0.00125340368146  -4.7221637771e-05  0.0151677131472  
0.779145956039  4.36318388084e-05  -3.46507343009e-05  5.80407963533e-05  0.00102729705216  0.000189535246514  0.0104377553287  
0.787178039551  2.44054874532e-05  -1.93819028745e-05  3.24651439357e-05  0.000812366640663  0.000406735736093  0.00601020138256  
0.795264959335  6.52021815834e-06  -5.17810742613e-06  8.67345187624e-06  0.000609078978024  0.000108829994931  0.00188905878732  
0.803497076035  -1.00170585236e-05  7.95516395016e-06  -1.3325087136e-05  0.000417792106317  -0.000166626323049  -0.00192387810753  
0.811666965485  -2.52083360633e-05  2.00194943911e-05  -3.35331248927e-05  0.000238761778309  7.60555931766e-05  -0.00542886741057  
0.819658994675  -3.90638083456e-05  3.10229794888e-05  -5.1964221703e-05  -0.000919106715698  0.000299427597148  -0.00862805875019  
0.827716112137  -5.16011697765e-05  4.09796714635e-05  -6.86419153644e-05  -0.000990132120795  0.000503600152358  -0.0115253330887  
0.83581495285  -6.28449231683e-05  4.99090295089e-05  -8.35988004865e-05  -0.00204074780564  0.000193076696159  -0.0149193003168  
0.843841075897  -7.28256990916e-05  5.7835379251e-05  -9.68756230654e-05  -0.00200588432788  0.000401178778884  -0.0171640247278  
0.851984024048  -8.15795900293e-05  6.47873839564e-05  -0.000108520394749  -0.00196127176202  0.000590637361783  -0.0191279395049  
0.86008810997  -8.91475023182e-05  7.07975298695e-05  -0.000118587530764  -0.00190794813192  0.000761721598454  -0.0208206569948  
0.868217945099  -9.5574528517e-05  7.59016277726e-05  -0.000127137015013  -0.00184692069517  0.000914795932986  -0.022252723348  
0.876327037811  -0.000100909342515  8.01383326036e-05  -0.00013423359543  -0.00177916633479  0.00105030831186  -0.0242286398757  
0.884588003159  -0.000105203619369  8.35486827118e-05  -0.000139946012214  -0.0026968820151  0.000673061389583  -0.0251076129323  
0.892631053925  -0.000108511481546  8.6175660087e-05  -0.000144346261212  -0.00154392443521  0.000320920629233  -0.0257624928453  
0.90065407753  -0.000110888972969  8.80637726647e-05  -0.000147508894265  -0.00146231921601  -5.87488398482e-06  -0.0262066148525  
0.908718109131  -0.000112393561963  8.92586595845e-05  -0.000149510358008  -0.00137797651377  -0.000307264194129  -0.0264535836292  
0.916816949844  -0.000113083673942  8.98067200736e-05  -0.000150428372237  -0.00129162782394  -8.76293439779e-05  -0.026517171506  
0.924855947495  -0.000113018254444  8.97547664178e-05  -0.000150341348639  -0.00120396487682  0.000115501131051  -0.0264112199627  
0.932932138443  -0.00011225636285  8.9149701314e-05  -0.000149327850332  -0.00111563386053  0.00079777219577  -0.0261495483403  
0.941014051437  -0.000110856796941  8.80382197067e-05  -0.000147466092449  -0.00201848878796  0.000926500659436  -0.0257458697777  
0.949106931686  -0.000108877748225  8.64665350614e-05  -0.000144833483633  -0.00184747483855  0.000543762780585  -0.0252137143329  
0.957238912582  -0.000106376487784  8.44801298766e-05  -0.000141506208143  -0.00167826414241  0.000187359766865  -0.0245663592094  
0.965426921844  -0.000100030139148  7.94401030052e-05  -0.000133064044378  -0.00134882058204  4.97787856937e-05  -0.0229775245772  
0.973562002182  -9.62925814604e-05  7.64718779264e-05  -0.000128092197432  -0.00119014678292  0.000226859198578  -0.0220608041008  
0.981585979462  -9.22474496254e-05  7.32593892475e-05  -0.000122711203199  -0.00103640339189  0.000388784326024  -0.0210783098437  
0.989653110504  -8.79437309831e-05  6.98415408364e-05  -0.000116986226578  -0.000888162000715  0.000535725564872  -0.0200412466906  
0.997616052628  -8.34282150514e-05  6.62554911349e-05  -0.000110979508832  -0.000745915674242  0.000667934017262  -0.018960288402  
1.00567102432  -7.87453737049e-05  6.25365580009e-05  -0.000104750208207  -0.000610081985975  0.000785732744271  -0.0186387078788  
1.01374912262  -7.39372650413e-05  5.87181423651e-05  -9.83542720467e-05  -0.00048100628654  0.000889509174233  -0.0174332430316  
1.0218269825  -6.90434596973e-05  5.48316697105e-05  -9.18443387769e-05  -0.000358965166745  0.00097970770087  -0.0162131411374  
1.02993392944  -6.41009883237e-05  5.09065483601e-05  -8.5269668028e-05  -0.000244170078623  0.00105682250242  -0.0149871163644  
1.03799104691  -5.91443089033e-05  4.69701435242e-05  -7.86760971726e-05  -0.000136771079704  0.00112139060923  -0.0137632389557  
1.04609513283  -5.42052925777e-05  4.30477660415e-05  -7.21060224643e-05  -3.68606677115e-05  0.00117398524346  -0.0125489393173  
1.05417704582  -4.93132266312e-05  3.91626747509e-05  -6.55984030068e-05  5.5522325135e-05  0.000719490421565  -0.0113510115659  
1.0624871254  -4.44948332822e-05  3.53360914138e-05  -5.91887857493e-05  0.000140388807012  0.000791528967104  -0.0101756207514  
1.07046914101  -3.97743029382e-05  3.15872271243e-05  -5.29093497271e-05  0.000217795497345  0.000853064438467  -0.00902831342355  
1.0785150528  -3.51733405855e-05  2.79333191509e-05  -4.67889677724e-05  0.000287841018317  0.000904527477081  -0.00791403121752  
1.08655405045  -3.07112240037e-05  2.43896771677e-05  -4.08532839502e-05  0.000350662029691  0.000946380572159  -0.00683712713981  
1.09466314316  -2.64048725314e-05  2.09697378647e-05  -3.51248050335e-05  0.000406429427581  0.000979109961891  -0.00580138424364  
1.10263609886  -2.22689251297e-05  1.76851269438e-05  -2.96230043456e-05  -0.000535908259188  0.00100322077149  -0.00481003639248  
1.1108109951  -1.83158265423e-05  1.45457275436e-05  -2.43644363746e-05  -0.000410516836218  0.00101923241145  -0.00386579082081  
1.11881804466  -1.45559203864e-05  1.15597541684e-05  -1.93628606106e-05  -0.000292305753806  0.00102767424432  -0.00297085221232  
1.12722611427  -1.09975480607e-05  8.73383123741e-06  -1.4629373113e-05  -0.0011727099007  0.00053336270174  -0.00212694802848  
1.13538599014  -7.64715240298e-06  6.07307540569e-06  -1.01725443971e-05  -0.000986240334174  0.000569830535663  -0.00133535483316  
1.14351201057  -4.5093850847e-06  3.58118085179e-06  -5.99856230158e-06  -0.00080811882984  0.00059993308985  -0.00059692537241  
1.15156412125  -1.58721678808e-06  1.2605067784e-06  -2.11137854602e-06  -0.000638808898875  0.000623974696556  8.78838170572e-05  
1.15968298912  1.11795073575e-06  -8.87833597435e-07  1.48714220499e-06  -0.000478677458948  0.00064227664212  0.000718984483373  
1.16770291328  3.60617156876e-06  -2.86388322566e-06  4.79707189443e-06  -0.00131925848877  0.000159452188831  0.00129662861667  
1.17581892014  5.87884227188e-06  -4.66875120205e-06  7.82026828263e-06  -0.00109514811178  0.000208836138151  0.00182138047129  
1.18401694298  7.93858899667e-06  -6.30452311497e-06  1.056022478e-05  -0.000881631662744  0.000253093058527  0.00229408882154  
1.19213104248  9.78915572809e-06  -7.77417229513e-06  1.30219217833e-05  -0.0006792182371  -0.000203375461471  0.00271585960524  
1.20013213158  1.1435294265e-05  -9.08147243746e-06  1.5211680323e-05  -0.000488302350037  -0.000623148172991  0.00308802909463  
1.2082901001  1.2882656485e-05  -1.02309120461e-05  1.71370187501e-05  -0.000309176519859  -0.00100646502334  0.00341213772026  
1.2164940834  1.41376893859e-05  -1.12276110809e-05  1.88065131167e-05  -0.000142037370415  -0.00135377674277  0.00368990465976  
1.22466492653  1.5207533341e-05  -1.20772401503e-05  2.02296618292e-05  1.30081449657e-05  -0.00166572256914  0.00392320328972  
1.23265910149  1.60999239471e-05  -1.27859425708e-05  2.14167550837e-05  0.000155936446087  -0.00194311164573  0.00332088331879  
1.24072504044  1.68230977979e-05  -1.33602595315e-05  2.23787495228e-05  0.000286800999852  -0.00169118630324  0.00353785753348  
1.24886894226  1.73857024632e-05  -1.38070585984e-05  2.31271484853e-05  0.000405726007063  -0.0019440357328  0.00371603190573  
1.25700902939  1.77967109048e-05  -1.4133465755e-05  2.36738881599e-05  0.000512900140251  -0.00216519184093  0.00385730733946  
1.26499605179  1.80653405175e-05  -1.43468011034e-05  2.40312298891e-05  0.000608570367455  -0.00235573896068  0.00396367141228  
1.27305793762  1.82009769364e-05  -1.44545183529e-05  2.42116588157e-05  0.000693035893598  -0.00251687051969  0.00403717411161  
1.28117394447  1.82131027156e-05  -1.44641481853e-05  2.42277890086e-05  0.000766642247956  -0.00264986989212  0.00487305275681  
1.28942799568  -0.000380534349902  -0.00752975845715  -0.00154811708196  -0.00016147629316  -0.00126903279454  0.00720010497358  
1.29728794098  -0.0015431655698  -0.0211392155997  -0.00550973282337  -0.00200798439829  0.0019953683283  0.0140605596354  
1.30549907684  -0.00300461155736  -0.0402852496652  -0.0119667309671  -0.00469012377061  0.00747247472871  0.0242667855698  
1.31349992752  -0.00353666366434  -0.064419198752  -0.0206851264393  -0.00515206388412  0.0144608889497  0.0398751233364  
1.32156896591  -0.00400545252003  -0.0930040325515  -0.0317514240407  -0.00554614796522  0.0223040912867  0.061162468501  
1.32964611053  -0.00401443191161  -0.125121188303  -0.0452310257412  -0.00389252324348  0.0313828442498  0.0883489693767  
1.33774209023  -0.00320050123835  -0.160692672854  -0.0605365463688  -0.000360223042414  0.041049067026  0.120014769249  
1.34585499763  -0.00203133200919  -0.19843851203  -0.077115971281  0.00587441760115  0.0511972399997  0.155615557945  
1.35392212868  -0.000541669936067  -0.237955412268  -0.0938195026632  0.0145627322097  0.061231236434  0.193038570484  
1.36196112633  0.00123435759131  -0.278465175574  -0.110218188354  0.02645192687  0.0710975389384  0.234289332226  
1.37004709244  0.00366204791366  -0.318848163972  -0.125918643153  0.0422109687962  0.0802522960196  0.277228493394  
1.37808203697  0.00667583691663  -0.357676848611  -0.141194899735  0.0604503676494  0.0891896334508  0.321458427982  
1.38625597954  0.00941422614011  -0.394039762163  -0.155354000478  0.081855593421  0.0968795196132  0.365018226388  
1.39445400238  0.0118815912303  -0.426320501043  -0.168396255469  0.105056577262  0.104362491039  0.407689362898  
1.40256595612  0.0140836563391  -0.45384439156  -0.180328333371  0.128778634653  0.110616732227  0.448482795202  
1.41060400009  0.0156287027621  -0.476809951065  -0.190530362331  0.15283405381  0.116194519794  0.485704920318  
1.41870093346  0.0165581423529  -0.495032900056  -0.199073686124  0.177047448486  0.1211136557  0.520988065597  
1.42671513557  0.0165154435652  -0.508372701368  -0.206350590644  0.200265001213  0.125394829636  0.551884457029  
1.43484306335  0.0159748901226  -0.517521228481  -0.212413667292  0.222419892664  0.128565274795  0.579335842043  
1.44288110733  0.0149784898563  -0.522747072027  -0.2176355065  0.242465658805  0.130691535068  0.602646266605  
1.45096898079  0.0131692632912  -0.524322318156  -0.222681177776  0.261432845951  0.13184147387  0.621992494737  
1.45914196968  0.0102228939751  -0.52291618557  -0.227532486961  0.279287641564  0.13257946457  0.637562187176  
1.46715497971  0.00664449935109  -0.518373261332  -0.232490958087  0.29501413486  0.132932910274  0.649551728489  
1.47523403168  0.0021068076539  -0.510965257042  -0.237517495172  0.308679921339  0.132433752087  0.657371625415  
1.48337507248  -0.0032875449303  -0.500960578631  -0.24289160704  0.32135158394  0.131151273815  0.661297030461  
1.49158406258  -0.00904001661649  -0.488622913809  -0.248236959318  0.332036027409  0.129649964696  0.660812763348  
1.49956512451  -0.0154856475128  -0.474209961529  -0.25383841113  0.340821377538  0.127460418357  0.657057302055  
1.50772404671  -0.0225306188952  -0.457972297264  -0.259957492547  0.347800530145  0.124649651381  0.649514766121  
1.51571512222  -0.0296860267691  -0.440152370592  -0.267148212073  0.353070381187  0.121283337849  0.639319113567  
1.52376914024  -0.0372976154872  -0.420983631035  -0.275598555533  0.356730914743  0.116929784239  0.625946458494  
1.53182601929  -0.0448839883858  -0.40068977764  -0.285474278423  0.359875778011  0.112188369771  0.610519590592  
1.53994107246  -0.0524001004922  -0.379879629035  -0.296919235519  0.362525305126  0.107118640733  0.592500599522  
1.54806399345  -0.0594060132447  -0.359118040669  -0.309424014066  0.362718817583  0.101777554674  0.572995708398  
1.55614995956  -0.0658979349482  -0.338530121673  -0.323144707848  0.362628633238  0.0962193318482  0.551448204717  
1.56437706947  -0.071875469647  -0.319812378951  -0.336636021056  0.363268787389  0.0909910487433  0.528943407519  
1.57252311707  -0.0773413526849  -0.302540235077  -0.351096444643  0.363586997027  0.0856038321856  0.504109337126  
1.58051395416  -0.0819028230662  -0.286708677546  -0.365097015536  0.364597891741  0.0801034569889  0.478073960861  
1.58850598335  -0.0860004186341  -0.271908642379  -0.377954895831  0.365249995369  0.0745328509512  0.451092157226  
1.59663891792  -0.0892460738668  -0.256569725936  -0.387468493031  0.363584235258  0.0689320452586  0.423404886235  
1.60461807251  -0.0924830656818  -0.245575537506  -0.402365769428  0.368713604344  0.0643295858225  0.396031780329  
1.61274313927  -0.0952932428124  -0.236283787275  -0.417398681472  0.375121645869  0.0601808295631  0.36832537374  
1.62087011337  -0.097293739938  -0.228619969177  -0.431831262057  0.382669459145  0.0564762109985  0.340483519432  
1.62896203995  -0.0985349926519  -0.222505183879  -0.445936516032  0.391221524335  0.0537000568545  0.312689558274  
1.63704895973  -0.0990682375217  -0.21746172507  -0.459652762255  0.399655543471  0.0513018083822  0.285112300752  
1.64509797096  -0.0989451284214  -0.213833136108  -0.472608693549  0.408919568452  0.0487712932964  0.257906107119  
1.65328407288  -0.0982173834991  -0.211136696663  -0.484783186348  0.419883287077  0.04712591798  0.232004200494  
1.66128492355  -0.0969364591505  -0.210107779554  -0.49647658785  0.432346516561  0.0453157550318  0.205879818552  
1.66960191727  -0.0933164658564  -0.210648861723  -0.518287171371  0.459103777267  0.0422876002511  0.157500435771  
1.67753696442  -0.0910430237644  -0.212072317965  -0.528035317875  0.472122552147  0.0410315149911  0.134572021092  
1.68554902077  -0.0883809317387  -0.214046558403  -0.537223083053  0.486157196535  0.0401138672572  0.111795088108  
1.69357514381  -0.0853768860816  -0.216516569733  -0.54583694096  0.501041560855  0.0390184594658  0.0900924048801  
1.70169305801  -0.0820760806225  -0.219428624431  -0.553867975319  0.514634602606  0.0382616037811  0.069515300097  
1.7097659111  -0.0785220428209  -0.222334643337  -0.560995955396  0.528934857575  0.0378217204233  0.0508972727663  
1.71786999702  -0.0747564929372  -0.22521723744  -0.567246737755  0.542807239872  0.0376769327877  0.0334086639805  
1.72596812248  -0.0708192253538  -0.228060146907  -0.572965706376  0.557190464458  0.03780523081  0.0170703465697  
1.73414897919  -0.0667480110646  -0.231244491576  -0.577842193403  0.57096398124  0.0371931837703  0.00189443994994  
1.74216103554  -0.0625785202945  -0.234328408673  -0.58222778538  0.585081234888  0.0373892072119  -0.0129082419192  
1.75029110909  -0.0583442641658  -0.237696048952  -0.586448903121  0.599427733272  0.0378336492148  -0.0256884962453  
1.75852608681  -0.0540765542964  -0.240908984658  -0.59049257807  0.612905191058  0.0380087440754  -0.0373171295533  
1.76659703255  -0.049804479187  -0.244354779225  -0.59434702244  0.626489022884  0.038429934687  -0.0478113680825  
1.77470898628  -0.0455548962416  -0.247598468526  -0.598003462676  0.639095040878  0.0400670327924  -0.05719413493  
1.78278803825  -0.041352438257  -0.251031104825  -0.601454110931  0.651712513145  0.041824058677  -0.0654934729914  
1.79091191292  -0.0372195332167  -0.255012309403  -0.6043771597  0.663270619382  0.0441765029806  -0.0735351222524  
1.79895401001  -0.0331764362353  -0.259079193185  -0.607743864455  0.674771278475  0.0465678275596  -0.0797028798094  
1.80704498291  -0.0296399168993  -0.262804355006  -0.610235195011  0.686147755333  0.0494757897766  -0.0848970669089  
1.81517410278  -0.0261939607891  -0.266982290509  -0.612218793305  0.697338887094  0.0533380453226  -0.0891610288614  
1.82339191437  -0.0232515682398  -0.271551923609  -0.613405863977  0.708289779391  0.057560824058  -0.0925405125844  
1.83155107498  -0.0207918227889  -0.276454480518  -0.61385077874  0.718950920873  0.0620898280779  -0.0950832038974  
1.83957409859  -0.0187926167582  -0.281633683572  -0.613924384777  0.730270060938  0.0673689804126  -0.0968382809964  
1.84760904312  -0.0176292518208  -0.287431407787  -0.613022695851  0.742125865222  0.0733072807215  -0.0978559933285  
1.8556330204  -0.0168453288237  -0.293763651314  -0.611226924308  0.753411829063  0.0788251707289  -0.0973941208667  
1.86373400688  -0.0164163455949  -0.300549611612  -0.608617718955  0.765093372263  0.0844168351221  -0.0971566768055  
1.87184405327  -0.0163174103875  -0.308107535972  -0.606222036679  0.776075849683  0.0905375585848  -0.0963345826155  
1.87988710403  -0.0165234226521  -0.315539489966  -0.603090939544  0.786345348344  0.0966125637692  -0.0949783208368  
1.88796401024  -0.0170095224059  -0.323204612615  -0.599932563656  0.795893656  0.102607592352  -0.0931377787481  
1.89605093002  -0.0181495927132  -0.331037318523  -0.596768638473  0.805708738138  0.108491731912  -0.0908619769141  
1.90411496162  -0.0198856993829  -0.339371385501  -0.592986784493  0.814717535228  0.114732782311  -0.0881988321791  
1.91237211227  -0.0229580825978  -0.347720754654  -0.588974805392  0.822926894082  0.121759924377  -0.0844018005237  
1.92043995857  -0.0272439414416  -0.35642790685  -0.584143115887  0.831339165931  0.128477176448  -0.0811687599233  
1.93121695518  -0.0322238233881  -0.363828741352  -0.577638927358  0.836912275741  0.134866888852  -0.077682866633  
1.93942213058  -0.0374143821977  -0.369187711932  -0.568685293759  0.83784895637  0.140419016555  -0.0739853801937  
1.94751405716  -0.0475503976794  -0.377772123466  -0.561946675595  0.845409070187  0.147642788222  -0.0693225335405  
1.95558094978  -0.060989237022  -0.387300657324  -0.555082977508  0.85407444884  0.154380657801  -0.0653844956462  
1.96363210678  -0.0753979352472  -0.395267569418  -0.546884920639  0.860731148128  0.160132877157  -0.0605531696645  
1.97171497345  -0.0938007983908  -0.404117801558  -0.538768540558  0.868468236663  0.165435968919  -0.0565141666922  
1.97978997231  -0.114577619877  -0.412936866767  -0.529514656101  0.87616222845  0.169300453669  -0.0516447756498  
1.98791503906  -0.137415121981  -0.421672432601  -0.519269002992  0.882777266062  0.171814014081  -0.0476259605867  
1.99598908424  -0.162410212531  -0.43027675603  -0.507856086806  0.888356037812  0.173065922177  -0.0428303631136  
2.00411510468  -0.188841599561  -0.439102115732  -0.494805008273  0.893935978766  0.172650634884  -0.0389343274183  
2.01226711273  -0.216035062061  -0.448076573902  -0.480323947493  0.898490754355  0.171691584761  -0.0350990753522  
2.02053308487  -0.244161277338  -0.457132847613  -0.464297720316  0.903063098509  0.169245516492  -0.0305505416369  
2.02854609489  -0.272973247483  -0.46660396242  -0.446629395252  0.906632028092  0.165443042963  -0.0261654704814  
2.03667211533  -0.301441693082  -0.476003333656  -0.426924504868  0.908261657963  0.160908784148  -0.0219584005975  
2.04478693008  -0.331010949034  -0.486464867394  -0.405462166545  0.910075277729  0.154736361323  -0.0179416284293  
2.05291295052  -0.361013475119  -0.496654493548  -0.382829327648  0.911056120399  0.147586875731  -0.0141253145694  
2.06105113029  -0.391627944764  -0.507321242423  -0.358624439315  0.910271119252  0.139084847633  -0.0105175864982  
2.06916308403  -0.423015555794  -0.517570684113  -0.333752696993  0.908853654081  0.129883763592  -0.00712464596735  
2.07741904259  -0.485944667163  -0.537455770853  -0.281608277068  0.901461195573  0.109329264253  -0.000998974544269  
2.08560991287  -0.51669431939  -0.546220604957  -0.255077633619  0.894772900117  0.0977292776987  0.00172997015189  
2.09357309341  -0.546632895772  -0.554078710501  -0.228387918434  0.887015184392  0.085431730192  0.0042363232597  
2.10166192055  -0.576036256749  -0.561447292857  -0.201716692297  0.878319420911  0.0720713945382  0.00652180700915  
2.10971093178  -0.604364794204  -0.567527618504  -0.175228818698  0.868812225304  0.0583095128247  0.00858938095703  
2.11775398254  -0.631127453573  -0.572381852593  -0.148758583667  0.857624358493  0.0442625966649  0.0104431275598  
2.1258699894  -0.656678309111  -0.575283953455  -0.123101744932  0.844955730347  0.0295442527949  0.0120881396593  
2.13402605057  -0.680554191683  -0.576367445108  -0.0980384333674  0.830008317637  0.0152893943561  0.0135304104315  
2.14204692841  -0.703932758901  -0.575371283501  -0.0743105961794  0.813051984712  0.000559197941712  0.0147767262897  
2.15017294884  -0.726707511804  -0.572463187351  -0.0513297744309  0.794347942625  -0.014022386785  0.0158345631778  
2.15824794769  -0.748783953372  -0.567413950183  -0.0294970756618  0.774147972882  -0.0293677164843  0.0167119866351  
2.16651296616  -0.77047790083  -0.560421130734  -0.00854290376823  0.751702164849  -0.0448266336825  0.0174175559581  
2.17454504967  -0.79128583826  -0.551679112588  0.0114708754729  0.728315432505  -0.0607899781032  0.017960232739  
2.1826710701  -0.811545931214  -0.541377862071  0.0308090261355  0.703214757519  -0.0771195974152  0.0183492940056  
2.19069099426  -0.830776308371  -0.529702369322  0.0494040548624  0.675697563242  -0.0936855999416  0.0178011060367  
2.19882798195  -0.848538889383  -0.516436293641  0.0668816765233  0.648105110268  -0.110366895303  0.0179781107494  
2.20723199844  -0.866033287984  -0.502181050764  0.0835366909922  0.6196231109  -0.127050893022  0.0180297862602  
2.21841812134  -0.882374456175  -0.487101831966  0.0990133998062  0.589505978369  -0.143633911345  0.0179655318337  
2.22657608986  -0.897949211309  -0.471751799486  0.113307757605  0.559059019913  -0.160516475147  0.017794746176  
2.23461198807  -0.911922998071  -0.455851673224  0.126422359275  0.528496664334  -0.176579200249  0.018319906455  
2.24273300171  -0.925130638672  -0.439938444329  0.138683839278  0.497026336776  -0.192281635505  0.0178974412776  
2.25075292587  -0.937549634891  -0.424111914727  0.149766233079  0.46491386193  -0.207058662265  0.0173966664108  
2.25888299942  -0.948366926557  -0.408068003028  0.160007994399  0.433399857372  -0.221386011728  0.0176199260795  
2.26694512367  -0.958436801577  -0.392318763793  0.169411181928  0.401642064073  -0.235705471539  0.0185096331231  
2.27504491806  -0.9673563268  -0.376939180358  0.177982526244  0.36985652925  -0.249432965513  0.0192153834944  
2.28321194649  -0.975557984772  -0.361995838146  0.185733399006  0.339234143449  -0.262529323189  0.0213333577264  
2.29148292542  -0.982647955431  -0.347152130407  0.192362834154  0.30888327623  -0.274466438402  0.0239476482526  
2.29952692986  -0.988668525783  -0.332888143275  0.198233375734  0.278971237061  -0.285756008476  0.0277964864884  
2.30758714676  -0.994063986429  -0.318851734471  0.20305086079  0.249649635205  -0.295882422794  0.0327602967169  
2.31567692757  -0.99884937893  -0.305507861406  0.206867686652  0.222046076035  -0.305368922148  0.038721710672  
2.32372713089  -1.00344100231  -0.292885782025  0.20942185056  0.195207112971  -0.314206211494  0.0463592738041  
2.33177495003  -1.00702811577  -0.280612127784  0.210794961839  0.169239976965  -0.32238992596  0.0539093230278  
2.33988595009  -1.01006506765  -0.268736032399  0.211070276736  0.144238175148  -0.329919911638  0.06291805424  
2.34798908234  -1.01257572145  -0.257300444892  0.210015317076  0.120281963296  -0.337791700145  0.0724231831401  
2.35610699654  -1.01498399315  -0.246342060763  0.208371885243  0.0974388763771  -0.345434098138  0.0823270123466  
2.3641500473  -1.01808008061  -0.235496357189  0.205563426517  0.0757642968755  -0.353313183096  0.0925372609642  
2.37238502502  -1.02059554212  -0.224426405408  0.201697346948  0.0562934850069  -0.361857393524  0.102966761901  
2.3805270195  -1.02056679231  -0.213218232401  0.196879842353  0.0379848038165  -0.368979294869  0.112740610019  
2.38856697083  -1.02297484266  -0.201556642475  0.190582137028  0.0208616716538  -0.376727837919  0.123435164885  
2.39659500122  -1.02562251142  -0.18954921835  0.183274311368  0.0059297729276  -0.383519157007  0.134119588865  
2.40463495255  -1.02807618488  -0.177692934957  0.175080519435  -0.00787973088637  -0.389881194966  0.14472833552  
2.41273212433  -1.03033568709  -0.165654068768  0.166120032834  -0.0205682650508  -0.395807699923  0.155201279279  
2.42084312439  -1.02761862768  -0.153521519008  0.156823985864  -0.0321440895518  -0.399808641842  0.163897812269  
2.42900109291  -1.03069212698  -0.141377870212  0.146960144244  -0.0416302999216  -0.405974279242  0.17407441342  
2.43926501274  -1.03530241115  -0.117355921282  0.12655048936  -0.057642673672  -0.416254693594  0.192742364667  
2.44735407829  -1.034088475  -0.105611192912  0.116172936951  -0.0642220157662  -0.419433110571  0.200433274003  
2.45555114746  -1.03252908452  -0.094122657248  0.105879879815  -0.0698919391906  -0.422735405772  0.207869251183  
2.46352005005  -1.03225525414  -0.0829417396302  0.0954125663051  -0.0746878482356  -0.426131483498  0.214230795558  
2.47163105011  -1.02997994663  -0.0721139636458  0.0848495873704  -0.0776563940702  -0.428601644858  0.218768674027  
2.47974014282  -1.03025741512  -0.0616791267081  0.0736319526909  -0.0799124278382  -0.431689476236  0.223182569706  
2.48787093163  -1.02810438323  -0.0512759055587  0.0621955464564  -0.08149727242  -0.433840734598  0.225868442492  
2.49589300156  -1.02651324226  -0.0413620094725  0.0506289017342  -0.0814619507242  -0.43610627621  0.22853003647  
2.50395202637  -1.02385571525  -0.0319609962491  0.0393299209114  -0.0809236898872  -0.437967372045  0.229566448155  
2.5120639801  -1.01943396164  -0.0226959063103  0.0277155185954  -0.0789334589658  -0.438948145736  0.229890383638  
2.52016592026  -1.01261500029  -0.0136136020271  0.0165142538186  -0.0766077473577  -0.439110935892  0.229555302588  
2.52817893028  -1.0056203692  -0.00436077154653  0.00481515288604  -0.0729956196374  -0.439013855944  0.228614445646  
2.53647112846  -0.998905794662  0.00499191621462  -0.00727052823626  -0.0682193509207  -0.439669119151  0.226327536596  
2.54455304146  -0.990498192386  0.013983061325  -0.0190053100952  -0.0623989638494  -0.439527214053  0.223606400677  
2.55250406265  -0.980581064533  0.0229805056364  -0.031292022733  -0.0566430742902  -0.440633653121  0.220501648477  
2.56059908867  -0.969731800661  0.0323234141932  -0.04401202555  -0.0509824181481  -0.440901825631  0.217062334739  
2.56866598129  -0.95729287651  0.0415314788791  -0.0567362682214  -0.0444533108511  -0.441386637287  0.212542637473  
2.57677412033  -0.943863545258  0.0509535958914  -0.0697018875236  -0.0361724423022  -0.44107675262  0.20705447332  
2.58482813835  -0.92880682198  0.0605146665788  -0.0828096664874  -0.0273184381767  -0.440531489672  0.201500237178  
2.59293103218  -0.912342449863  0.0705399610892  -0.0959676658948  -0.0189821957426  -0.439276890746  0.195919398153  
2.60105395317  -0.894283358228  0.0809313078158  -0.108774224854  -0.0101838514552  -0.437375711235  0.189555669117  
2.60916614532  -0.874865396352  0.0915957861147  -0.121493118924  -2.24507686327e-05  -0.434890040214  0.183302461925  
2.61726093292  -0.853915948511  0.103236992003  -0.13436903147  0.00935026957356  -0.431880589955  0.176396880452  
2.62550997734  -0.831684035307  0.115707034804  -0.147309943775  0.0189287567514  -0.427911081171  0.169725567733  
2.6335439682  -0.808008530729  0.129655069718  -0.160863297482  0.0296290223964  -0.423080585769  0.163311759991  
2.64158797264  -0.783148461227  0.144484380982  -0.174581063149  0.040305960193  -0.416990306506  0.156382136265  
2.64978408813  -0.756951507126  0.160034403752  -0.188365228377  0.0499038466188  -0.4102715549  0.149019743867  
2.65780711174  -0.729684062669  0.176152662521  -0.202125166937  0.0584468580484  -0.402519119145  0.14209702424  
2.66590094566  -0.701598492167  0.193090583051  -0.216093708351  0.0659638563769  -0.394356983372  0.134829685048  
2.67400097847  -0.672135408279  0.210679398658  -0.230167954546  0.0734792606281  -0.385372004298  0.128082721463  
2.68211293221  -0.641983223832  0.229154897296  -0.244568789613  0.0809465578334  -0.375683826954  0.12106448664  
2.69036102295  -0.610585415457  0.248333564953  -0.258865480124  0.0873317013029  -0.365407087939  0.113839593303  
2.69857811928  -0.578233524325  0.268041763495  -0.273293353434  0.0926790508381  -0.35465136274  0.107262075856  
2.70656394958  -0.544803842945  0.288511639118  -0.28775304032  0.0970359790819  -0.343024886787  0.10052937514  
2.71455192566  -0.510587547964  0.309556909941  -0.302152406294  0.100452329003  -0.331163135327  0.0936953192254  
2.72263908386  -0.475858100184  0.331002362822  -0.316406658968  0.102979912726  -0.318662297036  0.0860170551356  
2.73077106476  -0.440870916493  0.352683810192  -0.330754666636  0.104672037039  -0.305153861574  0.078400913735  
2.73886108398  -0.405863185176  0.37444834575  -0.344784099279  0.106574484951  -0.291295609783  0.0716825037379  
2.74690198898  -0.371053808705  0.396154325375  -0.358432504844  0.107667705778  -0.27720063735  0.0650407053708  
2.75503206253  -0.336643464488  0.417276058022  -0.371328379741  0.107016291956  -0.262479192847  0.0585107875953  
2.76318097115  -0.30281477402  0.438123374026  -0.383766451717  0.106742568008  -0.247766999188  0.0529177417562  
2.77119493484  -0.269732570997  0.45819267609  -0.39538869527  0.10582751393  -0.232658956157  0.0466372812217  
2.77945399284  -0.237544259022  0.4770240947  -0.40586984125  0.104326582452  -0.217775282692  0.0405548755112  
2.78746795654  -0.205981653811  0.495388011306  -0.415550233931  0.101303144989  -0.202695243054  0.0354860601507  
2.79552793503  -0.175590692463  0.513602237488  -0.425064491216  0.0978855772286  -0.188023396018  0.0297973389317  
2.80356907845  -0.146469073363  0.530774339204  -0.433733459748  0.0931342774911  -0.173819134585  0.0243652670468  
2.81162810326  -0.118699024978  0.544109658135  -0.439670027268  0.0891651200324  -0.159142902829  0.0199967943334  
2.81977009773  -0.0923480024747  0.559360953123  -0.446847443931  0.0829677703006  -0.145113854836  0.0158433380299  
2.82778906822  -0.0674694158801  0.569956177722  -0.45069396814  0.0767364865251  -0.131273133887  0.0119139760022  
2.83594608307  -0.04410338889  0.576190924428  -0.451444237696  0.0705126138443  -0.117692027172  0.00821570256311  
2.84406113625  -0.022277541248  0.589440170064  -0.457562056644  0.0623515401679  -0.104930397798  0.00396039198255  
2.85219597816  -0.00200778800324  0.601561987213  -0.462896704397  0.053445525178  -0.0930038526159  0.000803975318398  
2.86026597023  0.0167008506246  0.612568537942  -0.467475684355  0.0439076987594  -0.0809301676719  -0.00211238118597  
2.8685901165  0.0338534346222  0.623269262519  -0.471962238068  0.0338463147754  -0.0697871242484  -0.00478922322059  
2.87653207779  0.0494642902281  0.633225807844  -0.476019153949  0.0233644730809  -0.0595715674827  -0.00802167092907  
2.88459610939  0.0639548435801  0.641643138028  -0.478705789174  0.0135513073159  -0.049283664279  -0.010160254145  
2.89269804955  0.076923481356  0.648983981485  -0.480428191038  0.00144173897931  -0.039984119332  -0.012862876239  
2.90082597733  0.0884078446794  0.655286438919  -0.481566612644  -0.00973673820725  -0.0311583250197  -0.0144827139675  
2.90890812874  0.0984518723292  0.660591907746  -0.481843335707  -0.0219698250293  -0.0233199944378  -0.0158868879985  
2.9170191288  0.107503628424  0.664549354206  -0.481323070444  -0.0341083185109  -0.0154497051159  -0.017083437031  
2.92510795593  0.115584009436  0.666843264917  -0.479438379162  -0.0470756251237  -0.00908591750989  -0.0180810519015  
2.93323802948  0.122718220523  0.667588537611  -0.476623050618  -0.0597354976914  -0.00315977819267  -0.0196821258253  
2.94139814377  0.13543078868  0.665653502159  -0.469163755718  -0.0839201625311  0.00687559844505  -0.0206358148344  
2.94948506355  0.141010736357  0.663170600496  -0.464667331139  -0.0953550037964  0.0110293910735  -0.0208694853928  
2.95753693581  0.146478036929  0.659532697595  -0.459850622597  -0.10531024611  0.014296539688  -0.0209554702428  
2.96554708481  0.151807550315  0.655247624733  -0.455084847823  -0.115821795396  0.0172213010829  -0.0209047007513  
2.97366499901  0.156976890714  0.649601139215  -0.449762825018  -0.124798393077  0.019812108274  -0.0207281085532  
2.98180794716  0.161966358211  0.643920554812  -0.444910032532  -0.13230344647  0.0225745180663  -0.020436557674  
2.98982596397  0.167157540448  0.637452710566  -0.439887273588  -0.140387461339  0.0244866423171  -0.0200407823405  
2.99793195724  0.172104011483  0.62990336009  -0.434422549206  -0.146972489637  0.0265940316124  -0.0203444722966  
3.00599098206  0.177192652777  0.621403318079  -0.428584086544  -0.153125418763  0.0278770351222  -0.0197051710326  
3.01414012909  0.182380846692  0.612079151684  -0.42243704886  -0.158841431067  0.0293830978163  -0.0189931687056  
3.02219295502  0.187628659533  0.602052718097  -0.416043641023  -0.163127721623  0.0305898574364  -0.0190116838012  
3.03045010567  0.193297483011  0.591440681323  -0.409462675694  -0.166068659126  0.0325044771456  -0.0181176197  
3.03844714165  0.198920809663  0.579958970217  -0.402433109949  -0.168741856925  0.0340687093909  -0.017180486711  
3.0464849472  0.205264587871  0.568141770084  -0.395349761204  -0.170160096337  0.0362913632785  -0.0162094587447  
3.05471992493  0.211834834823  0.556088578804  -0.388576863537  -0.171403408547  0.0386119231152  -0.0152131946979  
3.06267499924  0.218573178443  0.543892535893  -0.381816371706  -0.171486245735  0.0410083753099  -0.014199837912  
3.07078814507  0.225424787651  0.531640437012  -0.375425274246  -0.170498166813  0.0434599524414  -0.0139701471897  
3.07887101173  0.232338292466  0.518621598838  -0.368465672053  -0.168528442353  0.0464428703789  -0.0136715827601  
3.08695197105  0.239664614322  0.505767433425  -0.361657699815  -0.165665506167  0.0498972799076  -0.0125181898507  
3.09508013725  0.246528998111  0.492353872632  -0.354715125474  -0.161996471321  0.0532695145785  -0.0113766179216  
3.10319113731  0.254120513143  0.47929858964  -0.348008219785  -0.158598118301  0.0565450125126  -0.0110461903663  
3.11125993729  0.261538371058  0.466259417979  -0.341243963747  -0.154479119107  0.0597109512022  -0.0098797184673  
3.11944913864  0.269148635258  0.453315947167  -0.334784784381  -0.149720970188  0.0632518968001  -0.00874246085826  
3.12755799294  0.276889089471  0.440541093194  -0.32833110652  -0.143411399427  0.0671167652315  -0.0076392225892  
3.13557100296  0.284701671094  0.428001157224  -0.322238549944  -0.137692847984  0.0712563265095  -0.00736735217862  
3.14369606972  0.292532192406  0.415755650211  -0.316516997034  -0.131563539329  0.0756236522268  -0.00627772787047  
3.15173602104  0.300729294772  0.403462229941  -0.310540624129  -0.126084817415  0.0796782377852  -0.00602685209768  
3.15978193283  0.309213643972  0.391596417465  -0.304998745728  -0.119257349709  0.0844106107838  -0.00496491375271  
3.16789007187  0.317910274686  0.38019877208  -0.299892042917  -0.11321104031  0.0892429893243  -0.00474772366123  
3.17597293854  0.326350174766  0.3689080161  -0.294901977765  -0.106931386924  0.0941376970667  -0.00451793720314  
3.18403697014  0.334899426597  0.357786023394  -0.290050557787  -0.100475467551  0.0990595118299  -0.00427794479983  
3.19212794304  0.343496479271  0.346493233384  -0.284724596606  -0.0938970405724  0.103975777529  -0.00323688749356  
3.20024991035  0.352482897696  0.335508495331  -0.279626428418  -0.0862550256276  0.109352028143  -0.00225654272601  
3.20835113525  0.361772679335  0.324480497965  -0.274453665428  -0.0796622622473  0.11462356989  -0.00213143753908  
3.21651911736  0.371284608075  0.313876638239  -0.269560563778  -0.0730868283106  0.120261420579  -0.00120968691967  
3.22447514534  0.381340942496  0.303334228749  -0.264639430608  -0.0665681773912  0.126697960595  -0.00114511124906  
3.23259711266  0.391438453998  0.29291402549  -0.25972289149  -0.0601423652537  0.132839815127  -0.000285313805306  
3.24065995216  0.402308541681  0.282671131389  -0.255157192686  -0.0548334979089  0.139167338887  -0.000283619590305  
3.24871611595  0.413425034631  0.272655455895  -0.250943444615  -0.0486049857442  0.146618367344  0.000512830223439  
3.25686001778  0.425098433293  0.262911438566  -0.2467644897  -0.0435497010179  0.154067928943  0.00124428104107  
3.26496195793  0.437213142088  0.253082977406  -0.242643099469  -0.0376251287175  0.161469969785  0.00111808357721  
3.27302694321  0.44965960791  0.243237630127  -0.238600388216  -0.0319269193097  0.169773564477  0.00178786901305  
3.28112602234  0.462334908  0.233437821728  -0.234655342713  -0.0264728887817  0.177865864847  0.00239457405845  
3.28946805  0.475541145316  0.223740848362  -0.230824869503  -0.021277936483  0.18670435685  0.00293931539019  
3.2974691391  0.488756491948  0.214594417546  -0.227756296465  -0.0163541968948  0.195680645863  0.00342352193149  
3.30559492111  0.502296841395  0.205221577094  -0.224776628019  -0.0117111789481  0.204728213527  0.00305574695579  
3.31358599663  0.516052919854  0.1960934755  -0.222213992917  -0.00735591082457  0.213289744245  0.00349068074912  
3.32171392441  0.529922590284  0.187247874756  -0.220051836743  -0.00329308891423  0.221349723548  0.00307705583021  
3.32988095284  0.544209580523  0.17871784452  -0.218588574758  0.00146619542244  0.229392861195  0.00267642630237  
3.33800697327  0.55998864559  0.170531650972  -0.21777894694  0.00584692480409  0.237866166745  0.00308342503632  
3.34619903564  0.57505291595  0.162318011348  -0.216944883775  0.0108427009841  0.245692324737  0.00343970222891  
3.35416698456  0.592154729163  0.154921029641  -0.21735824515  0.0153833592034  0.253864308533  0.00374696933842  
3.36258602142  0.609435237258  0.147927740331  -0.217971212593  0.019476027091  0.261808942469  0.00400712377384  
3.37051892281  0.627171911986  0.141745796935  -0.219397005062  0.0241215029643  0.269990171363  0.00422220809253  
3.37858104706  0.640435929156  0.13516391691  -0.219350264838  0.0282566285049  0.275860383235  0.00360124589732  
3.38673710823  0.658261535193  0.13062715237  -0.221740224533  0.0338780009813  0.284023820781  0.00379926106779  
3.39471006393  0.675799439597  0.126422860637  -0.22446515765  0.0388527185208  0.292269016521  0.00395833519801  
3.402821064  0.690172637655  0.122551299472  -0.226850127003  0.0432000650063  0.299051360512  0.00328734906335  
3.41096401215  0.705523761046  0.119010670762  -0.229538783106  0.0489246079346  0.305929332509  0.00344117201242  
3.41920495033  0.718891375692  0.115797261752  -0.232174788856  0.0539010864474  0.312357222387  0.00276856758307  
3.42717695236  0.734332563763  0.112905616726  -0.235061946491  0.0591480703857  0.319817105369  0.00213097807594  
3.43520092964  0.748401634914  0.110328706187  -0.237530768092  0.0646120084315  0.326695450668  0.00152965794512  
3.44350790977  0.761516264549  0.108058092664  -0.23959839292  0.0712335656147  0.332499059527  0.00096552417316  
3.4515440464  0.772872051008  0.105688502583  -0.240650687546  0.0768989410774  0.338266662901  -0.000353948102668  
3.45962905884  0.784129408883  0.103637910968  -0.241076383209  0.0826385843779  0.343469653164  -0.00236194369125  
3.46766901016  0.794428941937  0.10189428978  -0.240921395027  0.0884109356211  0.348119463289  -0.00499254827447  
3.47584199905  0.804578247932  0.100840221471  -0.240864301443  0.0951692334663  0.353221598664  -0.00738795863125  
3.48400902748  0.814127455506  0.10003313566  -0.240265424866  0.101803580289  0.358709384821  -0.0103446885432  
3.492000103  0.8218679463  0.0994588609815  -0.239170530244  0.107290973335  0.363527301416  -0.0138008233221  
3.50019001961  0.830283813583  0.0991027961927  -0.23794091184  0.11168637117  0.368688849965  -0.0184891304445  
3.50825405121  0.839270339523  0.098950303952  -0.236278676324  0.116038687434  0.37413542539  -0.0234918763789  
3.51653599739  0.848328891777  0.0989866195862  -0.234227720624  0.119332845093  0.37931528694  -0.0287535812781  
3.52461695671  0.856600452486  0.0988011780799  -0.231514499688  0.12262194757  0.383721264983  -0.0342214786898  
3.53248095512  0.864891945258  0.0984123382816  -0.228523253268  0.125885989725  0.387386170628  -0.0398456214851  
3.54062795639  0.873150369536  0.0978383965061  -0.225294139017  0.128115231871  0.390840404614  -0.0463721081237  
3.54873394966  0.881327029073  0.0970971927993  -0.221865667478  0.130367389257  0.394574601513  -0.0536902421104  
3.55682492256  0.888978875153  0.0962064054098  -0.218590680416  0.13262690712  0.397552525907  -0.0624864271903  
3.56489896774  0.898092253473  0.0951830838244  -0.21579349638  0.134879188305  0.401301427235  -0.0725913332243  
3.57307696342  0.902916576098  0.093648372  -0.212190058747  0.136119390039  0.402764032597  -0.0822542110104  
3.58107709885  0.903356113604  0.0920470784135  -0.208181662276  0.137409787647  0.402604405678  -0.0914495110831  
3.58921408653  0.911308358186  0.0903942271575  -0.20666873532  0.140721341139  0.405410705464  -0.104122147954  
3.59725809097  0.918965887104  0.088704173118  -0.205570960038  0.142902356708  0.407961264039  -0.117544019258  
3.60549497604  0.932869609781  0.0848693152546  -0.204491701877  0.148960868467  0.412312051807  -0.145283765305  
3.61350893974  0.940341009255  0.0827818469132  -0.204801020785  0.151749746925  0.415611105287  -0.160993339892  
3.62155914307  0.942989929092  0.0803425796502  -0.204131078021  0.153380166779  0.416569970139  -0.174484079495  
3.62961006165  0.947552058283  0.077989454821  -0.203826533971  0.154923344157  0.418338475739  -0.189016821707  
3.63768696785  0.948668634495  0.0753349028359  -0.202912410835  0.156376492566  0.418860095711  -0.202834397703  
3.6457669735  0.954173808225  0.072814383338  -0.203022287527  0.158729004115  0.421698146941  -0.219078929391  
3.65388798714  0.960503927828  0.0700375556578  -0.202811408749  0.160905053315  0.424672591938  -0.235875106185  
3.66193509102  0.965961217704  0.0670415463948  -0.202306051297  0.163896049941  0.427258534601  -0.253075664275  
3.67003798485  0.970978077037  0.0638619684667  -0.201216222343  0.16563752044  0.429470073053  -0.270542584359  
3.678139925  0.973963095677  0.0605328095812  -0.199593961636  0.168198463828  0.429835502845  -0.2873534793  
3.68614602089  0.973460979643  0.0570863474293  -0.197490765297  0.169516560244  0.428495842189  -0.302661919374  
3.69441413879  0.977319224843  0.0535530820754  -0.195904996616  0.172654340888  0.428565952743  -0.320455045697  
3.70250296593  0.976007366914  0.0499616846316  -0.193542294549  0.173485431659  0.426466128908  -0.335670914577  
3.71053695679  0.974718129225  0.0467344580285  -0.191426048418  0.174166510976  0.42436054359  -0.350794321933  
3.71854496002  0.968674453755  0.0434676750953  -0.188601939576  0.175696275331  0.42028000159  -0.362566213143  
3.72661495209  0.967849658549  0.0401846768039  -0.187038375243  0.177008126303  0.418368710139  -0.376725605738  
3.7347369194  0.969053614159  0.0369071008942  -0.186331343597  0.179102240106  0.41698307793  -0.390619807474  
3.74281096458  0.969330906832  0.0336548716705  -0.185786659184  0.180913486938  0.416090867624  -0.402596979957  
3.75092506409  0.968353148706  0.0304462093399  -0.185395086719  0.182452562646  0.414667982058  -0.41273157145  
3.75902104378  0.966622472656  0.0272976492042  -0.185463161038  0.183731042696  0.412764337977  -0.421103559292  
3.76711606979  0.962613520763  0.024224069821  -0.185322801861  0.183769798954  0.410429166681  -0.42779796525  
3.77518105507  0.958919758576  0.0212387292625  -0.185939019932  0.182664812235  0.4082060826  -0.433696599237  
3.78337192535  0.950756294904  0.0183533086179  -0.185669322918  0.181502970091  0.404117441551  -0.436445229215  
3.79151105881  0.945297202346  0.015577961909  -0.187428133967  0.180296103933  0.401803294736  -0.440236829542  
3.79955101013  0.937583163767  0.0129213716082  -0.189151082899  0.179055200574  0.398661766374  -0.441794571068  
3.80759096146  0.929032845557  0.0103908089826  -0.191462199862  0.176799182806  0.395768051189  -0.442868265265  
3.81574392319  0.920960096976  0.00799219851216  -0.194617574433  0.174612261314  0.393120801857  -0.442695865822  
3.82381510735  0.911783512842  0.00573018566786  -0.198216094895  0.172502668022  0.389725987512  -0.442168305143  
3.83184504509  0.902442994563  0.00360820736708  -0.202516912839  0.170477494912  0.386158313727  -0.441316296332  
3.83998012543  0.891414799445  0.00162856446139  -0.206490846191  0.168542759368  0.382453448833  -0.438584186911  
3.84805703163  0.879695554591  -0.000207504350834  -0.210770656889  0.166703450254  0.378149237316  -0.434928000529  
3.8561000824  0.867013123272  -0.00229524418822  -0.214673510581  0.164963391888  0.372823296409  -0.431235317986  
3.86415791512  0.853520995947  -0.00420666992465  -0.218204893294  0.162334443351  0.367579324158  -0.425945493996  
3.87234306335  0.839365689481  -0.00594359570561  -0.221371722265  0.159893330615  0.361947911258  -0.420801737148  
3.88037109375  0.824686647891  -0.00750878647015  -0.224182640659  0.156649223865  0.355994081315  -0.415031540662  
3.88843607903  0.809217008873  -0.00930144734714  -0.226331469833  0.15367599915  0.349779729555  -0.407926195006  
3.89642810822  0.792715526147  -0.0108972113443  -0.227856540864  0.150971104713  0.342372326356  -0.40042643087  
3.90453505516  0.775763366062  -0.0126969461757  -0.228796440698  0.148530499974  0.334901871735  -0.392609583286  
3.91258811951  0.757703473964  -0.0146737465016  -0.228874772613  0.145357395699  0.326923850689  -0.384548796164  
3.92070913315  0.739132572548  -0.0171970918882  -0.227525485869  0.142519754222  0.318527271093  -0.375519901564  
3.92871594429  0.719807071115  -0.0202088981795  -0.225183761208  0.139017747134  0.309796747405  -0.365654084289  
3.93687009811  0.699905410819  -0.0236525497598  -0.221309205827  0.135916088863  0.30130810906  -0.355077557318  
3.94489312172  0.679197310607  -0.0274731455459  -0.216360843568  0.132211552823  0.292103767239  -0.343911002705  
3.95292901993  0.658671097326  -0.0324087915535  -0.20981985451  0.127973915478  0.283287910807  -0.331476549094  
3.96103596687  0.63724425684  -0.0379467154705  -0.201850928172  0.124262103799  0.273893704705  -0.31874293025  
3.96910405159  0.615518232455  -0.0440057765642  -0.192930466916  0.119075886281  0.264024339253  -0.305812431034  
3.977216959  0.593252574434  -0.050903495553  -0.182871175148  0.114544346263  0.254273583372  -0.291987464543  
3.98554897308  0.570627378795  -0.0589275462261  -0.171191455002  0.109653596142  0.244197148764  -0.277423269684  
3.99357199669  0.547412361545  -0.0679405971151  -0.158405672711  0.104461859116  0.233882856096  -0.263060775904  
4.00156092644  0.524196047272  -0.0782055112068  -0.144046624963  0.10001614985  0.223908906386  -0.248180360275  
4.00968599319  0.501122658625  -0.0899568904101  -0.128325103455  0.095294749875  0.213815090916  -0.2329145813  
4.0178000927  0.477925779102  -0.10261090483  -0.111444839182  0.0903483472628  0.203177649949  -0.217388116359  
4.02590703964  0.455157433599  -0.117601092945  -0.0926509358697  0.0852251137169  0.192600516626  -0.201717582087  
4.03399896622  0.432925787977  -0.134257489846  -0.0725250453921  0.0799705789461  0.182640294865  -0.186011436255  
4.0420730114  0.41092863134  -0.152742838872  -0.0509789642672  0.0756189741941  0.173311023364  -0.170369937916  
4.05017614365  0.389682843132  -0.172800510329  -0.0282567751718  0.0701443956891  0.163630209912  -0.155678302965  
4.05852413177  0.368863344229  -0.194975020228  -0.00364193289814  0.0656508024149  0.154676636889  -0.140367723737  
4.06654596329  0.34896490644  -0.218964313617  0.0225658593552  0.0610985558202  0.14595373756  -0.12616753616  
4.07452702522  0.330039552814  -0.245269771006  0.0510291499499  0.0585032863859  0.137993450208  -0.112286579205  
4.08261799812  0.312129218469  -0.273152725114  0.0810797263501  0.0567378041423  0.13029019294  -0.0987862173408  
4.09065103531  0.295266189939  -0.302713210564  0.112408283594  0.0567400486966  0.122871910579  -0.0857207065444  
4.09875011444  0.279075384438  -0.334033008383  0.14535349024  0.0583726117956  0.116258238684  -0.0731373915048  
4.10686993599  0.264003656678  -0.366385545832  0.179268993121  0.060507559089  0.109436358193  -0.061076948271  
4.11492300034  0.250057696045  -0.399489907525  0.213552941924  0.0650754558812  0.103456177062  -0.0495736494579  
4.12297105789  0.236838036388  -0.433477731526  0.248596261444  0.0708676975879  0.0977937863167  -0.0386556486123  
4.13099002838  0.224768983469  -0.468069465761  0.283806589137  0.0787444943581  0.0924595603473  -0.0283452804869  
4.13904714584  0.213038862144  -0.499443670616  0.316420401126  0.0865124904396  0.0874612272962  -0.0186593741224  
4.14714813232  0.20249143403  -0.53240170636  0.350234004649  0.0961147086732  0.0828037378863  -0.0096095758016  
4.15523099899  0.191904550383  -0.56186973076  0.380831312484  0.105366169905  0.0784895427494  -0.00120267910273  
4.16323208809  0.182941334955  -0.593077649984  0.412701483875  0.117211076899  0.0740230611205  0.00655904054666  
4.1714451313  0.173937043447  -0.619763707865  0.440801656391  0.128400377067  0.069939539307  0.013677489242  
4.17948412895  0.16654518463  -0.64883732321  0.470629185514  0.141889517163  0.0667303170967  0.0201584181509  
4.18756604195  0.159889225668  -0.677559577642  0.499966418792  0.156425057211  0.0638517433194  0.0252179600646  
4.1955640316  0.153156149732  -0.703406150915  0.526770554639  0.171835512322  0.0608002960623  0.0289350232713  
4.20373392105  0.146393627576  -0.725253212695  0.550122642676  0.186965697238  0.058103943512  0.0321838942191  
4.21179914474  0.140044654232  -0.745648769767  0.57204422056  0.202735032555  0.0557519603484  0.0341877804082  
4.21984410286  0.133717906243  -0.761414714497  0.589978971047  0.216021776114  0.053236502254  0.0358238652863  
4.22797107697  0.12864674573  -0.779141181707  0.609187780271  0.231893025492  0.0510815729984  0.0347311542695  
4.2360560894  0.123170742994  -0.791446332531  0.623756949618  0.245092822456  0.0487768622083  0.033507626219  
4.2441740036  0.120145567928  -0.810145056799  0.64376453035  0.262686258566  0.0473397122794  0.0297916888039  
4.25221896172  0.117406700769  -0.827505548981  0.662652609522  0.281249126125  0.0462160071948  0.0245931104242  
4.26049995422  0.114948961794  -0.840755021468  0.678175730452  0.297616609775  0.044892667404  0.0188522813192  
4.2685790062  0.113562967776  -0.854876718353  0.694611937616  0.313840126092  0.043889103634  0.0118537997388  
4.27662491798  0.112775500715  -0.867737717787  0.710522240042  0.329830377198  0.0431867323195  0.00294560594666  
4.28460502625  0.112544974591  -0.879356102221  0.725532590943  0.345506028982  0.0432621486431  -0.00766862892707  
4.29272413254  0.112431037788  -0.889360537698  0.739303312939  0.360794384079  0.0430631879579  -0.0197907251687  
4.3008351326  0.1128238833  -0.897814299434  0.751845152658  0.375630607969  0.044099491539  -0.0348144967818  
4.3089299202  0.113681739622  -0.905180788496  0.763492017481  0.389957521017  0.0452773466405  -0.0532146007457  
4.31696200371  0.114963182062  -0.910312115805  0.773291926156  0.40273449434  0.0470740466225  -0.0738217382252  
4.32534098625  0.117471940274  -0.914833187676  0.788001737035  0.426616667723  0.0527427888708  -0.123643547008  
4.33326792717  0.117471940274  -0.914833187676  0.788001737035  0.426616667723  0.0527427888708  -0.123643547008  
4.3414440155  0.117941248747  -0.911243102548  0.795971654337  0.444374672711  0.0596571785139  -0.185065293652  
4.34950113297  0.11725699837  -0.907744783037  0.79877524688  0.45162426338  0.0641429021181  -0.220856428581  
4.35761094093  0.115898005515  -0.901652170282  0.799566119748  0.456499130029  0.0683779752235  -0.258050085186  
4.36565113068  0.113526448961  -0.895577674961  0.800394001667  0.461136156991  0.0738425798454  -0.298685846326  
4.37377095222  0.110634285938  -0.888766571893  0.800934197444  0.463542233947  0.0799117630379  -0.339864901753  
4.38187408447  0.107279894561  -0.881713893081  0.801522038991  0.462884150951  0.0860051948284  -0.383668671151  
4.38997101784  0.103519980526  -0.873691098071  0.801201293512  0.46039526424  0.0915874467843  -0.426449284133  
4.39795804024  0.0994093646121  -0.865614270651  0.801309438646  0.45722441015  0.098150575394  -0.470399805545  
4.40606999397  0.0950007887089  -0.85753785334  0.802128527721  0.452453003917  0.105082112611  -0.515156490626  
4.41421794891  0.0899461114084  -0.849907443079  0.803914651314  0.445243474264  0.112310326785  -0.560379094199  
4.42253494263  0.0843269498752  -0.841944707551  0.805632857278  0.435829825366  0.119271700888  -0.605750731012  
4.43051600456  0.0778232756483  -0.834515937031  0.808226529342  0.42543302015  0.125943725967  -0.650978191072  
4.43874597549  0.0705442086686  -0.828416894332  0.812244622349  0.41419394436  0.132803065658  -0.696585038296  
4.44662594795  0.0621963974309  -0.823186641451  0.817551074859  0.40125633179  0.138801285582  -0.74305174028  
4.45478796959  0.0529147113799  -0.819581364268  0.824329843635  0.387823746215  0.144463687539  -0.790023288477  
4.46281909943  0.0428292641187  -0.817101724443  0.832108107838  0.373026600657  0.14928549576  -0.837961896934  
4.47086501122  0.0320650575683  -0.815675719076  0.841076065849  0.35805407437  0.153302023867  -0.886495074783  
4.47902798653  0.0211401486762  -0.813648331923  0.848871833573  0.343012747613  0.156055145708  -0.93289584225  
4.48710894585  0.00933765427026  -0.813451857319  0.858700629488  0.328001329145  0.158121548987  -0.983386746883  
4.49524593353  -0.00320096156921  -0.81336336445  0.868446001447  0.314101912688  0.160037346992  -1.03575072526  
4.50327706337  -0.0159422667866  -0.811792908138  0.876472090113  0.300323242048  0.160315316529  -1.0863449107  
4.5113389492  -0.0291899715592  -0.810447317079  0.885076279095  0.287732866974  0.159576551786  -1.14133732532  
4.5195851326  -0.0428225392255  -0.808130949538  0.892895084104  0.275325298002  0.157408965175  -1.19687292956  
4.52755999565  -0.0567254692728  -0.804537930224  0.899624365882  0.263163337587  0.154432538084  -1.25494413761  
4.5356900692  -0.0707913793715  -0.798998579112  0.903726149034  0.251303228051  0.150232841477  -1.31182118342  
4.54370212555  -0.0849203966868  -0.7920939459  0.906327247007  0.239795341599  0.145426605835  -1.3704161436  
4.55185604095  -0.098621371866  -0.782786220292  0.905946798687  0.227692350542  0.139595055557  -1.426266361  
4.5598950386  -0.111842384547  -0.770924210778  0.902186148186  0.216106975212  0.132853973979  -1.47606571216  
4.56794214249  -0.125734448599  -0.757966410254  0.896912366718  0.205070972367  0.1253158143  -1.52631970543  
4.57605099678  -0.139362082005  -0.74328736175  0.889010724723  0.193618780212  0.117089247565  -1.57192242557  
4.58420395851  -0.152661200501  -0.726716200416  0.878733874602  0.182845189516  0.108774490685  -1.61136562466  
4.59245300293  -0.165574754234  -0.70850257585  0.866014011607  0.171773002579  0.1004300157  -1.64408948127  
4.60055208206  -0.178052515592  -0.688887147279  0.85111974057  0.160494104324  0.0916142183143  -1.66961936375  
4.60867595673  -0.190050861366  -0.668100500251  0.833996330525  0.149094554847  0.0824184912017  -1.6867691196  
4.61660003662  -0.201931076326  -0.647153671621  0.81587191648  0.136663064412  0.073425027059  -1.6976689099  
4.62460494041  -0.213628688481  -0.625793647642  0.796620379318  0.123356886431  0.0636825449086  -1.70115008048  
4.63274812698  -0.225085261766  -0.604580487885  0.776449083473  0.110317939025  0.0547967690365  -1.69697378683  
4.64072012901  -0.236248300386  -0.583634572353  0.755554642946  0.0976064401208  0.0452692611607  -1.68655364957  
4.64882302284  -0.247470028757  -0.563065174247  0.734122897082  0.0852758747625  0.0357046517723  -1.67043890709  
4.65697312355  -0.25827760525  -0.543366241099  0.71296103353  0.0723817937076  0.0261652053321  -1.64837874199  
4.66505813599  -0.269433267132  -0.524988073714  0.692179939728  0.0600393744254  0.0167081836323  -1.62017832373  
4.67322802544  -0.281239402595  -0.507942137229  0.671879052576  0.0482824304807  0.00689027521095  -1.58807577804  
4.68140411377  -0.292774963413  -0.491835417132  0.651830657544  0.0361470731177  -0.00319966516432  -1.55178004848  
4.68946409225  -0.304786603741  -0.477485960169  0.632772403327  0.025720817357  -0.0134778867876  -1.51342826452  
4.69756293297  -0.317561369557  -0.464450945806  0.614429383679  0.0149529194961  -0.0238659719304  -1.47341824022  
4.70555114746  -0.330960822691  -0.453500316309  0.597492737718  0.0049281082096  -0.0352822334205  -1.43292008918  
4.71366596222  -0.345650474688  -0.444540160334  0.582274424113  -0.00434904970445  -0.0470803963724  -1.39222306858  
4.72171998024  -0.360243180552  -0.436680584243  0.567786721728  -0.0128790088193  -0.0586617630951  -1.35080212477  
4.729804039  -0.375453035157  -0.430675903833  0.554379638972  -0.0196754094606  -0.0704670616389  -1.30897059939  
4.73788809776  -0.391137827706  -0.426419506896  0.542368505709  -0.0268134510367  -0.0824056404642  -1.26781310094  
4.74596405029  -0.407163233558  -0.424197679092  0.531719980408  -0.033230937639  -0.0938972441864  -1.22673969055  
4.75407600403  -0.423801971693  -0.423470596062  0.522077930129  -0.037952528224  -0.105401027117  -1.18679207889  
4.76218295097  -0.440504517466  -0.424522307776  0.513740515178  -0.0420719602364  -0.116348939678  -1.14892383658  
4.77046203613  -0.457560864942  -0.427208297681  0.506658216452  -0.0456104355017  -0.127211779845  -1.11400159936  
4.77853703499  -0.474837682688  -0.431384928337  0.501093548435  -0.0485910899787  -0.137928827412  -1.08122048476  
4.78661704063  -0.492210610943  -0.436910552566  0.496331175441  -0.0500473093545  -0.147453458629  -1.05061773835  
4.79456496239  -0.509564440071  -0.443646145762  0.492654440204  -0.0500883726224  -0.156810417665  -1.02380048926  
4.80268192291  -0.526792838027  -0.451455965282  0.490001894105  -0.050806719434  -0.165459049184  -1.00064137029  
4.81082701683  -0.544197143625  -0.459812643999  0.487677960964  -0.0491711147477  -0.173400643149  -0.981793128479  
4.81888699532  -0.561257130794  -0.46862184439  0.485671631149  -0.0473572068649  -0.181136499758  -0.967038261223  
4.8270471096  -0.5786908956  -0.477793661633  0.483970702652  -0.0453901504106  -0.188138783656  -0.956150443296  
4.83917808533  -0.609788647546  -0.49372564013  0.478900140259  -0.0391921799387  -0.199504509359  -0.94021616367  
4.84728598595  -0.626728396366  -0.501782168743  0.47666340588  -0.0350885029209  -0.204937672446  -0.939124180226  
4.85549712181  -0.645638041334  -0.51005403022  0.474805902838  -0.0310855663767  -0.210164095564  -0.943391364217  
4.87121701241  -0.679495284973  -0.522032609984  0.468201474804  -0.0234480484824  -0.21947951461  -0.950972990519  
4.87948393822  -0.697919378121  -0.527824208784  0.465182665479  -0.0198414248342  -0.22503031834  -0.960486623804  
4.88731098175  -0.715762993892  -0.53265870007  0.461725773104  -0.0154002098361  -0.229249031068  -0.971230988701  
4.8955271244  -0.733359130519  -0.536184675749  0.457569704868  -0.0121995682031  -0.233700041078  -0.983043828353  
4.90355992317  -0.750617692238  -0.538877499272  0.453111072019  -0.00818028129137  -0.237842017811  -0.994975753621  
4.91167902946  -0.767856391934  -0.539993879646  0.447768054525  -0.00442221349187  -0.241673135203  -1.00694324687  
4.9197499752  -0.784969774756  -0.540045018955  0.441959000922  -0.000928440772435  -0.245689544978  -1.01728312356  
4.92779994011  -0.802259976767  -0.538717628251  0.435439707576  0.00229986729715  -0.249851852146  -1.02685067188  
4.93591213226  -0.81960586229  -0.536126954137  0.428305770935  0.00526327979028  -0.254122985737  -1.03485336683  
4.94401812553  -0.837294165175  -0.532782735353  0.420965640756  0.00796396591704  -0.258467892247  -1.04136313175  
4.95216608047  -0.855188422924  -0.528368654324  0.413164353009  0.0104055573376  -0.26285396639  -1.04566215763  
4.96020793915  -0.87316166238  -0.523390741882  0.405302668316  0.0125930120863  -0.267746401553  -1.04710229259  
4.96844696999  -0.88990027339  -0.517132599841  0.396801183615  0.0145324808263  -0.272579824441  -1.04589646993  
4.97645497322  -0.904997621348  -0.50973243976  0.387762322468  0.0162311760841  -0.277328892039  -1.0406714494  
4.98456311226  -0.922473395351  -0.502511428413  0.37923316951  0.0176972450439  -0.28296199682  -1.03494404857  
4.9926879406  -0.940041676788  -0.494709527049  0.370594316718  0.0199308771402  -0.288879862017  -1.02799574793  
5.00073099136  -0.958383264691  -0.486420146426  0.361907887639  0.0228588323578  -0.295519433066  -1.01996452956  
5.00885391235  -0.979716024163  -0.47812817226  0.353548038881  0.0264090341367  -0.30377480496  -1.01177738307  
5.01690006256  -0.999290660469  -0.468303128484  0.344591505463  0.0295197233226  -0.311486492295  -1.00111791473  
5.02494692802  -1.01353457424  -0.457124974056  0.334824006358  0.0322056831518  -0.317657454503  -0.986657882836  
5.03306508064  -1.03114381109  -0.445559128269  0.325002206171  0.0354746286731  -0.324847413559  -0.971954594793  
5.04118204117  -1.04337731155  -0.432521023097  0.314557850384  0.0392610376705  -0.330454255199  -0.953152677764  
5.04950499535  -1.0681150557  -0.420578999549  0.305502786438  0.0435012347389  -0.340018605653  -0.937031779709  
5.05747413635  -1.08828888245  -0.407349015234  0.295570916904  0.0471422556057  -0.348217127967  -0.917139151578  
5.06561994553  -1.11608569796  -0.394595181352  0.286473503738  0.0511994014817  -0.3595660067  -0.897856425316  
5.07358002663  -1.14516095899  -0.381568666429  0.277253393439  0.0556152113443  -0.371767614423  -0.876083698241  
5.08167409897  -1.17005286864  -0.367580490508  0.2673444167  0.0583516004921  -0.383192833393  -0.851356222866  
5.08973693848  -1.20448425674  -0.353978690403  0.257810986239  0.0634873789725  -0.398787956054  -0.826436147255  
5.09783291817  -1.23913039036  -0.340026656831  0.24805006682  0.0678304498271  -0.415158447378  -0.799906906299  
5.10588002205  -1.26578711693  -0.325442576584  0.237823717918  0.0714153090225  -0.429168259144  -0.77047187457  
5.11404395103  -1.29009078978  -0.310366034708  0.227231356921  0.0742785652103  -0.442896343686  -0.739332417586  
5.12206697464  -1.30609427525  -0.294928940576  0.216367334003  0.0764584643305  -0.453305260223  -0.706021057341  
5.1301920414  -1.33467169555  -0.281232761438  0.206902150348  0.0799773547893  -0.469510441066  -0.67249933779  
5.13829398155  -1.37148109901  -0.268436341522  0.198153110275  0.0817352571492  -0.48897883652  -0.638198696747  
5.14727401733  -1.40608820539  -0.255758161485  0.189170205406  0.0838407127568  -0.508362060743  -0.6025993392  
5.15547800064  -1.44004334375  -0.243267718192  0.180343312558  0.0852623129329  -0.528537735915  -0.56602304392  
5.16357493401  -1.47278776306  -0.230236891197  0.171082220916  0.0860442937899  -0.548823332584  -0.527979536855  
5.17160892487  -1.50381354754  -0.216788496447  0.161478107351  0.0862314560513  -0.568093060001  -0.489612008554  
5.17965006828  -1.53186569922  -0.203038430148  0.151617217919  0.0858688147613  -0.586801845705  -0.450390685857  
5.18773198128  -1.55859535519  -0.189095463873  0.141580697156  0.0850013032201  -0.60537282506  -0.407452884  
5.19583702087  -1.58234485312  -0.175061122469  0.13112849247  0.0836735004105  -0.62271001837  -0.358974175545  
5.20393896103  -1.60319817169  -0.160634030609  0.120357191448  0.0809379673492  -0.638801559048  -0.303306276582  
5.2120950222  -1.62085197243  -0.146329807439  0.109674970556  0.0769209406037  -0.653644262595  -0.240559622278  
5.22008991241  -1.63544504377  -0.132227718028  0.0988252444999  0.0717468401542  -0.666747236596  -0.170880061044  
5.22823309898  -1.64672586639  -0.11839960779  0.0878883565262  0.065537794359  -0.678164189521  -0.0944452928722  
5.23651504517  -1.65488153988  -0.104514550643  0.0766226052313  0.0584125050726  -0.687459433408  -0.0114610162373  
5.24465608597  -1.66050259367  -0.0906630537488  0.0648072700324  0.0504863314937  -0.694244259464  0.0762562041341  
5.25263214111  -1.66255514343  -0.0773240793643  0.0531908798864  0.0418706486997  -0.699167224858  0.166208011111  
5.26063299179  -1.66249925968  -0.0641451581819  0.0411975860977  0.0326724655854  -0.701350818213  0.258455674967  
5.26873397827  -1.66129618618  -0.0515911536039  0.029247619671  0.0229940995698  -0.702481239606  0.356214024789  
5.27681994438  -1.65744806551  -0.0392959059607  0.0170952621086  0.0119414916527  -0.70164195359  0.456862274466  
5.28492808342  -1.65118407757  -0.0273157299646  0.00514782344413  -0.000309909392905  -0.699486667391  0.557964993099  
5.29303598404  -1.64193342702  -0.0153049462536  -0.00716896287361  -0.0125997606196  -0.69513952381  0.66123869755  
5.30112791061  -1.62878951003  -0.00373606077456  -0.0191174567943  -0.025840173724  -0.689293435435  0.764287540514  
5.30924296379  -1.61213616855  0.00814457857248  -0.0312851465917  -0.0388837815645  -0.681605272313  0.868075398267  
5.31745409966  -1.56823366679  0.0328510644371  -0.0559143965682  -0.0661071132241  -0.662906699964  1.07894923565  
5.32554197311  -1.54060949895  0.0458622741736  -0.068210448193  -0.0819921579636  -0.651189157658  1.18380298799  
5.33355212212  -1.50915431367  0.0595565040908  -0.080710719882  -0.0971265612553  -0.638321944049  1.2882380134  
5.34155893326  -1.4735634905  0.0734000582225  -0.0930054153088  -0.112465821265  -0.623978397669  1.39005234635  
5.34966301918  -1.43358176318  0.0865044138712  -0.104401081468  -0.127899031888  -0.60737082928  1.48485168522  
5.35778808594  -1.39099398097  0.100427745684  -0.116162739651  -0.143323099344  -0.589769472967  1.58290259328  
5.36585307121  -1.34546971814  0.113833430522  -0.127239563501  -0.158642989961  -0.570369353112  1.67699945837  
5.37396192551  -1.29592495798  0.126282911328  -0.137299573856  -0.172780280937  -0.549430505841  1.76051987015  
5.38203001022  -1.24457381437  0.138564207482  -0.14699196651  -0.187721635937  -0.526706654592  1.84486997265  
5.39005613327  -1.19147673531  0.150218671181  -0.155968777211  -0.203312131161  -0.502477413804  1.92946204599  
5.39815497398  -1.13630157188  0.160827023328  -0.163913468313  -0.217421769545  -0.476514343696  2.01137301031  
5.40635609627  -1.07875489424  0.170009027853  -0.170540482342  -0.230077868887  -0.449113193035  2.08237131145  
5.41456007957  -1.01977663515  0.178609484567  -0.176543681504  -0.241314523567  -0.420555692704  2.15634593187  
5.42244005203  -0.959844044929  0.186620269789  -0.181934248409  -0.252163775178  -0.391604586829  2.23419327694  
5.43049311638  -0.89900464618  0.193641849273  -0.186409924054  -0.261596969567  -0.361478744857  2.30878462172  
5.43857908249  -0.837307842921  0.200498497195  -0.190646748212  -0.268674039118  -0.329465016491  2.38546147045  
5.44675111771  -0.775203162153  0.20636930888  -0.194004083356  -0.274525346823  -0.296899974601  2.45406868957  
5.45475101471  -0.713506413231  0.213272183844  -0.198111594801  -0.279209759344  -0.263532979108  2.52432382798  
5.46286010742  -0.652170280618  0.220688534511  -0.202569053863  -0.280805960929  -0.227650476313  2.5932839211  
5.47096610069  -0.591946038832  0.228532635411  -0.207321707049  -0.282517965097  -0.191653344875  2.65665571841  
5.47909593582  -0.533519946745  0.237117988288  -0.212633585917  -0.283334647505  -0.15527819393  2.71527282773  
5.48721909523  -0.47711500503  0.245938274963  -0.218111771323  -0.283320598801  -0.118780242543  2.76676098465  
5.49547600746  -0.422924529064  0.255315986626  -0.224025879686  -0.284523222838  -0.0823954891441  2.81214723859  
5.50334501266  -0.371112895817  0.264358664814  -0.229672468682  -0.285849249826  -0.0463410934076  2.84845104535  
5.5115480423  -0.322215729503  0.273431563203  -0.235353593431  -0.28827206601  -0.0113108272852  2.87932441922  
5.51948094368  -0.276310265454  0.283662691522  -0.24166467891  -0.291691701538  0.0235486720827  2.91054929635  
5.52756309509  -0.232253391238  0.292129936189  -0.24661859687  -0.294026719341  0.0560515722454  2.9252492985  
5.53568696976  -0.192168080276  0.302477389219  -0.252821863564  -0.299312230077  0.0886574393999  2.94840898193  
5.54368305206  -0.155197674762  0.312517317508  -0.258872801118  -0.305303854363  0.119668932146  2.96495238541  
5.55179214478  -0.120931281437  0.321815719297  -0.264429278372  -0.311909336877  0.150008597804  2.98084191825  
5.55992603302  -0.0897702194902  0.32997675199  -0.26917873057  -0.318048792291  0.178548971514  2.98968498304  
5.56800198555  -0.0612683148819  0.336247055429  -0.272521510397  -0.324711670718  0.205252450717  2.9943529188  
5.57609009743  -0.0357945863593  0.3407344635  -0.274545958317  -0.330824412196  0.230095969896  2.99434766727  
5.58438396454  -0.0128734998405  0.342758452948  -0.275025032963  -0.336391934718  0.252574001119  2.98765277711  
5.5924141407  0.00715225321302  0.34249767509  -0.27375973357  -0.341422004735  0.272730543322  2.97482906679  
5.60055398941  0.0247817580257  0.340526704178  -0.271209772869  -0.344933709801  0.291116496513  2.95484581691  
5.60851693153  0.04049016177  0.336594967608  -0.267490350128  -0.347023093855  0.307755201028  2.92838268283  
5.61659693718  0.0543291069331  0.330879076691  -0.263031235468  -0.346796192506  0.321687511188  2.89372773598  
5.62473702431  0.0667564546081  0.323553019391  -0.257601554747  -0.34542561267  0.334028519215  2.85173181615  
5.63284492493  0.0774060710966  0.314787271635  -0.251310441556  -0.341025854968  0.344329480106  2.80243252019  
5.64094114304  0.0867484352476  0.304748011743  -0.243947742372  -0.332867916971  0.353676128071  2.74590968881  
5.64898896217  0.0948270520454  0.293596422521  -0.235958326811  -0.321294161503  0.362084653222  2.68069569279  
5.65712714195  0.102088470542  0.281488078547  -0.227124464371  -0.306641607614  0.369079890211  2.6086629589  
5.66520595551  0.108152479934  0.268176831065  -0.217566074182  -0.288248995424  0.3747282097  2.52920174147  
5.67340898514  0.113473018438  0.254234264255  -0.207399197679  -0.266520626682  0.379594819764  2.44417520364  
5.68157911301  0.118074788857  0.239400455957  -0.197049799969  -0.240859112177  0.383710120065  2.35295680252  
5.68959093094  0.121984932934  0.223836569394  -0.18628022391  -0.211728864331  0.38710689078  2.25659355055  
5.69758009911  0.125232963449  0.208091477928  -0.175506471561  -0.179580175337  0.39031562576  2.15608287035  
5.70564293861  0.12785011962  0.192276997548  -0.164795661785  -0.143855335749  0.39283522211  2.05157766421  
5.71372103691  0.129470496159  0.176496681964  -0.154209394593  -0.106045292133  0.394703615454  1.94403671265  
5.72189307213  0.130559993051  0.160845833747  -0.143803714796  -0.0655552449921  0.395959669527  1.83436323944  
5.7299311161  0.130754483985  0.145411553305  -0.133629195362  -0.023835781006  0.396147511216  1.72261045598  
5.73806905746  0.130122229894  0.130272834958  -0.123731140734  0.019749883187  0.395844499205  1.61042643035  
5.74613904953  0.128731337135  0.115500705884  -0.114149437265  0.0647865336708  0.395090728527  1.49774806022  
5.75452709198  0.126250744901  0.101158403722  -0.104603016656  0.109890370767  0.393925778901  1.38531313477  
5.76256108284  0.123179022914  0.0876971732992  -0.0957808243068  0.155767580283  0.392884600271  1.27380068431  
5.77061796188  0.119581141837  0.0751320950065  -0.0876814202856  0.201082150873  0.390972559333  1.16303817087  
5.77868795395  0.115121646563  0.0630761034386  -0.0799825204184  0.245596258506  0.38926060329  1.05444802872  
5.78680491447  0.110293730115  0.0519600855178  -0.0730172619954  0.289095912248  0.387743765415  0.94774257092  
5.79491400719  0.104757340105  0.0417800837854  -0.0670880167956  0.332381072075  0.386416313961  0.844230952439  
5.80302596092  0.0990004656248  0.0325265325971  -0.0618350933958  0.375199917754  0.384776173495  0.744307797035  
5.81124997139  0.0930759714068  0.0241849504953  -0.0572385845584  0.417322671182  0.383849102174  0.649107767008  
5.81926512718  0.0870336458203  0.0167364117313  -0.0529599847911  0.458541898156  0.383089824442  0.558855318883  
5.82730197906  0.0809201435016  0.0101577314199  -0.0493173347164  0.499663287401  0.382985809177  0.475312704479  
5.8356180191  0.0747789390266  0.00481780182179  -0.0462841634218  0.539447983215  0.383486756461  0.398477812039  
5.843542099  0.0686503039208  0.000653616454207  -0.0438320765644  0.576761167847  0.384542592383  0.329099831814  
5.85170292854  0.0625713053356  -0.00240025101906  -0.0419310921752  0.611563243678  0.385112275198  0.265444448849  
5.85970306396  0.0561772820569  -0.00441103996585  -0.0405503198118  0.64482434773  0.386717185822  0.209841728696  
5.86782813072  0.0499309099798  -0.0050517527896  -0.0402902887365  0.676457675484  0.388275540694  0.161218621832  
5.8759829998  0.0434608783835  -0.00521574457697  -0.0407488098105  0.705402007473  0.390276953628  0.120921490804  
5.88407301903  0.0372233345076  -0.00454363253674  -0.0418677062035  0.731686208715  0.392178916564  0.0869677687039  
5.89218497276  0.0312389619325  -0.00270880733592  -0.0439052152835  0.755353818073  0.394968830469  0.0590757122304  
5.9002430439  0.0255252539543  -0.000208493262156  -0.04646093732  0.777452277349  0.398064678791  0.0377410137745  
5.90850901604  0.0200966657078  0.00289011314455  -0.0491626886262  0.796975035336  0.400927772625  0.0225872175247  
5.91651010513  0.0149647602956  0.00652133106724  -0.0519824438807  0.814000645166  0.403062779703  0.0124352773905  
5.92456007004  0.010536996488  0.011412348395  -0.0555263441294  0.82960887525  0.406991294469  0.00933926855649  
5.93257808685  0.00638757363286  0.017435030171  -0.0597161951165  0.843812720449  0.413045577063  0.0135638558716  
5.94063711166  0.00252062762957  0.0244641380197  -0.0641598558277  0.854650216141  0.419535919923  0.0221351438962  
5.94867491722  -0.000663224536797  0.0323778163008  -0.0691260150853  0.863306954901  0.427875248869  0.0362486603887  
5.95679497719  -0.00359577845452  0.0402672874716  -0.0735944097097  0.866924299251  0.434894076945  0.051421094442  
5.96492695808  -0.00627835250283  0.0496675828926  -0.0788417086259  0.868844958958  0.444616890155  0.0722344117638  
5.9729809761  -0.0087137012371  0.0607986072236  -0.0850912702916  0.869189011923  0.456773458934  0.0989149329418  
5.9810321331  -0.0109058999999  0.0714793687187  -0.0906443528532  0.865102487246  0.46663822555  0.124496721329  
5.98916912079  -0.0128602170883  0.085238158146  -0.0977363831379  0.860920061359  0.481763021095  0.160009552434  
5.99718904495  -0.0145829884408  0.100564075228  -0.105570673319  0.853701228482  0.497680407212  0.197324380735  
6.00554013252  -0.0173638462394  0.134663137985  -0.121807154342  0.833170888519  0.529814172427  0.280519059886  
6.01359009743  -0.0184388614036  0.151479763588  -0.129139661939  0.819331581195  0.544331331902  0.322279280768  
6.02165007591  -0.0189173289725  0.169610341807  -0.136369068726  0.802472195572  0.560786690251  0.366728334496  
6.0296690464  -0.0192412112995  0.186467349235  -0.142508068656  0.782931805558  0.574962299003  0.410209172271  
6.03777909279  -0.018224700413  0.205604730433  -0.148554922338  0.763022471878  0.59388660245  0.459664954796  
6.0458509922  -0.0163767115714  0.224353463614  -0.153844811108  0.739922444385  0.6121168503  0.508773343028  
6.05394101143  -0.0137732323119  0.243814010918  -0.159036908664  0.715014123046  0.631080615751  0.558842547657  
6.06206893921  -0.0108878006423  0.262623601839  -0.163473239168  0.688592538465  0.649611971779  0.608693938317  
6.07009911537  -0.00776013709502  0.281111648721  -0.167185469364  0.660939177507  0.668125126697  0.658035111423  
6.07820391655  -0.00442846124197  0.299188271698  -0.170206676701  0.633312730265  0.68650649911  0.708185659648  
6.08626198769  -0.000929291991748  0.316773201383  -0.172571752653  0.603899810796  0.70366090194  0.756392102219  
6.09448099136  0.00230401251575  0.334191035774  -0.174633401423  0.573021616893  0.720072773733  0.804885280341  
6.10257005692  0.0056705499627  0.350159981763  -0.175769125015  0.540983573951  0.735202195516  0.850962763717  
6.11056494713  0.00913918576178  0.365484520568  -0.176676537807  0.510057229879  0.749054702403  0.894525984496  
6.11877012253  0.0130790971088  0.380119487497  -0.177367845276  0.478365687895  0.762139232474  0.935499714737  
6.12673211098  0.0178277970292  0.39402757005  -0.177855440396  0.445173597281  0.773442791889  0.972244376723  
6.13491511345  0.0232930343047  0.407178864431  -0.178468189689  0.412786269497  0.782537736414  1.00406716727  
6.14294791222  0.0305811150319  0.419550578469  -0.179192491982  0.380350929386  0.79003475634  1.03115247728  
6.1509950161  0.0391066950107  0.431126343672  -0.180647348464  0.348072609672  0.795515676814  1.05290696315  
6.15913295746  0.0491193577489  0.441896095483  -0.18276694323  0.317130894213  0.799598676438  1.07040237017  
6.16718912125  0.0608401999704  0.451064571582  -0.1848537099  0.286622712942  0.802366950471  1.08227468572  
6.17526602745  0.0736652359258  0.459490124546  -0.187846012326  0.255712343601  0.804401084045  1.08967965962  
6.18336200714  0.0874290749289  0.466387080473  -0.19102220603  0.226605665567  0.804258346913  1.09212516817  
6.19138598442  0.102372125055  0.472622342314  -0.194981081764  0.19835199156  0.804091385814  1.08998087728  
6.19964599609  0.117911371423  0.478208693483  -0.19932133988  0.17106044922  0.803407481701  1.08282344194  
6.20751094818  0.134302692361  0.482766157347  -0.203986050533  0.144825756256  0.801259585252  1.07187955172  
6.21579194069  0.151378205979  0.486741980512  -0.208921439912  0.119728716979  0.798270351723  1.05671784627  
6.22377991676  0.169377436778  0.490156558486  -0.213759872718  0.0958368008359  0.794523668165  1.03696687983  
6.23184800148  0.188116913988  0.493032358504  -0.219110895342  0.0732047588107  0.789605889693  1.01469173956  
6.2400560379  0.207821481621  0.495393263158  -0.224585441999  0.0508838624127  0.783142735694  0.988640467749  
6.24809598923  0.22829396379  0.497264589596  -0.230456008043  0.0299798857439  0.775294278632  0.959267729294  
6.25612092018  0.249746252861  0.498672821014  -0.23665532734  0.00952121636859  0.766216873075  0.927013819684  
6.26425695419  0.267983024842  0.496876360366  -0.240904443753  -0.00940834660329  0.753088046538  0.891509514328  
6.27232313156  0.284336373957  0.492926122707  -0.243961198181  -0.0268099723441  0.73729502615  0.853227509258  
6.28060412407  0.307620486145  0.492946776436  -0.250645556672  -0.0436854817628  0.726082471878  0.81500046799  
6.28863692284  0.328383644508  0.490697215287  -0.25588812984  -0.0599711846235  0.712224964859  0.773888972784  
6.29678297043  0.353070138501  0.491113881516  -0.262933358352  -0.0766031848723  0.701466173758  0.732751427134  
6.30475997925  0.377634855274  0.491614056193  -0.27001497422  -0.0924599838579  0.690162679091  0.690259032044  
6.31278896332  0.402333319728  0.491792669881  -0.276769875329  -0.107503297422  0.678426903163  0.646780678784  
6.32092905045  0.427001803165  0.492464544961  -0.283498209063  -0.120711489872  0.665869457008  0.603455904831  
6.32899808884  0.451489505751  0.493191755105  -0.289843927872  -0.134127817421  0.65312776408  0.559748642058  
6.33717107773  0.476455678485  0.494360967314  -0.296429674744  -0.145670095543  0.640295238134  0.515959864564  
6.34518098831  0.501708229824  0.495535133589  -0.302879694588  -0.157394723372  0.6269629759  0.472367715243  
6.35330414772  0.523082112434  0.494333344958  -0.30758177246  -0.168223612336  0.611269698325  0.429227523707  
6.36138701439  0.540745570636  0.490947427056  -0.310642452949  -0.177167638025  0.593991651105  0.387565123269  
6.3694870472  0.564842254531  0.491105380259  -0.316284078793  -0.189274610292  0.580316171054  0.345938172252  
6.3777449131  0.584758269894  0.488993879002  -0.320157403407  -0.199266968246  0.564595999505  0.305395388609  
6.38574504852  0.610659435272  0.490735022703  -0.326805970829  -0.214186339361  0.553035518538  0.266104300217  
6.39384102821  0.635542962059  0.492063757807  -0.332808926116  -0.229592236465  0.541913941827  0.228211631511  
6.40187501907  0.658934528192  0.493399294564  -0.33849555425  -0.245351302671  0.53077049768  0.191844035884  
6.40994906425  0.680804742057  0.494337245758  -0.343222505747  -0.260346890355  0.520171649254  0.156315760103  
6.41801810265  0.701135951635  0.494902732748  -0.347035009768  -0.275536373216  0.509149520166  0.122575263928  
6.42608308792  0.717529810535  0.493538920681  -0.349030677128  -0.288827816939  0.496814038838  0.090693228175  
6.43494296074  0.734574827709  0.493172797396  -0.351237095096  -0.303260215564  0.485326421396  0.0599301514567  
6.44304704666  0.750520269279  0.492542625877  -0.35299110148  -0.317663921287  0.473205207424  0.0295969669778  
6.45112895966  0.765352552651  0.49167277381  -0.354632800462  -0.33294330856  0.460574679652  -0.000944405303711  
6.45926213264  0.779464658003  0.490587339997  -0.356160823768  -0.347943994746  0.447552872287  -0.0322815182784  
6.46731305122  0.792426182641  0.488914122771  -0.35725797087  -0.362594649769  0.434250992724  -0.0649510952384  
6.47532606125  0.804246068829  0.487104800274  -0.358267409919  -0.377822726893  0.420773261197  -0.0994400370912  
6.48366308212  0.81493957316  0.485181091624  -0.359189602818  -0.392497686445  0.407217083616  -0.135393206785  
6.4916779995  0.824527759739  0.483163818063  -0.360025690658  -0.40756256089  0.393176995054  -0.173266726267  
6.4997959137  0.832638284939  0.481072857687  -0.360777075549  -0.422893787369  0.37927330808  -0.213469577943  
6.50774502754  0.839335502491  0.479322308341  -0.361762116772  -0.43837533645  0.364590442824  -0.254778274628  
6.51589012146  0.843890382875  0.477501226071  -0.362640216754  -0.453899622937  0.349279994874  -0.296850518968  
6.52399396896  0.847636652492  0.476021774248  -0.36373057065  -0.470358185509  0.333981426228  -0.341745266314  
6.53207993507  0.850215332946  0.474866721864  -0.365009944034  -0.486585143701  0.318293093695  -0.388171515318  
6.54016709328  0.852099678403  0.474018055096  -0.366455721395  -0.502497529088  0.302342528719  -0.435722319084  
6.54826712608  0.85333190895  0.473457256702  -0.368046102416  -0.519012394637  0.285753489577  -0.485601469326  
6.55633401871  0.854353541544  0.47356095035  -0.370076344379  -0.533997861847  0.268678498995  -0.534939260015  
6.5645980835  0.855174690591  0.474276921111  -0.372499616661  -0.54946219582  0.251756977006  -0.58505746939  
6.57266807556  0.855805822786  0.475157702234  -0.374954102592  -0.56527248525  0.235082066461  -0.635584604708  
6.58078408241  0.856257679334  0.476580507599  -0.378054472078  -0.58130354721  0.218738130426  -0.686175300954  
6.58878612518  0.85614283187  0.47849444146  -0.381415376534  -0.596447509757  0.202305224946  -0.735717456895  
6.59694194794  0.853512898251  0.479267442786  -0.383730017972  -0.609687607496  0.185892244415  -0.780019289168  
6.60497093201  0.853761337857  0.482542916806  -0.388229034314  -0.62703785647  0.170095227297  -0.825557460314  
6.61314201355  0.853873004651  0.486524337713  -0.393133354456  -0.645097477858  0.154468728794  -0.869574022691  
6.62121796608  0.85385781306  0.491527619177  -0.398697367717  -0.663699188848  0.139592196197  -0.91270707665  
6.62959599495  0.853087768317  0.504161172851  -0.411464774109  -0.702900277171  0.110772491361  -0.990988910187  
6.63763809204  0.85198747721  0.511975428533  -0.418822658536  -0.723130953519  0.0974538304887  -1.02758909236  
6.64572310448  0.850467470347  0.519960548862  -0.426489858712  -0.744242197262  0.0840685007315  -1.06290048721  
6.6537771225  0.848569673863  0.528053580657  -0.434394849174  -0.765043232914  0.0716961352931  -1.09601101507  
6.66176104546  0.84633528908  0.536196002264  -0.442470100351  -0.785429170104  0.0593435269466  -1.12767909115  
6.66989398003  0.843804315687  0.543937853669  -0.450651898442  -0.805305504977  0.0475814857688  -1.15861312764  
6.67791199684  0.841015489169  0.551262252767  -0.458881091813  -0.824588418369  0.0354457891893  -1.18947138679  
6.6859691143  0.838006138504  0.557760466718  -0.467102549339  -0.844195687716  0.0240321449798  -1.21927511326  
6.69404697418  0.834811971193  0.563456374388  -0.475265837625  -0.862989053452  0.0128596820693  -1.24712787088  
6.70221590996  0.831068714102  0.568376903434  -0.483324799604  -0.881906411153  0.00197901063921  -1.2730083325  
6.71030807495  0.827639296478  0.573342684028  -0.491870403893  -0.900820744426  -0.00955629421954  -1.30008130997  
6.71834397316  0.822527691269  0.577132938439  -0.499230444236  -0.91664084669  -0.0211282344764  -1.32412081905  
6.72667193413  0.816294777952  0.57981526031  -0.505451304513  -0.930499836214  -0.0326621157528  -1.3467990841  
6.73458600044  0.808667585317  0.581854592485  -0.510583175687  -0.943455372155  -0.0445849075363  -1.36808121746  
6.74274110794  0.799403235685  0.582101552806  -0.51404547782  -0.955497393076  -0.0582796279044  -1.38635724397  
6.75084400177  0.788287591574  0.581089290988  -0.515946769042  -0.96563047658  -0.0725322680695  -1.40333312889  
6.75896692276  0.775134815997  0.578130789001  -0.515763536682  -0.974931284928  -0.0882024120056  -1.41979776152  
6.76699209213  0.759785959241  0.572999889493  -0.513342272251  -0.981424106494  -0.10508278278  -1.43330928446  
6.77512812614  0.742506860998  0.565897166654  -0.508871828447  -0.986277772454  -0.123966050452  -1.44559909209  
6.78326296806  0.723156087215  0.556624203919  -0.502538481901  -0.989589442153  -0.145075250604  -1.45747907239  
6.79129695892  0.702014476355  0.545011444764  -0.494209811885  -0.991458451525  -0.167115160132  -1.46890717944  
6.79982709885  0.678953655918  0.531312694341  -0.484092406379  -0.990993604962  -0.190868083497  -1.47905457756  
6.80766201019  0.654265842786  0.515379343421  -0.472387561167  -0.989370521916  -0.216549332552  -1.48716439919  
6.81574010849  0.628230498153  0.497483757796  -0.459291076295  -0.984706235791  -0.243354110191  -1.49334460271  
6.82384490967  0.601113937704  0.477889354419  -0.444992374883  -0.978257308427  -0.271524398035  -1.49929287367  
6.83190512657  0.572371155925  0.456849645968  -0.429041482626  -0.967228138156  -0.296813907891  -1.49785223631  
6.8400349617  0.543103960295  0.434607436079  -0.413245668825  -0.95600808208  -0.327220202135  -1.50388091054  
6.84805512428  0.513136225396  0.411394143519  -0.39674305097  -0.941707727486  -0.358191993805  -1.50803809973  
6.85615706444  0.483106882406  0.387429249512  -0.380006794247  -0.926637483071  -0.390980176321  -1.51123606915  
6.86422204971  0.452808593296  0.362919862058  -0.362843044828  -0.910950924587  -0.424248769914  -1.51273619671  
6.87236094475  0.422848928156  0.338060390886  -0.345075442674  -0.892810275747  -0.458249724674  -1.51345421963  
6.88039898872  0.393786126419  0.313032326461  -0.327177221889  -0.873510172095  -0.492219352476  -1.5134462772  
6.88867497444  0.365332350152  0.288004116351  -0.309269543842  -0.853260465812  -0.525453593017  -1.51038955307  
6.89663100243  0.338414193919  0.263131132138  -0.291780380245  -0.832260389507  -0.560281637708  -1.51088445512  
6.90472602844  0.311485129017  0.238555720085  -0.273837768638  -0.807724522476  -0.590415416753  -1.50434212529  
6.9127061367  0.285111733255  0.214407328707  -0.255904236394  -0.781070948715  -0.615536277918  -1.49055596197  
6.92083501816  0.261407573263  0.19080270651  -0.239038458427  -0.755603586351  -0.647774099102  -1.48920823751  
6.92891812325  0.23831967142  0.167846163209  -0.221998240802  -0.727423115295  -0.675967160681  -1.48348056184  
6.9370059967  0.216740598313  0.145629887881  -0.204902852294  -0.699889147034  -0.706698093574  -1.48405805829  
6.94515800476  0.195491396395  0.124234317656  -0.187862693941  -0.67014830852  -0.733135331457  -1.47934462243  
6.95335102081  0.175475578492  0.103728550735  -0.170979253319  -0.640539230196  -0.761396179491  -1.48009028525  
6.96136403084  0.156721579592  0.0841707977336  -0.154345166529  -0.611235555755  -0.7886854531  -1.48110828418  
6.96957302094  0.138849316015  0.0656088655652  -0.138044330328  -0.582395291074  -0.814413290884  -1.48237112363  
6.97776293755  0.122299802086  0.0480806683422  -0.122468044495  -0.552178860339  -0.838541279916  -1.48147256148  
6.98573207855  0.107471727986  0.0316147600241  -0.107656853975  -0.522863394821  -0.861539456761  -1.48017199374  
6.99373602867  0.0943236071363  0.0162308838168  -0.0936432096919  -0.493569597023  -0.882361479256  -1.47771579753  
7.00188803673  0.0824079125717  0.00194053361271  -0.0804521850936  -0.465468988855  -0.901046996718  -1.4750020069  
7.00997710228  0.0721015513043  -0.0112524769475  -0.0677858161569  -0.437652007362  -0.917645788791  -1.47127425245  
7.01804900169  0.0625464068265  -0.0233514419161  -0.0556819858757  -0.41026908176  -0.931721206637  -1.46742760211  
