Ethan-CYM/ros_catkin_ws/test/servol_正常操作/ur_joint_actual_degree.txt
time  shoulder_pan_joint  shoulder_lift_joint  elbow_joint  wrist_1_joint  wrist_2_joint  wrist_3_joint
0.147896051407  1.57074463367  -1.22164947191  2.09427213669  -3.14363509813  -1.57075673739  -0.0348103682147  
0.156008005142  1.57073271275  -1.22166139284  2.09418821335  -3.14399463335  -1.57075673739  -0.0421126524555  
0.164124965668  1.57064878941  -1.22166139284  2.09418821335  -3.14443761507  -1.5707209746  -0.0494273344623  
0.172184944153  1.57070875168  -1.22167331377  2.0941286087  -3.14489299456  -1.57075673739  -0.0571134726154  
0.180282115936  1.57066082954  -1.2216017882  2.09410429001  -3.14536029497  -1.5707209746  -0.0649679342853  
0.188350915909  1.57063686848  -1.2216017882  2.0941286087  -3.14582759539  -1.57069713274  -0.0733020941364  
0.196416139603  1.57057654858  -1.22158986727  2.09404468536  -3.14627057711  -1.57068473497  -0.0810478369342  
0.204483985901  1.57055258751  -1.22161323229  2.0940322876  -3.14676219622  -1.57069713274  -0.0890463034259  
0.212585926056  1.57052862644  -1.22154170672  2.09398460388  -3.14724094072  -1.57067281405  -0.0970447699176  
0.220613002777  1.57054054737  -1.22150594393  2.0939002037  -3.14774448076  -1.57067281405  -0.105318848287  
0.228677034378  1.57045674324  -1.22151786486  2.0939002037  -3.14818793932  -1.57064897219  -0.11288577715  
0.236758947372  1.57048070431  -1.221494023  2.09384059906  -3.14867812792  -1.57055312792  -0.120463673268  
0.244846105576  1.57039678097  -1.221494023  2.09384059906  -3.14914590517  -1.57057696978  -0.127946201955  
0.252969026566  1.57043278217  -1.221494023  2.09382820129  -3.14957696596  -1.5706132094  -0.13541728655  
0.261034011841  1.5704087019  -1.22141009966  2.09375667572  -3.1499841849  -1.57048160235  -0.142120186483  
0.269132137299  1.5703728199  -1.22142202059  2.09369659424  -3.15040380159  -1.57055312792  -0.148631397878  
0.277262926102  1.5703368187  -1.22142202059  2.09368467331  -3.15076333681  -1.57046968142  -0.154951397573  
0.285351991653  1.5703009367  -1.22133809725  2.09367275238  -3.1515176932  -1.57039767901  -0.166955296193  
0.293436050415  1.5703009367  -1.22137386004  2.09360122681  -3.1518295447  -1.57058889071  -0.172242943441  
0.301573991776  1.57026493549  -1.22132617632  2.09358930588  -3.15215284029  -1.57039767901  -0.176992241536  
0.309636116028  1.57021665573  -1.22132617632  2.0935292244  -3.15245277086  -1.57044583956  -0.181572739278  
0.317737102509  1.57021665573  -1.22131425539  2.09354114532  -3.15269214312  -1.57048160235  -0.185793701802  
0.325820922852  1.57015669346  -1.22127801577  2.09356498718  -3.15290767351  -1.57037383715  -0.189751450215  
0.333909034729  1.57015669346  -1.22127801577  2.09350538254  -3.15309936205  -1.57052928606  -0.193468872701  
0.341999053955  1.5701687336  -1.22123033205  2.09345722198  -3.15329105059  -1.57036191622  -0.196898285543  
0.350090026855  1.57019269466  -1.22126609484  2.09343338013  -3.15345889727  -1.57040959993  -0.199716393148  
0.358180046082  1.57019269466  -1.22123033205  2.09345722198  -3.15357858339  -1.57046968142  -0.202198807393  
0.366250991821  1.57010877132  -1.22124225298  2.09345722198  -3.15372258822  -1.57028991381  -0.204309288655  
0.374382972717  1.57012081146  -1.22121841112  2.09340953827  -3.15380651156  -1.57045776049  -0.206084076558  
0.382457017899  1.57010877132  -1.22118264834  2.0933971405  -3.15392619768  -1.57033759752  -0.207630459462  
0.390557050705  1.57010877132  -1.22118264834  2.0933971405  -3.15399772326  -1.57046968142  -0.20893794695  
0.39865398407  1.57007277012  -1.22123033205  2.09340953827  -3.15403396288  -1.57030183474  -0.210005585347  
0.406714916229  1.57008481026  -1.22119456926  2.09338521957  -3.1540816466  -1.57045776049  -0.210760895406  
0.41477894783  1.57004880905  -1.22115880648  2.09336090088  -3.15404588381  -1.57038575808  -0.211336437856  
0.422842979431  1.57001292706  -1.22112256685  2.0933971405  -3.15405780474  -1.57033759752  -0.211660210286  
0.430907011032  1.56998896599  -1.22112256685  2.09334897995  -3.15400964419  -1.57044583956  -0.211744133626  
0.439016103745  1.57003688812  -1.22112256685  2.09337282181  -3.15398580233  -1.57027799288  -0.211552445089  
0.4471180439  1.57003688812  -1.221098725  2.09337282181  -3.15395003954  -1.57046968142  -0.211372200643  
0.45522403717  1.57000088692  -1.221098725  2.09336090088  -3.1539738814  -1.5702179114  -0.210892502462  
0.463371992111  1.57000088692  -1.22112256685  2.09334897995  -3.15393811861  -1.57036191622  -0.210269276296  
0.471470117569  1.57001292706  -1.22112256685  2.09336090088  -3.15384227434  -1.57025367418  -0.209609333669  
0.479578971863  1.56996500492  -1.221098725  2.09337282181  -3.15387851397  -1.57036191622  -0.208818260823  
0.487664937973  1.57000088692  -1.22111064592  2.09333705902  -3.15381843248  -1.57022983233  -0.207942787801  
0.495760917664  1.57001292706  -1.22108680407  2.09334897995  -3.15368682543  -1.57038575808  -0.206995312368  
0.503823041916  1.56996500492  -1.22112256685  2.09336090088  -3.15366250673  -1.57031375567  -0.205891911183  
0.511878013611  1.57001292706  -1.22107488314  2.09331321716  -3.15363866488  -1.57027799288  -0.204777065908  
0.519977092743  1.56994104385  -1.22106296221  2.09337282181  -3.15356666247  -1.57040959993  -0.203613583242  
0.528079986572  1.56994104385  -1.22112256685  2.09336090088  -3.15350705782  -1.57024175326  -0.202414337789  
0.536167144775  1.57000088692  -1.22108680407  2.09336090088  -3.1534708182  -1.57037383715  -0.201095406209  
0.544232130051  1.56992900372  -1.221098725  2.09332513809  -3.15333921114  -1.57030183474  -0.199812237416  
0.552439928055  1.56997692585  -1.22108680407  2.09330129623  -3.15342313448  -1.57026607195  -0.198469463979  
0.560539960861  1.56996500492  -1.22111064592  2.09332513809  -3.15323144594  -1.57038575808  -0.197114292775  
0.568629980087  1.56997692585  -1.22107488314  2.09333705902  -3.15330297152  -1.5702179114  -0.195747200643  
0.576714992523  1.57002484798  -1.221098725  2.09336090088  -3.15311128298  -1.57038575808  -0.194451634084  
0.584810018539  1.57000088692  -1.22108680407  2.09331321716  -3.15318328539  -1.57028991381  -0.193108860646  
0.592870950699  1.56997692585  -1.22111064592  2.09333705902  -3.15297967592  -1.57028991381  -0.191825691854  
0.600963115692  1.56995296478  -1.22108680407  2.09332513809  -3.15305167833  -1.57037383715  -0.190662686025  
0.609054088593  1.57000088692  -1.22111064592  2.09330129623  -3.15303928057  -1.57022983233  -0.189427200948  
0.617115974426  1.56992900372  -1.221098725  2.09333705902  -3.15285951296  -1.57042152086  -0.188276116048  
0.625231981277  1.56995296478  -1.22108680407  2.09333705902  -3.15291959444  -1.57024175326  -0.187172714864  
0.633295059204  1.56998896599  -1.22108680407  2.09333705902  -3.15275174776  -1.57033759752  -0.18611795107  
0.641392946243  1.56995296478  -1.22111064592  2.09336090088  -3.15289575258  -1.57036191622  -0.185110394155  
0.64948797226  1.56995296478  -1.22111064592  2.09337282181  -3.15266782442  -1.57026607195  -0.184163395558  
0.65755200386  1.56994104385  -1.221098725  2.09332513809  -3.15275174776  -1.57040959993  -0.183287922536  
0.665641069412  1.56995296478  -1.221098725  2.09331321716  -3.15264398256  -1.57026607195  -0.182496372853  
0.673727989197  1.56998896599  -1.22111064592  2.09330129623  -3.15264398256  -1.57032567659  -0.181776825582  
0.681824922562  1.56997692585  -1.221098725  2.09332513809  -3.15258437792  -1.57033759752  -0.181069676076  
0.689913034439  1.57001292706  -1.22108680407  2.09337282181  -3.15240461031  -1.57024175326  -0.180434052144  
0.697978973389  1.57003688812  -1.221098725  2.09331321716  -3.15257245699  -1.57048160235  -0.179858509694  
0.706080913544  1.56997692585  -1.22111064592  2.09330129623  -3.15235692659  -1.57028991381  -0.179354492818  
0.714144945145  1.56994104385  -1.22108680407  2.09334897995  -3.15252477327  -1.57037383715  -0.17892295519  
0.722229003906  1.57000088692  -1.22107488314  2.09334897995  -3.15226108233  -1.57040959993  -0.178490940725  
0.730340003967  1.56998896599  -1.22105056444  2.09336090088  -3.15244084993  -1.57030183474  -0.178119484578  
0.73846411705  1.56996500492  -1.22111064592  2.09331321716  -3.15218907992  -1.57046968142  -0.177795712148  
0.746562004089  1.56995296478  -1.22108680407  2.09334897995  -3.15240461031  -1.57034999529  -0.177591625844  
0.754678010941  1.56997692585  -1.22108680407  2.09337282181  -3.15218907992  -1.57042152086  -0.177376095449  
0.762764930725  1.56995296478  -1.22111064592  2.09337282181  -3.15228492418  -1.57038575808  -0.177232090627  
0.770878076553  1.56995296478  -1.22111064592  2.09336090088  -3.15224868456  -1.57037383715  -0.177064243947  
0.778970956802  1.56995296478  -1.22111064592  2.09332513809  -3.15220100084  -1.57046968142  -0.176980320607  
0.78707909584  1.56996500492  -1.22106296221  2.09332513809  -3.15234500567  -1.57026607195  -0.176980320607  
0.79518198967  1.56995296478  -1.22108680407  2.09333705902  -3.15214091936  -1.57045776049  -0.176932160054  
0.803270101547  1.56997692585  -1.221098725  2.09336090088  -3.15230876604  -1.57033759752  -0.176992241536  
0.811372041702  1.56997692585  -1.22108680407  2.09337282181  -3.15205699602  -1.57031375567  -0.177123848592  
0.819472074509  1.57000088692  -1.22112256685  2.09331321716  -3.15229684511  -1.57045776049  -0.177123848592  
0.827569961548  1.56997692585  -1.22113448778  2.09332513809  -3.15205699602  -1.57030183474  -0.177219692861  
0.835659980774  1.56998896599  -1.22108680407  2.09332513809  -3.15227300326  -1.57039767901  -0.177340332662  
0.843744039536  1.56998896599  -1.22107488314  2.09334897995  -3.15210515658  -1.57034999529  -0.177507702504  
0.851858139038  1.56996500492  -1.22111064592  2.09337282181  -3.15220100084  -1.57034999529  -0.17760402361  
0.859949111938  1.57001292706  -1.22106296221  2.09333705902  -3.15214091936  -1.57042152086  -0.177699867879  
0.868072986603  1.56995296478  -1.22112256685  2.09334897995  -3.15212899843  -1.57027799288  -0.177903954183  
0.876209974289  1.57002484798  -1.22111064592  2.09337282181  -3.15227300326  -1.57044583956  -0.177951637899  
0.884311914444  1.56997692585  -1.22111064592  2.09334897995  -3.15212899843  -1.57030183474  -0.17817956606  
0.892439126968  1.56995296478  -1.22108680407  2.09330129623  -3.15236884752  -1.57039767901  -0.1782634894  
0.900505065918  1.56997692585  -1.22111064592  2.09330129623  -3.15206891695  -1.57038575808  -0.178562943135  
0.908572912216  1.56995296478  -1.221098725  2.09330129623  -3.1523326079  -1.57039767901  -0.178683106099  
0.916639089584  1.57001292706  -1.22112256685  2.09330129623  -3.15217715899  -1.57038575808  -0.178911034261  
0.924703121185  1.56997692585  -1.22111064592  2.09336090088  -3.15224868456  -1.57040959993  -0.17916280428  
0.932796001434  1.56997692585  -1.22107488314  2.09332513809  -3.15227300326  -1.57036191622  -0.179354492818  
0.940884113312  1.56995296478  -1.22111064592  2.09331321716  -3.15221292177  -1.57033759752  -0.179594341909  
0.949002981186  1.57000088692  -1.22111064592  2.09337282181  -3.15230876604  -1.57045776049  -0.179725948964  
0.957099914551  1.56997692585  -1.22112256685  2.09332513809  -3.15210515658  -1.57025367418  -0.17999011675  
0.965204000473  1.57000088692  -1.22108680407  2.09333705902  -3.15234500567  -1.57040959993  -0.180085961019  
0.973307132721  1.56995296478  -1.221098725  2.09328889847  -3.1521170775  -1.57040959993  -0.180325810109  
0.981369018555  1.56998896599  -1.22113448778  2.09332513809  -3.15215284029  -1.57043344179  -0.180685822164  
0.989431142807  1.56996500492  -1.22108680407  2.09337282181  -3.15229684511  -1.57030183474  -0.18088943163  
0.997494935989  1.56997692585  -1.22108680407  2.09331321716  -3.15227300326  -1.57038575808  -0.181069676076  
1.00553107262  1.56996500492  -1.22111064592  2.09336090088  -3.15223676363  -1.57039767901  -0.181213204061  
1.01362514496  1.56996500492  -1.22113448778  2.09336090088  -3.15234500567  -1.57033759752  -0.181392971669  
1.02171301842  1.56998896599  -1.22107488314  2.09337282181  -3.15218907992  -1.57044583956  -0.181416813527  
1.02977514267  1.56998896599  -1.22111064592  2.09332513809  -3.15251237551  -1.57033759752  -0.181657139455  
1.03786206245  1.57000088692  -1.22113448778  2.09336090088  -3.15218907992  -1.57040959993  -0.181680981313  
1.04594993591  1.56997692585  -1.22112256685  2.09333705902  -3.15245277086  -1.57034999529  -0.181896988546  
1.05403995514  1.56997692585  -1.22112256685  2.09334897995  -3.15224868456  -1.57028991381  -0.181813065206  
1.06218099594  1.57001292706  -1.22108680407  2.09334897995  -3.15236884752  -1.57045776049  -0.181992832814  
1.07027101517  1.56997692585  -1.22111064592  2.09332513809  -3.15235692659  -1.57027799288  -0.182016674672  
1.07833909988  1.56996500492  -1.22111064592  2.09332513809  -3.15223676363  -1.57036191622  -0.182112518941  
1.08643913269  1.56997692585  -1.22111064592  2.09336090088  -3.15245277086  -1.57030183474  -0.182160202657  
1.09450101852  1.56998896599  -1.22113448778  2.09336090088  -3.15215284029  -1.57028991381  -0.18229228655  
1.10256409645  1.57000088692  -1.22108680407  2.09337282181  -3.15248853365  -1.57039767901  -0.182184521352  
1.11064910889  1.57001292706  -1.22108680407  2.09333705902  -3.15218907992  -1.57022983233  -0.182340447103  
1.11871004105  1.57000088692  -1.22108680407  2.09334897995  -3.15238076845  -1.57036191622  -0.182220284139  
1.12708711624  1.56995296478  -1.22111064592  2.09336090088  -3.15234500567  -1.57031375567  -0.182340447103  
1.13517212868  1.56997692585  -1.22112256685  2.09333705902  -3.15232068697  -1.57030183474  -0.182388607656  
1.14326691628  1.56995296478  -1.22107488314  2.09336090088  -3.15248853365  -1.57039767901  -0.182280365621  
1.15141606331  1.57001292706  -1.22113448778  2.09337282181  -3.15224868456  -1.5702179114  -0.182472530996  
1.15953207016  1.56997692585  -1.22111064592  2.09331321716  -3.15252477327  -1.57038575808  -0.182388607656  
1.16761994362  1.56995296478  -1.22113448778  2.09333705902  -3.15226108233  -1.5702179114  -0.182388607656  
1.17573213577  1.56996500492  -1.221098725  2.09333705902  -3.15245277086  -1.57031375567  -0.182484451924  
1.18384599686  1.56997692585  -1.221098725  2.09333705902  -3.15230876604  -1.57027799288  -0.182316605245  
1.19193792343  1.56998896599  -1.22107488314  2.09331321716  -3.15238076845  -1.57027799288  -0.182436291371  
1.20005297661  1.56994104385  -1.22112256685  2.09336090088  -3.15242845217  -1.57034999529  -0.182352368032  
1.2081990242  1.56997692585  -1.22107488314  2.09337282181  -3.15228492418  -1.57022983233  -0.18229228655  
1.21626591682  1.56997692585  -1.221098725  2.09330129623  -3.15251237551  -1.57039767901  -0.182400528585  
1.22443795204  1.56995296478  -1.22108680407  2.09332513809  -3.15223676363  -1.57028991381  -0.182196442281  
1.23252606392  1.57001292706  -1.22111064592  2.09336090088  -3.15245277086  -1.57027799288  -0.18229228655  
1.240639925  1.56997692585  -1.22111064592  2.09334897995  -3.15234500567  -1.57038575808  -0.182268444692  
1.24873900414  1.56996500492  -1.221098725  2.09333705902  -3.15254861513  -1.57026607195  -0.18212443987  
1.25681209564  1.56997692585  -1.22114688555  2.09336090088  -3.15226108233  -1.57038575808  -0.182304207479  
1.26487708092  1.56996500492  -1.22108680407  2.09336090088  -3.15245277086  -1.57038575808  -0.18212443987  
1.27294206619  1.56997692585  -1.221098725  2.09334897995  -3.15229684511  -1.57037383715  -0.182220284139  
1.28102707863  1.56997692585  -1.22112256685  2.09333705902  -3.15239268938  -1.57050496737  -0.18220836321  
1.28911614418  1.56998896599  -1.221098725  2.09332513809  -3.15241653124  -1.57030183474  -0.182100598012  
1.29720497131  1.57001292706  -1.22112256685  2.09334897995  -3.15238076845  -1.57044583956  -0.18220836321  
1.30523300171  1.56998896599  -1.2212899367  2.09330129623  -3.15242845217  -1.57030183474  -0.181920830403  
1.31338191032  1.56995296478  -1.2216017882  2.09316921234  -3.15228492418  -1.57030183474  -0.181896988546  
1.32144594193  1.56984472275  -1.22197276751  2.09295368195  -3.15250045458  -1.57017022768  -0.181513134633  
1.3295109272  1.56984472275  -1.22273856798  2.0926656723  -3.15230876604  -1.56995422045  -0.181032959615  
1.33760905266  1.56982076168  -1.22370845476  2.09234189987  -3.15254861513  -1.56975108782  -0.180349651967  
1.3457300663  1.56980884075  -1.22498876253  2.09177875519  -3.15236884752  -1.56937963167  -0.179366413747  
1.35379195213  1.56977283955  -1.2267130057  2.09113121033  -3.15240461031  -1.56904441515  -0.177999798452  
1.36185598373  1.56978487968  -1.22877151171  2.09029245377  -3.15216523806  -1.56852943102  -0.176428620015  
1.36991691589  1.56982076168  -1.23118955294  2.08926105499  -3.15212899843  -1.56793052355  -0.174509827291  
1.37797904015  1.56984472275  -1.23399097124  2.08815860748  -3.15173370043  -1.56723577181  -0.172207180654  
1.38607001305  1.56989300251  -1.23707896868  2.08691167831  -3.15135032335  -1.56648093859  -0.169509236013  
1.39416098595  1.56994104385  -1.24046689669  2.08559274673  -3.1506913344  -1.56565457979  -0.166463200246  
1.40229892731  1.57006084919  -1.24408179918  2.08415460587  -3.14986497561  -1.56478053728  -0.162973705922  
1.41043400764  1.57014477253  -1.24794799486  2.08262014389  -3.14878636995  -1.56384593645  -0.159148518239  
1.41854500771  1.5702406168  -1.25197011629  2.08108520508  -3.14745694796  -1.56287604967  -0.154963318502  
1.426623106  1.57042074203  -1.25613528887  2.07945537567  -3.14593488375  -1.56183416048  -0.150610272084  
1.43471193314  1.57050466537  -1.26034909884  2.0777888298  -3.14428216616  -1.56076842943  -0.14606553713  
1.44279909134  1.57056450844  -1.26465827623  2.07599020004  -3.1423051993  -1.55972606341  -0.141448799764  
1.45086407661  1.57073271275  -1.2689555327  2.07421636581  -3.14024478594  -1.55866033236  -0.13664037386  
1.4589600563  1.57079267502  -1.27324039141  2.07241773605  -3.13808805147  -1.55757028261  -0.131543938314  
1.46702504158  1.57085251808  -1.27741796175  2.07059526443  -3.13574010531  -1.55645686785  -0.126279656087  
1.47511696815  1.57090044022  -1.28163081804  2.06865358353  -3.13335591951  -1.55539065996  -0.120787445699  
1.48318099976  1.57085251808  -1.28568870226  2.06675958633  -3.13075668017  -1.55426484743  -0.115427319204  
1.491284132  1.57085251808  -1.28962690035  2.06481742859  -3.12803727785  -1.55323487917  -0.110175434743  
1.49934697151  1.57072067261  -1.29354077974  2.06271934509  -3.12529355684  -1.55219251314  -0.104911152517  
1.50744795799  1.57058846951  -1.29728681246  2.0607175827  -3.12246638933  -1.55117494265  -0.0995391050922  
1.51554703712  1.57048070431  -1.30090171496  2.05859565735  -3.11972314516  -1.5501926581  -0.0941551367389  
1.52364897728  1.57027697563  -1.30434924761  2.05647373199  -3.11683589617  -1.54927045504  -0.0889623800861  
1.53174805641  1.57000088692  -1.30772430102  2.05425548553  -3.11388904253  -1.5483601729  -0.0839141050922  
1.53981208801  1.56970095634  -1.31085998217  2.05192995071  -3.11095410982  -1.54748565355  -0.0791419188129  
1.5479080677  1.56932902336  -1.31386405626  2.04955625534  -3.10803109804  -1.54662305513  -0.0745251814472  
1.55600500107  1.56887364388  -1.31670076052  2.04697847366  -3.10513192812  -1.54586917559  -0.0699680487262  
1.56412100792  1.56832194328  -1.31933385531  2.04435300827  -3.10220891634  -1.54509050051  -0.0655553976642  
1.57219004631  1.56775796413  -1.32183581987  2.0415596962  -3.0991657416  -1.54435950914  -0.0612629095661  
1.58025407791  1.56709885597  -1.32414561907  2.03868246078  -3.09625465075  -1.54367715517  -0.0571854750263  
1.58829212189  1.56636703014  -1.32627565065  2.03563690186  -3.09315187136  -1.54309016863  -0.0533607641803  
1.59645795822  1.56562328339  -1.32832223574  2.03261613846  -3.09016925493  -1.54253942171  -0.0498712698566  
1.60452008247  1.56483197212  -1.3303454558  2.0294752121  -3.08736592928  -1.5419643561  -0.0466216246234  
1.61261892319  1.56410014629  -1.33220082918  2.02619028091  -3.08434707323  -1.54142600695  -0.0435875097858  
1.62074303627  1.5632969141  -1.33399564425  2.02280902863  -3.08129197756  -1.54095870653  -0.0407336393939  
1.62882709503  1.56249320507  -1.33581525484  2.01927280426  -3.07813007036  -1.54046756426  -0.0380952993976  
1.63692307472  1.5616774559  -1.33752614657  2.01562786102  -3.07507449785  -1.54007226626  -0.0356133619892  
1.64501810074  1.56087422371  -1.33930951754  2.01187562943  -3.07180387179  -1.53966504732  -0.0333831946002  
1.65308499336  1.56002223492  -1.34093791643  2.00807523727  -3.06846219698  -1.53936559359  -0.0313923994647  
1.66115093231  1.55929076672  -1.34266072909  2.00410652161  -3.06507188479  -1.53895837465  -0.029630009328  
1.66925001144  1.55846309662  -1.34431296984  2.00010251999  -3.06153804461  -1.53862315813  -0.0280111471759  
1.67735791206  1.55769574642  -1.34597617785  1.99596595764  -3.05796844164  -1.53827554384  -0.0266440550434  
1.68542408943  1.5562325716  -1.34933978716  1.98750162125  -3.05045730272  -1.53765279451  -0.0245459715473  
1.69348907471  1.55556106567  -1.35100299517  1.98318576813  -3.04649192492  -1.53728181521  -0.0237658659564  
1.70157599449  1.55487716198  -1.35269099871  1.97931289673  -3.04252702395  -1.53701812426  -0.0231183210956  
1.7096619606  1.55424165726  -1.35442573229  1.97452878952  -3.03835803667  -1.53667050997  -0.0226872603046  
1.71774697304  1.55360615253  -1.35623294512  1.96998500824  -3.03399736086  -1.53643161455  -0.022363011037  
1.72584295273  1.55305445194  -1.35804015795  1.96542930603  -3.02948171297  -1.53617984453  -0.0222075621234  
1.73396396637  1.55247843266  -1.35991889635  1.96077728271  -3.02506095568  -1.53591663042  -0.0222075621234  
1.74205303192  1.55199873447  -1.36175042788  1.95611333847  -3.02043706576  -1.53560477892  -0.0223272482501  
1.75017905235  1.55151939392  -1.36370116869  1.95146131516  -3.01559764544  -1.53531772295  -0.0226028601276  
1.75837397575  1.55105125904  -1.36557990709  1.94670152664  -3.01088983217  -1.53499395052  -0.0229027907001  
1.76646399498  1.55065536499  -1.36751872698  1.9419054985  -3.00582248369  -1.53468257586  -0.0232384840595  
1.77455091476  1.55025994778  -1.36949426333  1.9371213913  -3.00074416796  -1.53439504305  -0.0236819426166  
1.78263092041  1.54989957809  -1.37154037157  1.93234920502  -2.99552089373  -1.5340235869  -0.0241740385639  
1.7907500267  1.54960036278  -1.37357503573  1.9275894165  -2.99035770098  -1.53367644945  -0.0246775786029  
1.79883599281  1.54934835434  -1.37564546267  1.92274522781  -2.98491937319  -1.53334123293  -0.0253012816059  
1.80692505836  1.54907274246  -1.37769204775  1.91788959503  -2.97951728502  -1.53297025362  -0.0260084311115  
1.81501412392  1.54878473282  -1.37982207934  1.91296195984  -2.97398263613  -1.5326107184  -0.0266802946674  
1.8231151104  1.54859256744  -1.3819530646  1.90800952911  -2.96832877794  -1.53213149706  -0.027435604726  
1.83121991158  1.5484367609  -1.38414270083  1.90302181244  -2.9626510779  -1.53166467348  -0.0282147566425  
1.83937311172  1.54831695557  -1.38632089296  1.89809370041  -2.95687705675  -1.53113776842  -0.0289705435382  
1.847438097  1.54813683033  -1.3886068503  1.89315366745  -2.95089990297  -1.53062230745  -0.0297859350788  
1.85552811623  1.54805290699  -1.39089280764  1.88826131821  -2.9449227492  -1.52999955813  -0.0305894056903  
1.86364793777  1.54795706272  -1.39326221148  1.88339328766  -2.93871766726  -1.5293768088  -0.0314043203937  
1.87171602249  1.54778933525  -1.39567977587  1.87850093842  -2.93248874346  -1.52874261538  -0.0322082678424  
1.87978005409  1.54764544964  -1.39814502398  1.87362146378  -2.9263680617  -1.52802354494  -0.03297549883  
1.88787794113  1.54751360416  -1.400765721  1.86877679825  -2.91997176806  -1.52720910708  -0.0337188879596  
1.89596700668  1.5473934412  -1.403363053  1.86404085159  -2.91368276278  -1.52639466921  -0.0345585981952  
1.90403294563  1.54724955559  -1.406127278  1.85926818848  -2.90717870394  -1.52554446856  -0.0352538267719  
1.91215610504  1.54714179039  -1.40889197985  1.85455608368  -2.90039951006  -1.52455073992  -0.0360210577594  
1.92022395134  1.54694962502  -1.41172820727  1.8498673439  -2.89381105105  -1.52350885073  -0.0366805235492  
1.93107891083  1.54673349857  -1.4146121184  1.84517908096  -2.88710338274  -1.52245456377  -0.037351910268  
1.93918204308  1.54648184776  -1.4175084273  1.84058666229  -2.88041955629  -1.52131730715  -0.0380476156818  
1.94727706909  1.54614591599  -1.42052394549  1.83602952957  -2.8736875693  -1.52020293871  -0.0386350790607  
1.95538902283  1.54581034184  -1.42351609865  1.83161735535  -2.86690837542  -1.51887351671  -0.0391629377948  
1.96349000931  1.54533064365  -1.42661506334  1.82721662521  -2.85998469988  -1.51761609713  -0.0396664778339  
1.97158694267  1.54467070103  -1.42983466784  1.82283973694  -2.85313350359  -1.51629859606  -0.040158096944  
1.97971010208  1.54390335083  -1.43304187456  1.81852293015  -2.84603006044  -1.51492101351  -0.0405657927143  
1.9878051281  1.5428839922  -1.4364288489  1.81424188614  -2.83886748949  -1.51360398928  -0.0408895651447  
1.99589300156  1.54172074795  -1.43988734881  1.81012868881  -2.831908528  -1.51216680208  -0.0413449446308  
2.00400996208  1.5403534174  -1.44344073931  1.80612373352  -2.82468587557  -1.51077777544  -0.0416210333454  
2.01214504242  1.53874599934  -1.44699556032  1.80215501785  -2.8175590674  -1.50938827196  -0.0419567267047  
2.02034902573  1.53694725037  -1.45064479509  1.79842567444  -2.8103368918  -1.50799876848  -0.0422084967243  
2.028414011  1.53487253189  -1.45428306261  1.7947678566  -2.80310231844  -1.50657397905  -0.042376343404  
2.03650903702  1.5325101614  -1.45806485811  1.79126644135  -2.79571229616  -1.50529224077  -0.0426161924945  
2.04465198517  1.52989530563  -1.46188193956  1.78792095184  -2.7885611693  -1.50407106081  -0.0427482763873  
2.05278205872  1.52705323696  -1.46580726305  1.78476667404  -2.78124314943  -1.50280124346  -0.0428560415851  
2.06090497971  1.52407848835  -1.46979219118  1.78176927567  -2.77385312716  -1.50160342852  -0.0429518858539  
2.06902909279  1.52091240883  -1.47393256823  1.77896308899  -2.76654655138  -1.50051385561  -0.042916123067  
2.07713794708  1.51750659943  -1.47806102434  1.77628898621  -2.75938445727  -1.49951965014  -0.0430000464069  
2.08523511887  1.51389682293  -1.48239261309  1.7738904953  -2.75200635592  -1.49858600298  -0.0430238882648  
2.09342002869  1.50574183464  -1.49118787447  1.76982545853  -2.73770505587  -1.49690896669  -0.042928043996  
2.10151791573  1.50113618374  -1.49569970766  1.76814603806  -2.73060304323  -1.49633390108  -0.0428803602802  
2.10961508751  1.49625527859  -1.50027066866  1.76664733887  -2.72364455858  -1.49577123324  -0.0427363554584  
2.11767601967  1.49121844769  -1.50484115282  1.76537656784  -2.71669704119  -1.49541217486  -0.0427244345294  
2.12579512596  1.4860855341  -1.50944835344  1.76421356201  -2.70981055895  -1.49512464205  -0.0425680319415  
2.13385796547  1.48082065582  -1.51403171221  1.76340961456  -2.70300752321  -1.49493295351  -0.0424721876728  
2.14192008972  1.47536408901  -1.51866227785  1.76272583008  -2.69651633898  -1.49493295351  -0.0424364248859  
2.1500351429  1.46967983246  -1.52326900164  1.76222276688  -2.69002467791  -1.49501687685  -0.0422204176532  
2.15812706947  1.46374356747  -1.52788812319  1.76193523407  -2.68364078203  -1.49518424669  -0.0421727339374  
2.16623497009  1.45755517483  -1.53243476549  1.76181459427  -2.67758018175  -1.49548417727  -0.0420287291156  
2.17440295219  1.45136713982  -1.53693420092  1.76187467575  -2.67153197924  -1.49580699602  -0.0420168081867  
2.182502985  1.44503545761  -1.54132539431  1.76210260391  -2.66584331194  -1.49633390108  -0.041752640401  
2.1905670166  1.43830811977  -1.54569322268  1.76242685318  -2.66046554247  -1.49690896669  -0.041752640401  
2.19866514206  1.43152058125  -1.54991704622  1.76292991638  -2.65509969393  -1.49767572085  -0.0415490309345  
2.2070889473  1.42464911938  -1.55399734179  1.76350593567  -2.64996177355  -1.49865705172  -0.0415852705585  
2.21821808815  1.41777765751  -1.55794555346  1.76426124573  -2.64506322542  -1.49968749682  -0.0413811842548  
2.22639608383  1.41075074673  -1.56181079546  1.76514863968  -2.64035636583  -1.50088531176  -0.0413811842548  
2.23449993134  1.4032677412  -1.56557923952  1.76614427567  -2.63599712053  -1.50231010119  -0.04118901888  
2.24258613586  1.39585697651  -1.56920463244  1.76722288132  -2.63190108935  -1.50385553042  -0.0410454908954  
2.25067591667  1.38848221302  -1.57263929049  1.76838636398  -2.62812835375  -1.5054362456  -0.0409134070026  
2.25877404213  1.38104748726  -1.57595378557  1.7697057724  -2.624522988  -1.50714856783  -0.0407460371601  
2.26686310768  1.37330079079  -1.57916051546  1.77108478546  -2.62109786669  -1.50902921358  -0.0405414740192  
2.27496194839  1.36549460888  -1.58222324053  1.77246332169  -2.61810380617  -1.51100522677  -0.0403860251056  
2.2831029892  1.35780823231  -1.58520299593  1.77395009995  -2.61534911791  -1.51310092608  -0.0402300993549  
2.29120492935  1.34999001026  -1.58803874651  1.77550983429  -2.6127260367  -1.51525670687  -0.0400260130512  
2.29935407639  1.34201598167  -1.59076673189  1.77721214294  -2.61036712328  -1.51747256914  -0.0398343245136  
2.30744099617  1.33393418789  -1.59339839617  1.77871131897  -2.60830718676  -1.51979571978  -0.0396783987628  
2.3155400753  1.32608032227  -1.59589940706  1.78034210205  -2.60651046435  -1.52223855654  -0.0393307844745  
2.3236310482  1.31813037395  -1.59824449221  1.78205680847  -2.60489398638  -1.52477819124  -0.039042774831  
2.33169412613  1.30988073349  -1.60056573549  1.78381967545  -2.60352832476  -1.52732927004  -0.0385993162738  
2.33978796005  1.30158305168  -1.60271960894  1.78551054001  -2.6022828261  -1.52990371386  -0.0381553808795  
2.34790706635  1.29368138313  -1.6047056357  1.78709316254  -2.6012766997  -1.53255063692  -0.0376036802875  
2.3559679985  1.28579199314  -1.60664397875  1.78884410858  -2.60048658053  -1.53531772295  -0.0369804541217  
2.36406612396  1.27748286724  -1.60859424273  1.79063081741  -2.5998395125  -1.53802425066  -0.0362847487079  
2.37215995789  1.26928150654  -1.61038905779  1.79222536087  -2.59940845171  -1.54098254839  -0.0354931990253  
2.38025093079  1.26126027107  -1.6121357123  1.79376077652  -2.59907323519  -1.5439046065  -0.0346186796771  
2.38837909698  1.25304734707  -1.6138346831  1.79533147812  -2.59890538851  -1.54691106478  -0.0337069670307  
2.39648103714  1.24465429783  -1.61544973055  1.79697465897  -2.59888154665  -1.54995280901  -0.0326641241657  
2.40456795692  1.23638141155  -1.61694556872  1.7983417511  -2.5989411513  -1.55305511156  -0.0315488020526  
2.41265797615  1.22834825516  -1.6182978789  1.79961252213  -2.59908515612  -1.55621701876  -0.0303495565998  
2.4207201004  1.22017121315  -1.61957770983  1.80101537704  -2.59936029116  -1.55933124224  -0.0290306250202  
2.42881011963  1.21164679527  -1.62078649202  1.8023223877  -2.59969550768  -1.56254035631  -0.0276511351215  
2.43908309937  1.1954253912  -1.62280828158  1.80446910858  -2.60054618517  -1.56911594072  -0.0246894995319  
2.44718909264  1.18704533577  -1.62370568911  1.80550050735  -2.60102492968  -1.57250577608  -0.0231183210956  
2.45531892776  1.17843699455  -1.62449533144  1.80642366409  -2.60153991381  -1.57593089739  -0.0214760939228  
2.46341300011  1.17021274567  -1.6252134482  1.80714321136  -2.6021750609  -1.57930881182  -0.0197852293598  
2.47151112556  1.16220474243  -1.62578756014  1.80789852142  -2.60279781023  -1.58265048662  -0.018046681081  
2.47963500023  1.15388429165  -1.62630206743  1.80860614777  -2.60342055956  -1.58615953127  -0.0163796583759  
2.48772311211  1.14546835423  -1.6268046538  1.80914592743  -2.60404378573  -1.5896452109  -0.014604870473  
2.49578595161  1.13744831085  -1.62713987032  1.80954170227  -2.60478574434  -1.59308272997  -0.0128062407123  
2.50386500359  1.12933194637  -1.62739068667  1.80986499786  -2.6054447333  -1.59657985369  -0.0109956900226  
2.51195192337  1.12096440792  -1.62757045427  1.81021261215  -2.60606700579  -1.60014897982  -0.00911313692202  
2.52001595497  1.11264467239  -1.62772638003  1.81036901474  -2.60670215288  -1.6037662665  -0.0072549025165  
2.52808094025  1.10475647449  -1.6277735869  1.81036901474  -2.60733682314  -1.60729962984  -0.0053599516498  
2.53616905212  1.09679663181  -1.6276901404  1.81033277512  -2.60792333284  -1.61084491411  -0.00351363817324  
2.54426598549  1.08865642548  -1.62760621706  1.81032037735  -2.60847503344  -1.61440211931  -0.00164300600161  
2.5523660183  1.08054077625  -1.62752229372  1.80998516083  -2.6090019385  -1.61797172228  0.000203731833608  
2.56041407585  1.07291698456  -1.62718755404  1.80961370468  -2.60954076449  -1.62148076693  0.00203844183125  
2.56851196289  1.06535303593  -1.6268881003  1.80925369263  -2.60992366472  -1.62488300005  0.00375293497927  
2.57663702965  1.05748915672  -1.62655336062  1.80884599686  -2.6101992766  -1.62841636339  0.00549177126959  
2.58469891548  1.04987728596  -1.62614661852  1.80824613571  -2.61053449312  -1.63198596636  0.00712237507105  
2.59281802177  1.04261302948  -1.62556058565  1.8074669838  -2.6107023398  -1.63553125063  0.00875335279852  
2.6009209156  1.0355168581  -1.62497407595  1.80666351318  -2.61078626314  -1.63901693026  0.0103000672534  
2.60901403427  1.02821660042  -1.62431604067  1.80582427979  -2.61080962816  -1.64243060747  0.0117992190644  
2.61711001396  1.02119231224  -1.62353831926  1.80474472046  -2.61082202593  -1.64595204989  0.0132376998663  
2.62522912025  1.01447999477  -1.62266475359  1.80352163315  -2.61058265368  -1.64943772951  0.0145806828514  
2.63340902328  1.0080909729  -1.62171966234  1.80234670639  -2.610414807  -1.6528394858  0.0158517602831  
2.64150691032  1.00161838531  -1.62061864534  1.80112361908  -2.61015159289  -1.65620500246  0.0170868840069  
2.64960503578  0.9952891469  -1.61938649813  1.79964828491  -2.60981589953  -1.65955907503  0.0183339919895  
2.65770792961  0.989116132259  -1.61803418795  1.79796981812  -2.60949260393  -1.66280490557  0.0194972101599  
2.66579699516  0.983410537243  -1.61657506624  1.79629087448  -2.60898954073  -1.66609937349  0.0206364616752  
2.67389202118  0.978076815605  -1.61489993731  1.79461240768  -2.60841495195  -1.66927320162  0.0217277742922  
2.68202590942  0.972946822643  -1.61311704317  1.79274129868  -2.60777980486  -1.67237550417  0.0227224659175  
2.69015693665  0.967792451382  -1.61119062105  1.79071474075  -2.60712129274  -1.67534619967  0.0237059202045  
2.69826698303  0.962878167629  -1.60922843615  1.78849601746  -2.60651046435  -1.67822105089  0.0246170964092  
2.70635008812  0.958239912987  -1.6069911162  1.786277771  -2.60576802889  -1.68106013933  0.0254443828017  
2.7144370079  0.954068660736  -1.6045978705  1.78393936157  -2.60489398638  -1.6837070624  0.026248075068  
2.72253203392  0.950125098228  -1.60204917589  1.78142118454  -2.60410339037  -1.68630630175  0.027015440166  
2.73065400124  0.946469545364  -1.59932119051  1.77874755859  -2.60325271288  -1.68875009218  0.0276869311929  
2.73874211311  0.943101584911  -1.59642631212  1.77602529526  -2.60246211687  -1.69119340578  0.0282505638897  
2.74680614471  0.939997315407  -1.59331494967  1.77317142487  -2.60155183474  -1.69340974489  0.0287902280688  
2.75490498543  0.937084794044  -1.59001285235  1.7702088356  -2.60072595278  -1.69556600252  0.0292699728161  
2.76299309731  0.934435904026  -1.58651906649  1.76713895798  -2.59986335436  -1.6976740996  0.0297253727913  
2.77110910416  0.932002723217  -1.58278590838  1.76402139664  -2.59897739092  -1.69959050814  0.0300972573459  
2.77918791771  0.929881513119  -1.57896882692  1.76092720032  -2.59805471102  -1.70138723055  0.0304691437632  
2.78729701042  0.928095459938  -1.57505637804  1.75759363174  -2.59722882906  -1.70310002962  0.0307807326317  
2.79540014267  0.926681339741  -1.57099992434  1.75421190262  -2.59629422823  -1.70468169848  0.0309844650328  
2.80346298218  0.925482571125  -1.56685954729  1.75077056885  -2.59553987185  -1.7061064879  0.0311885718256  
2.81155204773  0.92451184988  -1.5625761191  1.74728107452  -2.59477359453  -1.70746070543  0.0313563495874  
2.81964802742  0.923756837845  -1.55814916292  1.74370718002  -2.5941508452  -1.70868236223  0.0315001606941  
2.82770991325  0.923145592213  -1.5535548369  1.74016952515  -2.59345609346  -1.70980817476  0.031512144953  
2.83580899239  0.922714173794  -1.54885226885  1.73649978638  -2.59280902544  -1.71086246172  0.0316795520484  
2.8439309597  0.92242616415  -1.54417306582  1.73291397095  -2.59228259722  -1.71168882052  0.0316316150129  
2.85205101967  0.922390639782  -1.53937513033  1.7292804718  -2.59171945253  -1.71257526079  0.0316675677896  
2.8601911068  0.922498106956  -1.5345175902  1.72555112839  -2.59128839174  -1.7132580916  0.0316555835307  
2.86828708649  0.922774136066  -1.52953893343  1.72166585922  -2.59101277987  -1.71382123629  0.0316076464951  
2.8764090538  0.923145592213  -1.52512342135  1.71782827377  -2.59085685412  -1.71437246004  0.0315237566829  
2.88449907303  0.92358905077  -1.51966745058  1.71396636963  -2.59070188204  -1.71477967898  0.0314881764352  
2.89262008667  0.924104332924  -1.51452190081  1.71012878418  -2.59067804018  -1.71506721178  0.0313923023641  
2.90068292618  0.92476350069  -1.50929290453  1.7062792778  -2.59066564242  -1.7154024283  0.0313443653286  
2.90874695778  0.925482571125  -1.5040157477  1.70247745514  -2.59088069597  -1.71558219591  0.0312365088612  
2.91686606407  0.926405727863  -1.49871474901  1.69866371155  -2.59108478228  -1.71567804018  0.031152619049  
2.92495393753  0.927376449108  -1.4932940642  1.69477844238  -2.59136039415  -1.71575004259  0.0310324020684  
2.93304109573  0.928299188614  -1.48787337938  1.69085693359  -2.59182721773  -1.71575004259  0.0309365279973  
2.94116091728  0.929317891598  -1.48247653643  1.68705511093  -2.59230643908  -1.71570188204  0.0308885909617  
2.94922709465  0.930384814739  -1.47712785402  1.68325328827  -2.59292918841  -1.71564180056  0.0307208131999  
2.95736694336  0.932674229145  -1.46660930315  1.67569828033  -2.59448606173  -1.71541434923  0.0304088480771  
2.96545910835  0.933980464935  -1.46126014391  1.67202854156  -2.59536010424  -1.71534234682  0.0303609110415  
2.97354602814  0.935323119164  -1.45598298708  1.66841840744  -2.59630614916  -1.71513873736  0.030049322173  
2.98164391518  0.936605393887  -1.4507411162  1.66488075256  -2.59728843371  -1.7150071303  0.0299055110663  
2.98970603943  0.937959611416  -1.4455836455  1.66139125824  -2.59835464159  -1.71481544176  0.0296774357557  
2.99780511856  0.939338207245  -1.44052154223  1.65787696838  -2.59951621691  -1.71464759508  0.0294856876135  
3.00587105751  0.940740346909  -1.43545896212  1.65439891815  -2.60072595278  -1.71438438097  0.0293538607657  
3.01400995255  0.942178845406  -1.43058854738  1.6509809494  -2.60199529329  -1.71420461336  0.0291377715766  
3.02209091187  0.943676829338  -1.42570621172  1.64757537842  -2.60332471529  -1.71390515963  0.0290538817644  
3.03015708923  0.945187211037  -1.42094260851  1.64426469803  -2.60457021395  -1.71371347109  0.0288980863988  
3.03822207451  0.946697235107  -1.41622764269  1.64105081558  -2.60588771502  -1.71343785921  0.0287422910333  
3.04633498192  0.948315501213  -1.41164428393  1.63787221909  -2.6072772185  -1.71311456362  0.0286104660481  
3.05443406105  0.949993669987  -1.40713292757  1.63475465775  -2.60870200792  -1.7128627936  0.0284183435142  
3.06253194809  0.951659440994  -1.40270454088  1.63165998459  -2.61013967196  -1.71259910265  0.0283104851842  
3.07062101364  0.953421533108  -1.39831239382  1.62860202789  -2.61149245897  -1.71222812334  0.0281786583364  
3.07871794701  0.95525509119  -1.39413577715  1.62559127808  -2.61294204393  -1.71190435091  0.0280827842653  
3.08681297302  0.957125008106  -1.38997108141  1.62271356583  -2.61425906817  -1.71146136919  0.0279146302491  
3.09492897987  0.959006905556  -1.38599807421  1.61988306046  -2.61563665072  -1.71105415026  0.0278307422996  
3.10301208496  0.961104512215  -1.38213187853  1.61704063416  -2.61696607271  -1.7106106917  0.0277108997107  
3.11111402512  0.963226139545  -1.37838584581  1.61429405212  -2.61816388765  -1.71009618441  0.0276989154518  
3.11917996407  0.965431571007  -1.37477237383  1.61154699326  -2.61945707003  -1.70958072344  0.0275790728629  
3.12732195854  0.967732548714  -1.37116939226  1.60894536972  -2.62072641054  -1.70905381838  0.0276150256395  
3.13540196419  0.970010280609  -1.36769897143  1.6063785553  -2.62186462084  -1.70853883425  0.0274352617562  
3.14351701736  0.972287297249  -1.36426383654  1.60379981995  -2.62299043337  -1.7079632918  0.0275311358273  
3.15158104897  0.974636614323  -1.36096078554  1.60124540329  -2.62400800387  -1.7073524634  0.0273633562028  
3.15967011452  0.976950287819  -1.35777694384  1.59879875183  -2.6249426047  -1.70669395128  0.0274232774973  
3.16776013374  0.979395091534  -1.35470134417  1.59637594223  -2.62588864962  -1.70598727862  0.027351371944  
3.1758389473  0.981888532639  -1.35172111193  1.59400129318  -2.62673932711  -1.70522052446  0.0272431392223  
3.18389892578  0.984465539455  -1.3489206473  1.59167432785  -2.62762529055  -1.70444184939  0.0273274034262  
3.19198894501  0.987186312675  -1.34614354769  1.58931159973  -2.62841588656  -1.70362741152  0.0271592512727  
3.2001209259  0.990002989769  -1.34342652956  1.58700895309  -2.62914592425  -1.7027648131  0.0272551234812  
3.2081580162  0.992915511131  -1.34075814882  1.5847659111  -2.62975722948  -1.70187837282  0.0271352827549  
3.21626210213  0.995912313461  -1.33819705645  1.58258342743  -2.63039189974  -1.70094424883  0.0271472670138  
3.22435712814  0.999017000198  -1.3357313315  1.58046007156  -2.63093072573  -1.700009648  0.0272431392223  
3.23248100281  1.00226545334  -1.33325416247  1.57843351364  -2.63136226336  -1.69890815416  0.0270633772016  
3.24054598808  1.00539374352  -1.33090812365  1.57639455795  -2.63178092638  -1.6978653113  0.0272071864456  
3.24860906601  1.00865375996  -1.32872945467  1.57436752319  -2.63227206865  -1.69667941729  0.0271113142371  
3.25673007965  1.01187837124  -1.32661134401  1.57242441177  -2.63263160387  -1.69550592104  0.0271952040493  
3.26482605934  1.01518714428  -1.32456428209  1.57046937943  -2.63291865984  -1.69424850145  0.0271472670138  
3.27289795876  1.0186150074  -1.32267314592  1.56852674484  -2.63320666948  -1.69293100039  0.0270753614604  
3.28102397919  1.02223527431  -1.32079393068  1.56658363342  -2.63350612322  -1.69162446657  0.0271952040493  
3.28915810585  1.02599906921  -1.31892711321  1.56466436386  -2.63362533251  -1.69015151659  0.0270993299782  
3.29725003242  1.02994263172  -1.31725150744  1.56287765503  -2.63380510012  -1.6885822455  0.0272551234812  
3.30539798737  1.03406596184  -1.31552821795  1.56112670898  -2.63388902346  -1.68703729311  0.0272071864456  
3.31349492073  1.03827357292  -1.31390029589  1.55930328369  -2.63398486773  -1.68537217775  0.0271472670138  
3.32161092758  1.04246914387  -1.31240398089  1.55762434006  -2.63392478624  -1.68357545534  0.027351371944  
3.32975006104  1.04659283161  -1.31090766588  1.55584955215  -2.63391286532  -1.68179065386  0.0272071864456  
3.33786296844  1.0508723259  -1.3094475905  1.5541100502  -2.63382894198  -1.6798265616  0.0273633562028  
3.34598612785  1.0552713871  -1.30813104311  1.5524187088  -2.63372165362  -1.67789727846  0.0273154191673  
3.35405397415  1.05991077423  -1.30682641665  1.55066776276  -2.63366157213  -1.67593318621  0.0272311549634  
3.36220908165  1.06482541561  -1.30565339724  1.54897642136  -2.63343412081  -1.67383701006  0.0273873247206  
3.37036991119  1.06988382339  -1.3044684569  1.54723739624  -2.63339835802  -1.67169267336  0.0272431392223  
3.37845206261  1.07501459122  -1.30341512362  1.54551029205  -2.63315850893  -1.66947681109  0.0273633562028  
3.38655209541  1.08016932011  -1.30240995089  1.54373502731  -2.63299066225  -1.6671889464  0.0273993089795  
3.39461493492  1.08544385433  -1.30142862002  1.54200839996  -2.63269120852  -1.66491300264  0.0272790919989  
3.40271306038  1.09092211723  -1.30043441454  1.54018497467  -2.63232022921  -1.66254169146  0.027459230274  
3.41083097458  1.09658062458  -1.29947740236  1.53837394714  -2.63206893602  -1.66009790102  0.0272910762578  
3.41898107529  1.10225057602  -1.2985680739  1.53646707535  -2.63164979616  -1.65766650835  0.0274352617562  
3.42704796791  1.10806488991  -1.29772979418  1.53455972672  -2.63120633761  -1.6550915877  0.027351371944  
3.43511414528  1.11392700672  -1.29685622851  1.53267669678  -2.63072711626  -1.65258771578  0.0274472460151  
3.4433119297  1.12005317211  -1.29600602785  1.53072166443  -2.63021213213  -1.64998847643  0.0274951830506  
3.45142197609  1.12619102001  -1.29510909716  1.52880239487  -2.62956554094  -1.64723378817  0.027351371944  
3.45951700211  1.13244867325  -1.29425841967  1.526907444  -2.6288951079  -1.64457446734  0.0275191515684  
3.46758413315  1.13874292374  -1.29349261919  1.52490472794  -2.62823611895  -1.6418317  0.0273753404617  
3.47569108009  1.14503693581  -1.29273873964  1.52291345596  -2.62749320665  -1.63898069063  0.0273633562028  
3.48378896713  1.15159451962  -1.29191285769  1.5209107399  -2.62672692934  -1.63614207903  0.0273274034262  
3.49189114571  1.1582120657  -1.29114658037  1.51902770996  -2.62586480776  -1.63325530687  0.0271352827549  
3.50001311302  1.16488993168  -1.29033309618  1.51718044281  -2.62493068377  -1.63032132784  0.0272311549634  
3.50812911987  1.17148351669  -1.28956681887  1.51527357101  -2.62397224108  -1.62738591829  0.0269555188715  
3.51625609398  1.17812538147  -1.28878909746  1.51335430145  -2.62306243578  -1.62439138094  0.0269315503538  
3.52435207367  1.18501889706  -1.28803474108  1.51145887375  -2.62203246752  -1.62143308321  0.0265956167132  
3.53241705894  1.19208061695  -1.28723270098  1.50968408585  -2.62103778521  -1.6183069388  0.0262600593269  
3.54050898552  1.19893825054  -1.28639489809  1.50786113739  -2.62002021471  -1.61509687105  0.0259121414274  
3.54859805107  1.20580816269  -1.28565246264  1.50606155396  -2.61897832552  -1.61194688479  0.0255166627467  
3.55668592453  1.21301364899  -1.2848628203  1.50417852402  -2.61797172228  -1.60878450075  0.0250608883798  
3.56475806236  1.22025549412  -1.28404885927  1.50246334076  -2.61682254473  -1.60558683077  0.0244972538203  
3.57286405563  1.22754490376  -1.28324729601  1.50088024139  -2.61570817629  -1.60224515596  0.0238617155701  
3.58095097542  1.23471486568  -1.28252870241  1.49918889999  -2.61463052431  -1.59893924395  0.0231782402843  
3.58905100822  1.24186050892  -1.28183490435  1.49744987488  -2.61346894899  -1.5957291762  0.022411249578  
3.59712791443  1.24922251701  -1.28108054796  1.49580669403  -2.61239082018  -1.59255534807  0.0216075573117  
3.60519313812  1.25663220882  -1.28033811251  1.49424695969  -2.61116916338  -1.5893333594  0.0205765403807  
3.61331892014  1.27158355713  -1.27892619768  1.49097299576  -2.60880977312  -1.58273440996  0.0183339919895  
3.62141609192  1.27912545204  -1.27829152742  1.48931789398  -2.60752851168  -1.57947618166  0.0170269627124  
3.62948393822  1.28681147099  -1.27759725252  1.48774623871  -2.60628301302  -1.57607442537  0.0156360436231  
3.63754701614  1.29431724548  -1.27697498003  1.48612689972  -2.60507327715  -1.57273322741  0.0141249075532  
3.6456360817  1.30179917812  -1.27640039126  1.48447179794  -2.60385209719  -1.56931955019  0.0124227730557  
3.6537361145  1.30950915813  -1.2758620421  1.48284053802  -2.60264188448  -1.56597835222  0.0106719527394  
3.6618001461  1.31735098362  -1.27534705797  1.48124551773  -2.60126477877  -1.56261235872  0.00869343150407  
3.66990709305  1.32507288456  -1.27482062975  1.47971010208  -2.60003120104  -1.55921107927  0.00653477339074  
3.67801094055  1.33279526234  -1.2743657271  1.47803068161  -2.5987256209  -1.55576211611  0.00426863133907  
3.68607401848  1.34068500996  -1.27388650576  1.47636365891  -2.59737235705  -1.55226451555  0.00191859959159  
3.6941781044  1.34870696068  -1.27345544497  1.47473239899  -2.59587508837  -1.54885131518  -0.000623528157369  
3.70224094391  1.35648918152  -1.2730363051  1.4733171463  -2.59450990358  -1.5454137961  -0.0033338705646  
3.71033096313  1.36422348022  -1.27266580263  1.4717335701  -2.59312087694  -1.54201251665  -0.00619918504824  
3.71839308739  1.37198185921  -1.27229434649  1.4701385498  -2.59171945253  -1.53856307665  -0.00919706026186  
3.72649312019  1.37982439995  -1.27190000216  1.4686870575  -2.590198342  -1.53519803682  -0.0120871702777  
3.73459005356  1.38751077652  -1.27158862749  1.46721124649  -2.58874971071  -1.53184444109  -0.0150845686542  
3.74267911911  1.39519751072  -1.27133685747  1.46576023102  -2.58739597002  -1.52853852907  -0.0181544462787  
3.75079393387  1.40293216705  -1.27109796206  1.46415281296  -2.58593494097  -1.5253050963  -0.0213435331928  
3.75888991356  1.41093015671  -1.27085811297  1.46274995804  -2.58448583284  -1.52191573778  -0.0247133413898  
3.76697802544  1.41858100891  -1.27065498034  1.46131038666  -2.58292848269  -1.51858598391  -0.0281789938556  
3.77508592606  1.42610001564  -1.27049953142  1.45983505249  -2.58146745363  -1.51532823244  -0.0317042509662  
3.78317308426  1.43382298946  -1.2703798453  1.45827579498  -2.5800426642  -1.51204711596  -0.035266224538  
3.79131007195  1.44166564941  -1.27026015917  1.45681238174  -2.57859307924  -1.50878936449  -0.0389588514911  
3.79938197136  1.44923293591  -1.27013999621  1.45534896851  -2.57710820833  -1.50553161303  -0.0425923506366  
3.80748391151  1.45659601688  -1.27009231249  1.4538974762  -2.57565910021  -1.5023821036  -0.0460336844074  
3.81558299065  1.46405518055  -1.26999694506  1.4523024559  -2.57431728045  -1.4992445151  -0.0495236555683  
3.82364606857  1.47137069702  -1.26997262636  1.45074272156  -2.57291633288  -1.49613029162  -0.0530007521259  
3.83174204826  1.47867405415  -1.26991302172  1.44918394089  -2.57150346438  -1.4930284659  -0.0565617720233  
3.8398411274  1.48582148552  -1.26988870302  1.44758844376  -2.57016212145  -1.48996240297  -0.060111347829  
3.84790492058  1.49290943146  -1.26998454729  1.44592094421  -2.56886846224  -1.48688489596  -0.0636847654926  
3.8559679985  1.4999370575  -1.26994878451  1.44423007965  -2.56762296358  -1.48387891451  -0.0671861807453  
3.86403012276  1.50697696209  -1.26998454729  1.44243049622  -2.56623393694  -1.48089677492  -0.0708320776569  
3.87211704254  1.51370465755  -1.27006847063  1.44071531296  -2.56495219866  -1.47797471682  -0.0742490927326  
3.88018202782  1.52032482624  -1.27009231249  1.43885660172  -2.56371862093  -1.47501689592  -0.0774992148029  
3.88827896118  1.52683711052  -1.27015191713  1.43704509735  -2.56250888506  -1.47221452395  -0.080664459859  
3.89634799957  1.53340935707  -1.27022391955  1.43520975113  -2.56125146547  -1.46937591234  -0.0838063398944  
3.90444493294  1.53978979588  -1.27031976381  1.43347072601  -2.55998212496  -1.46675283114  -0.0869839827167  
3.91250896454  1.54584634304  -1.27039176622  1.43156385422  -2.55878431002  -1.46414214769  -0.090101544057  
3.92057013512  1.55174672604  -1.27055913607  1.42970371246  -2.55768281618  -1.46150809923  -0.0931714216815  
3.92863702774  1.55758750439  -1.27072698275  1.42783308029  -2.55647308031  -1.45896894137  -0.0962055365192  
3.93670201302  1.5633327961  -1.27079898516  1.42605781555  -2.55540687243  -1.45648986498  -0.0992272535907  
3.94476103783  1.56889760494  -1.27101403872  1.42429447174  -2.55430537859  -1.45409471193  -0.102200810109  
3.95282697678  1.57428264618  -1.27118140856  1.42260313034  -2.5532391707  -1.45178348223  -0.104983154927  
3.96091508865  1.57943964005  -1.27150470415  1.42091178894  -2.55226928393  -1.44955569903  -0.107477490102  
3.96898007393  1.58445310593  -1.27179176012  1.41931629181  -2.55125123659  -1.44744807879  -0.109935585652  
3.97710800171  1.5893228054  -1.27211505571  1.41788911819  -2.55031663576  -1.44531661669  -0.112190071736  
3.98523497581  1.59398806095  -1.27249843279  1.41638994217  -2.54943067232  -1.44334060351  -0.114444080983  
3.99339294434  1.59852182865  -1.27298957506  1.41505813599  -2.5485923926  -1.44144851366  -0.11659080187  
4.00145792961  1.60279166698  -1.27357513109  1.41390657425  -2.54771835009  -1.43956834475  -0.118604962026  
4.00955510139  1.60690557957  -1.27418595949  1.41273117065  -2.54697543779  -1.43781978289  -0.120535675679  
4.01764798164  1.61082780361  -1.27495175997  1.41173553467  -2.54619723955  -1.43613082567  -0.122322384511  
4.02577114105  1.61450958252  -1.27584964434  1.41094398499  -2.54541856447  -1.43452674547  -0.124025170003  
4.03385996819  1.61803591251  -1.27680713335  1.41029596329  -2.544819657  -1.43308955828  -0.125632111226  
4.0419459343  1.62133419514  -1.27796823183  1.40979242325  -2.54419738451  -1.43164045015  -0.127143208181  
4.05005812645  1.62459659576  -1.27927333513  1.40945625305  -2.54371816317  -1.43029910723  -0.128450218831  
4.05818200111  1.62771511078  -1.28073341051  1.40931224823  -2.54319125811  -1.42898160616  -0.129709068929  
4.06624698639  1.63064181805  -1.2823489348  1.40949249268  -2.54265243212  -1.4277361075  -0.130800549184  
4.07440304756  1.63346040249  -1.28425246874  1.40978050232  -2.54217321077  -1.42657453219  -0.131783787404  
4.08248496056  1.63600289822  -1.28628760973  1.41027212143  -2.54181367556  -1.42556888262  -0.132623020803  
4.09054803848  1.63841366768  -1.28857356707  1.41105175018  -2.54135877291  -1.42458659807  -0.133378807698  
4.09863901138  1.64059662819  -1.29112273852  1.41202354431  -2.54091579119  -1.42366487185  -0.133990112935  
4.10670399666  1.64265978336  -1.29392367998  1.41331863403  -2.54052049318  -1.42273027102  -0.134517971669  
4.11478996277  1.6446031332  -1.29699975649  1.41490221024  -2.54000550905  -1.42195159594  -0.134889427816  
4.12285399437  1.64646220207  -1.30035144487  1.41672563553  -2.53946620623  -1.42110187212  -0.135213200246  
4.130890131  1.64826095104  -1.30395394961  1.41889667511  -2.538939778  -1.42038327852  -0.135392967855  
4.13895606995  1.65006041527  -1.30783158938  1.42129564285  -2.53826886812  -1.41961700121  -0.135536972676  
4.14701890945  1.65175163746  -1.31204492251  1.42397069931  -2.53761035601  -1.41894609133  -0.135560814534  
4.15507912636  1.65341866016  -1.31653339068  1.42695713043  -2.53687936464  -1.41834718386  -0.135597054158  
4.16314601898  1.65497767925  -1.32124931017  1.43014812469  -2.53598100344  -1.41770059267  -0.135464970266  
4.17120599747  1.65639328957  -1.32622796694  1.43360233307  -2.5350115935  -1.41711408297  -0.135345284139  
4.17933011055  1.65780854225  -1.33131438891  1.43727302551  -2.53393346468  -1.41656285921  -0.135093037282  
4.18739795685  1.65909206867  -1.33664065996  1.44117116928  -2.53280765215  -1.41603643099  -0.134985272084  
4.19549107552  1.66032719612  -1.34220630327  1.44521379471  -2.53149015108  -1.41552144686  -0.134685818349  
4.20358800888  1.66147875786  -1.34797507921  1.44963979721  -2.52995759646  -1.41506606737  -0.134517971669  
4.21165299416  1.66265428066  -1.35385162035  1.45414924622  -2.52840072313  -1.41462308565  -0.134218041097  
4.21974802017  1.66372168064  -1.35988313357  1.45880317688  -2.52667600313  -1.41414386431  -0.133942429219  
4.22784304619  1.66477739811  -1.36617881456  1.4637093544  -2.5249393622  -1.41376096407  -0.133642498647  
4.23593997955  1.66571295261  -1.37259370485  1.46869897842  -2.52297526995  -1.41336566607  -0.133414570485  
4.24400901794  1.66658854485  -1.37902003924  1.47378444672  -2.52101117769  -1.4129465262  -0.133126560842  
4.25207710266  1.66746377945  -1.38553077379  1.47897863388  -2.51884347597  -1.4125755469  -0.132911030446  
4.26019310951  1.66841161251  -1.39229280153  1.48441171646  -2.51648408571  -1.41225177446  -0.132719341909  
4.26825809479  1.66926324368  -1.39904243151  1.49004936218  -2.51394492785  -1.41195279757  -0.132635418569  
4.27638602257  1.67016279697  -1.40595990816  1.49569892883  -2.51128656069  -1.41167718569  -0.132539097463  
4.28445196152  1.67101442814  -1.41298467318  1.50146818161  -2.50856811205  -1.41133004824  -0.132551018392  
4.29254102707  1.67192602158  -1.42006951967  1.50735712051  -2.50583726565  -1.41095859209  -0.132790867482  
4.30067896843  1.67280161381  -1.42723781267  1.51329421997  -2.50284320513  -1.41063577334  -0.132911030446  
4.30876708031  1.67370116711  -1.43450194994  1.5194234848  -2.49972945849  -1.41026431719  -0.133342568074  
4.31683397293  1.67460072041  -1.4418852965  1.52562427521  -2.49654370943  -1.40990478197  -0.133738342916  
4.32502412796  1.67546439171  -1.44920903841  1.53190898895  -2.49322635332  -1.40950948397  -0.134385887777  
4.33309412003  1.67642378807  -1.45660478274  1.53820610046  -2.48990947405  -1.40910274187  -0.135153595601  
4.34116601944  1.67737174034  -1.46397620836  1.5445151329  -2.48639995257  -1.40868312517  -0.136136356984  
4.34923696518  1.67836678028  -1.47128802935  1.55083560944  -2.48280746142  -1.40826446215  -0.137395683919  
4.3574359417  1.68025052547  -1.48581535021  1.56364536285  -2.47564584414  -1.40725833574  -0.140789333974  
4.36552906036  1.68122160435  -1.49310237566  1.57018184662  -2.47193319002  -1.4066713492  -0.142875973378  
4.37366199493  1.68214559555  -1.50028258959  1.57659864426  -2.46830445925  -1.40602475802  -0.145298306142  
4.38172602654  1.68300879002  -1.50743800799  1.5829911232  -2.46437627474  -1.40541440645  -0.148152176534  
4.38981699944  1.68390834332  -1.51441461245  1.58956336975  -2.46063977877  -1.40470773378  -0.151390377675  
4.39787793159  1.68478429317  -1.52139026323  1.59523630142  -2.4569032828  -1.40401298205  -0.155011479055  
4.40596413612  1.68556404114  -1.5282591025  1.60209655762  -2.45320254961  -1.40319854418  -0.158932511006  
4.41410493851  1.68631947041  -1.53513938585  1.60851335526  -2.44953805605  -1.40239602724  -0.163501564656  
4.42220306396  1.68700325489  -1.54185229937  1.61486959457  -2.44602948824  -1.40148622194  -0.168298069631  
4.43029308319  1.68762683868  -1.54850465456  1.62132167816  -2.4426038901  -1.40054017702  -0.173214737569  
4.43842697144  1.68823873997  -1.55521756807  1.62787008286  -2.43921500841  -1.39949828783  -0.178443257009  
4.44652199745  1.68882644176  -1.56184655825  1.6343588829  -2.43634111086  -1.39834863344  -0.184043232595  
4.45461010933  1.68928217888  -1.56837970415  1.64084672928  -2.43290311495  -1.39718705813  -0.190218750631  
4.46267700195  1.68966603279  -1.57492429415  1.64747905731  -2.42977744738  -1.39597732226  -0.197138134633  
4.47077012062  1.6899780035  -1.58144599596  1.65415906906  -2.42685538927  -1.39476806322  -0.203841511403  
4.47888302803  1.69022965431  -1.58797866503  1.66093540192  -2.42401725451  -1.39353496233  -0.210904900228  
4.48698711395  1.69032585621  -1.59446365038  1.66779518127  -2.42126304308  -1.39224130312  -0.218579594289  
4.4950530529  1.69033789635  -1.60091287294  1.67471456528  -2.41871196428  -1.39099580446  -0.226889435445  
4.5031170845  1.69021773338  -1.60734969774  1.68171882629  -2.41626912752  -1.38969070116  -0.235320393239  
4.51118898392  1.6900498867  -1.61299735705  1.68878221512  -2.41398173967  -1.38842136065  -0.244074169789  
4.5192899704  1.68971395493  -1.61992484728  1.69597768784  -2.4117901961  -1.38712770144  -0.253464047109  
4.52739405632  1.68933010101  -1.62644559542  1.70308971405  -2.40968257586  -1.38590652147  -0.263428990041  
4.5354809761  1.68881440163  -1.63295442263  1.71022462845  -2.40764648119  -1.38462478319  -0.273442093526  
4.54359412193  1.68823873997  -1.63935548464  1.71744441986  -2.40567046801  -1.38343984285  -0.28425914446  
4.55173802376  1.68755495548  -1.64572078386  1.72480773926  -2.40377837816  -1.3822777907  -0.295819107686  
4.55980300903  1.68676316738  -1.6519539992  1.73211050034  -2.40193397204  -1.38111621538  -0.307115856801  
4.56786608696  1.68580377102  -1.6580918471  1.73937797546  -2.40018541018  -1.38018256823  -0.319275681173  
4.57596611977  1.68472445011  -1.66406184832  1.74645328522  -2.39865285555  -1.3791402022  -0.331711594258  
4.58406591415  1.6835244894  -1.66997224489  1.75357627869  -2.3971675078  -1.37819415728  -0.34444696108  
4.5921690464  1.68226540089  -1.67573911348  1.76055622101  -2.39577848116  -1.37735635439  -0.357817951833  
4.60023498535  1.68089771271  -1.68142205874  1.76747512817  -2.39441329638  -1.37655383745  -0.370877567922  
4.60829901695  1.67943453789  -1.68684178988  1.77433443069  -2.3931315581  -1.37584764162  -0.384776417409  
4.61638498306  1.67789900303  -1.69218951861  1.78100204468  -2.39201814333  -1.37518912951  -0.397955719625  
4.62448000908  1.67624402046  -1.69727403322  1.78748893738  -2.39092857042  -1.3745897452  -0.411722962056  
4.63257908821  1.67448091507  -1.70214397112  1.79374885559  -2.39003020922  -1.37414724032  -0.42565757433  
4.64064598083  1.67270541191  -1.70689326922  1.799888134  -2.38914376894  -1.37376386324  -0.439173046743  
4.64873695374  1.67077434063  -1.7114871184  1.80595588684  -2.38843709627  -1.37341624895  -0.452916447316  
4.65685892105  1.66878354549  -1.71590215365  1.81172370911  -2.38781434694  -1.37311727205  -0.466071430837  
4.6649711132  1.66668438911  -1.72013694445  1.81732368469  -2.38719159762  -1.3729613463  -0.47965890566  
4.67308592796  1.6644654274  -1.72427684466  1.8228635788  -2.3869283835  -1.37291318575  -0.492346588765  
4.68115210533  1.66218662262  -1.7281888167  1.8281879425  -2.38658124605  -1.37290126482  -0.505082432424  
4.68924403191  1.65975189209  -1.73207694689  1.833319664  -2.38637763659  -1.37304526964  -0.517566506063  
4.6973400116  1.65717303753  -1.73584539095  1.83824825287  -2.38625747362  -1.3731768767  -0.52943832079  
4.70542907715  1.6545702219  -1.7394340674  1.8430685997  -2.38618594805  -1.37345248858  -0.541467014943  
4.71354603767  1.6517636776  -1.74295169512  1.84774494171  -2.38621026674  -1.37370378176  -0.552535835897  
4.72161102295  1.64888489246  -1.74645692507  1.85236167908  -2.38640147844  -1.37409907976  -0.563484970723  
4.72971105576  1.64602994919  -1.74998599688  1.85684585571  -2.38650924364  -1.37453014055  -0.574565712606  
4.73777413368  1.64309155941  -1.75334769884  1.86121082306  -2.38679677645  -1.37514096895  -0.584591690694  
4.74586892128  1.63999700546  -1.75675756136  1.86545562744  -2.38704806963  -1.37582379976  -0.594557110463  
4.75396800041  1.63675868511  -1.76011926333  1.86967611313  -2.38732368151  -1.37654191652  -0.604582134877  
4.7620639801  1.63328063488  -1.76349288622  1.87382507324  -2.38767081896  -1.37743980089  -0.613804642354  
4.77016592026  1.62961006165  -1.7668188254  1.87788963318  -2.38799411455  -1.37839824358  -0.62265474001  
4.77827596664  1.62579607964  -1.77018005053  1.88188266754  -2.3883655707  -1.37949973742  -0.631589237844  
4.78639698029  1.62174201012  -1.77362615267  1.88583946228  -2.38879663149  -1.38062554995  -0.640331570302  
4.79446005821  1.61767601967  -1.77711946169  1.88988018036  -2.38915568987  -1.38193065325  -0.648222271596  
4.80252695084  1.61362195015  -1.7806485335  1.89378929138  -2.3895872275  -1.38324815432  -0.656221214925  
4.81065011024  1.60949599743  -1.7842853705  1.89761400223  -2.39001828829  -1.38464910189  -0.664304081594  
4.8188021183  1.60517835617  -1.78800565401  1.90154695511  -2.39043742815  -1.38600188891  -0.672338787709  
4.82689809799  1.60060858727  -1.79179793993  1.90539550781  -2.39083272616  -1.38741523424  -0.679653946553  
4.83908295631  1.5909178257  -1.79960996309  1.91311740875  -2.39155084292  -1.3905766646  -0.694836441671  
4.847178936  1.58585643768  -1.80364162127  1.91693019867  -2.39188605944  -1.3921936194  -0.702475372945  
4.85524201393  1.58079528809  -1.8076728026  1.92071914673  -2.39213782946  -1.39389354387  -0.709646526967  
4.87111592293  1.57046866417  -1.81596309343  1.9282245636  -2.39258128801  -1.39730674425  -0.724696938192  
4.87917804718  1.56497573853  -1.82016212145  1.93188238144  -2.39279634157  -1.39910298983  -0.732588116323  
4.88722610474  1.55913496017  -1.82438499132  1.9355506897  -2.39296418825  -1.40095931688  -0.740022961293  
4.89538097382  1.55327022076  -1.82864362398  1.93921995163  -2.3930237929  -1.40281564394  -0.747601811086  
4.9034781456  1.54738140106  -1.83285457293  1.94284057617  -2.39308387438  -1.40476733843  -0.755564991628  
4.91157507896  1.54144477844  -1.83722144762  1.94646120071  -2.39317971865  -1.40668327013  -0.763827149068  
4.91963791847  1.53531634808  -1.84151584307  1.95016622543  -2.39303571383  -1.40856343905  -0.771658245717  
4.92771792412  1.52879202366  -1.84592992464  1.95369100571  -2.39300042788  -1.41058761278  -0.779729191457  
4.93580293655  1.52219581604  -1.85032064119  1.95714426041  -2.39309579531  -1.41258746782  -0.788075272237  
4.94392895699  1.51567161083  -1.8546388785  1.96044158936  -2.39290458361  -1.41470700899  -0.796734158193  
4.95199394226  1.50903975964  -1.85886174837  1.9637389183  -2.39294034639  -1.41685039202  -0.804768864308  
4.96006011963  1.5020596981  -1.86307269732  1.9670715332  -2.392724816  -1.41895848909  -0.813007179891  
4.96821594238  1.49487626553  -1.86734325091  1.97028493881  -2.39274865786  -1.42112619082  -0.821605507527  
4.97632098198  1.48764455318  -1.87143451372  1.97342634201  -2.39259320894  -1.42336494127  -0.830035988485  
4.9844379425  1.4804008007  -1.87547809282  1.97649526596  -2.39247352282  -1.42561656633  -0.838130299245  
4.99254798889  1.47308564186  -1.87947303454  1.97957658768  -2.39236528078  -1.42785579363  -0.846404854451  
5.00061106682  1.46533858776  -1.88340884844  1.98247814178  -2.39219791094  -1.43026334444  -0.854883495961  
5.00870609283  1.45753121376  -1.88729650179  1.98527145386  -2.39216167132  -1.43263417879  -0.863025967275  
5.01679301262  1.44982051849  -1.89104110399  1.98802900314  -2.39194614092  -1.43499356905  -0.870784584676  
5.02485609055  1.44189369678  -1.89471322695  1.99082231522  -2.39170676867  -1.43743640581  -0.878819290792  
5.032943964  1.43341517448  -1.89833814303  1.99355649948  -2.39143115679  -1.44003516832  -0.886985603963  
5.04106497765  1.42488884926  -1.90187913576  1.99601411819  -2.39101201693  -1.44290906588  -0.894635979329  
5.04920291901  1.4167226553  -1.90527660051  1.99847173691  -2.39072496096  -1.44554406801  -0.90203553835  
5.0572810173  1.4083520174  -1.90867358843  2.00083398819  -2.39035350481  -1.44822675387  -0.909446541463  
5.06537508965  1.39927434921  -1.91189176241  2.00323152542  -2.38997012774  -1.45108873049  -0.91700107256  
5.0734770298  1.39024460316  -1.91504937807  2.00541305542  -2.38955098787  -1.45399886767  -0.924160305654  
5.0815410614  1.38117933273  -1.91795665423  2.00753545761  -2.38911945025  -1.45699245134  -0.930851761495  
5.08962702751  1.37172973156  -1.92081529299  2.00966930389  -2.38860494295  -1.46008235613  -0.937543217336  
5.09769010544  1.36180126667  -1.92359048525  2.01177930832  -2.38805419603  -1.46342403093  -0.944234673177  
5.10575294495  1.3518127203  -1.92628270784  2.01373386383  -2.38745528856  -1.46678907076  -0.950782124196  
5.11385202408  1.34171640873  -1.92881852785  2.01559209824  -2.38690454165  -1.47020227114  -0.956730190908  
5.12194514275  1.33116424084  -1.93128234545  2.01733064651  -2.38629371325  -1.47385484377  -0.962317768727  
5.13006091118  1.32052862644  -1.93368703524  2.0190448761  -2.38567096392  -1.47757941881  -0.967822376882  
5.13818311691  1.30982077122  -1.93583995501  2.020591259  -2.38504821459  -1.48132783571  -0.973122421895  
5.14710712433  1.29877734184  -1.93789750734  2.02218580246  -2.38442546526  -1.48536426226  -0.978278938924  
5.1551721096  1.28739869595  -1.93990737597  2.02368450165  -2.38365918795  -1.48950797716  -0.983159367238  
5.16336297989  1.27581584454  -1.94180900255  2.02505111694  -2.38302404085  -1.49377090136  -0.987440888082  
5.17142796516  1.26396989822  -1.9435561339  2.02637004852  -2.38225776354  -1.49820262591  -0.991373840963  
5.17951703072  1.25178825855  -1.94517070452  2.027592659  -2.38157540957  -1.50280124346  -0.994971577321  
5.1876039505  1.23928272724  -1.94672567049  2.02879190445  -2.38091642061  -1.50756818453  -0.998484436666  
5.19570398331  1.22678995132  -1.94816142717  2.02983474731  -2.38022214571  -1.51256162325  -1.00160247484  
5.20380210876  1.21391284466  -1.94947702089  2.03088998795  -2.37957555452  -1.51754409472  -1.00432473818  
5.21189308167  1.20106053352  -1.95070916811  2.03176498413  -2.37888080279  -1.52274209658  -1.00660306612  
5.21998906136  1.18805241585  -1.9518216292  2.03262853622  -2.37828237215  -1.52808362642  -1.0083416144  
5.22811293602  1.17469632626  -1.95282632509  2.03332328796  -2.37776691118  -1.53332883516  -1.00952893892  
5.23617911339  1.16152083874  -1.95369989077  2.03401899338  -2.37721616427  -1.53893405596  -1.00996047655  
5.24428892136  1.14826178551  -1.95450145403  2.03464221954  -2.37674886385  -1.54444343248  -1.00980502764  
5.25244212151  1.13495445251  -1.95513517061  2.0351099968  -2.37634164492  -1.55004865328  -1.00908548037  
5.26050400734  1.12152767181  -1.95579272905  2.03546953201  -2.37601882616  -1.55583411852  -1.00737077395  
5.26859593391  1.10823297501  -1.95619947115  2.0357208252  -2.37580281893  -1.56128341356  -1.00487643877  
5.27668905258  1.09487807751  -1.95659476915  2.03588914871  -2.37562305132  -1.56703216234  -1.00162679354  
5.2847840786  1.08116436005  -1.9568455855  2.03594923019  -2.37556344668  -1.57268506685  -0.997537438069  
5.2928750515  1.06808578968  -1.95704919497  2.03596115112  -2.37565929094  -1.57839852968  -0.992680851613  
5.30098795891  1.05492377281  -1.95703727404  2.035841465  -2.37580281893  -1.58385974566  -0.987152878438  
5.30908703804  1.04212129116  -1.95697766939  2.03556537628  -2.3761027495  -1.58930951754  -0.98067742983  
5.31718301773  1.02895963192  -1.95686942736  2.03527784348  -2.37638980547  -1.59480697313  -0.973134819661  
5.32524704933  1.01612186432  -1.95664245287  2.03487014771  -2.37684470812  -1.6001847426  -0.964836422597  
5.33340907097  0.99115383625  -1.95588857332  2.03382730484  -2.37811452547  -1.61086875597  -0.946081463491  
5.34147691727  0.979131400585  -1.9553621451  2.03310775757  -2.3789284865  -1.61594707171  -0.935192410146  
5.3495759964  0.967420935631  -1.95474034945  2.03230476379  -2.37979108492  -1.62094194094  -0.923812214528  
5.35765314102  0.955974161625  -1.95404702822  2.03139305115  -2.38088065783  -1.62562495867  -0.911365334188  
5.36575007439  0.944959521294  -1.9531973044  2.03038597107  -2.38212615648  -1.63030893007  -0.898113552724  
5.37382006645  0.934136271477  -1.95221645037  2.02934360504  -2.383395497  -1.63484841982  -0.88447934786  
5.38188314438  0.923972547054  -1.95115167299  2.02818059921  -2.38490420977  -1.63916045824  -0.869789425527  
5.38994812965  0.914252221584  -1.94995528856  2.02699327469  -2.3864253203  -1.64331704775  -0.854883495961  
5.39801311493  0.905107498169  -1.94867593447  2.02563858032  -2.38811427752  -1.64723378817  -0.838777844106  
5.40611505508  0.896190464497  -1.94734794298  2.02440357208  -2.38993436495  -1.65095884005  -0.822612587606  
5.41424107552  0.887645363808  -1.9460199515  2.02297735214  -2.39189798037  -1.65445596377  -0.805356327687  
5.42233204842  0.879855215549  -1.94452459017  2.02146673203  -2.394054238  -1.65777427355  -0.787859741841  
5.4304189682  0.872400641441  -1.94298202196  2.02000379562  -2.39611417452  -1.66079265276  -0.769595448171  
5.43848013878  0.865173816681  -1.94145089785  2.01854133606  -2.3982813994  -1.66355973879  -0.750612084066  
5.4465739727  0.858534157276  -1.93978816668  2.01691102982  -2.40048534075  -1.66621858278  -0.731460396444  
5.45467495918  0.852865278721  -1.9380534331  2.01531648636  -2.40282041231  -1.66845876375  -0.711061779653  
5.46273899078  0.847544252872  -1.93625909487  2.01378202438  -2.40514308611  -1.67041093508  -0.690722767507  
5.47084403038  0.842450976372  -1.93450051943  2.01216363907  -2.40734702746  -1.67212421099  -0.669760529195  
5.47897195816  0.837657272816  -1.93266994158  2.01050901413  -2.40964633623  -1.67356187502  -0.647826496755  
5.48703503609  0.833546698093  -1.93067247072  2.00869846344  -2.41200572649  -1.674639527  -0.625964466725  
5.49511504173  0.82999932766  -1.92862683931  2.0069360733  -2.41412526766  -1.67544204393  -0.603766743337  
5.50318193436  0.826979339123  -1.92653352419  2.00522184372  -2.41634112993  -1.67594510714  -0.580777947103  
5.51125001907  0.824402689934  -1.92430907885  2.00329113007  -2.41865235964  -1.67612487475  -0.557620827352  
5.51931595802  0.8221616745  -1.92213136355  2.00132513046  -2.42096311251  -1.67600518862  -0.53455955187  
5.52740693092  0.820124328136  -1.91983443895  1.99937105179  -2.42334682146  -1.67581302324  -0.511246506368  
5.53549599648  0.818422615528  -1.91748983065  1.99740505219  -2.42574197451  -1.67515451113  -0.487405602132  
5.54358291626  0.817032396793  -1.91503793398  1.99531841278  -2.42822105089  -1.67435247103  -0.463457409536  
5.55170297623  0.815941870213  -1.91251355806  1.99324464798  -2.43065196673  -1.67335778872  -0.439688507711  
5.55983304977  0.815187215805  -1.90990621248  1.99101400375  -2.43322688738  -1.67202836672  -0.415848557149  
5.56792092323  0.814599990845  -1.90721398989  1.98879623413  -2.4358976523  -1.67049485842  -0.391707722341  
5.57600903511  0.814216136932  -1.90449887911  1.98659038544  -2.43849593798  -1.66869813601  -0.367495838796  
5.58412694931  0.814060330391  -1.90166360537  1.98439645767  -2.44117862383  -1.66669828096  -0.343439404164  
5.59224700928  0.814156234264  -1.89884072939  1.98222589493  -2.4438255469  -1.66448194185  -0.319491211568  
5.60035014153  0.814252078533  -1.8960536162  1.97997236252  -2.44649583498  -1.66218215624  -0.295795265828  
5.60841608047  0.814588010311  -1.89324218432  1.97782611847  -2.44925052324  -1.65973884264  -0.271775547658  
5.61650896072  0.815055012703  -1.89058620134  1.97569227219  -2.45205289522  -1.65712768236  -0.248511139547  
5.62459802628  0.81557071209  -1.887966458  1.97358226776  -2.4549630324  -1.65451604525  -0.225450817739  
5.63270998001  0.816193878651  -1.88547879854  1.97147226334  -2.45772916475  -1.65185720125  -0.202750031148  
5.64079594612  0.816828668118  -1.88293058077  1.96944570541  -2.460460488  -1.64900619188  -0.180218044912  
5.64888906479  0.817583680153  -1.88060933748  1.96755123138  -2.46311885515  -1.64607173601  -0.158428970967  
5.65697693825  0.818446576595  -1.87826520601  1.96565675735  -2.46571761767  -1.64312488237  -0.137227837239  
5.66504001617  0.819309413433  -1.87600404421  1.96389484406  -2.46820861498  -1.64005881945  -0.11629039446  
5.67316102982  0.820244193077  -1.87386256853  1.96216821671  -2.47046024004  -1.63705236117  -0.0963371435748  
5.68125510216  0.821119070053  -1.87184125582  1.96046590805  -2.47250825564  -1.63390189806  -0.0770433584796  
5.68940591812  0.822185635567  -1.86995107332  1.95899105072  -2.47435266176  -1.63081199328  -0.0583007971393  
5.69749212265  0.823204278946  -1.86816865603  1.95756387711  -2.47592097918  -1.62776977221  -0.040625397359  
5.7055580616  0.824270904064  -1.86651784578  1.95618534088  -2.47717839876  -1.62458306948  -0.0234187285053  
5.71364402771  0.825313508511  -1.86505824724  1.9549498558  -2.47818452517  -1.62144548098  -0.00765020052065  
5.72174096107  0.826368153095  -1.86374265352  1.95376300812  -2.47892696062  -1.6181991736  0.00781783461571  
5.72984313965  0.827446699142  -1.86245090166  1.95266008377  -2.47921449343  -1.61495334307  0.02196745947  
5.73790597916  0.82847738266  -1.86139804522  1.95162916183  -2.47919065157  -1.61177903811  0.0356729179621  
5.74599695206  0.829603850842  -1.86041671435  1.95074176788  -2.47879535357  -1.60858089129  0.047963116318  
5.75434613228  0.830646514893  -1.85956746737  1.94978284836  -2.47820836702  -1.60537130037  0.0595226511359  
5.76241207123  0.831701099873  -1.85881406466  1.94906330109  -2.47720271746  -1.602124993  0.0703140720725  
5.77051210403  0.832671821117  -1.85816795031  1.94824838638  -2.47586137453  -1.59892732302  0.0799426436424  
5.77860093117  0.833714485168  -1.85767728487  1.94758844376  -2.47406512896  -1.59586126009  0.0888278260827  
5.78670310974  0.834685206413  -1.85722285906  1.94698905945  -2.47186118761  -1.59273511568  0.0969452634454  
5.79479312897  0.835572004318  -1.85687572161  1.94647359848  -2.46934634844  -1.58972913424  0.10413954407  
5.80291199684  0.836446881294  -1.85661298433  1.94601774216  -2.46640044848  -1.58668643633  0.110158994794  
5.81100296974  0.837285757065  -1.85639745394  1.94551467896  -2.46310693422  -1.58350068728  0.115494601429  
5.81910395622  0.838052749634  -1.8562300841  1.94507074356  -2.45963365236  -1.58048230806  0.120302893221  
5.82719302177  0.838711857796  -1.85619384447  1.94467496872  -2.45575362841  -1.57740384737  0.124403372407  
5.83536291122  0.839371025562  -1.85617047945  1.94430303574  -2.45151406923  -1.57433826128  0.127820745111  
5.84345602989  0.83995860815  -1.85618240038  1.94395542145  -2.44705897966  -1.57129556337  0.13069845736  
5.85155797005  0.840521514416  -1.85626584688  1.94363212585  -2.44230443636  -1.56818229357  0.132976964116  
5.85962295532  0.840976893902  -1.85634977022  1.94328403473  -2.43726236025  -1.56512767473  0.134739011526  
5.86771893501  0.841444313526  -1.85634977022  1.94298458099  -2.43178970018  -1.56205016771  0.136034071445  
5.87585091591  0.841780245304  -1.85645705858  1.94267272949  -2.42630464235  -1.55895930925  0.13704149425  
5.88393902779  0.842115402222  -1.85644513765  1.9423251152  -2.4204009215  -1.55584603945  0.137641072273  
5.89203000069  0.842343091965  -1.85650521914  1.94202518463  -2.41444856325  -1.55264741579  0.138024568558  
5.9001250267  0.842619121075  -1.85649329821  1.9417014122  -2.40835315386  -1.54949790636  0.138204708695  
5.90821504593  0.842726588249  -1.85649329821  1.94136571884  -2.40197021166  -1.54634744326  0.138216689229  
5.91627597809  0.84284645319  -1.85648137728  1.9408864975  -2.39526349703  -1.54312593142  0.138180732727  
5.92434191704  0.842930316925  -1.8564212958  1.94047880173  -2.38856918017  -1.539832894  0.138216689229  
5.93240404129  0.843002259731  -1.85632592836  1.94003486633  -2.38192254702  -1.53655130068  0.138180732727  
5.94050097466  0.843038201332  -1.85618240038  1.93954372406  -2.37522823015  -1.53326923052  0.138180732727  
5.948595047  0.842990279198  -1.85596686998  1.93906354904  -2.36823445955  -1.52990371386  0.138300582767  
5.95668506622  0.842942297459  -1.85569221178  1.93849992752  -2.36122876803  -1.52650243441  0.138444393873  
5.96480298042  0.842942297459  -1.85533267656  1.93786478043  -2.35415059725  -1.52299338976  0.138852223754  
5.97286891937  0.842810511589  -1.85489017168  1.93726539612  -2.34727651278  -1.51943618456  0.139343589544  
5.9809319973  0.842750549316  -1.85437566439  1.93654584885  -2.34027129809  -1.51572400728  0.140122935176  
5.98903203011  0.84257119894  -1.85381347338  1.93577861786  -2.33321792284  -1.51192695299  0.141058072448  
5.99709701538  0.842559218407  -1.85308391253  1.93496370316  -2.32627183596  -1.50797492663  0.14226923883  
6.00521993637  0.842427015305  -1.85222274462  1.93413591385  -2.31950551668  -1.50397521654  0.143948152661  
6.01340508461  0.842235267162  -1.85121804873  1.93312883377  -2.31279927889  -1.49979526201  0.145902320743  
6.02147006989  0.841995537281  -1.84878904024  1.93110227585  -2.29951841036  -1.49114829699  0.151010230184  
6.02953410149  0.841803789139  -1.84734183947  1.9299993515  -2.29308730761  -1.4866455237  0.154079318047  
6.03762793541  0.841683983803  -1.84572679201  1.92883634567  -2.28692037264  -1.48202211062  0.157533019781  
6.04571700096  0.841480255127  -1.84401590029  1.92757701874  -2.28088456789  -1.47714788118  0.161489680409  
6.05380606651  0.841420292854  -1.84215003649  1.92631864548  -2.2748969237  -1.47219020525  0.16569802165  
6.06190299988  0.841324448586  -1.84010440508  1.92507171631  -2.26929217974  -1.46707660357  0.170302584767  
6.0699930191  0.841252565384  -1.83786756197  1.92369270325  -2.26375943819  -1.46190244356  0.17523033917  
6.07808613777  0.84124058485  -1.83552247683  1.9223856926  -2.25855046908  -1.45637017885  0.180626243353  
6.08615112305  0.841216564178  -1.83302241961  1.92094755173  -2.25367671648  -1.45090896288  0.186632961035  
6.09425091743  0.84124058485  -1.83034259478  1.91953229904  -2.24892217318  -1.44512492815  0.19296400249  
6.10239005089  0.841324448586  -1.82769900957  1.91816520691  -2.24440700213  -1.43936473528  0.199654191732  
6.11045598984  0.841384351254  -1.82481557528  1.91673803329  -2.24019223848  -1.43340093294  0.206440269947  
6.11852192879  0.841444313526  -1.82183677355  1.9152636528  -2.23615628878  -1.42732936541  0.213825911283  
6.12665295601  0.841552138329  -1.81877404848  1.91384887695  -2.23249179522  -1.42123347918  0.221631392837  
6.13471698761  0.841732263565  -1.81559259096  1.91239786148  -2.22900706926  -1.4148867766  0.229700893164  
6.14278101921  0.841923654079  -1.8122065703  1.9109711647  -2.22596532503  -1.40847951571  0.237650185823  
6.15087413788  0.842199265957  -1.80876142183  1.90949630737  -2.2231391112  -1.40216857592  0.245982959867  
6.15896105766  0.842498898506  -1.80520803133  1.9080696106  -2.22055274645  -1.3957622687  0.254699230194  
6.16705012321  0.842870414257  -1.80153590838  1.90655899048  -2.21836072603  -1.38943893114  0.263524115086  
6.17513799667  0.843385756016  -1.79777986208  1.90508413315  -2.21604997316  -1.38293677965  0.272108584642  
6.1832010746  0.843936979771  -1.79398709932  1.90354919434  -2.2141216437  -1.37650615374  0.280993014574  
6.19129014015  0.844668030739  -1.79021865526  1.90202665329  -2.21233731905  -1.37002736727  0.289889037609  
6.19937992096  0.845566868782  -1.7864502112  1.900431633  -2.21091252962  -1.36354905764  0.298569381237  
6.20740914345  0.846585512161  -1.78261024157  1.89880084991  -2.20970279375  -1.35714275042  0.307213753462  
6.21559000015  0.847747981548  -1.77881795565  1.89715862274  -2.2086370627  -1.3506043593  0.315965592861  
6.22368192673  0.848994731903  -1.77481013933  1.89544391632  -2.20791846911  -1.34417373339  0.324514478445  
6.23174405098  0.850420832634  -1.77083856264  1.89371728897  -2.20725995699  -1.33795911471  0.33260717988  
6.23984003067  0.851930499077  -1.76689082781  1.89197874069  -2.20678073565  -1.33156472841  0.340807765722  
6.24790906906  0.853620231152  -1.76290637652  1.89020395279  -2.20649320284  -1.32533771196  0.348792254925  
6.25598812103  0.855454206467  -1.7589228789  1.88834524155  -2.20638543764  -1.31911117235  0.35647714138  
6.26408600807  0.857443630695  -1.75487929979  1.88643884659  -2.20644504229  -1.3125966231  0.363478928804  
6.27222299576  0.859672665596  -1.75088340441  1.88450860977  -2.20663720766  -1.30663377443  0.370540261269  
6.28031897545  0.862057507038  -1.74692374865  1.88249444962  -2.20700818697  -1.30071813265  0.377386242151  
6.28842806816  0.864538609982  -1.74302369753  1.880443573  -2.20751125017  -1.29495841662  0.383895933628  
6.29657292366  0.867318987846  -1.73903924624  1.8783454895  -2.20803815523  -1.2892592589  0.390034466982  
6.30464100838  0.870338976383  -1.73516351381  1.87621116638  -2.20872050921  -1.28371507326  0.395609378815  
6.31270599365  0.873563110828  -1.73116761843  1.87402868271  -2.20951110521  -1.2782424132  0.400956213474  
6.32079410553  0.877002596855  -1.72724372545  1.87176275253  -2.21043330828  -1.27287847201  0.40601542592  
6.3289000988  0.880537927151  -1.72333175341  1.8694486618  -2.21152288118  -1.2675259749  0.410751074553  
6.33699512482  0.884181559086  -1.71946698824  1.86708593369  -2.21269637743  -1.26234132448  0.415114849806  
6.34508299828  0.888040840626  -1.71550685564  1.86463975906  -2.21394187609  -1.25731259981  0.41917899251  
6.35320806503  0.891983985901  -1.71149903933  1.86221790314  -2.21529513994  -1.25230724016  0.422691851854  
6.36127209663  0.896250367165  -1.70755130449  1.85972356796  -2.21674424807  -1.24756557146  0.425880789757  
6.36938691139  0.900721251965  -1.70351916948  1.85725402832  -2.21819335619  -1.24282342592  0.428733795881  
6.37747907639  0.905431449413  -1.69949943224  1.85471153259  -2.21970206896  -1.23826152483  0.431335479021  
6.38559603691  0.910309016705  -1.69561130205  1.85220575333  -2.22134286562  -1.23375922838  0.433637201786  
6.39366197586  0.915271222591  -1.69174653689  1.84957933426  -2.22306758562  -1.22929317156  0.435615360737  
6.40172505379  0.92031699419  -1.68787080446  1.84688186646  -2.22498351732  -1.22495872179  0.437353819609  
6.40978908539  0.925578415394  -1.68397027651  1.84405183792  -2.22703105608  -1.22072011629  0.438720375299  
6.41790509224  0.931032001972  -1.67996246019  1.84123373032  -2.22911435763  -1.2166612784  0.439883232117  
6.4259660244  0.936940968037  -1.67593032518  1.8384642601  -2.23137838045  -1.21273404757  0.440674573183  
6.43482804298  0.942969799042  -1.67244893709  1.83571815491  -2.23373729387  -1.20869905153  0.441261798143  
6.44291996956  0.948987007141  -1.66823751131  1.83291196823  -2.23624021212  -1.20492726961  0.441585749388  
6.45102095604  0.954991459846  -1.66432553927  1.83004617691  -2.23885089556  -1.20119125048  0.441645652056  
6.45911407471  0.961104512215  -1.66043693224  1.82719230652  -2.2416527907  -1.19761163393  0.441417574883  
6.46717810631  0.967528820038  -1.65650016466  1.82436227798  -2.24458676973  -1.19409114519  0.441058069468  
6.47524213791  0.974013388157  -1.65256435076  1.82148456573  -2.2475326697  -1.19061929384  0.44038695097  
6.48330593109  0.980402112007  -1.64869958559  1.81855916977  -2.2506702582  -1.18731385866  0.439439803362  
6.49137711525  0.986838757992  -1.64484721819  1.8156208992  -2.25391608873  -1.18415338198  0.43822902441  
6.49953198433  0.993539094925  -1.64101821581  1.81268358231  -2.25717288653  -1.18106395403  0.436670333147  
6.50762295723  1.0004554987  -1.63707000414  1.80982923508  -2.26045447985  -1.17807037035  0.434680193663  
6.51571893692  1.00734758377  -1.63322955767  1.80701112747  -2.26398688952  -1.17528134981  0.4323785007  
6.52381706238  1.01394033432  -1.62941247622  1.80412149429  -2.26774770418  -1.17255145708  0.429812729359  
6.53194093704  1.02055716515  -1.62571603457  1.80111122131  -2.27171117464  -1.16989308992  0.426959753036  
6.5400390625  1.02741360664  -1.62191135088  1.79850959778  -2.27571088472  -1.16740256945  0.423782795668  
6.54810500145  1.03450977802  -1.61814242998  1.79542779922  -2.27985507647  -1.16496020952  0.420186042786  
6.55619597435  1.04148614407  -1.61428910891  1.79254961014  -2.28404599825  -1.16274482409  0.41615819931  
6.56430697441  1.04817473888  -1.61054402987  1.78957605362  -2.28838140169  -1.16061383883  0.411625921726  
6.57237505913  1.05485188961  -1.60677510897  1.78660154343  -2.29274017016  -1.1586745421  0.406710535288  
6.58056402206  1.06175661087  -1.60293513933  1.78359222412  -2.29731494585  -1.15687829653  0.401232242584  
6.5886900425  1.06881725788  -1.59908229509  1.78059387207  -2.30200940767  -1.15521413485  0.395537495613  
6.59675598145  1.07557821274  -1.5953133742  1.77757167816  -2.30687171618  -1.15366965929  0.389674574137  
6.60484409332  1.08223092556  -1.59161597887  1.77433443069  -2.31198484102  -1.15231639544  0.383260399103  
6.61297607422  1.08924400806  -1.5877512137  1.7710723877  -2.3171342055  -1.15104753176  0.376403182745  
6.62110114098  1.09628093243  -1.58377868334  1.76794290543  -2.32215196291  -1.14989787737  0.368993908167  
6.6291821003  1.10315012932  -1.5797346274  1.76483678818  -2.32752925554  -1.14887983004  0.361644595861  
6.63724994659  1.10979092121  -1.57570249239  1.76163482666  -2.33305007616  -1.14791042009  0.354067564011  
6.64538908005  1.12337398529  -1.56757766405  1.75484800339  -2.34478646914  -1.14636594454  0.337174683809  
6.65353012085  1.13031470776  -1.56341392199  1.75148963928  -2.35064202944  -1.14576703707  0.328710436821  
6.66159701347  1.13714826107  -1.55917817751  1.74804782867  -2.35678559939  -1.14524060885  0.31982639432  
6.66969013214  1.14380180836  -1.554834191  1.74442625046  -2.36321670214  -1.14477330843  0.310534507036  
6.67775893211  1.15047967434  -1.55050307909  1.74072122574  -2.36983949343  -1.14453393618  0.300883084536  
6.68584895134  1.15728890896  -1.54599219957  1.73705148697  -2.37656957308  -1.14440232912  0.291507303715  
6.69395709038  1.16401469707  -1.54144508043  1.73339366913  -2.38321572939  -1.14419871966  0.281616181135  
6.70205211639  1.17062056065  -1.53689796129  1.72962856293  -2.39011413256  -1.14423448244  0.271245330572  
6.71014904976  1.17716622353  -1.53236323992  1.72564697266  -2.39740735689  -1.14430648485  0.261077851057  
6.71823906898  1.18386805058  -1.52773219744  1.72155761719  -2.40489226977  -1.14440232912  0.250491291285  
6.72636413574  1.19066572189  -1.52303010622  1.71754026413  -2.41224509874  -1.14472562471  0.239568784833  
6.73447203636  1.19716417789  -1.51838714281  1.71347475052  -2.41959840456  -1.14494067827  0.22898183763  
6.74260210991  1.20342218876  -1.51372081438  1.70936155319  -2.42727500597  -1.1452644507  0.217854857445  
6.75070905685  1.20971691608  -1.50911361376  1.70517587662  -2.43515474001  -1.14576703707  0.20635637641  
6.75879693031  1.21607112885  -1.50445872942  1.7010269165  -2.44297534624  -1.14636594454  0.195253744721  
6.76688814163  1.22242546082  -1.49979192415  1.69699716568  -2.45068771044  -1.14709598223  0.18364739418  
6.77498793602  1.2285040617  -1.49513656298  1.69287157059  -2.45867568651  -1.14795810381  0.172088980675  
6.78312492371  1.23435497284  -1.49058992067  1.68874645233  -2.46668798128  -1.14893991152  0.16062644124  
6.79118895531  1.23996663094  -1.48615008989  1.68465709686  -2.47472316424  -1.15016156832  0.14864821732  
6.79945707321  1.24539768696  -1.48186618487  1.68069934845  -2.48256761232  -1.15156203905  0.136993557215  
6.80756306648  1.25080513954  -1.47761804262  1.67684936523  -2.49046022097  -1.15315467516  0.124978989363  
6.81566095352  1.25611650944  -1.47358543078  1.67316770554  -2.49840003649  -1.15496236483  0.112808637321  
6.82371211052  1.26106822491  -1.46963674227  1.6695098877  -2.50634032885  -1.15702230135  0.101190306246  
6.83177804947  1.26578021049  -1.46587926546  1.66598415375  -2.51423293749  -1.1592968146  0.089019946754  
6.83986496925  1.27021670341  -1.46230060259  1.66262626648  -2.52207690874  -1.16178733507  0.0769806727767  
6.84792900085  1.27443730831  -1.45880633989  1.65935182571  -2.52968198458  -1.16455299059  0.0649301558733  
6.85603094101  1.27842998505  -1.45554000536  1.65623378754  -2.53708345095  -1.16758186022  0.052496150136  
6.86413097382  1.28217089176  -1.45250016848  1.65325927734  -2.54430467287  -1.1708872954  0.0406489931047  
6.87224006653  1.28576803207  -1.44975978533  1.65034532547  -2.55169421831  -1.17439490954  0.0285505447537  
6.88032698631  1.28904128075  -1.44713908831  1.64769506454  -2.55884391466  -1.1781185309  0.0162595976144  
6.88839292526  1.29207515717  -1.44476968447  1.64511632919  -2.56587440172  -1.18221360842  0.00424466282129  
6.89645600319  1.29483258724  -1.4426630179  1.64272975922  -2.57250911394  -1.18641597429  -0.00818998018374  
6.9045650959  1.29733884335  -1.44066507021  1.64051103592  -2.57906037966  -1.19098979632  -0.0199649969684  
6.91263103485  1.2995569706  -1.43889362017  1.63840007782  -2.58558732668  -1.19592315355  -0.0320523420917  
6.92071795464  1.30166733265  -1.43731385866  1.63639783859  -2.59180337587  -1.20092803637  -0.0441992918598  
6.92878293991  1.30368185043  -1.43583041826  1.6345744133  -2.59780341784  -1.20622045199  -0.0559023062335  
6.93688797951  1.30548024178  -1.4345257918  1.63283538818  -2.60343248049  -1.21168023745  -0.0679295698749  
6.94501614571  1.30723106861  -1.43336517016  1.6313123703  -2.60888177553  -1.21743947664  -0.0796931425678  
6.95314192772  1.30880177021  -1.43245536486  1.62989711761  -2.61417514483  -1.2235100905  -0.0914085547077  
6.96120905876  1.310156703  -1.43170196215  1.62853002548  -2.61916953722  -1.22980815569  -0.10364038149  
6.96927595139  1.31133186817  -1.43110305468  1.62740278244  -2.62408000628  -1.23628598848  -0.115187470113  
6.97737908363  1.31236290932  -1.43073207537  1.62633514404  -2.62863141695  -1.24288350741  -0.127118889485  
6.98552107811  1.31325018406  -1.43045694033  1.62540006638  -2.63297874132  -1.24962503115  -0.139134232198  
6.99359107018  1.31407737732  -1.43034869829  1.624584198  -2.63701516787  -1.25661784807  -0.150634590779  
7.00168895721  1.31477284431  -1.43032533327  1.62392425537  -2.64082366625  -1.26374227205  -0.162602249776  
7.00978398323  1.3153604269  -1.43039685885  1.62334871292  -2.64454824129  -1.27104646364  -0.174425903951  
7.0179040432  1.31585180759  -1.4305527846  1.62285757065  -2.64797383944  -1.27838641802  -0.186045471822  
7.02601003647  1.31627166271  -1.43083984057  1.62250947952  -2.65103990236  -1.28599054018  -0.198193375264  
7.03409790993  1.31661951542  -1.43115073839  1.62224531174  -2.65402204195  -1.29359370867  -0.209453884755  
7.04222106934  1.31691920757  -1.43158179918  1.62202978134  -2.65684825579  -1.30136520067  -0.221169296895  
7.05028605461  1.31714689732  -1.43204862276  1.62189769745  -2.65937549273  -1.30911237398  -0.232981983815  
7.058355093  1.31736290455  -1.43255168596  1.62187337875  -2.66179496447  -1.31684762636  -0.244278256093  
7.06694197655  1.31749475002  -1.43318540255  1.62188529968  -2.66393882433  -1.32473928133  -0.255801979695  
7.07501292229  1.31754267216  -1.43378383318  1.62199354172  -2.66604644457  -1.33247453371  -0.267146412526  
7.08314108849  1.3175907135  -1.43446571032  1.62213754654  -2.66792709032  -1.34030563036  -0.27821523348  
7.09122800827  1.3175907135  -1.43513614336  1.6223654747  -2.66968757311  -1.34814960161  -0.289738957082  
7.09932303429  1.3175907135  -1.43587810198  1.62265300751  -2.67132836977  -1.35593349138  -0.300711933767  
7.10741209984  1.3175547123  -1.43657237688  1.62285757065  -2.67289764086  -1.3637769858  -0.311408821736  
7.11556696892  1.31751871109  -1.43733817736  1.62319278717  -2.67437059084  -1.37151223818  -0.322573010121  
7.12366604805  1.3175547123  -1.43813974062  1.62349271774  -2.67570001284  -1.37908059755  -0.333114449178  
7.131731987  1.31765055656  -1.43892985979  1.62380456924  -2.6769340674  -1.38668471972  -0.343727413808  
7.13982105255  1.31768655777  -1.43967181841  1.62417650223  -2.67813140551  -1.39414531389  -0.354460064565  
7.14791297913  1.31774687767  -1.44043761889  1.62453603745  -2.67924482027  -1.40157014528  -0.364402119313  
7.15601110458  1.31791460514  -1.44114333788  1.62494421005  -2.68033487002  -1.40882712999  -0.374523464833  
7.16408014297  1.31813037395  -1.44189721743  1.62543582916  -2.68135291735  -1.4162161986  -0.38493234316  
7.17217898369  1.31838202477  -1.44254380861  1.62587928772  -2.6824072043  -1.42324573198  -0.39456206957  
7.18031597137  1.31867003441  -1.44321376482  1.62629890442  -2.68349677721  -1.43025142351  -0.404095951711  
7.18843007088  1.31895756721  -1.44381219545  1.62673091888  -2.68452722231  -1.43698150316  -0.41382152239  
7.19653201103  1.31934154034  -1.44443446795  1.62715053558  -2.68561679522  -1.44360429445  -0.423294846212  
7.20465803146  1.31972503662  -1.44504481951  1.62760639191  -2.68671876589  -1.45019084612  -0.432205502187  
7.21272611618  1.3201687336  -1.44563132921  1.62808609009  -2.68791658083  -1.45654994646  -0.441247765218  
7.22082400322  1.32067251205  -1.44615775744  1.62851810455  -2.68917447725  -1.46284896532  -0.450349632894  
7.22891998291  1.32117581367  -1.44669610659  1.62887763977  -2.69046765963  -1.46896869341  -0.458767716085  
7.23702406883  1.3217997551  -1.44710332552  1.62935781479  -2.69174892107  -1.47502881685  -0.467234913503  
7.24510812759  1.32245886326  -1.4475458304  1.62975311279  -2.69307834307  -1.48090869585  -0.475821320211  
7.25319910049  1.32322657108  -1.44790488878  1.63022089005  -2.69447976748  -1.48670560518  -0.484335724507  
7.26126194  1.32405352592  -1.44825202623  1.63064050674  -2.69601279894  -1.49232227007  -0.492250744496  
7.26934909821  1.3260563612  -1.44880229632  1.63137197495  -2.69903117815  -1.50320846239  -0.508692566548  
7.27753210068  1.32723116875  -1.44906551043  1.63170814514  -2.70052844683  -1.50853759447  -0.51677495638  
7.28559803963  1.32847833633  -1.44928104082  1.6320438385  -2.70214540163  -1.51369983355  -0.524522129689  
7.29368591309  1.32972538471  -1.44943696657  1.63229608536  -2.70378619829  -1.5187180678  -0.532580677663  
7.30177807808  1.33103251457  -1.44959193865  1.63248729706  -2.70543891588  -1.52365190188  -0.540903393422  
7.30986809731  1.33245933056  -1.44961625734  1.63265562057  -2.70707971254  -1.52868253389  -0.548890415822  
7.31800103188  1.33392214775  -1.44962817827  1.63278722763  -2.70868474642  -1.53337699572  -0.556613270436  
7.3261039257  1.33548128605  -1.44954425493  1.63287115097  -2.71025354067  -1.53804809252  -0.564744297658  
7.33417010307  1.33707547188  -1.44937688509  1.6328830719  -2.71172696749  -1.54269487063  -0.573186699544  
7.34224796295  1.33868253231  -1.449137036  1.63281154633  -2.71317607561  -1.54731780687  -0.581233803426  
7.35036993027  1.34044528008  -1.44893438021  1.63273954391  -2.71460134188  -1.55178529421  -0.589340035115  
7.35852599144  1.34225606918  -1.44869500795  1.63267946243  -2.71602708498  -1.55634862581  -0.597674671804  
7.36664414406  1.34412634373  -1.44834739367  1.63246393204  -2.71740419069  -1.56073266665  -0.606333557759  
7.37474012375  1.34608089924  -1.44796449343  1.63220024109  -2.718709294  -1.56510383288  -0.614464108144  
7.38283896446  1.34820330143  -1.4475701491  1.63192415237  -2.71988326708  -1.5694993178  -0.622679058705  
7.39095497131  1.35028994083  -1.44701940218  1.63155221939  -2.7210448424  -1.57378751436  -0.631253067647  
7.39902091026  1.3525441885  -1.44642144838  1.63107252121  -2.72202712694  -1.57801515261  -0.640007797872  
7.40710711479  1.35491812229  -1.445667092  1.63046073914  -2.72296172777  -1.58208781878  -0.648186508809  
7.41517114639  1.35735285282  -1.44485360781  1.62983751297  -2.72382432619  -1.58621961275  -0.656712834035  
7.42326593399  1.35996687412  -1.44389611879  1.62905788422  -2.72465020815  -1.59019595781  -0.665683094655  
7.43135905266  1.3627127409  -1.44285470644  1.62825393677  -2.72524911562  -1.59408837954  -0.674461666738  
7.43950200081  1.36561477184  -1.44163448015  1.62729501724  -2.72582418123  -1.59794551531  -0.682951752339  
7.44760298729  1.36868429184  -1.44035369555  1.62632322311  -2.72626716295  -1.60162240664  -0.691801849996  
7.45569896698  1.3719098568  -1.43894178072  1.62517166138  -2.72656661669  -1.60521585146  -0.700916115438  
7.46379613876  1.37533962727  -1.43737394014  1.62394857407  -2.72686607042  -1.60867673555  -0.709538761769  
