Ethan-CYM/ros_catkin_ws/test/servol_正常操作/ur_joint_actual_velocity.txt
time  shoulder_pan_joint  shoulder_lift_joint  elbow_joint  wrist_1_joint  wrist_2_joint  wrist_3_joint
0.147938013077  0.000166181256645  0.000830906268675  -0.00164902943652  -0.0523231290281  0.0  -0.861713767052  
0.156038999557  -0.00134223327041  0.000830906268675  -0.00474255718291  -0.0510048642755  0.0  -0.897522628307  
0.164164066315  -0.00134223327041  0.000830906268675  -0.0064043700695  -0.0533298030496  0.0  -0.948815107346  
0.172217130661  -0.00230097118765  0.00102265388705  -0.00401391647756  -0.0555588677526  0.0  -0.976139128208  
0.180474042892  -0.00230097118765  0.00102265388705  -0.00375825306401  -0.060544308275  0.0  -0.986253798008  
0.188399076462  -0.00263333367184  0.00300404569134  -0.0054328488186  -0.0585069879889  0.0  -0.997974395752  
0.196464061737  -0.00502378726378  0.0027867318131  -0.00793835055083  -0.0566374473274  2.39684504777e-05  -1.00621950626  
0.204522132874  -0.00242880289443  0.00175129482523  -0.00576521130279  -0.0602087490261  2.39684504777e-05  -1.0141531229  
0.212625980377  -0.0064043700695  0.0014061491238  -0.00409061554819  -0.0617187619209  2.39684504777e-05  -1.00231266022  
0.220649957657  -0.00570129556581  0.00403948267922  -0.00536893308163  -0.057548251003  2.39684504777e-05  -0.983161866665  
0.228709936142  -0.00396278360859  0.00396278360859  -0.00612313998863  -0.0563977658749  2.39684504777e-05  -0.967294752598  
0.236788988113  -0.00214757304639  0.00214757304639  -0.00612313998863  -0.0603765286505  0.0156993344426  -0.949653983116  
0.244879961014  -0.00813009869307  0.00167459575459  -0.00516440207139  -0.0579796805978  0.00654338719323  -0.921443104744  
0.253000974655  -0.00418009795249  0.00480647338554  -0.00418009795249  -0.0505494624376  -0.00484162708744  -0.884052336216  
0.261066913605  -0.00237767025828  0.00342589057982  -0.00512605253607  -0.0477211847901  0.0106659606099  -0.854139685631  
0.269166946411  -0.00501100393012  0.00195582560264  -0.00357928848825  -0.0530901178718  -0.0127512160689  -0.82183021307  
0.277298927307  -0.00680064829066  0.00195582560264  -0.00561181316152  -0.0494229458272  0.0330524928868  -0.781011939049  
0.28542804718  -0.00182799377944  0.00259498413652  -0.00342589057982  -0.0418728850782  0.0323813781142  -0.692879974842  
0.293503046036  -0.00144449865911  0.00167459575459  -0.00221148901619  -0.0376304686069  -0.0125115308911  -0.651558339596  
0.301610946655  -0.00685178115964  0.00139336590655  -0.00489595532417  -0.0383255518973  -0.0266768857837  -0.605922460556  
0.309672117233  -0.0027867318131  0.00409061554819  -0.00542006548494  -0.0327169336379  0.0465227626264  -0.564792573452  
0.317770957947  -0.00223705545068  0.00375825306401  -0.00327249243855  -0.0290257930756  -0.0390925444663  -0.520283162594  
0.325855970383  -0.00480647338554  0.00208365730941  -0.00193025916815  -0.0269405394793  0.0431911498308  -0.480112046003  
0.333945035934  -0.00288899731822  0.00166181253735  -0.00166181253735  -0.0207566786557  -0.0259098950773  -0.43543484807  
0.342031955719  -0.00178964424413  0.00166181253735  -0.00467864144593  -0.0261256117374  -0.0293134152889  -0.384190291166  
0.350120067596  -0.00129110051785  0.00198139180429  -0.00288899731822  -0.0182639602572  0.0407703332603  -0.338674217463  
0.358214139938  -0.001137702493  0.00198139180429  -0.00178964424413  -0.0179284010082  -0.0355691798031  -0.302098363638  
0.366291999817  -0.00579077750444  0.00198139180429  -0.00129110051785  -0.015771239996  0.0365279205143  -0.263844698668  
0.374427080154  -0.00356650538743  0.00153398083057  -0.001137702493  -0.0140934493393  -0.0219551008195  -0.218400523067  
0.382530927658  -0.00259498413652  0.00115048559383  -0.00586747657508  -0.0117205725983  0.0259098950773  -0.189734250307  
0.390588998795  -0.00167459575459  0.000920388498344  -0.00288899731822  -0.00762196723372  -0.0323813781142  -0.157640501857  
0.398692131042  -0.00122718466446  0.000792556733359  -0.00178964424413  -0.00822117831558  0.0259098950773  -0.12303005904  
0.40674495697  -0.000294012977974  0.000792556733359  -0.00129110051785  -0.00807736814022  0.00515321688727  -0.0888270810246  
0.41482591629  -0.00395000074059  0.00224983855151  -0.0010098706698  -0.00402669981122  -0.0434308312833  -0.0451565608382  
0.422878026962  -0.00268446654081  0.00526666734368  -0.0010098706698  -0.00268446654081  0.0368874445558  -0.0215955749154  
0.430943012238  -0.00171294528991  0.00396278360859  -0.0010098706698  0.000503337476403  -0.0394520685077  -0.0161787047982  
0.439050912857  -0.00125275098253  0.00214757304639  -0.0010098706698  0.000503337476403  0.0259098950773  0.0323813781142  
0.447158098221  -0.000984304351732  0.00147006497718  -0.0010098706698  0.00570449139923  0.004889564123  0.0741823539138  
0.455269098282  -0.000818123109639  0.00112491927575  -0.00093317165738  0.00496146921068  0.0129429632798  0.0602566860616  
0.463422060013  -0.000779773574322  0.000907605339307  -0.000779773574322  0.00306796166115  -0.0237287655473  0.0786644518375  
0.471504926682  -0.000779773574322  0.000651941867545  -0.000664725026581  0.0125354994088  0.0277075283229  0.0932372733951  
0.479612112045  -0.00245436932892  0.000651941867545  -0.000588025955949  0.00762196723372  -0.0185036435723  0.105317369103  
0.487700939178  -0.00245436932892  0.0  -0.000511326943524  0.00385892065242  0.0215955749154  0.122670531273  
0.495796918869  -0.00163624621928  0.0  -0.000460194249172  0.0185036435723  0.00575242796913  0.128375023603  
0.503858089447  0.0  0.0  -0.000421844713856  0.00807736814022  -0.038685079664  0.143091648817  
0.511913061142  0.0  0.0  -0.000383495207643  0.00402669981122  0.0346823483706  0.147549778223  
0.520015001297  0.0  0.0  -0.000357928860467  0.0212839841843  -0.0345145687461  0.156537950039  
0.528114080429  0.0  0.0  -0.000345145672327  0.00807736814022  0.0215955749154  0.159030675888  
0.536204099655  0.0  0.0  -0.000345145672327  0.0263413265347  0.00599211268127  0.169121384621  
0.544270038605  0.0  0.0  -0.000345145672327  0.0107858031988  -0.0432870239019  0.170415684581  
0.552474975586  0.0  0.0  -0.000345145672327  0.00407463684678  0.0376544371247  0.16439960897  
0.560574054718  0.0  0.0  -0.000345145672327  0.0215955749154  -0.0215955749154  0.165621995926  
0.568661928177  0.0  0.0  -0.000345145672327  -0.00220509758219  0.0259098950773  0.16483104229  
0.576748132706  0.0  0.0  -0.000345145672327  0.0318061336875  0.00596814416349  0.164663255215  
0.584846019745  0.0  0.0  -0.000345145672327  -0.0126793105155  -0.0416811369359  0.159605920315  
0.592903137207  0.0  0.0  -0.0  0.0259098950773  0.0329566188157  0.150330126286  
0.601002931595  0.0  0.0  -0.0  0.00766990426928  -0.0259098950773  0.153134435415  
0.609089136124  0.0  0.0  -0.0  -0.00512924836949  0.0185036435723  0.145800083876  
0.617146968842  0.0  0.0  -0.0  0.0125115308911  -0.0290737301111  0.137483030558  
0.625266075134  0.0  0.0  -0.0  0.00388288893737  -0.0046019423753  0.137483030558  
0.633343935013  0.0  0.0  -0.0  0.0161787047982  0.04379035905  0.125546738505  
0.641430139542  0.0  0.0  -0.0  0.0042184474878  -0.040914144367  0.12108861655  
0.649523973465  0.0  0.0  -0.0  0.0147166289389  0.0421365350485  0.111692979932  
0.657585144043  0.0  0.0  -0.0  0.0311829540879  -0.0259098950773  0.104790069163  
0.665673971176  0.0  0.0  -0.0  -0.00388288893737  -0.00548877520487  0.0982706472278  
0.673764944077  0.0  0.0  -0.0  0.0489915125072  0.0458037108183  0.0904329642653  
0.681859970093  0.0  0.0  -0.0  -0.0271802227944  -0.0546480678022  0.0801025629044  
0.689945936203  0.0  0.0  -0.0  0.0447970330715  0.0407943017781  0.0797670036554  
0.698013067245  0.0  0.0  -0.0  -0.0259098950773  -0.0259098950773  0.0652900636196  
0.706116914749  0.0  0.0  -0.0  0.0259098950773  -0.00402669981122  0.0586268305779  
0.714179992676  0.0  0.0  -0.0  -0.0161787047982  0.0483203977346  0.0567333213985  
0.722262144089  0.0  0.0  -0.0  0.013901701197  -0.0433109886944  0.0464987941086  
0.730376005173  0.0  0.0  -0.0  -0.00917991623282  0.0305597744882  0.0374626889825  
0.738512992859  0.0  0.0  -0.0  0.0136620169505  -0.0259098950773  0.0302002485842  
0.74659705162  0.0  0.0  -0.0  0.00402669981122  0.0104502448812  0.0258619580418  
0.754709005356  0.0  0.0  -0.0  -0.00359526765533  0.00433828961104  0.025142904371  
0.762800931931  0.0  0.0  -0.0  0.0423522517085  -0.0349939391017  0.0174969695508  
0.770913124084  0.0  0.0  -0.0  -0.0352575927973  0.0397157222033  0.0222187545151  
0.779004096985  0.0  0.0  -0.0  0.0420885980129  -0.0323813781142  0.0161787047982  
0.787114143372  0.0  0.0  -0.0  -0.0246395673603  0.0259098950773  0.00539290159941  
0.795217990875  0.0  0.0  -0.0  0.0290737301111  0.00419447897002  0.00323574081995  
0.803317070007  0.0  0.0  -0.0  -0.0259098950773  -0.047002132982  0.00230097118765  
0.811424970627  0.0  0.0  -0.0  0.0259098950773  0.0494708828628  -0.0200855620205  
0.819505929947  0.0  0.0  -0.0  -0.0196061935276  -0.0259098950773  0.0026125612203  
0.827605009079  0.0  0.0  -0.0  0.0133983641863  0.031063111499  -0.0427836850286  
0.835690975189  0.0  0.0  -0.0  0.00340351997875  -0.0101626226678  -0.0074781565927  
0.843778133392  0.0  0.0  -0.0  -0.0414174832404  -0.00433828961104  -0.0374626889825  
0.851891994476  0.0  0.0  -0.0  0.0415852628648  0.0458516478539  -0.0117685096338  
0.859985113144  0.0  0.0  -0.0  -0.0462111718953  -0.0376304686069  -0.0468343533576  
0.868106126785  0.0  0.0  -0.0  0.0400512814522  0.0259098950773  -0.0186953917146  
0.87624001503  0.0  0.0  -0.0  -0.0370312556624  -0.0215955749154  -0.0320218503475  
0.884346961975  0.0  0.0  -0.0  0.0259098950773  -0.00371510977857  -0.0244957562536  
0.892481088638  0.0  0.0  -0.0  -0.0259098950773  0.0438622646034  -0.0307754911482  
0.90055513382  0.0  0.0  -0.0  0.0185036435723  -0.0413695462048  -0.021307952702  
0.908613920212  0.0  0.0  -0.0  -0.0166341047734  0.00268446654081  -0.0281629301608  
0.916671991348  0.0  0.0  -0.0  -0.0242081359029  -0.0027803403791  -0.0231055859476  
0.924736976624  0.0  0.0  -0.0  0.0429994016886  0.00316383549944  -0.0419687591493  
0.93282699585  0.0  0.0  -0.0  -0.036240298301  -0.0305358059704  -0.0188392028213  
0.940916061401  0.0  0.0  -0.0  0.0371750667691  0.0390685759485  -0.0332682095468  
0.949039936066  0.0  0.0  -0.0  -0.0273959394544  -0.0336277373135  -0.0151959974319  
0.957134962082  0.0  0.0  -0.0  0.0215955749154  0.0323813781142  -0.024304009974  
0.965239048004  0.0  0.0  -0.0  -0.0183118972927  0.00498543772846  -0.0222187545151  
0.973353147507  0.0  0.0  -0.0  0.00400273129344  0.0393561944366  -0.0320218503475  
0.98141002655  0.0  0.0  -0.0  -0.00390685768798  -0.0323813781142  -0.0259098950773  
0.989473104477  0.0  0.0  -0.0  0.0426878109574  -0.0049375006929  -0.028498487547  
0.997524023056  0.0  0.0  -0.0  -0.0468583218753  0.042735747993  -0.0217633526772  
1.0055680275  0.0  0.0  -0.0  0.0401950925589  -0.0441019497812  -0.0197979398072  
1.01365995407  0.0  0.0  -0.0  -0.0414654202759  0.0395479425788  -0.0215955749154  
1.02174592018  0.0  0.0  -0.0  0.0323813781142  -0.0283546764404  -0.00690291402861  
1.02980709076  0.0  0.0  -0.0  -0.0259098950773  -0.0051052798517  -0.0215955749154  
1.03789401054  0.0  0.0  -0.0  0.0185036435723  0.0342269465327  -0.00239684502594  
1.0459830761  0.0  0.0  -0.0  0.0040986048989  -0.0424241572618  -0.0207087416202  
1.05407309532  0.0  0.0  -0.0  -0.00354733061977  0.0402430295944  -0.00807736814022  
1.0622150898  0.0  0.0  -0.0  0.0442217923701  -0.0323813781142  -0.0334120206535  
1.07031702995  0.0  0.0  -0.0  -0.0426638424397  0.0199896879494  0.00337955146097  
1.07837700844  0.0  0.0  -0.0  0.0376304686069  0.0326450318098  -0.0350898131728  
1.08646702766  0.0  0.0  -0.0  -0.0360485501587  -0.0307515226305  0.0206368360668  
1.09453511238  0.0  0.0  -0.0  0.0259098950773  0.0419447906315  -0.0408901758492  
1.10259699821  0.0  0.0  -0.0  -0.0215955749154  -0.0215955749154  0.0215955749154  
1.110683918  0.0  0.0  -0.0  -0.00381098361686  0.0259098950773  -0.0138537641615  
1.11874103546  0.0  0.0  -0.0  0.0272041913122  -0.0120561309159  -0.00453003728762  
1.12712097168  0.0  0.0  -0.0  -0.0421365350485  -0.00340351997875  0.0300564374775  
1.13521003723  0.0  0.0  -0.0  0.0343467891216  0.0371990352869  -0.0382776148617  
1.14330196381  0.0  0.0  -0.0  -0.0379660278559  -0.0323813781142  0.0379180908203  
1.15146303177  0.0  0.0  -0.0  0.0364799834788  0.0323813781142  -0.018863171339  
1.15956902504  0.0  0.0  -0.0  -0.0323813781142  -0.0161787047982  -0.02701244317  
1.16765594482  0.0  0.0  -0.0  0.0215955749154  -0.0040986048989  0.0437184534967  
1.17576599121  0.0  0.0  -0.0  0.00400273129344  0.0350179076195  -0.0259098950773  
1.18388009071  0.0  0.0  -0.0  -0.0494948513806  -0.0410819239914  0.0188392028213  
1.19197201729  0.0  0.0  -0.0  0.0474814996123  0.0334359891713  0.00433828961104  
1.20008611679  0.0  0.0  -0.0  -0.0453243404627  -0.0344906002283  -0.045611962676  
1.20823502541  0.0  0.0  -0.0  0.0345145687461  0.0259098950773  0.0431911498308  
1.21630692482  0.0  0.0  -0.0  -0.0312788300216  0.00417051045224  -0.0259098950773  
1.22448301315  0.0  0.0  -0.0  0.0215955749154  -0.0505254939198  0.0146207548678  
1.23258304596  0.0  0.0  -0.0  -0.0259098950773  0.0431911498308  0.0492072291672  
1.24067807198  0.0  0.0  -0.0  0.0215955749154  -0.0323813781142  -0.0472418181598  
1.24877500534  0.0  0.0  -0.0  -0.02722815983  0.0180722121149  0.0323813781142  
1.25684809685  0.0  0.0  -0.0  0.0256702098995  0.0277314968407  -0.0181201491505  
1.26491093636  0.0  0.0  -0.0  -0.010474213399  -0.0469541959465  -0.00536893308163  
1.27297306061  0.0  0.0  -0.0  -0.00414654193446  0.0441498868167  0.0497345365584  
1.28106093407  0.0  0.0  -0.0  0.0335078947246  -0.0259098950773  -0.0431911498308  
1.28915095329  0.0  0.0  -0.0  -0.0299845319241  0.0161787047982  0.0323813781142  
1.2972369194  0.0  -0.0183566380292  -0.0  0.0414654202759  0.00469781644642  0.0360485501587  
1.30526709557  0.0  -0.0286854412407  -0.0145600344986  -0.038685079664  -0.00383495213464  0.0185036435723  
1.31341505051  -3.83495207643e-05  -0.0497776791453  -0.021168936044  0.0275397505611  0.0517239160836  0.0673992857337  
1.32148313522  -0.00928058382124  -0.0752161964774  -0.03232864663  -0.0259098950773  0.00889229495078  0.0403149351478  
1.32954502106  -0.00357928848825  -0.109564580023  -0.0430281609297  0.0142132909968  0.0453243404627  0.0718334466219  
1.33764505386  -0.00236488715746  -0.143401637673  -0.0559136010706  -0.0161787047982  0.0401950925589  0.108720891178  
1.3457660675  -0.00462750904262  -0.189881265163  -0.0736566483974  0.0215955749154  0.0451086238027  0.136092856526  
1.35382509232  -0.00442297803238  -0.235018640757  -0.092128328979  0.048392303288  0.0580995231867  0.177438437939  
1.36188912392  -0.00227540498599  -0.275554090738  -0.108861505985  0.0215955749154  0.0694366022944  0.218927830458  
1.36995005608  -0.00153398083057  -0.316051185131  -0.125939831138  0.0557985529304  0.0777296870947  0.263077706099  
1.37801098824  0.00784886814654  -0.365624338388  -0.142660215497  0.0442697294056  0.0854954645038  0.310727000237  
1.38610601425  0.00708187790588  -0.397007018328  -0.156504392624  0.0711143910885  0.103256084025  0.359574705362  
1.3941950798  0.0154548566788  -0.436622083187  -0.168418318033  0.0932612419128  0.101386547089  0.402478218079  
1.40232992172  0.0125275095925  -0.45986187458  -0.179974302649  0.119818285108  0.119195103645  0.444039523602  
1.41047501564  0.0162985455245  -0.486693769693  -0.190507635474  0.141485765576  0.109535820782  0.484737962484  
1.41858196259  0.0177430454642  -0.506520450115  -0.198241457343  0.167587414384  0.128638669848  0.518126010895  
1.42666196823  0.0133967660367  -0.520364642143  -0.205323338509  0.189518541098  0.127320408821  0.553623259068  
1.43474411964  0.0164902936667  -0.526411056519  -0.212341293693  0.217849254608  0.130963608623  0.578310787678  
1.44283103943  0.012028966099  -0.532099604607  -0.217850849032  0.234147801995  0.137363195419  0.60357350111  
1.45089507103  0.0120417494327  -0.528213500977  -0.222082078457  0.261927217245  0.134175390005  0.627853572369  
1.45899605751  0.0114665068686  -0.525759160519  -0.227987900376  0.278297692537  0.139975756407  0.645638167858  
1.46705794334  0.00676229875535  -0.524621427059  -0.230812981725  0.296513706446  0.132713317871  0.655081748962  
1.47515797615  0.00375825306401  -0.51241350174  -0.236654892564  0.31348335743  0.134079515934  0.664860844612  
1.48321509361  0.00196860870346  -0.507300257683  -0.244925603271  0.323238521814  0.135517627001  0.667976737022  
1.49131894112  -0.0143682872877  -0.495820939541  -0.248568803072  0.332682102919  0.128470897675  0.672195196152  
1.49938797951  -0.0124891605228  -0.478052347898  -0.255778521299  0.341406613588  0.12851883471  0.668192446232  
1.5074930191  -0.0230224952102  -0.464233726263  -0.260751187801  0.352887511253  0.130220592022  0.663950026035  
1.51558208466  -0.0243647284806  -0.443972408772  -0.263652950525  0.355787694454  0.117733031511  0.648778021336  
1.52367997169  -0.0333640836179  -0.425602972507  -0.273201972246  0.360413581133  0.119243040681  0.638471603394  
1.53178691864  -0.0392826907337  -0.403884381056  -0.283402949572  0.363841086626  0.11150123179  0.618649661541  
1.53985214233  -0.0458021089435  -0.382242441177  -0.294319778681  0.36197155714  0.110111065209  0.603429734707  
1.54794502258  -0.0533953160048  -0.361763805151  -0.307767689228  0.373620212078  0.0979590564966  0.58617246151  
1.55603909492  -0.0610268712044  -0.343892931938  -0.321509599686  0.376017063856  0.101626232266  0.563426375389  
1.56415700912  -0.0700134411454  -0.317214459181  -0.335085332394  0.372206062078  0.0902412161231  0.541447281837  
1.57224106789  -0.0769547075033  -0.305121570826  -0.349530309439  0.373236715794  0.0936687067151  0.519995510578  
1.58028507233  -0.0827838331461  -0.282111853361  -0.363681286573  0.368011593819  0.0829548090696  0.491209417582  
1.58834004402  -0.0876158699393  -0.27010846138  -0.376924663782  0.367052853107  0.0704912170768  0.461153000593  
1.59650206566  -0.092128328979  -0.256967365742  -0.389490514994  0.365351080894  0.0745179131627  0.429826229811  
1.60455107689  -0.092217810452  -0.236744374037  -0.397007018328  0.364967614412  0.0661049857736  0.403484910727  
1.61265301704  -0.0957843214273  -0.237651973963  -0.416999906301  0.375369906425  0.059993032366  0.378965169191  
1.62077713013  -0.0967814102769  -0.227118641138  -0.429872572422  0.380690902472  0.0589623898268  0.351952731609  
1.62886214256  -0.0997215360403  -0.219704404473  -0.446286141872  0.385748237371  0.0554869621992  0.320362299681  
1.6369600296  -0.098801150918  -0.215907797217  -0.458046674728  0.395359605551  0.0499023161829  0.291480332613  
1.64505410194  -0.0978296250105  -0.213696315885  -0.471545696259  0.405809849501  0.0432870239019  0.269189685583  
1.65313196182  -0.0987244471908  -0.20919662714  -0.484878540039  0.414054989815  0.0459954552352  0.234770968556  
1.66119003296  -0.0949917659163  -0.205348894  -0.499413013458  0.42433744669  0.0467145107687  0.209628075361  
1.66930103302  -0.0941225066781  -0.208889842033  -0.510559976101  0.439821064472  0.0418489165604  0.186810106039  
1.67739200592  -0.0894055142999  -0.211216375232  -0.527804434299  0.463861435652  0.0398115962744  0.131778538227  
1.68545913696  -0.0888047069311  -0.211254730821  -0.538388907909  0.479608714581  0.0406504906714  0.115312218666  
1.69352507591  -0.0854682996869  -0.214961841702  -0.545803129673  0.499095052481  0.0417770110071  0.0898577198386  
1.7016210556  -0.0819657072425  -0.219372034073  -0.555531144142  0.511726438999  0.0379660278559  0.0684778615832  
1.70969510078  -0.0753951594234  -0.221366211772  -0.563086032867  0.52419000864  0.0354493372142  0.0376065000892  
1.71778297424  -0.0748327001929  -0.223782241344  -0.568787276745  0.539481878281  0.0319978818297  0.0235370192677  
1.72588014603  -0.0712022781372  -0.23198902607  -0.574245691299  0.549932122231  0.0316862910986  0.0183598324656  
1.73399591446  -0.0666770339012  -0.230800196528  -0.580458343029  0.569178819656  0.0377023741603  -0.00354733061977  
1.74208593369  -0.064222663641  -0.233689188957  -0.582631468773  0.577807426453  0.0373428463936  -0.00939563289285  
1.75021195412  -0.0584318861365  -0.24124404788  -0.588051557541  0.594872951508  0.0388768278062  -0.0422563776374  
1.75841808319  -0.0553894899786  -0.240528196096  -0.589278757572  0.608942449093  0.0373428463936  -0.050621367991  
1.7664949894  -0.0513116568327  -0.240157485008  -0.597370505333  0.625384807587  0.0398835018277  -0.0506932735443  
1.77459692955  -0.0466074496508  -0.249476417899  -0.601358830929  0.634564757347  0.0395000055432  -0.0641635432839  
1.78266406059  -0.0432710424066  -0.250384032726  -0.599083423615  0.64616549015  0.045611962676  -0.0682142078876  
1.79078102112  -0.0375825315714  -0.252339839935  -0.607175171375  0.658533155918  0.0427117794752  -0.0725045651197  
1.79886603355  -0.0354477390647  -0.258680313826  -0.608479082584  0.669990122318  0.0461632348597  -0.0846325978637  
1.8069589138  -0.0281485486776  -0.26376798749  -0.611725986004  0.682118117809  0.0432630553842  -0.0826432183385  
1.81504893303  -0.0281741134822  -0.264675617218  -0.612620830536  0.700789570808  0.0503337457776  -0.0929017141461  
1.82314991951  -0.0221276730299  -0.270249068737  -0.61625123024  0.703857541084  0.0606401786208  -0.0942918881774  
1.83125591278  -0.0212584175169  -0.277791142464  -0.617593467236  0.720227956772  0.0614071711898  -0.0943877622485  
1.83943796158  -0.0190085787326  -0.279670268297  -0.614142000675  0.728856623173  0.0662487968802  -0.100044310093  
1.84748005867  -0.0159661844373  -0.287621408701  -0.614142000675  0.739498615265  0.0740864798427  -0.0996368527412  
1.85556101799  -0.0168354399502  -0.294741630554  -0.610831141472  0.752441585064  0.0789520740509  -0.102608941495  
1.86368393898  -0.0157616529614  -0.296607971191  -0.608760297298  0.763754665852  0.0784727111459  -0.0970242917538  
1.87175107002  -0.0159917492419  -0.309710741043  -0.609795749187  0.776242256165  0.0886353328824  -0.100547648966  
1.87981104851  -0.0153142418712  -0.310643911362  -0.606152534485  0.77897465229  0.0958498343825  -0.0933810845017  
1.88791394234  -0.018037058413  -0.324551999569  -0.599351882935  0.796471595764  0.102297350764  -0.0994690731168  
1.89600110054  -0.0177174787968  -0.329409599304  -0.596833586693  0.806418538094  0.104550383985  -0.0907205864787  
1.90407013893  -0.0192642416805  -0.336580961943  -0.593867897987  0.814903378487  0.113274894655  -0.088131994009  
1.91218614578  -0.0197116527706  -0.349146813154  -0.589611113071  0.828421592712  0.119171135128  -0.0885154902935  
1.92025899887  -0.0264995191246  -0.354733079672  -0.585443794727  0.830219209194  0.135206028819  -0.0796471610665  
1.93112397194  -0.030232205987  -0.367592930794  -0.581404268742  0.839638769627  0.128231212497  -0.0787363573909  
1.93922591209  -0.03773592785  -0.369868338108  -0.574488580227  0.848291397095  0.146782785654  -0.0735112354159  
1.94733405113  -0.042977027595  -0.376144886017  -0.563047647476  0.841580271721  0.149131700397  -0.0673992857337  
1.95545101166  -0.0570513047278  -0.385975152254  -0.55636203289  0.850784122944  0.154404759407  -0.0641156062484  
1.96352505684  -0.0733370631933  -0.398758322001  -0.549062848091  0.864901542664  0.15835955739  -0.057883810252  
1.97162413597  -0.0865676477551  -0.397978544235  -0.539296507835  0.867490112782  0.170247912407  -0.0472897551954  
1.97974395752  -0.112006165087  -0.413625150919  -0.531856715679  0.879330575466  0.167036131024  -0.0488237328827  
1.98783993721  -0.135872349143  -0.420221269131  -0.524212360382  0.885921895504  0.172500938177  -0.0485600829124  
1.99592399597  -0.161042422056  -0.432531446218  -0.511416435242  0.884459793568  0.17343570292  -0.0474575310946  
2.00404596329  -0.186851650476  -0.43866738677  -0.496958643198  0.896012604237  0.176192075014  -0.033459957689  
2.01218295097  -0.214897930622  -0.450415104628  -0.482539236546  0.904065966606  0.179955124855  -0.0272041913122  
2.02042794228  -0.242458447814  -0.457854926586  -0.469321429729  0.900998055935  0.168618053198  -0.0304639004171  
2.02844905853  -0.269622683525  -0.466381311417  -0.447705090046  0.903227090836  0.165478184819  -0.0240403562784  
2.03654313087  -0.297362178564  -0.475508481264  -0.431508809328  0.918159425259  0.158000022173  -0.0238006711006  
2.04468607903  -0.329064458609  -0.480327755213  -0.408256202936  0.910968899727  0.162506103516  -0.0178085584193  
2.05281209946  -0.355500042439  -0.494606554508  -0.386563152075  0.912550806999  0.153733640909  -0.0178564954549  
2.06093907356  -0.387304604053  -0.503593146801  -0.363681286573  0.914540231228  0.136356517673  -0.0129429632798  
2.06906414032  -0.414762854576  -0.515685975552  -0.337833702564  0.913413703442  0.137626841664  -0.00496146921068  
2.07717108727  -0.450721919537  -0.530028700829  -0.312075614929  0.908284425735  0.127080723643  -0.00369114149362  
2.08541107178  -0.514126479626  -0.548704922199  -0.255778521299  0.900566577911  0.104502446949  0.00795752555132  
2.0934779644  -0.547209322453  -0.557640373707  -0.227578833699  0.885921895504  0.091343767941  0.00719053531066  
2.10155296326  -0.575754106045  -0.562728106976  -0.200631901622  0.887000441551  0.0789281055331  0.00230097118765  
2.10965013504  -0.603915452957  -0.566575825214  -0.17413239181  0.880720734596  0.0653140246868  0.0261735487729  
2.11771011353  -0.634799599648  -0.574437439442  -0.15021507442  0.866315662861  0.0447730645537  0.00680703995749  
2.12582993507  -0.660212576389  -0.575511276722  -0.123587720096  0.850400626659  0.0214277952909  0.0313267633319  
2.13388991356  -0.681867241859  -0.579844772816  -0.0991974249482  0.844001054764  0.0162985473871  0.0160828307271  
2.14195108414  -0.702767729759  -0.577173054218  -0.0738611742854  0.823627889156  0.00536893308163  0.0159150511026  
2.15007591248  -0.718849003315  -0.574731469154  -0.049764893949  0.806418538094  -0.0353534631431  0.0117685096338  
2.15816092491  -0.745910942554  -0.570768713951  -0.025745311752  0.786620557308  -0.0212839841843  0.0242560729384  
2.16626811028  -0.772768378258  -0.562728106976  -0.00977912731469  0.759512245655  -0.0479369014502  0.0111213615164  
2.17443704605  -0.797094762325  -0.553818225861  0.0187017824501  0.741080522537  -0.0595855675638  0.0021092237439  
2.18253898621  -0.815093517303  -0.546237766743  0.0406504906714  0.722864508629  -0.075356811285  0.0259098950773  
2.19059801102  -0.83105969429  -0.537417411804  0.0543157048523  0.687127530575  -0.0851119682193  0.0039308257401  
2.1986989975  -0.844303071499  -0.522767901421  0.0684411078691  0.66294336319  -0.106779448688  0.0278992764652  
2.20712399483  -0.864947855473  -0.504858672619  0.0833846405149  0.631424844265  -0.122622594237  0.00719053531066  
2.21826100349  -0.886001765728  -0.487358480692  0.101587876678  0.604196727276  -0.142348632216  0.0371750667691  
2.22647213936  -0.902082979679  -0.470804274082  0.117784157395  0.570592939854  -0.154548570514  0.0120321623981  
2.23453497887  -0.913741230965  -0.468234866858  0.130695164204  0.542789518833  -0.170056164265  0.0454441830516  
2.24262309074  -0.925808548927  -0.445519149303  0.13946442306  0.511750400066  -0.190477281809  0.0107138976455  
2.25070905685  -0.938540577888  -0.425602972507  0.151493385434  0.476348996162  -0.208118051291  0.0308713652194  
2.25880813599  -0.949342370033  -0.413177728653  0.163854718208  0.441810458899  -0.220581650734  0.0144050391391  
2.26689505577  -0.957843184471  -0.394373685122  0.173096954823  0.41388720274  -0.230648398399  0.0371510982513  
2.27499914169  -0.972198665142  -0.382242441177  0.176970258355  0.376951813698  -0.246731236577  0.0185036435723  
2.28313803673  -0.979791879654  -0.361137419939  0.183208435774  0.347422689199  -0.261375963688  0.037079192698  
2.29124093056  -0.989161968231  -0.348712176085  0.195544198155  0.312380820513  -0.273072570562  0.0124156577513  
2.29939603806  -0.98847168684  -0.332132428885  0.20044015348  0.292966365814  -0.289562851191  0.0373668149114  
2.30748200417  -0.994671523571  -0.319515407085  0.201948568225  0.256606221199  -0.296609580517  0.0165382307023  
2.31557393074  -1.00107586384  -0.306029170752  0.204530775547  0.227029159665  -0.309888094664  0.0415133573115  
2.32367110252  -1.00391376019  -0.292261689901  0.211906671524  0.203252464533  -0.315041303635  0.0507172420621  
2.33172392845  -1.006534338  -0.28404211998  0.216406345367  0.179403856397  -0.324221223593  0.0539769493043  
2.33982300758  -1.01532912254  -0.267769128084  0.212008938193  0.151432678103  -0.331891149282  0.0598252527416  
2.34793806076  -1.01642847061  -0.254001647234  0.209273338318  0.127176597714  -0.338961839676  0.0725764706731  
2.35600805283  -1.01521408558  -0.246382892132  0.212123975158  0.107594378293  -0.342485189438  0.0820679739118  
2.36410093307  -1.01642847061  -0.234494537115  0.212673664093  0.0746617242694  -0.35451734066  0.0881559625268  
2.3721909523  -1.02527439594  -0.226620092988  0.204824790359  0.0495427884161  -0.360413581133  0.103351958096  
2.38028693199  -1.02453303337  -0.215498745441  0.196515724063  0.0289299208671  -0.367628097534  0.107498504221  
2.38842892647  -1.02156734467  -0.205757960677  0.194623813033  0.0220509748906  -0.375441819429  0.124012760818  
2.39651703835  -1.02725577354  -0.195390805602  0.189536109567  0.00615989184007  -0.387977302074  0.125642612576  
2.40459799767  -1.03351962566  -0.178977206349  0.17546184361  -0.00345145701431  -0.390997350216  0.144266098738  
2.41268897057  -1.03341734409  -0.167191132903  0.166181251407  -0.0410819239914  -0.394161164761  0.152295529842  
2.42076706886  -1.03013205528  -0.153116852045  0.161157473922  -0.0466905422509  -0.400992184877  0.158886864781  
2.42884397507  -1.0254534483  -0.144973963499  0.153640955687  -0.0506453365088  -0.404419660568  0.169912353158  
2.4391181469  -1.03625512123  -0.113898076117  0.125786423683  -0.0599690638483  -0.418393284082  0.19282618165  
2.44722414017  -1.03730344772  -0.105512313545  0.120123483241  -0.0675670653582  -0.422204256058  0.199681162834  
2.45536494255  -1.03959155083  -0.0959632843733  0.108120083809  -0.0698200985789  -0.428436070681  0.206440269947  
2.46345210075  -1.03553926945  -0.0833207219839  0.0924223437905  -0.075908087194  -0.429227024317  0.215260654688  
2.471544981  -1.03225409985  -0.0696555152535  0.0856472626328  -0.0816125720739  -0.431048631668  0.216842576861  
2.47966909409  -1.0254534483  -0.061883341521  0.0793707221746  -0.0782330259681  -0.437208503485  0.226070433855  
2.4877550602  -1.03250968456  -0.0533314011991  0.0618322119117  -0.0868616625667  -0.440707892179  0.23086412251  
2.49582099915  -1.03050279617  -0.0389631129801  0.0467608496547  -0.0865261107683  -0.438838362694  0.235585898161  
2.50389909744  -1.0254534483  -0.0280207172036  0.0368411056697  -0.0824275016785  -0.44157075882  0.235945433378  
2.51198410988  -1.02058303356  -0.0216163471341  0.0311398115009  -0.0869095996022  -0.44157075882  0.235082566738  
2.52005410194  -1.02329301834  -0.0138569604605  0.0155826881528  -0.0792157277465  -0.443224579096  0.237071946263  
2.52811312675  -1.01109790802  -0.00470420764759  0.0062765381299  -0.0791438221931  -0.441978245974  0.229809507728  
2.53620314598  -0.998480916023  0.0149179631844  -0.00104822020512  -0.0749014094472  -0.440707892179  0.233452707529  
2.54430913925  -0.993342041969  0.0102265384048  -0.0250678025186  -0.0654338672757  -0.440468221903  0.224632322788  
2.55241107941  -0.985953390598  0.0287621412426  -0.0368922390044  -0.0609757378697  -0.440875679255  0.221396580338  
2.56044793129  -0.969105184078  0.0352176427841  -0.049931075424  -0.0607360526919  -0.439509481192  0.216051608324  
2.56854510307  -0.961588680744  0.0436417534947  -0.0516312383115  -0.0441978238523  -0.437879621983  0.214613512158  
2.5766711235  -0.946849644184  0.0489084236324  -0.0638008192182  -0.0335078947246  -0.44394364953  0.207854405046  
2.58473300934  -0.937760829926  0.0580995231867  -0.0831161960959  -0.0282827727497  -0.442936956882  0.201958164573  
2.59285092354  -0.918509364128  0.0703713670373  -0.0980213731527  -0.0182160232216  -0.439221858978  0.195822238922  
2.60095500946  -0.894438624382  0.0805212110281  -0.103288039565  -0.0132305845618  -0.436273753643  0.190597116947  
2.60905313492  -0.879009366035  0.0879993662238  -0.11521474272  -0.00719053531066  -0.434356272221  0.184269443154  
2.61714696884  -0.855079233646  0.0999772027135  -0.136907786131  -0.00352336233482  -0.433972775936  0.180194810033  
2.62525701523  -0.837170004845  0.114562802017  -0.14978043735  0.0338194854558  -0.431192427874  0.172117441893  
2.63345909119  -0.813917458057  0.12825357914  -0.155622348189  0.0331243984401  -0.426278889179  0.159486070275  
2.64154100418  -0.790230214596  0.141484171152  -0.16739565134  0.0394760370255  -0.41841724515  0.161379575729  
2.64964199066  -0.760688304901  0.156619444489  -0.187759250402  0.0503097772598  -0.413096249104  0.154332861304  
2.65774011612  -0.732910454273  0.175321221352  -0.206422686577  0.0529942438006  -0.407583504915  0.145033091307  
2.66583108902  -0.70340692997  0.195058450103  -0.217045500875  0.0679026246071  -0.397588670254  0.137267321348  
2.67392706871  -0.678108990192  0.208889842033  -0.224881589413  0.0714020133018  -0.391860187054  0.137530967593  
2.68206191063  -0.644284725189  0.22913838923  -0.241282403469  0.076603166759  -0.37803041935  0.11871573329  
2.69019198418  -0.616059482098  0.246574640274  -0.260648906231  0.0856632441282  -0.365279197693  0.116918101907  
2.69830107689  -0.580036520958  0.265634357929  -0.275426268578  0.0854954645038  -0.358472138643  0.109296135604  
2.70639491081  -0.548129677773  0.28576785326  -0.289244860411  0.099445104599  -0.34440267086  0.102680839598  
2.71446704865  -0.516465783119  0.313264459372  -0.301235496998  0.102608941495  -0.333976387978  0.0916553586721  
2.72256708145  -0.476837933064  0.333308458328  -0.318007022142  0.105293400586  -0.324460923672  0.0914636105299  
2.73068714142  -0.445659786463  0.352636635303  -0.332132428885  0.103759422898  -0.309672385454  0.0755964964628  
2.73878002167  -0.40940669179  0.372156530619  -0.346692442894  0.10934407264  -0.297280699015  0.0702994689345  
2.74683594704  -0.370839864016  0.396866410971  -0.361035168171  0.110662333667  -0.283163279295  0.0691489800811  
2.75493907928  -0.332784354687  0.420029520988  -0.371210575104  0.111597105861  -0.264156281948  0.0529702752829  
2.76303100586  -0.303114622831  0.439076453447  -0.381552159786  0.107043102384  -0.248864427209  0.0454202145338  
2.77114892006  -0.272550046444  0.460782259703  -0.39185538888  0.115192376077  -0.237071946263  0.0457557737827  
2.77922296524  -0.239684507251  0.48391982913  -0.40545669198  0.109607726336  -0.219670847058  0.0399074703455  
2.78734207153  -0.204978182912  0.49658793211  -0.415465921164  0.107762157917  -0.205553427339  0.0319499447942  
2.79543805122  -0.167536273599  0.516938745975  -0.425130009651  0.0986301749945  -0.187361374497  0.0271322857589  
2.80350112915  -0.138620734215  0.532598137856  -0.436097949743  0.0988219231367  -0.17645573616  0.0205649305135  
2.81158304214  -0.111469276249  0.545803129673  -0.444394230843  0.0903850272298  -0.163249120116  0.0197020657361  
2.81967902184  -0.0882166773081  0.555083751678  -0.448063015938  0.0857591181993  -0.155219689012  0.0161787047982  
2.82774496078  -0.0669199153781  0.574897646904  -0.452575474977  0.082259722054  -0.133360460401  0.00532099604607  
2.83584499359  -0.0412257350981  0.582861602306  -0.457254111767  0.0719532892108  -0.12108861655  0.018647454679  
2.84396696091  -0.0188423972577  0.58709281683  -0.454301208258  0.0640197321773  -0.109607726336  -0.00246875034645  
2.85208702087  0.00185356021393  0.605411112309  -0.463172733784  0.0586987361312  -0.0962812677026  0.0128950262442  
2.86022591591  0.0228179655969  0.614423215389  -0.467774659395  0.0413216091692  -0.0788082629442  -0.0276356246322  
2.86833405495  0.0443576127291  0.623716592789  -0.476761251688  0.0275876875967  -0.0701316893101  0.00280430866405  
2.87645411491  0.0544435344636  0.632025659084  -0.481989562511  0.0203252453357  -0.0549836270511  -0.0536893308163  
2.88453507423  0.0650407895446  0.642968058586  -0.482130169868  0.0167299788445  -0.0433109886944  0.00385892065242  
2.89265799522  0.0786676481366  0.651430547237  -0.482398629189  0.00647148163989  -0.0371750667691  -0.0413935147226  
2.90071511269  0.0900830253959  0.658256709576  -0.48219409585  -0.024447819218  -0.030583743006  -0.0129429632798  
2.90878391266  0.102853417397  0.663382768631  -0.482398629189  -0.0249990932643  -0.0241122618318  -0.049662631005  
2.91689896584  0.112837076187  0.666910946369  -0.483152836561  -0.0409381128848  -0.0131107429042  0.00273240334354  
2.92498993874  0.121005520225  0.667690694332  -0.483037769794  -0.0492551662028  -0.0126074049622  -0.0515561364591  
2.93307304382  0.125364586711  0.669863879681  -0.481235355139  -0.0563737973571  -0.00517718540505  -0.0143810706213  
2.94119501114  0.129097267985  0.669467568398  -0.477911710739  -0.0686456412077  0.000814927334432  -0.0388528592885  
2.94927501678  0.135923489928  0.669467568398  -0.469909459352  -0.0767230093479  0.019342539832  -0.0185036435723  
2.95743703842  0.150368466973  0.662219524384  -0.45986187458  -0.102848619223  0.0379420593381  -0.0185036435723  
2.96549201012  0.155673488975  0.653795421124  -0.458072245121  -0.108744859695  0.0142851965502  -0.0356650538743  
2.9735751152  0.160786762834  0.653424680233  -0.449366897345  -0.122502751648  0.0421365350485  -0.0164902936667  
2.98167991638  0.162307947874  0.645269036293  -0.442106068134  -0.1304602772  0.0129429632798  -0.0426878109574  
2.98974013329  0.163995325565  0.642968058586  -0.440047979355  -0.135829210281  0.0382536463439  -0.0133983641863  
2.99783992767  0.170016214252  0.632294118404  -0.436634868383  -0.150521874428  0.019126823172  -0.0379899926484  
3.00590205193  0.173621058464  0.62186306715  -0.43242919445  -0.153925389051  0.035065844655  -0.0108337393031  
3.01404714584  0.18060067296  0.609974682331  -0.425091654062  -0.157784312963  0.0232493970543  -0.0361204557121  
3.0221259594  0.183949872851  0.600809156895  -0.41783079505  -0.163297057152  0.0323813781142  -0.00994690693915  
3.03020000458  0.190367013216  0.593535542488  -0.409035980701  -0.170823141932  0.0347063168883  -0.0394760370255  
3.03826093674  0.199008449912  0.58422935009  -0.40137887001  -0.171158701181  0.0335318632424  -0.0117685096338  
3.04638791084  0.20455634594  0.571254432201  -0.396444559097  -0.172333166003  0.0375825315714  -0.0429035276175  
3.05447411537  0.213261678815  0.557806551456  -0.388749092817  -0.174106821418  0.0366237945855  -0.00994690693915  
3.06256699562  0.220305219293  0.544908344746  -0.384581774473  -0.174801915884  0.0403868407011  -0.0363601408899  
3.07065200806  0.228077381849  0.532380819321  -0.378330796957  -0.178421154618  0.0417290739715  -0.0170175991952  
3.07875704765  0.234584018588  0.520198464394  -0.372424989939  -0.17602430284  0.0504775568843  -0.0414414517581  
3.08684706688  0.242420107126  0.507811546326  -0.361418664455  -0.167827099562  0.0518197901547  -0.00925182178617  
3.0949640274  0.249962180853  0.494350880384  -0.353518664837  -0.168234556913  0.0537372678518  -0.0214757323265  
3.1030459404  0.255471736193  0.478857666254  -0.34770232439  -0.161379575729  0.0566374473274  -0.00994690693915  
3.11115002632  0.264074802399  0.465307503939  -0.341042280197  -0.160660520196  0.0637800469995  -0.00520115392283  
3.11921310425  0.270875453949  0.450504601002  -0.33728402853  -0.1585752666  0.0655776783824  -0.0141893224791  
3.12736392021  0.276615083218  0.43853956461  -0.32985702157  -0.152942687273  0.0645230710506  0.0106180235744  
3.13543701172  0.282431423664  0.428108483553  -0.32232773304  -0.14165353775  0.0669918209314  -0.0215955749154  
3.14354705811  0.289564460516  0.413280010223  -0.31798145175  -0.133719980717  0.0782090574503  0.0119123198092  
3.15161514282  0.294306993484  0.406747788191  -0.311500370502  -0.124180540442  0.0755245909095  -0.012223909609  
3.15969991684  0.305364459753  0.390973359346  -0.305121570826  -0.122263066471  0.08671785146  -0.0401950925589  
3.16779398918  0.313136607409  0.382638722658  -0.29883223772  -0.111525200307  0.0894981920719  0.0327409021556  
3.17587399483  0.328834354877  0.366928219795  -0.296441793442  -0.109655663371  0.0920628160238  -0.0431911498308  
3.18393111229  0.339367687702  0.357992768288  -0.288541793823  -0.0983665212989  0.101865917444  0.0215955749154  
3.19202113152  0.348788887262  0.345938235521  -0.288132727146  -0.0959936454892  0.100859239697  -0.0111453300342  
3.20015597343  0.355052649975  0.335085332394  -0.280565083027  -0.0916553586721  0.113131090999  -0.00469781644642  
3.2081990242  0.362057834864  0.322749555111  -0.274927705526  -0.0769387260079  0.108481206  0.0464268885553  
3.21629810333  0.372795701027  0.311973363161  -0.265813320875  -0.0777057185769  0.120705120265  -0.0528264641762  
3.22439098358  0.380363315344  0.305581748486  -0.260406017303  -0.0654818043113  0.125594675541  0.0323813781142  
3.23252606392  0.389260411263  0.294204741716  -0.256839513779  -0.0575003139675  0.130316466093  -0.0161787047982  
3.24058699608  0.397288262844  0.284438401461  -0.254423499107  -0.0576201565564  0.139592260122  0.0206608045846  
3.24864912033  0.412845373154  0.273227542639  -0.247469455004  -0.0509569272399  0.140982434154  -0.0142372595146  
3.25677204132  0.422892957926  0.259779661894  -0.245398581028  -0.041561294347  0.12959741056  -0.0277314968407  
3.26487112045  0.435599416494  0.252224802971  -0.24452932179  -0.0330045558512  0.12959741056  0.0417770110071  
3.27295207977  0.447513341904  0.242228358984  -0.238943085074  -0.0303200893104  0.166293114424  -0.0323813781142  
3.28105711937  0.464093118906  0.22913838923  -0.240055218339  -0.0267967283726  0.167827099562  0.0259098950773  
3.28919506073  0.474051207304  0.224881589413  -0.23175893724  -0.0185515806079  0.183933883905  -0.0185036435723  
3.2972869873  0.489339888096  0.214297115803  -0.225162819028  -0.0197260342538  0.194408103824  -0.0341310724616  
3.30544495583  0.506034731865  0.203009575605  -0.221596315503  -0.00925182178617  0.210778549314  0.0499023161829  
3.31353092194  0.517283916473  0.19470050931  -0.218771234155  -0.00776577787474  0.213942393661  -0.044125918299  
3.32165193558  0.529402375221  0.187388539314  -0.217620745301  -0.00445813173428  0.226358056068  0.0185036435723  
3.32978892326  0.545879840851  0.178670421243  -0.21716055274  -0.00287621398456  0.232901439071  0.00366717297584  
3.33789801598  0.556873381138  0.169530451298  -0.218541130424  0.0108577078208  0.237527340651  -0.0308473967016  
3.34602308273  0.568378269672  0.162563621998  -0.216163471341  0.0107858031988  0.240283712745  0.0390446074307  
3.35409212112  0.584638416767  0.153871059418  -0.213555693626  0.0161307677627  0.252651453018  -0.0385892055929  
3.36243796349  0.605359971523  0.147620081902  -0.21739064157  0.0215955749154  0.253562241793  0.0215955749154  
3.37041306496  0.630708992481  0.140755519271  -0.219602137804  0.0181680861861  0.271394759417  0.0343228206038  
3.37849402428  0.654856383801  0.130528986454  -0.219014108181  0.0278273709118  0.278753072023  -0.0424720942974  
3.3865981102  0.661299109459  0.125735297799  -0.220650359988  0.0398595333099  0.273647814989  0.0415133573115  
3.39464902878  0.680550575256  0.123217009008  -0.223692759871  0.031063111499  0.288316488266  -0.0359287075698  
3.40274810791  0.682353019714  0.120161831379  -0.230033203959  0.0469541959465  0.299270063639  0.0259098950773  
3.41086602211  0.692208826542  0.118947431445  -0.228933855891  0.0448689386249  0.297520369291  -0.0137578910217  
3.41901803017  0.716701388359  0.11431992054  -0.235708937049  0.0575722195208  0.309408724308  0.0107858031988  
3.42709493637  0.740056276321  0.109155520797  -0.238201647997  0.0588185787201  0.321632653475  0.0499742180109  
3.43514895439  0.762529075146  0.106547750533  -0.240246966481  0.0594896934927  0.320649921894  -0.0463549830019  
3.44335198402  0.763551712036  0.106944032013  -0.241934344172  0.0703474059701  0.325251877308  0.0323813781142  
3.45146012306  0.767872452736  0.107110209763  -0.241934344172  0.0803901851177  0.346080452204  -0.0161787047982  
3.45955300331  0.776641726494  0.105998076499  -0.241371884942  0.0800546258688  0.341718196869  0.0183598324656  
3.46761894226  0.798027932644  0.102572187781  -0.245309099555  0.0886593014002  0.347302854061  0.00407463684678  
3.4757270813  0.813725709915  0.099005676806  -0.242803603411  0.0915115475655  0.34893271327  -0.0647867247462  
3.48383593559  0.819989442825  0.0978807583451  -0.240246966481  0.0994690731168  0.352887511253  0.0296010375023  
3.49192595482  0.821446716785  0.100808106363  -0.236296966672  0.109224230051  0.364584118128  -0.0323813781142  
3.50004911423  0.829027175903  0.0993891730905  -0.234405055642  0.11150123179  0.368179380894  0.012918994762  
3.50816702843  0.844085752964  0.0966407880187  -0.236642107368  0.113682359457  0.376017063856  -0.0185036435723  
3.51629209518  0.852139115334  0.0987244471908  -0.237933203578  0.119602568448  0.379971861839  -0.0488477014005  
3.52442502975  0.855680048466  0.100488528609  -0.233689188957  0.120465435088  0.385460615158  -0.0290018245578  
3.53244400024  0.855680048466  0.102878980339  -0.227067515254  0.125954210758  0.386299520731  -0.0535694882274  
3.54054403305  0.875442862511  0.0989545434713  -0.224881589413  0.125067383051  0.390134483576  -0.0429754331708  
3.54862904549  0.889210343361  0.0976890102029  -0.224996641278  0.133072838187  0.389271616936  -0.0514123253524  
3.55671691895  0.897020876408  0.0973694324493  -0.223526567221  0.132761254907  0.393753707409  -0.0607600212097  
3.56479811668  0.894834935665  0.0982514694333  -0.215716049075  0.131730601192  0.404659360647  -0.0694126337767  
3.57291698456  0.902747690678  0.097331084311  -0.208365723491  0.14263625443  0.405642062426  -0.0774660333991  
3.58098101616  0.912999808788  0.093777358532  -0.208365723491  0.138034313917  0.408638119698  -0.0864062681794  
3.58908390999  0.908103883266  0.0891754180193  -0.206473812461  0.136524289846  0.407679378986  -0.0938125178218  
3.59716510773  0.917627334595  0.0887919217348  -0.204415723681  0.143786743283  0.41053161025  -0.110830113292  
3.60522413254  0.921078801155  0.0896100476384  -0.202357634902  0.148077085614  0.409405112267  -0.1261459589  
3.61340498924  0.945942044258  0.0808919221163  -0.203405857086  0.157352879643  0.415732771158  -0.152942687273  
3.62144804001  0.946172177792  0.0797670036554  -0.205591782928  0.152942687273  0.417314708233  -0.171997606754  
3.62951898575  0.943462133408  0.0795496851206  -0.202357634902  0.151240929961  0.418920576572  -0.187960594893  
3.63758111  0.954609036446  0.0759320482612  -0.19888061285  0.160948142409  0.420550435781  -0.206655979156  
3.64566612244  0.957843184471  0.0705886855721  -0.202549383044  0.156729698181  0.417218834162  -0.212624132633  
3.65376806259  0.963774561882  0.0667025968432  -0.205438375473  0.157233044505  0.422060459852  -0.232781589031  
3.66183614731  0.958303391933  0.0658205598593  -0.202817827463  0.164159923792  0.428795576096  -0.250614106655  
3.66994094849  0.971239984035  0.0625608488917  -0.199187412858  0.164855003357  0.432390838861  -0.26434803009  
3.67804408073  0.982527494431  0.0594673231244  -0.202217027545  0.173076182604  0.431719750166  -0.28805282712  
3.68610405922  0.980379939079  0.0559775158763  -0.202485471964  0.169696629047  0.430880844593  -0.298527061939  
3.69422411919  0.972198665142  0.0545841492712  -0.195672035217  0.169528856874  0.425703644753  -0.316862910986  
3.70228695869  0.982297420502  0.0489979051054  -0.190162494779  0.175401121378  0.429227024317  -0.338075011969  
3.71039199829  0.979165554047  0.0459810756147  -0.190942257643  0.175832554698  0.428939402103  -0.348405390978  
3.71842598915  0.976033627987  0.0436289720237  -0.192284494638  0.174801915884  0.423426657915  -0.359406918287  
3.72652792931  0.955069243908  0.0404076129198  -0.184857472777  0.180602282286  0.415469139814  -0.369329869747  
3.73462510109  0.966842532158  0.0358823686838  -0.182633206248  0.171829819679  0.415181517601  -0.385580480099  
3.74271202087  0.976506650448  0.0321368984878  -0.187976568937  0.178109556437  0.412832587957  -0.402430295944  
3.75082492828  0.971482813358  0.0291584189981  -0.188411191106  0.177342563868  0.41388720274  -0.415181517601  
3.75892496109  0.963544487953  0.0283402949572  -0.1861102283  0.185348033905  0.414510399103  -0.4267103374  
3.76700806618  0.962675213814  0.0205809101462  -0.181661680341  0.187912657857  0.410028278828  -0.431336253881  
3.77511692047  0.965960502625  0.0201462805271  -0.184192746878  0.184389293194  0.407343834639  -0.436729133129  
3.78320407867  0.959185421467  0.0137802613899  -0.187720909715  0.180889904499  0.405330479145  -0.440707892179  
3.79135513306  0.938323259354  0.0182543713599  -0.184358924627  0.17688716948  0.401807099581  -0.439461559057  
3.79941511154  0.938323259354  0.00937006622553  -0.184857472777  0.183047056198  0.398499459028  -0.441259175539  
3.80751895905  0.934552252293  0.0111597105861  -0.188487887383  0.176719382405  0.405186653137  -0.443128705025  
3.81561899185  0.925246119499  0.00718414364383  -0.197078183293  0.178421154618  0.396414220333  -0.442385703325  
3.82367897034  0.911529779434  0.00470420764759  -0.197359412909  0.177702099085  0.395047992468  -0.443871736526  
3.83177804947  0.898784935474  0.00262055057101  -0.197167664766  0.17149426043  0.390709728003  -0.443871736526  
3.83987593651  0.897902905941  0.00262055057101  -0.205144375563  0.168713927269  0.384118378162  -0.4432964921  
3.84794092178  0.883854210377  0.00214757304639  -0.213402301073  0.166556760669  0.374818623066  -0.439245820045  
3.85599899292  0.868003070354  -0.000485760596348  -0.218771234155  0.169696629047  0.372325927019  -0.43457198143  
3.86406302452  0.849940419197  -0.000485760596348  -0.220496952534  0.165933579206  0.366645395756  -0.424001902342  
3.8721549511  0.839458227158  -0.00636602053419  -0.223616048694  0.159486070275  0.365902364254  -0.418465167284  
3.88021397591  0.831877827644  -0.00764433760196  -0.2279112041  0.159486070275  0.364392369986  -0.414150863886  
3.88832092285  0.816167294979  -0.00781051907688  -0.22913838923  0.154884129763  0.353846251965  -0.410507649183  
3.89637899399  0.792620658875  -0.012808740139  -0.228588715196  0.149443283677  0.34375551343  -0.403940290213  
3.90448212624  0.7703140378  -0.00957459677011  -0.224996641278  0.150857433677  0.330357164145  -0.398499459028  
3.91254091263  0.760816156864  -0.0133072836325  -0.231337085366  0.147501841187  0.326234579086  -0.391668468714  
3.92059803009  0.741462409496  -0.0155826881528  -0.230544537306  0.14263625443  0.327792525291  -0.382129013538  
3.9286699295  0.727094113827  -0.0202485471964  -0.228384181857  0.140814647079  0.314058601856  -0.371271312237  
3.93673801422  0.696478426456  -0.0202741138637  -0.223769456148  0.138178125024  0.298694819212  -0.359023422003  
3.94479799271  0.677457034588  -0.0238661840558  -0.216163471341  0.130652025342  0.299294054508  -0.34301251173  
3.95285892487  0.659905791283  -0.0273943413049  -0.211574301124  0.130316466093  0.286327123642  -0.330021589994  
3.96095395088  0.643530547619  -0.0344506539404  -0.204939842224  0.127679944038  0.272665083408  -0.321608662605  
3.96901702881  0.623908340931  -0.0401391647756  -0.195774301887  0.11936288327  0.272209703922  -0.306292831898  
3.97714495659  0.596143305302  -0.0460577756166  -0.1861102283  0.115288250148  0.253730028868  -0.294284641743  
3.98527097702  0.569081306458  -0.0529351197183  -0.174720421433  0.111645042896  0.243088021874  -0.282420247793  
3.9934399128  0.543259322643  -0.0619728267193  -0.161860540509  0.111836791039  0.237695127726  -0.265162974596  
4.00149297714  0.522678375244  -0.0744492039084  -0.148796141148  0.097695402801  0.222858652472  -0.250949680805  
4.00958704948  0.505139887333  -0.0871045440435  -0.132676556706  0.100092247128  0.217321947217  -0.241026744246  
4.01768302917  0.484252184629  -0.100360691547  -0.114959076047  0.0907205864787  0.204666599631  -0.221875950694  
4.02580595016  0.458033889532  -0.114434972405  -0.0948511511087  0.08671785146  0.195558592677  -0.212911754847  
4.03389501572  0.436315268278  -0.13259986043  -0.0762516334653  0.0813968554139  0.187169626355  -0.190740928054  
4.04198002815  0.409112691879  -0.149013459682  -0.0535231493413  0.070730894804  0.176863193512  -0.175832554698  
4.05009007454  0.386077404022  -0.170233517885  -0.0303472541273  0.0732955187559  0.170415684581  -0.157568588853  
4.05821299553  0.364767849445  -0.187759250402  -0.00685178115964  0.0689092949033  0.150473937392  -0.145392626524  
4.06638002396  0.348239213228  -0.217965885997  0.0262949876487  0.0628213062882  0.146039769053  -0.129789158702  
4.07443594933  0.332119643688  -0.2418448627  0.0523726604879  0.0592260435224  0.143618956208  -0.108217552304  
4.08251714706  0.311589866877  -0.267769128084  0.0786420851946  0.0556307733059  0.123844988644  -0.0983665212989  
4.09058213234  0.293961852789  -0.302590489388  0.107774935663  0.0539290159941  0.122886247933  -0.0817563831806  
4.09867405891  0.276244372129  -0.332515895367  0.140461504459  0.053066149354  0.117613188922  -0.0692448541522  
4.10673809052  0.259651809931  -0.362581938505  0.174349710345  0.0553191825747  0.107234850526  -0.0579077787697  
4.11482405663  0.246689677238  -0.402005255222  0.210168153048  0.0629171803594  0.0987500175834  -0.0442457608879  
4.12288808823  0.235657796264  -0.431508809328  0.245513632894  0.0683819875121  0.0990376397967  -0.0290737301111  
4.13092112541  0.224881589413  -0.469193607569  0.281843423843  0.0710664540529  0.0931413993239  -0.0222666915506  
4.13898611069  0.21716055274  -0.501586139202  0.319962829351  0.0832184627652  0.0894981920719  -0.012223909609  
4.1470489502  0.204287901521  -0.526896834373  0.349466383457  0.0892345458269  0.0754287168384  -0.00927579030395  
4.15511107445  0.194738864899  -0.568378269672  0.383674174547  0.101194798946  0.0765072926879  -0.00647148163989  
4.16317796707  0.184716850519  -0.596143305302  0.410825639963  0.113946013153  0.0779933407903  0.0190069805831  
4.17123794556  0.174976080656  -0.626183748245  0.444023519754  0.125331029296  0.0685257986188  0.00994690693915  
4.17936992645  0.163599058986  -0.647812902927  0.468810111284  0.133360460401  0.0688134208322  0.0377982482314  
4.18744301796  0.154919281602  -0.676076471806  0.498454272747  0.154141113162  0.0657454580069  0.0187912657857  
4.19552397728  0.149179637432  -0.705375492573  0.530667901039  0.170008227229  0.0575003139675  0.0373428463936  
4.20362401009  0.144360378385  -0.725879728794  0.559251070023  0.181992441416  0.0554390251637  0.0384933315217  
4.21168899536  0.1383395046  -0.746307253838  0.577083587646  0.201047360897  0.0567093528807  0.0313986688852  
4.2197830677  0.130861341953  -0.768166482449  0.597370505333  0.206703916192  0.0519875697792  0.0422563776374  
4.22787809372  0.124035134912  -0.782815992832  0.609795749187  0.224848031998  0.0467624478042  0.0371271297336  
4.23598003387  0.120481409132  -0.797785103321  0.630069851875  0.240044027567  0.0488956384361  0.0285943616182  
4.2440469265  0.113552927971  -0.805097043514  0.642968058586  0.25790053606  0.0475534051657  0.0354493372142  
4.25211501122  0.114754550159  -0.830701768398  0.662743628025  0.277338951826  0.046019423753  0.0206128675491  
4.26023507118  0.114217653871  -0.846872448921  0.684462249279  0.290186047554  0.0414414517581  0.0249511580914  
4.26830005646  0.112440794706  -0.851205945015  0.697769522667  0.310870796442  0.0375825315714  0.00994690693915  
4.27650594711  0.112530276179  -0.865267455578  0.715269684792  0.328176021576  0.0372230038047  0.00594417564571  
4.28449296951  0.111341439188  -0.878983795643  0.726723432541  0.342341393232  0.0407223962247  -0.0203731823713  
4.29258394241  0.114626720548  -0.89089769125  0.741308987141  0.352935433388  0.044557351619  -0.0212120786309  
4.30071592331  0.112862639129  -0.904729127884  0.754271149635  0.369329869747  0.0432870239019  -0.0423522517085  
4.30880308151  0.113054387271  -0.908691883087  0.768818378448  0.388408750296  0.0440300442278  -0.0435986109078  
4.3168759346  0.113680765033  -0.917806267738  0.773433148861  0.399386286736  0.047002132982  -0.0665603876114  
4.32507395744  0.116838209331  -0.918624401093  0.784810125828  0.413551658392  0.0501419976354  -0.0821159109473  
4.33313703537  0.118589498103  -0.91957038641  0.790843784809  0.427573204041  0.0516040734947  -0.108361363411  
4.34122514725  0.12128674984  -0.917090415955  0.7958548069  0.442193955183  0.0511486753821  -0.140646874905  
4.34929609299  0.11866620183  -0.913766801357  0.802412569523  0.4476108253  0.0562539547682  -0.16751550138  
4.35749411583  0.119637720287  -0.908500134945  0.804687976837  0.465299546719  0.067255474627  -0.249439671636  
4.36556410789  0.116122350097  -0.897915661335  0.805608391762  0.468774974346  0.0701556578279  -0.285847753286  
4.37370991707  0.112070083618  -0.889210343361  0.802310347557  0.466306209564  0.0808455869555  -0.335198789835  
4.38176703453  0.108810372651  -0.886142373085  0.806298673153  0.469733685255  0.0798389092088  -0.376424521208  
4.38984799385  0.10529500246  -0.878983795643  0.802310347557  0.462447285652  0.0856632441282  -0.422971248627  
4.39791107178  0.101549528539  -0.866060018539  0.805991888046  0.460457921028  0.0977193713188  -0.462639033794  
4.40599799156  0.0929464548826  -0.854810833931  0.801044762135  0.456479132175  0.0999005064368  -0.510767698288  
4.41414213181  0.0882422477007  -0.848393678665  0.801300466061  0.451421797276  0.110614396632  -0.552976131439  
4.42224001884  0.0843817293644  -0.84358716011  0.804841399193  0.441810458899  0.11353854835  -0.594872951508  
4.430341959  0.0765584260225  -0.834370493889  0.809072613716  0.431743711233  0.128327086568  -0.644463717937  
4.43849492073  0.0712534114718  -0.827774405479  0.808944761753  0.421772837639  0.133624106646  -0.684754669666  
4.44655704498  0.0609501712024  -0.820948183537  0.81804639101  0.406265228987  0.12959741056  -0.735136330128  
4.45464396477  0.0535231493413  -0.820091724396  0.818736672401  0.391428768635  0.145057067275  -0.785901546478  
4.4627161026  0.0430792942643  -0.818327605724  0.830855131149  0.377239435911  0.152127757668  -0.824730396271  
4.47080302238  0.0318428836763  -0.816077768803  0.839637160301  0.367676049471  0.12959741056  -0.878060221672  
4.47891807556  0.0190724954009  -0.812294006348  0.852279722691  0.35257589817  0.159390196204  -0.931054472923  
4.48702311516  0.00837297830731  -0.806988954544  0.857456922531  0.334575593472  0.164783105254  -0.974293529987  
4.49509906769  0.00277394871227  -0.813073754311  0.868578314781  0.317006736994  0.154884129763  -1.02407598495  
4.50314712524  -0.0222043730319  -0.81513184309  0.877858877182  0.304830759764  0.162266418338  -1.0819119215  
4.51122093201  -0.0323797799647  -0.813725709915  0.883036077023  0.294284641743  0.162122607231  -1.12668502331  
4.51947212219  -0.0433093905449  -0.809072613716  0.893147528172  0.281988829374  0.162865623832  -1.19082450867  
4.52745914459  -0.056655023247  -0.806477606297  0.897685587406  0.269093811512  0.156801611185  -1.24139797688  
4.53551602364  -0.0678019523621  -0.805097043514  0.905726194382  0.256126850843  0.151504576206  -1.30867743492  
4.54362893105  -0.080700173974  -0.799088954926  0.907771527767  0.240283712745  0.15222363174  -1.36392474174  
4.55177903175  -0.0937134474516  -0.786050140858  0.912156105042  0.234555259347  0.14263625443  -1.42108941078  
4.55984401703  -0.109845809639  -0.774941563606  0.908065497875  0.215260654688  0.131083458662  -1.47374808788  
4.56789708138  -0.123702771962  -0.757339119911  0.900830209255  0.20694360137  0.131083458662  -1.52496874332  
4.57600307465  -0.1370100528  -0.747572779655  0.893901765347  0.189111083746  0.117469377816  -1.56626629829  
4.58410310745  -0.148093059659  -0.730903506279  0.88393086195  0.184844687581  0.116750322282  -1.61734306812  
4.59220314026  -0.162563621998  -0.713799595833  0.873819410801  0.168618053198  0.0988219231367  -1.64804673195  
4.600274086  -0.177059739828  -0.6913651824  0.858326196671  0.166796445847  0.0988219231367  -1.6758980751  
4.60834503174  -0.189139828086  -0.668087005615  0.838806271553  0.151696324348  0.0850640311837  -1.69826066494  
4.61643314362  -0.200823649764  -0.649397969246  0.819912731647  0.138130187988  0.0799827203155  -1.71022081375  
4.62451505661  -0.212443560362  -0.628075659275  0.800290584564  0.129333764315  0.0672315061092  -1.7206710577  
4.63261508942  -0.225252300501  -0.606152534485  0.778712570667  0.111405357718  0.0524669401348  -1.71733951569  
4.64068102837  -0.237473011017  -0.58665817976  0.759627282619  0.0995409786701  0.0435027368367  -1.70801579952  
4.64877414703  -0.249271884561  -0.5596601367  0.73710334301  0.0836978331208  0.0349699705839  -1.68488621712  
4.65689396858  -0.259651809931  -0.541188418865  0.716330707073  0.0770825371146  0.0299365948886  -1.67695260048  
4.66500592232  -0.274659276009  -0.522486627102  0.696107685566  0.0584590509534  0.0182399917394  -1.64358854294  
4.6731159687  -0.283581912518  -0.50684005022  0.674286842346  0.0365758575499  0.0117685096338  -1.60931372643  
4.68119096756  -0.295700371265  -0.494171917439  0.651430547237  0.0273000653833  0.00479369005188  -1.57743561268  
4.68927812576  -0.306118667126  -0.478653162718  0.633610785007  0.0207087416202  -0.0335078947246  -1.52880370617  
4.69737505913  -0.317176103592  -0.461741000414  0.612339556217  0.0173052214086  -0.0138058280572  -1.49644625187  
4.70546197891  -0.332464784384  -0.450619637966  0.597817897797  0.00615989184007  -0.0442457608879  -1.45126569271  
4.71358299255  -0.343445509672  -0.440930008888  0.582631468773  0.00306796166115  -0.0565176084638  -1.40771508217  
4.72164511681  -0.360370457172  -0.430473357439  0.569145262241  -0.0274918135256  -0.0574044398963  -1.3737757206  
4.72974610329  -0.37112107873  -0.429169476032  0.553639233112  -0.0336037687957  -0.0656016469002  -1.32346594334  
4.73781013489  -0.389758974314  -0.421972543001  0.543348789215  -0.0348021909595  -0.078832231462  -1.28319895267  
4.74590396881  -0.404613018036  -0.423621594906  0.530028700829  -0.0422324091196  -0.0891866087914  -1.24379479885  
4.75400400162  -0.424299091101  -0.420911550522  0.519789397717  -0.041561294347  -0.0992533564568  -1.20235335827  
4.76209902763  -0.441300719976  -0.423378705978  0.511186301708  -0.0435267053545  -0.116007298231  -1.15460824966  
4.77020406723  -0.461280822754  -0.421410083771  0.503593146801  -0.0473856255412  -0.125474840403  -1.1251989603  
4.77830910683  -0.475585192442  -0.427546024323  0.498441487551  -0.0524909086525  -0.13499031961  -1.08828747272  
4.78648114204  -0.493174821138  -0.431380987167  0.495936006308  -0.0501180291176  -0.154332861304  -1.05310177803  
4.7944920063  -0.507773220539  -0.438871920109  0.492765784264  -0.050070092082  -0.159773692489  -1.02625715733  
4.8025739193  -0.524979352951  -0.446925312281  0.488866895437  -0.0524909086525  -0.161715134978  -1.0032954216  
4.81068992615  -0.540549278259  -0.456448763609  0.484852999449  -0.0553191825747  -0.168785825372  -0.981508076191  
4.81883597374  -0.560554921627  -0.468707829714  0.48163163662  -0.0487757958472  -0.181393235922  -0.960487723351  
4.82693505287  -0.578387439251  -0.478947162628  0.481388747692  -0.0452524349093  -0.190956652164  -0.950157344341  
4.83912110329  -0.616187334061  -0.497533887625  0.476518362761  -0.0425439998507  -0.199010044336  -0.939755022526  
4.84721302986  -0.626286029816  -0.496741324663  0.473514318466  -0.038685079664  -0.202797055244  -0.9269079566  
4.85527610779  -0.642942488194  -0.50684005022  0.472146511078  -0.0267008543015  -0.208118051291  -0.933427333832  
4.87115693092  -0.673903346062  -0.522435545921  0.466764807701  -0.0212360471487  -0.217321947217  -0.938844203949  
4.87921404839  -0.697884559631  -0.530028700829  0.462341815233  -0.0209723953158  -0.222930565476  -0.948934912682  
4.88725996017  -0.714553833008  -0.537238419056  0.459708482027  -0.0185755491257  -0.231103807688  -0.96192586422  
4.89544606209  -0.737819194794  -0.535129189491  0.455196022987  -0.0143810706213  -0.23635289073  -0.975587844849  
4.9035141468  -0.752046883106  -0.537417411804  0.454390674829  -0.00822117831558  -0.242345005274  -0.987811744213  
4.9116101265  -0.76895904541  -0.539807856083  0.452204763889  -0.00934769585729  -0.24443025887  -1.00015556812  
4.91967105865  -0.782931029797  -0.539219796658  0.445941001177  0.00151001242921  -0.249247923493  -1.01448869705  
4.92775297165  -0.79930627346  -0.543872892857  0.437580823898  -0.00249271886423  -0.251213341951  -1.0221105814  
4.93583798409  -0.818890094757  -0.541444122791  0.428031772375  -0.00709466123953  -0.247953623533  -1.03258478642  
4.94396114349  -0.839266479015  -0.533531308174  0.416999906301  0.0129429632798  -0.257708787918  -1.03718674183  
4.95202898979  -0.854286730289  -0.530770123005  0.413407832384  0.00618386035785  -0.262454539537  -1.04277145863  
4.96009898186  -0.871211647987  -0.527548789978  0.405252158642  0.0317342281342  -0.271370798349  -1.0488833189  
4.96825313568  -0.890616476536  -0.520428538322  0.400880306959  0.00719053531066  -0.271011263132  -1.04663038254  
4.97638607025  -0.911964356899  -0.508885383606  0.386294722557  0.0397876277566  -0.274846225977  -1.04013490677  
4.9844751358  -0.919148504734  -0.499962687492  0.381028056145  0.00994690693915  -0.284289807081  -1.03927206993  
4.99257993698  -0.939230918884  -0.491206228733  0.371760249138  0.0375585630536  -0.286830455065  -1.03553295135  
5.00064110756  -0.956590414047  -0.488304436207  0.363336145878  0.0129429632798  -0.291072875261  -1.02750349045  
5.00873994827  -0.979715228081  -0.48391982913  0.350067198277  0.0315185114741  -0.297400534153  -1.01041400433  
5.01682400703  -0.999183952808  -0.467851370573  0.342179983854  0.0168258529156  -0.31015175581  -1.00710642338  
5.02488493919  -1.0121461153  -0.45986187458  0.338140517473  0.0445333831012  -0.317677855492  -0.998142182827  
5.03297710419  -1.02779269218  -0.446925312281  0.329038888216  0.0361444242299  -0.32599490881  -0.978200435638  
5.04109096527  -1.06069660187  -0.432633727789  0.314581125975  0.0430473387241  -0.334072262049  -0.96192586422  
5.04925012589  -1.05696392059  -0.419722706079  0.299778193235  0.0447970330715  -0.333856552839  -0.942175805569  
5.05731892586  -1.07878482342  -0.410109758377  0.296198904514  0.0473137199879  -0.347039192915  -0.929424643517  
5.06545305252  -1.10793042183  -0.399525314569  0.287634193897  0.0500221550465  -0.354181796312  -0.907229840755  
5.07351207733  -1.15311896801  -0.385105878115  0.27591201663  0.0584830194712  -0.364272505045  -0.878995001316  
5.08157396317  -1.16790902615  -0.370724827051  0.266848742962  0.0576680935919  -0.381697565317  -0.860443413258  
5.08965611458  -1.18079447746  -0.355385005474  0.259651809931  0.0587466731668  -0.390422105789  -0.837937057018  
5.09772014618  -1.25452780724  -0.341924339533  0.25388661027  0.0705870911479  -0.412592917681  -0.809606313705  
5.10578393936  -1.2792249918  -0.326085984707  0.23912204802  0.0740864798427  -0.427405416965  -0.782378196716  
5.11389398575  -1.27201521397  -0.308636933565  0.227872848511  0.0722888484597  -0.436201840639  -0.747935533524  
5.12197804451  -1.31841814518  -0.299190163612  0.217697441578  0.0799347832799  -0.457054376602  -0.715889692307  
5.13009405136  -1.33924198151  -0.281191468239  0.20412170887  0.0821638479829  -0.464963972569  -0.68556958437  
5.13821911812  -1.34652841091  -0.267769128084  0.196413457394  0.0794314444065  -0.47980043292  -0.646812617779  
5.14715099335  -1.40226304531  -0.254512995481  0.186953917146  0.0871972218156  -0.505518615246  -0.617451250553  
5.15520691872  -1.4557094574  -0.243238225579  0.179450184107  0.0875327810645  -0.523902416229  -0.569682121277  
5.16341614723  -1.46216499805  -0.231848418713  0.171230614185  0.089594066143  -0.544227659702  -0.532315313816  
5.17147803307  -1.50676548481  -0.216163471341  0.161489829421  0.0920148789883  -0.565367817879  -0.50017362833  
5.17954897881  -1.54216206074  -0.200631901622  0.153346955776  0.0855434015393  -0.584063231945  -0.462351411581  
5.18763995171  -1.55436992645  -0.189983531833  0.141969919205  0.0911999568343  -0.601680040359  -0.425176352262  
5.19573903084  -1.59895765781  -0.175321221352  0.129915386438  0.0859748348594  -0.623371481895  -0.378246128559  
5.20383906364  -1.59618377686  -0.164327695966  0.121325097978  0.0849441885948  -0.631664574146  -0.322663277388  
5.21192598343  -1.62727236748  -0.146891444921  0.10997363925  0.0839135497808  -0.656328082085  -0.258931159973  
5.22002410889  -1.64755928516  -0.133507460356  0.0990568101406  0.0722169429064  -0.667233705521  -0.192922055721  
5.22814798355  -1.6454885006  -0.118257135153  0.0876925736666  0.0694126337767  -0.681758642197  -0.121160522103  
5.23621201515  -1.67283165455  -0.104285128415  0.0786676481366  0.0653859302402  -0.688997089863  -0.0112651716918  
5.24433302879  -1.65112578869  -0.0944165214896  0.0666131153703  0.0516040734947  -0.697913348675  0.0647867247462  
5.25248503685  -1.67472350597  -0.0781307592988  0.0540983900428  0.0444614775479  -0.708675205708  0.148820117116  
5.26053094864  -1.6669896841  -0.0677508190274  0.0418265424669  0.0317102596164  -0.705583274364  0.234243676066  
5.26863098145  -1.66553246975  -0.0521297827363  0.0280207172036  0.0251668728888  -0.708076000214  0.333449095488  
5.27671813965  -1.69812953472  -0.0419799424708  0.0125914262608  0.0181441176683  -0.711191892624  0.43124037981  
5.28482198715  -1.65613687038  -0.0280718486756  0.0104182865471  0.00719053531066  -0.706542015076  0.535551071167  
5.2929110527  -1.6504099369  -0.0134734651074  -0.0154165076092  -0.0178564954549  -0.700789570808  0.638327777386  
5.30102300644  -1.62584066391  -0.0062765381299  -0.0227923989296  -0.0258859265596  -0.691417872906  0.743812918663  
5.30911707878  -1.62010109425  0.0168482232839  -0.0366749241948  -0.04007524997  -0.693599045277  0.848027765751  
5.31721806526  -1.62800109386  0.021220067516  -0.0455847978592  -0.0532578974962  -0.680775880814  0.956700742245  
5.32528591156  -1.5807800293  0.0336069613695  -0.0567700751126  -0.0575242824852  -0.668240427971  1.05614578724  
5.33345103264  -1.5144097805  0.0590454787016  -0.076328329742  -0.0912958309054  -0.646213412285  1.27394711971  
5.34151005745  -1.50153708458  0.0724550262094  -0.092217810452  -0.101218767464  -0.63559538126  1.37334430218  
5.3496119976  -1.44824409485  0.086107455194  -0.105077683926  -0.123629271984  -0.610308647156  1.47175872326  
5.35768795013  -1.39206206799  0.0984815657139  -0.115789987147  -0.138993039727  -0.597605407238  1.56827974319  
5.36578512192  -1.37151944637  0.113744676113  -0.127729475498  -0.155291587114  -0.583799540997  1.66499245167  
5.37386202812  -1.3010841608  0.125172838569  -0.136370897293  -0.177078917623  -0.558560788631  1.75973963737  
5.38191699982  -1.22836065292  0.136332541704  -0.146469607949  -0.185635656118  -0.535718858242  1.83274757862  
5.38998103142  -1.22889757156  0.153577044606  -0.156389340758  -0.204067394137  -0.514674544334  1.91845881939  
5.39804601669  -1.11277520657  0.161988377571  -0.163803592324  -0.218975767493  -0.488500982523  2.00448155403  
5.40615200996  -1.08065116405  0.1705147475  -0.168699547648  -0.233932077885  -0.462639033794  2.09002494812  
5.41428995132  -1.0503166914  0.177213132381  -0.178823813796  -0.247785851359  -0.432774335146  2.14829230309  
5.42237210274  -0.955708384514  0.18962559104  -0.185688376427  -0.257229417562  -0.404994904995  2.2221391201  
5.43044900894  -0.896547853947  0.196145012975  -0.186953917146  -0.261136263609  -0.369713366032  2.30336809158  
5.43851208687  -0.857738137245  0.201411679387  -0.187797605991  -0.269189685583  -0.336517035961  2.37155842781  
5.4466149807  -0.776513874531  0.208352938294  -0.197269931436  -0.274846225977  -0.310415416956  2.44964766502  
5.45470714569  -0.726761758327  0.215230286121  -0.198497116566  -0.282659947872  -0.263581067324  2.51819729805  
5.46278214455  -0.637522399426  0.223935633898  -0.198113620281  -0.282084703445  -0.24045149982  2.59034228325  
5.47088003159  -0.601256549358  0.227987900376  -0.203699871898  -0.281629294157  -0.197667807341  2.65035939217  
5.47901105881  -0.544371426105  0.233957648277  -0.214667826891  -0.287261873484  -0.165741831064  2.71783065796  
5.48707795143  -0.479880332947  0.248965084553  -0.222324952483  -0.283906310797  -0.123149901628  2.76698994637  
5.49515008926  -0.424669802189  0.257389187813  -0.224152952433  -0.285032808781  -0.0856153070927  2.81111574173  
5.50321412086  -0.360370457172  0.266618639231  -0.22926621139  -0.285847753286  -0.0398355647922  2.86262392998  
5.51129102707  -0.315731614828  0.274812668562  -0.23683385551  -0.287118077278  -0.0143810706213  2.88719153404  
5.51936197281  -0.27880102396  0.281191468239  -0.243187099695  -0.29150429368  0.0275876875967  2.92386341095  
5.52744102478  -0.236181914806  0.291430801153  -0.249131262302  -0.3005643785  0.0883237421513  2.95588517189  
5.53553009033  -0.196119442582  0.29883223772  -0.252429336309  -0.301978498697  0.0898337513208  2.94950962067  
5.54361510277  -0.152554392815  0.316051185131  -0.259434521198  -0.306556493044  0.107738189399  2.98649287224  
5.55173897743  -0.123817816377  0.322851836681  -0.266158461571  -0.307227611542  0.146710887551  2.98649287224  
5.55986809731  -0.0895461291075  0.331685006618  -0.272869616747  -0.316024035215  0.17753431201  3.00008296967  
5.56795597076  -0.0594034083188  0.338242769241  -0.274326890707  -0.324269175529  0.196469396353  3.0157585144  
5.57604312897  -0.0292862504721  0.344365924597  -0.278404742479  -0.327888399363  0.233452707529  3.00986218452  
5.58416199684  -0.00669838301837  0.34816250205  -0.277292609215  -0.330644786358  0.253106832504  3.0157585144  
5.59227800369  0.0182671546936  0.348558783531  -0.277650535107  -0.336301326752  0.274103194475  2.99617624283  
5.60040903091  0.0336708799005  0.346794724464  -0.274326890707  -0.345529198647  0.293014317751  2.96921157837  
5.60845112801  0.0474383570254  0.341042280197  -0.269303113222  -0.351353526115  0.304279476404  2.95746707916  
5.61654400826  0.0602343119681  0.33728402853  -0.263652950525  -0.350898116827  0.322711229324  2.91667294502  
5.62462902069  0.0730814039707  0.325919777155  -0.261633217335  -0.35346275568  0.341718196869  2.88148713112  
5.63274407387  0.0823619887233  0.316025614738  -0.255471736193  -0.346368074417  0.346895396709  2.83664226532  
5.6408290863  0.0753951594234  0.307409763336  -0.247968003154  -0.337116271257  0.361300438643  2.77545070648  
5.64892196655  0.0982770398259  0.297617852688  -0.239492759109  -0.3265222013  0.364272505045  2.72360706329  
5.65701007843  0.104579143226  0.286419779062  -0.228754892945  -0.314058601856  0.370120823383  2.64475083351  
5.66507101059  0.113399535418  0.270351350307  -0.220650359988  -0.300684213638  0.381577730179  2.56589460373  
5.67320108414  0.119676068425  0.257823824883  -0.211254730821  -0.277003377676  0.386874765158  2.48641514778  
5.68130111694  0.123728334904  0.242317840457  -0.19765342772  -0.250422388315  0.391141146421  2.38972640038  
5.68948507309  0.129493549466  0.230378359556  -0.187554717064  -0.222451195121  0.388097167015  2.29095244408  
5.69753408432  0.131794512272  0.207509249449  -0.177059739828  -0.194791600108  0.395814985037  2.18017029762  
5.70559501648  0.134581252933  0.199264109135  -0.16315163672  -0.162649899721  0.398187875748  2.083122015  
5.71367812157  0.137956008315  0.180076569319  -0.153756007552  -0.124971501529  0.401663303375  1.96831309795  
5.72177791595  0.136370897293  0.161042422056  -0.144168630242  -0.0803422480822  0.397732466459  1.86601579189  
5.72988200188  0.1383395046  0.145587563515  -0.132842734456  -0.0143810706213  0.399170577526  1.74538254738  
5.73794198036  0.137150675058  0.132254719734  -0.122628986835  -0.00862864218652  0.393082588911  1.6276255846  
5.74603700638  0.133852615952  0.115342572331  -0.115138046443  0.0638519525528  0.394281029701  1.51830554008  
5.75441908836  0.133533030748  0.101357780397  -0.1033391729  0.0897858142853  0.399841696024  1.40510249138  
5.7624540329  0.130247756839  0.0886768773198  -0.0953752547503  0.137411132455  0.39471244812  1.29000604153  
5.77054905891  0.12735876441  0.0743469372392  -0.0881016328931  0.182951182127  0.397732466459  1.17605996132  
5.77863502502  0.122526720166  0.0619983896613  -0.080700173974  0.234243676066  0.393897533417  1.06932842731  
5.78674197197  0.117950342596  0.0505702346563  -0.0733115002513  0.276787668467  0.391788303852  0.954975008965  
5.79482507706  0.110791765153  0.0410851202905  -0.0640820488334  0.321321040392  0.385029196739  0.849657595158  
5.80294203758  0.10423399508  0.0285703931004  -0.0600042156875  0.364008873701  0.389918744564  0.748630583286  
5.81103897095  0.0968453213573  0.0215012971312  -0.0569234713912  0.405018895864  0.383782833815  0.655537128448  
5.81913900375  0.0905048698187  0.0144322030246  -0.051401142031  0.446652084589  0.382248848677  0.566278636456  
5.82722902298  0.0753951594234  0.00613592332229  -0.0493047013879  0.487710028887  0.379660248756  0.481358408928  
5.83543801308  0.0755229890347  0.00470420764759  -0.0440891645849  0.532315313816  0.383686959743  0.39804404974  
5.84349298477  0.0689013078809  -0.000600809173193  -0.042273953557  0.566925764084  0.387713670731  0.323669970036  
5.85159397125  0.0625608488917  -0.00756763853133  -0.0402414314449  0.602135419846  0.386994600296  0.262190878391  
5.85965704918  0.0555940233171  -0.00420566415414  -0.040688842535  0.637488901615  0.389391452074  0.201047360897  
5.86775398254  0.0485888421535  -0.0122334966436  -0.0383367389441  0.667233705521  0.388288915157  0.151169016957  
5.87589001656  0.0420822054148  -0.00538171594962  -0.0393849574029  0.698896050453  0.392147809267  0.0996368527412  
5.88397407532  0.0351153761148  -0.00407783221453  -0.0408294573426  0.728856623173  0.391548603773  0.074158385396  
5.89206004143  0.0279951505363  -0.00838576164097  -0.0419927239418  0.753376364708  0.393609911203  0.0205888990313  
5.90015912056  0.0233292914927  -0.00480647338554  -0.0439357683063  0.775738894939  0.390997350216  0.0176407806575  
5.90824604034  0.0158894844353  0.00561181316152  -0.0487805902958  0.79608809948  0.395647227764  0.0089881690219  
5.91640806198  0.0145216854289  -0.00554789742455  -0.0502506569028  0.815095126629  0.404275864363  -0.00743021955714  
5.92438101768  0.00837297830731  0.0192642416805  -0.0530629530549  0.833622694016  0.406049519777  -0.00587227055803  
5.93243908882  0.00524110114202  0.00838576164097  -0.0576648972929  0.845343291759  0.412904500961  0.0  
5.94053697586  0.00279951491393  0.0269852783531  -0.0621773563325  0.858669757843  0.421772837639  0.0  
5.94862914085  -0.00371990352869  0.0286982245743  -0.0676613375545  0.864901542664  0.427669078112  0.024304009974  
5.95671892166  -0.00736310798675  0.0396534055471  -0.07318367064  0.874345123768  0.434116572142  0.0210203304887  
5.96483707428  -0.00333640817553  0.0476940199733  -0.0779773592949  0.877389132977  0.449696063995  0.0516280420125  
5.97290706635  -0.0160173159093  0.0591988749802  -0.0829500108957  0.877125442028  0.454465806484  0.0800066888332  
5.98096394539  -0.0118883512914  0.072480596602  -0.0911951586604  0.879306614399  0.464796185493  0.100691460073  
5.98906803131  -0.0162985455245  0.0813393294811  -0.0969092398882  0.870342373848  0.47304135561  0.13412745297  
5.99713397026  -0.0133584160358  0.0975483953953  -0.10512881726  0.868544757366  0.488572895527  0.178972423077  
6.00526213646  -0.0180754065514  0.112249046564  -0.110983513296  0.855146408081  0.50750797987  0.218064963818  
6.01344609261  -0.0187656991184  0.150100022554  -0.129659727216  0.832328438759  0.547607183456  0.30787473917  
6.02150392532  -0.0173339825124  0.167459577322  -0.137099534273  0.817611813545  0.554917573929  0.350490659475  
6.02957201004  -0.0185356009752  0.186608761549  -0.142609089613  0.798796534538  0.568819284439  0.397588670254  
6.03766798973  -0.0178197436035  0.202319294214  -0.146840319037  0.774923980236  0.595304429531  0.440348386765  
6.04575300217  -0.0184461195022  0.224510878325  -0.155315563083  0.755605399609  0.607001006603  0.491616904736  
6.05384111404  -0.0121056651697  0.242509588599  -0.159789666533  0.733051121235  0.624929428101  0.545929431915  
6.06194400787  -0.0139592252672  0.26387026906  -0.16315163672  0.701316893101  0.644080221653  0.594034075737  
6.07003307343  -0.00672394922003  0.280168801546  -0.169747754931  0.675383031368  0.667353570461  0.646501004696  
6.07811999321  -0.00418009795249  0.297617852688  -0.172163784504  0.648873925209  0.682357847691  0.701053202152  
6.08618307114  -0.00221148901619  0.318339377642  -0.175244525075  0.619009196758  0.702491343021  0.749541401863  
6.09435510635  0.000447411061032  0.33493193984  -0.17675293982  0.591062009335  0.714355707169  0.793619394302  
6.102435112  0.00945954862982  0.352905064821  -0.17758384347  0.557506144047  0.739258944988  0.843617558479  
6.11048793793  0.00614870665595  0.363975286484  -0.177737250924  0.524285912514  0.753903627396  0.887192189693  
6.11857008934  0.0213095508516  0.380133241415  -0.178747117519  0.494349300861  0.763467073441  0.934338152409  
6.12668895721  0.0153781576082  0.396866410971  -0.177123650908  0.456479132175  0.771232843399  0.969260156155  
6.13475513458  0.0238789673895  0.408844232559  -0.178044036031  0.421101719141  0.784103870392  1.00547647476  
6.14281606674  0.0271386764944  0.421410083771  -0.180869117379  0.392004013062  0.792828440666  1.03150629997  
6.15090703964  0.0338242761791  0.432940512896  -0.182403102517  0.362139314413  0.794602096081  1.06153869629  
6.15899610519  0.0426318831742  0.445161223412  -0.183374628425  0.327600777149  0.808575689793  1.07812488079  
6.167096138  0.053510364145  0.454032748938  -0.184103265405  0.294044941664  0.80332660675  1.09058845043  
6.17517113686  0.0653731524944  0.462341815233  -0.186953917146  0.267775535583  0.804357230663  1.09974443913  
6.18323612213  0.0810836702585  0.471277266741  -0.190418154001  0.228563144803  0.812338709831  1.10367524624  
6.19132208824  0.0969859361649  0.475636333227  -0.193460553885  0.200376242399  0.805987119675  1.10027170181  
6.19941091537  0.113974772394  0.478857666254  -0.197461679578  0.17753431201  0.808096289635  1.09833025932  
6.20744109154  0.132190793753  0.481887280941  -0.204939842224  0.15222363174  0.811547756195  1.0862262249  
6.21567606926  0.149345815182  0.487115621567  -0.208046153188  0.114976659417  0.80493247509  1.07354688644  
6.22371602058  0.165529310703  0.491091161966  -0.213619619608  0.0984144583344  0.8007619977  1.04989004135  
6.23177909851  0.182799383998  0.491986006498  -0.217774137855  0.073726952076  0.795345127583  1.0301400423  
6.23989701271  0.205195501447  0.498339235783  -0.220650359988  0.0403149351478  0.787795066833  1.00952720642  
6.24795103073  0.224152952433  0.500768065453  -0.226568967104  0.0163225159049  0.778591156006  0.976091206074  
6.25602412224  0.246446803212  0.500768065453  -0.23404712975  0.0129429632798  0.768380582333  0.941408813  
6.26412391663  0.272383868694  0.501586139202  -0.241090655327  -0.0222906600684  0.765504360199  0.907757163048  
6.27226209641  0.292197793722  0.495143443346  -0.246574640274  -0.0568052269518  0.742566585541  0.874896407127  
6.28036093712  0.306936770678  0.49105283618  -0.24887560308  -0.0542406029999  0.725285291672  0.833335101604  
6.28846693039  0.336031287909  0.491845369339  -0.258258461952  -0.0667521357536  0.72471010685  0.790383636951  
6.2966170311  0.349670916796  0.487741976976  -0.263998091221  -0.0752369686961  0.703857541084  0.744148492813  
6.30467510223  0.377960085869  0.492407858372  -0.269776105881  -0.0908883661032  0.693790793419  0.710137248039  
6.31274700165  0.403462529182  0.492280006409  -0.277292609215  -0.100379869342  0.68029654026  0.664741039276  
6.32082891464  0.424260735512  0.493417710066  -0.282623171806  -0.121615916491  0.67523920536  0.617139697075  
6.32894492149  0.4465290308  0.49151301384  -0.289641141891  -0.133120775223  0.660115122795  0.572869956493  
6.33703112602  0.475329518318  0.492765784264  -0.296032726765  -0.146399304271  0.643816530704  0.529774665833  
6.34511899948  0.500768065453  0.495360761881  -0.302219778299  -0.15749669075  0.626487374306  0.483299851418  
6.35324811935  0.524902641773  0.495578080416  -0.308700859547  -0.166796445847  0.620111763477  0.440923631191  
6.36130714417  0.549165129662  0.492765784264  -0.311589866877  -0.171733945608  0.601967632771  0.395647227764  
6.36942005157  0.559941351414  0.496370613575  -0.313967525959  -0.187720909715  0.582816839218  0.355955451727  
6.37761092186  0.588102698326  0.494350880384  -0.319962829351  -0.195606529713  0.566446423531  0.313627183437  
6.38566207886  0.606331467628  0.48872628808  -0.32072982192  -0.207902342081  0.555756449699  0.273480027914  
6.3937060833  0.637522399426  0.492625147104  -0.332132428885  -0.224776133895  0.546888113022  0.234555259347  
6.40176701546  0.661963880062  0.489288747311  -0.341502487659  -0.239468798041  0.528983712196  0.19692479074  
6.40982699394  0.6850502491  0.49105283618  -0.349632591009  -0.259794026613  0.517526805401  0.162434190512  
6.41794395447  0.700326144695  0.492625147104  -0.351703464985  -0.270627766848  0.503768920898  0.12959741056  
6.42599892616  0.722773432732  0.493992954493  -0.352905064821  -0.288412362337  0.503768920898  0.0869095996022  
6.43486499786  0.733728587627  0.493813991547  -0.351422220469  -0.294428437948  0.490706086159  0.0513164512813  
6.44295406342  0.760138630867  0.493558317423  -0.352905064821  -0.313627183437  0.476780414581  0.0185036435723  
6.45105910301  0.767348349094  0.492280006409  -0.355193257332  -0.332514315844  0.460218220949  0.0113131087273  
6.45915007591  0.782675385475  0.491628080606  -0.357366412878  -0.349268257618  0.447155416012  -0.0568052269518  
6.4672191143  0.789066970348  0.492203325033  -0.357200205326  -0.357753098011  0.430880844593  -0.0812770202756  
6.47527694702  0.802348673344  0.488969177008  -0.358785331249  -0.376640230417  0.42584747076  -0.0956580862403  
6.48334312439  0.816410183907  0.481107532978  -0.360792279243  -0.389703035355  0.40861415863  -0.13206616044  
6.49153399467  0.833641886711  0.479944258928  -0.364627242088  -0.403029501438  0.400129318237  -0.163632616401  
6.4995880127  0.835610508919  0.482948303223  -0.364333242178  -0.415349274874  0.383998543024  -0.203012779355  
6.50765705109  0.842206597328  0.480148792267  -0.359066545963  -0.432103216648  0.369929075241  -0.244933605194  
6.51575613022  0.843075871468  0.483446836472  -0.356535494328  -0.446292549372  0.350993990898  -0.289850473404  
6.52385401726  0.851538300514  0.475904762745  -0.362057834864  -0.465299546719  0.334887206554  -0.330333203077  
6.53197908401  0.853430211544  0.471520125866  -0.367886960506  -0.486200034618  0.317438155413  -0.371654808521  
6.54007911682  0.853967130184  0.470420777798  -0.370162367821  -0.496889948845  0.309648424387  -0.424145698547  
6.54814004898  0.85720127821  0.47190362215  -0.366480797529  -0.515010118484  0.292271286249  -0.47702011466  
6.55623006821  0.859131515026  0.470420777798  -0.367516249418  -0.52807289362  0.263581067324  -0.52701830864  
6.5643529892  0.858607411385  0.472376614809  -0.371568500996  -0.544347465038  0.258188158274  -0.581163048744  
6.5724170208  0.854120492935  0.474575310946  -0.380261063576  -0.558393001556  0.237527340651  -0.627805650234  
6.58064699173  0.855488300323  0.481388747692  -0.377717196941  -0.575027108192  0.223673582077  -0.678187310696  
6.58873391151  0.8555778265  0.483152836561  -0.37891882658  -0.594369649887  0.206991538405  -0.724614202976  
6.59679198265  0.863503396511  0.47973972559  -0.381731122732  -0.6055149436  0.187960594893  -0.780604481697  
6.60488414764  0.857853233814  0.476927429438  -0.392328381538  -0.623683035374  0.12959741056  -0.819025933743  
6.61301398277  0.857853233814  0.482398629189  -0.397774010897  -0.635499477386  0.12959741056  -0.868904292583  
6.62113809586  0.850515663624  0.489288747311  -0.395805388689  -0.659252226353  0.143523082137  -0.909626662731  
6.62923002243  0.852739930153  0.498786658049  -0.39503839612  -0.671979486942  0.126673266292  -0.947233200073  
6.63729500771  0.85720127821  0.504487931728  -0.407744884491  -0.694797456264  0.112124413252  -0.988818407059  
6.64559292793  0.850349485874  0.520914316177  -0.426881283522  -0.735471904278  0.0848003774881  -1.06522989273  
6.65360403061  0.846782982349  0.528047323227  -0.43242919445  -0.756540179253  0.0670876950026  -1.09780299664  
6.66163897514  0.853327989578  0.535551071167  -0.43983066082  -0.778543233871  0.0607839897275  -1.12987279892  
6.66972398758  0.850860834122  0.540229678154  -0.452856719494  -0.804117560387  0.0441738553345  -1.15952169895  
6.67779397964  0.844251930714  0.546506226063  -0.462789237499  -0.8216624856  0.0262694228441  -1.18610274792  
6.68588614464  0.835111916065  0.56041431427  -0.467058807611  -0.838895797729  0.0177606213838  -1.21958673  
6.69399094582  0.836096227169  0.568787276745  -0.471673548222  -0.859053254128  0.0143810706213  -1.25019443035  
6.7020881176  0.835776686668  0.569937765598  -0.482398629189  -0.878587543964  0.00517718540505  -1.27519345284  
6.71018910408  0.832005620003  0.574232935905  -0.494171917439  -0.900998055935  -0.0239444822073  -1.30340433121  
6.71827507019  0.825946390629  0.577249765396  -0.506379842758  -0.918159425259  -0.0219311323017  -1.32607853413  
6.72651195526  0.813891887665  0.58071398735  -0.508425176144  -0.923384547234  -0.0477211847901  -1.34676325321  
6.73451900482  0.812894761562  0.582337498665  -0.510099768639  -0.939755022526  -0.0447730645537  -1.37032425404  
6.74263906479  0.804087162018  0.582861602306  -0.513500094414  -0.957491695881  -0.0520594753325  -1.39436459541  
6.75074911118  0.797337651253  0.580432772636  -0.521553456783  -0.968948602676  -0.074709661305  -1.40239405632  
6.75883293152  0.778674244881  0.580292165279  -0.520198464394  -0.971537172794  -0.0823795646429  -1.422935009  
6.76691913605  0.76281028986  0.579052209854  -0.514356553555  -0.982826352119  -0.0975515916944  -1.4388500452  
6.77502393723  0.746089935303  0.570487439632  -0.511799931526  -0.987811744213  -0.113394737244  -1.44692742825  
6.78316092491  0.731747210026  0.557576477528  -0.509486138821  -0.994738638401  -0.143331333995  -1.46291434765  
6.79122304916  0.707740426064  0.546506226063  -0.502621591091  -0.989657342434  -0.155842870474  -1.47276544571  
6.79950404167  0.682877123356  0.532380819321  -0.488087117672  -0.991526842117  -0.182999119163  -1.48625969887  
6.80760502815  0.656070828438  0.521949768066  -0.470650881529  -0.997375190258  -0.212743967772  -1.49357008934  
6.81569695473  0.629136681557  0.505318820477  -0.460910111666  -0.991526842117  -0.235010653734  -1.49388158321  
6.8237490654  0.60695785284  0.483037769794  -0.447487771511  -0.981843590736  -0.262262791395  -1.5057220459  
6.83181405067  0.578170180321  0.458442956209  -0.434091001749  -0.976474702358  -0.294428437948  -1.51027607918  
6.83991098404  0.552105247974  0.436302483082  -0.415951669216  -0.968469202518  -0.318708479404  -1.50514686108  
6.84796690941  0.517411708832  0.416143417358  -0.399180173874  -0.951547503471  -0.350298911333  -1.51123476028  
6.85606694221  0.481644421816  0.391574174166  -0.381858944893  -0.929256856441  -0.381625682116  -1.51547718048  
6.86416912079  0.450990349054  0.364333242178  -0.366186797619  -0.91772800684  -0.416595637798  -1.51593255997  
6.87227392197  0.420911550522  0.338690191507  -0.346206694841  -0.909842371941  -0.446843832731  -1.52067840099  
6.8803601265  0.394373685122  0.314223200083  -0.32932010293  -0.885130941868  -0.481717914343  -1.51593255997  
6.88843798637  0.369753301144  0.288439512253  -0.308777570724  -0.863511383533  -0.51829379797  -1.51667559147  
6.89650011063  0.339815109968  0.262425780296  -0.292530149221  -0.840837240219  -0.547679126263  -1.51142656803  
6.90461301804  0.315194696188  0.236527055502  -0.274569779634  -0.819025933743  -0.589264333248  -1.51142656803  
6.91266202927  0.283262342215  0.211574301124  -0.258680313826  -0.793619394302  -0.616444587708  -1.50608158112  
6.92075204849  0.257389187813  0.192105531693  -0.241525277495  -0.767062306404  -0.636697947979  -1.48122632504  
6.92882013321  0.2418448627  0.171089991927  -0.223424300551  -0.740409433842  -0.672434866428  -1.49031031132  
6.9369199276  0.220266863704  0.147735133767  -0.205757960677  -0.709753751755  -0.700214326382  -1.48072290421  
6.94505095482  0.2007086128  0.125850349665  -0.187554717064  -0.683436393738  -0.733746170998  -1.48072290421  
6.95317602158  0.178593710065  0.103441439569  -0.172163784504  -0.656088411808  -0.7589610219  -1.48355126381  
6.96124601364  0.157527044415  0.0842411145568  -0.155903577805  -0.62619972229  -0.784775018692  -1.47923696041  
6.96931099892  0.136831089854  0.064248226583  -0.139515548944  -0.594753146172  -0.810684919357  -1.48218500614  
6.97742509842  0.118052609265  0.0436161868274  -0.122194357216  -0.562227964401  -0.836858451366  -1.48172962666  
6.98557901382  0.102700017393  0.0260521080345  -0.109679631889  -0.537013113499  -0.855457961559  -1.47523415089  
6.99363803864  0.0893671661615  0.0128470892087  -0.092716358602  -0.503984630108  -0.885250747204  -1.48355126381  
7.00172901154  0.0770697519183  0.00685178115964  -0.0794857740402  -0.472106575966  -0.902603924274  -1.47974026203  
7.00982308388  0.0681854486465  -0.0172700677067  -0.065015219152  -0.443871736526  -0.918734669685  -1.47374808788  
7.0179400444  0.0574731491506  -0.0286598745733  -0.0533953160048  -0.417314708233  -0.93462574482  -1.4697933197  
7.02605414391  0.0465179681778  -0.0386307500303  -0.0416347943246  -0.381697565317  -0.950636684895  -1.46437644958  
7.03413796425  0.0393977425992  -0.0455592311919  -0.0299893245101  -0.364128708839  -0.957132160664  -1.45948696136  
7.04225993156  0.0327888391912  -0.0542517900467  -0.0208493564278  -0.34301251173  -0.965569019318  -1.45512461662  
7.0503320694  0.0262182895094  -0.0611419193447  -0.00998365879059  -0.314058601856  -0.964298725128  -1.44359576702  
7.05840992928  0.0175001639873  -0.0696555152535  -0.00401391647756  -0.295914500952  -0.980956792831  -1.43535065651  
7.06699800491  0.0151480603963  -0.0746665149927  0.00198139180429  -0.278201818466  -0.979854226112  -1.42971813679  
7.07508301735  0.0107634318992  -0.0786420851946  0.0153525909409  -0.253178745508  -0.977001965046  -1.41090285778  
7.08317995071  0.00527945067734  -0.0832184627652  0.0260648913682  -0.238486081362  -0.980069935322  -1.41090285778  
7.09127211571  0.00300404569134  -0.0851103663445  0.02954191342  -0.218855917454  -0.981843590736  -1.39496386051  
7.09936094284  0.00154676404782  -0.0891754180193  0.0330572873354  -0.203372299671  -0.975707709789  -1.38350689411  
7.10745096207  0.00154676404782  -0.0913613438606  0.034680750221  -0.186019152403  -0.967294752598  -1.36315774918  
7.11562395096  -0.0024799357634  -0.0932148993015  0.0395639203489  -0.181249424815  -0.957132160664  -1.35002303123  
7.12370300293  0.00135501637124  -0.0961805954576  0.0417626276612  -0.162218481302  -0.960056304932  -1.33597743511  
7.13176298141  0.00538171594962  -0.0963212102652  0.046096123755  -0.156657800078  -0.947376966476  -1.32428085804  
7.13985395432  0.00963851250708  -0.0949917659163  0.0473872236907  -0.142588317394  -0.928681612015  -1.29736435413  
7.14795398712  0.0139464419335  -0.0924223437905  0.0505702346563  -0.137962400913  -0.925278067589  -1.28065824509  
7.15604805946  0.0239812340587  -0.0909139290452  0.052717808634  -0.130556151271  -0.909914314747  -1.26742768288  
7.16411399841  0.0254385154694  -0.0854299515486  0.0542517900467  -0.129333764315  -0.89855325222  -1.24667108059  
7.17221713066  0.0334407836199  -0.0842027664185  0.0544179677963  -0.134175390005  -0.881056308746  -1.22730457783  
7.18035411835  0.0370967686176  -0.0817611813545  0.055069912225  -0.126960888505  -0.859820246696  -1.20920836926  
7.18853092194  0.0426957979798  -0.0798564851284  0.0552233085036  -0.132761254907  -0.843018352985  -1.18495225906  
7.19657993317  0.0488189384341  -0.0762516334653  0.0553639233112  -0.141437828541  -0.830267131329  -1.16131937504  
7.20469903946  0.0513883568347  -0.0725828558207  0.0551210455596  -0.136260643601  -0.810972511768  -1.14154541492  
7.21276307106  0.058815382421  -0.069361500442  0.0551338270307  -0.148868054152  -0.791821718216  -1.12524688244  
7.22086000443  0.0633917599916  -0.0657438635826  0.0547375492752  -0.153805553913  -0.781011939049  -1.09811460972  
7.22895503044  0.0713301077485  -0.0600425675511  0.0544307529926  -0.157448753715  -0.76701438427  -1.08565092087  
7.23706102371  0.0753951594234  -0.055772986263  0.0542773529887  -0.165861681104  -0.745083272457  -1.06772255898  
7.24514293671  0.0753951594234  -0.0511966086924  0.053497582674  -0.17602430284  -0.72854501009  -1.04406571388  
7.25323200226  0.101651795208  -0.0463773533702  0.0515417568386  -0.182951182127  -0.716033518314  -1.03407084942  
7.26129508018  0.110715068877  -0.0414558313787  0.0487678050995  -0.185923278332  -0.698776185513  -1.02024102211  
7.26945900917  0.138620734215  -0.0330061540008  0.04392298311  -0.191459983587  -0.675622701645  -1.00813698769  
7.27759599686  0.147313296795  -0.0302961207926  0.0401391647756  -0.195175096393  -0.65616029501  -0.994810521603  
7.28563714027  0.15913772583  -0.0223577711731  0.0341949909925  -0.198674485087  -0.639550149441  -1.01041400433  
7.29372096062  0.168750673532  -0.0171678029001  0.0294396486133  -0.203372299671  -0.622772276402  -1.01079750061  
7.30182099342  0.174669280648  -0.0136524289846  0.0236488711089  -0.201958164573  -0.609278023243  -1.00396645069  
7.30989813805  0.182582065463  -0.00538171594962  0.0175896473229  -0.201047360897  -0.599091410637  -1.00319945812  
7.31803607941  0.187094524503  0.00726084271446  0.0148923974484  -0.201047360897  -0.589623868465  -1.00736999512  
7.32613801956  0.193959087133  0.0123357623816  0.00837297830731  -0.19735622406  -0.578478574753  -1.01782023907  
