Ethan-CYM/ros_catkin_ws/test/servol_正常操作/ur_joint_actual_current.txt
time  shoulder_pan_joint  shoulder_lift_joint  elbow_joint  wrist_1_joint  wrist_2_joint  wrist_3_joint
0.147958040237  -0.0582870729268  -2.11178565025  -1.16125786304  -0.298908084631  -0.108277924359  -0.0305008236319  
0.156054973602  -0.132266819477  -2.05349850655  -1.15004885197  -0.227231130004  -0.0899774283171  -0.211980730295  
0.164221048355  -0.181586652994  -2.03780579567  -1.07382726669  -0.247056677938  -0.0533764399588  -0.0244006589055  
0.172230958939  -0.204004764557  -1.93019890785  -1.11642169952  -0.298908084631  -0.0411761105061  -0.160129323602  
0.180571079254  -0.26229184866  -1.901055336  -1.21057772636  -0.372110038996  -0.00915024708956  -0.260782033205  
0.188621044159  -0.325062543154  -1.98848593235  -1.31370103359  -0.44226193428  -0.00610016472638  -0.207405596972  
0.196496009827  -0.1188159585  -1.93916606903  -1.15677428246  -0.475812852383  0.048801317811  -0.240956500173  
0.204568147659  -0.304886221886  -1.92571520805  -1.20385229588  -0.440736889839  0.0442261956632  -0.222656011581  
0.212644100189  -0.396800458431  -1.80914115906  -1.32042646408  -0.356859624386  0.111328005791  -0.269932299852  
0.220721960068  -0.269017279148  -1.82035017014  -1.31370103359  -0.289757817984  0.0777771025896  -0.286707729101  
0.228728055954  -0.226422861218  -1.87863719463  -1.26438117027  -0.347709387541  0.126578420401  -0.245531633496  
0.236804008484  -0.457329362631  -1.78448116779  -1.27334845066  -0.382785350084  0.0137253701687  -0.311108410358  
0.24490404129  -0.497681945562  -1.7217104435  -1.31594276428  -0.497163414955  -0.0396510697901  -0.321783691645  
0.253026008606  -0.280226320028  -1.76878857613  -1.36974620819  -0.4727627635  0.0274507403374  -0.323308736086  
0.26110291481  -0.490956515074  -1.86518633366  -1.32491004467  -0.474287807941  -0.00610016472638  -0.387360453606  
0.269221067429  -0.513374626637  -1.69929242134  -1.37647163868  -0.439211845398  -0.0198255348951  -0.332458972931  
0.277390003204  -0.423702180386  -1.75309586525  -1.28007388115  -0.295857995749  0.115903131664  -0.3461843431  
0.285458087921  -0.502165555954  -1.77103030682  -1.27334845066  -0.311108410358  -0.179954856634  -0.314158469439  
0.293537139893  -0.629948735237  -1.70153415203  -1.41234064102  -0.362959802151  0.349234431982  -0.370584994555  
0.301638126373  -0.340755194426  -1.62979626656  -1.45045137405  -0.411761105061  -0.231806263328  -0.298908084631  
0.309725999832  -0.538034558296  -1.67239069939  -1.28455746174  -0.384310364723  0.288232773542  -0.370584994555  
0.317786931992  -0.553727209568  -1.80914115906  -1.3069756031  -0.44226193428  0.0396510697901  -0.369059979916  
0.325871944427  -0.408009529114  -1.67463243008  -1.33611905575  -0.446837067604  -0.183004945517  -0.286707729101  
0.333990097046  -0.506649196148  -1.64548897743  -1.51322209835  -0.466662615538  0.469712674618  -0.218080893159  
0.342046976089  -0.555968999863  -1.66790699959  -1.29800832272  -0.434636741877  -0.242481544614  -0.298908084631  
0.350136041641  -0.580628931522  -1.64548897743  -1.32042646408  -0.436161786318  0.128103464842  -0.388885498047  
0.35823392868  -0.679268598557  -1.65669798851  -1.38543891907  -0.401085823774  0.154029160738  -0.401085823774  
0.366339921951  -0.349722445011  -1.68808329105  -1.43475878239  -0.385835409164  -0.175379738212  -0.254681885242  
0.37446808815  -0.450603932142  -1.65893983841  -1.4885622263  -0.413286149502  0.0991276800632  -0.369059979916  
0.382560968399  -0.479747444391  -1.64100527763  -1.25317203999  -0.309583365917  -0.0625266879797  -0.108277924359  
0.390604019165  -0.475263834  -1.61858725548  -1.23523759842  -0.332458972931  0.248581707478  -0.288232773542  
0.398714065552  -0.63667422533  -1.61410355568  -1.32939362526  -0.292807906866  -0.271457344294  -0.271457344294  
0.406765937805  -0.670301377773  -1.63876354694  -1.33836090565  -0.215030804276  0.40871104598  -0.150979071856  
0.414842128754  -0.495440125465  -1.56254196167  -1.3652626276  -0.225706100464  -0.163179412484  -0.176904782653  
0.422903060913  -0.434911251068  -1.73291957378  -1.34284448624  -0.20588055253  0.0854023098946  -0.146403953433  
0.430983066559  -0.520100057125  -1.88536262512  -1.30249190331  -0.161654368043  0.196730315685  -0.0518513992429  
0.439116001129  -0.547001779079  -1.79120659828  -1.33611905575  -0.15860427916  -0.254681885242  -0.144878908992  
0.447215080261  -0.567178070545  -1.75309586525  -1.32042646408  -0.186055019498  0.42396146059  0.298908084631  
0.455375909805  -0.567178070545  -1.74188685417  -1.32715189457  -0.193680226803  0.0106752887368  0.0625266879797  
0.463506937027  -0.567178070545  -1.71722686291  -1.33163547516  -0.122003294528  0.115903131664  0.100652717054  
0.471569061279  -0.551485419273  -1.77327215672  -1.32266819477  -0.129628494382  -0.00457512354478  0.0350759476423  
0.479629039764  -0.481989264488  -1.75309586525  -1.34060275555  -0.22113096714  0.309583365917  0.111328005791  
0.487718105316  -0.475263834  -1.73291957378  -1.3047337532  -0.112853050232  -0.198255360126  0.259256988764  
0.495842933655  -0.421460390091  -1.73516142368  -1.33387732506  -0.166229486465  0.337034106255  0.193680226803  
0.503880023956  -0.499923765659  -1.73291957378  -1.34508633614  -0.228756174445  -0.0777771025896  0.00457512354478  
0.511937141418  -0.51785826683  -1.77103030682  -1.34956991673  -0.114378087223  0.0427011549473  0.190630152822  
0.520070075989  -0.520100057125  -1.76206314564  -1.34732818604  -0.207405596972  0.294332951307  0.164704442024  
0.528130054474  -0.515616416931  -1.71498501301  -1.38095533848  -0.259256988764  -0.245531633496  0.0869273468852  
0.536253929138  -0.502165555954  -1.7239522934  -1.28679931164  -0.0823522210121  0.401085823774  0.271457344294  
0.544287919998  -0.513374626637  -1.71498501301  -1.3069756031  -0.305008232594  -0.117428168654  0.146403953433  
0.552490949631  -0.533550918102  -1.71050143242  -1.33611905575  -0.0808271840215  0.0457512363791  0.150979071856  
0.560627937317  -0.490956515074  -1.70601785183  -1.2486884594  -0.353809565306  0.285182714462  0.224181056023  
0.56868314743  -0.446120291948  -1.74637043476  -1.28679931164  -0.0884523913264  -0.208930641413  0.117428168654  
0.576771974564  -0.459571152925  -1.7799975872  -1.29128289223  -0.341609239578  0.404135912657  0.286707729101  
0.584861040115  -0.475263834  -1.80914115906  -1.24196302891  -0.172329649329  -0.128103464842  0.167754530907  
0.592919111252  -0.475263834  -1.79120659828  -1.25989747047  -0.381260305643  0.141828835011  0.0716769322753  
0.601020097733  -0.484231084585  -1.75309586525  -1.25989747047  -0.207405596972  0.211980730295  0.28213262558  
0.609162092209  -0.452845722437  -1.7799975872  -1.2509303093  -0.0747270211577  -0.0945525541902  0.193680226803  
0.617162942886  -0.477505654097  -1.79793202877  -1.25989747047  -0.353809565306  0.298908084631  0.167754530907  
0.625291109085  -0.459571152925  -1.79344844818  -1.24420487881  0.0335509069264  -0.259256988764  0.31568351388  
0.633440971375  -0.475263834  -1.7822394371  -1.28904104233  -0.413286149502  0.329408884048  0.222656011581  
0.641447067261  -0.473022013903  -1.78896486759  -1.19936859608  0.115903131664  0.0244006589055  0.0457512363791  
0.649574041367  -0.387833237648  -1.74188685417  -1.20609402657  -0.411761105061  -0.0854023098946  0.196730315685  
0.657599925995  -0.414734959602  -1.76430487633  -1.24420487881  0.108277924359  0.40871104598  0.247056677938  
0.665688991547  -0.416976749897  -1.7777557373  -1.23972117901  -0.306533277035  -0.28213262558  0.179954856634  
0.673780918121  -0.374382376671  -1.73740315437  -1.2464466095  -0.0533764399588  0.335509061813  0.114378087223  
0.681875944138  -0.394558668137  -1.87639546394  -1.22178673744  -0.125053375959  0.0  0.179954856634  
0.689960956573  -0.401284098625  -1.84949374199  -1.20833587646  -0.166229486465  -0.129628494382  0.26688221097  
0.69802904129  -0.410251319408  -1.85397732258  -1.2509303093  -0.0655767694116  0.398035734892  0.301958143711  
0.706139087677  -0.42818582058  -1.84949374199  -1.25317203999  -0.369059979916  -0.349234431982  0.257731974125  
0.714201927185  -0.419218569994  -1.80465745926  -1.21730315685  0.0915024727583  0.326358824968  0.150979071856  
0.722278118134  -0.414734959602  -1.85173547268  -1.26886475086  -0.410236090422  0.0457512363791  0.0884523913264  
0.730399131775  -0.441636681557  -1.82483375072  -1.22627031803  0.122003294528  -0.114378087223  0.0579515658319  
0.738541126251  -0.434911251068  -1.86294460297  -1.20833587646  -0.376685172319  0.350759476423  0.100652717054  
0.746632099152  -0.461812973022  -1.84501004219  -1.17470872402  0.227231130004  -0.211980730295  0.141828835011  
0.754724025726  -0.416976749897  -1.8382846117  -1.1859177351  -0.413286149502  0.271457344294  0.152504116297  
0.762845039368  -0.421460390091  -1.83380103111  -1.1859177351  0.0930275097489  -0.147928997874  0.199780389667  
0.770929098129  -0.414734959602  -1.82707560062  -1.1904014349  -0.225706100464  0.0442261956632  0.225706100464  
0.779083967209  -0.425944000483  -1.8427683115  -1.19712686539  -0.0549014806747  0.269932299852  0.164704442024  
0.787132024765  -0.412493139505  -1.82931745052  -1.188159585  -0.106752879918  -0.295857995749  0.208930641413  
0.79523396492  -0.432669430971  -1.82483375072  -1.20161044598  -0.219605922699  0.425486475229  0.157079234719  
0.803358078003  -0.450603932142  -1.8405264616  -1.21730315685  0.0427011549473  -0.193680226803  0.0625266879797  
0.811574935913  -0.464054793119  -1.82035017014  -1.18367600441  -0.364484846592  0.0716769322753  0.0503263585269  
0.81959104538  -0.455087542534  -1.83155918121  -1.188159585  0.163179412484  0.25163179636  0.0869273468852  
0.827652931213  -0.416976749897  -1.86967003345  -1.17470872402  -0.449887156487  -0.227231130004  0.0274507403374  
0.835736989975  -0.430427610874  -1.8382846117  -1.188159585  0.201305434108  0.295857995749  -0.0777771025896  
0.843801021576  -0.421460390091  -1.83155918121  -1.17470872402  -0.459037393332  -0.242481544614  -0.0579515658319  
0.851938009262  -0.412493139505  -1.82931745052  -1.18143415451  0.108277924359  0.186055019498  -0.0716769322753  
0.860008001328  -0.432669430971  -1.8405264616  -1.19488501549  -0.272982358932  0.155554205179  -0.260782033205  
0.868149995804  -0.434911251068  -1.86967003345  -1.17695057392  -0.164704442024  -0.216555848718  -0.146403953433  
0.876263141632  -0.455087542534  -1.86518633366  -1.17470872402  0.0167754534632  0.420911371708  -0.375160127878  
0.884506940842  -0.430427610874  -1.83604288101  -1.17470872402  -0.369059979916  -0.279082536697  -0.115903131664  
0.892504930496  -0.450603932142  -1.8382846117  -1.25989747047  0.195205271244  0.265357166529  -0.414811193943  
0.900609970093  -0.434911251068  -1.8405264616  -1.23523759842  -0.459037393332  0.0289757829159  -0.103702798486  
0.908643007278  -0.437153071165  -1.8427683115  -1.24196302891  0.192155182362  0.0884523913264  -0.3461843431  
0.916748046875  -0.432669430971  -1.87191176414  -1.17919230461  -0.398035734892  -0.118953213096  -0.105227842927  
0.924777984619  -0.437153071165  -1.82259202003  -1.20161044598  0.0427011549473  0.250106751919  -0.131153538823  
0.932863950729  -0.421460390091  -1.83604288101  -1.24420487881  -0.237906426191  -0.120478250086  -0.0808271840215  
0.940940141678  -0.448362112045  -1.8382846117  -1.23523759842  -0.114378087223  0.0884523913264  0.0350759476423  
0.949064970016  -0.416976749897  -1.84949374199  -1.20385229588  -0.0411761105061  0.199780389667  -0.118953213096  
0.957159042358  -0.437153071165  -1.85397732258  -1.1904014349  -0.320258647203  -0.253156840801  0.0594766065478  
0.965263128281  -0.437153071165  -1.8382846117  -1.23747944832  0.118953213096  0.390410542488  -0.175379738212  
0.973465919495  -0.441636681557  -1.8427683115  -1.18143415451  0.176904782653  0.0213505774736  -0.207405596972  
0.981481075287  -0.432669430971  -1.84949374199  -1.19936859608  -0.481913000345  0.324833780527  -0.0549014806747  
0.989521980286  -0.416976749897  -1.84725189209  -1.23523759842  0.0960775911808  -0.311108410358  -0.227231130004  
0.99754691124  -0.434911251068  -1.85621917248  -1.23747944832  -0.279082536697  0.306533277035  -0.137253701687  
1.00561308861  -0.437153071165  -1.84949374199  -1.20609402657  -0.163179412484  -0.048801317811  -0.305008232594  
1.01368308067  -0.443878501654  -1.87863719463  -1.17470872402  -0.0701518952847  -0.0823522210121  -0.143353864551  
1.02177000046  -0.425944000483  -1.85846090317  -1.24420487881  -0.387360453606  0.30043309927  -0.347709387541  
1.02985191345  -0.416976749897  -1.88760447502  -1.21057772636  0.146403953433  -0.231806263328  -0.0655767694116  
1.03793811798  -0.457329362631  -1.85846090317  -1.16574144363  -0.513938903809  0.311108410358  -0.28213262558  
1.04602694511  -0.457329362631  -1.87415361404  -1.23299574852  0.195205271244  -0.0747270211577  -0.0808271840215  
1.05410504341  -0.437153071165  -1.86742818356  -1.19488501549  -0.523089110851  -0.0274507403374  -0.186055019498  
1.0623319149  -0.437153071165  -1.86294460297  -1.21954488754  0.0457512363791  0.283657670021  -0.288232773542  
1.07042098045  -0.414734959602  -1.87191176414  -1.1859177351  -0.260782033205  -0.292807906866  -0.0793021395802  
1.07847499847  -0.40352588892  -1.87863719463  -1.19264316559  -0.219605922699  0.407186001539  -0.263832122087  
1.08648204803  -0.446120291948  -1.80017387867  -1.20609402657  0.0152504118159  -0.0915024727583  -0.0610016472638  
1.0945649147  -0.425944000483  -1.81362473965  -1.22851216793  -0.504788637161  0.100652717054  -0.0289757829159  
1.10261201859  -0.42818582058  -1.82035017014  -1.17246687412  0.20588055253  0.269932299852  -0.289757817984  
1.11073493958  -0.412493139505  -1.82259202003  -1.20609402657  -0.539864599705  -0.178429812193  0.181479901075  
1.11875605583  -0.408009529114  -1.82035017014  -1.22402858734  0.0579515658319  0.355334609747  -0.481913000345  
1.12716698647  -0.42818582058  -1.83604288101  -1.21954488754  -0.320258647203  -0.141828835011  0.118953213096  
1.13522696495  -0.455087542534  -1.86742818356  -1.19712686539  -0.163179412484  0.15860427916  -0.056426525116  
1.14331912994  -0.434911251068  -1.83604288101  -1.20161044598  -0.134203627706  0.137253701687  -0.413286149502  
1.1515109539  -0.464054793119  -1.83380103111  -1.21057772636  -0.376685172319  -0.105227842927  0.298908084631  
1.15962004662  -0.441636681557  -1.87191176414  -1.20161044598  0.097602635622  0.355334609747  -0.347709387541  
1.16767311096  -0.450603932142  -1.84501004219  -1.21730315685  -0.530714333057  -0.211980730295  -0.0640517324209  
1.17578291893  -0.457329362631  -1.82259202003  -1.21730315685  0.155554205179  0.295857995749  0.147928997874  
1.18394994736  -0.470780223608  -1.8405264616  -1.19936859608  -0.501738548279  -0.0793021395802  -0.398035734892  
1.19202494621  -0.455087542534  -1.8427683115  -1.23972117901  0.0183004941791  0.0930275097489  0.285182714462  
1.20010113716  -0.43939486146  -1.83604288101  -1.19264316559  -0.20435552299  0.228756174445  -0.202830478549  
1.20825600624  -0.457329362631  -1.83604288101  -1.21506130695  -0.337034106255  -0.272982358932  -0.170804619789  
1.21632504463  -0.443878501654  -1.82931745052  -1.19264316559  0.048801317811  0.431586652994  0.259256988764  
1.22455596924  -0.441636681557  -1.8405264616  -1.18367600441  -0.545964717865  -0.187580063939  -0.379735261202  
1.23261809349  -0.423702180386  -1.8382846117  -1.16125786304  -0.0793021395802  0.0244006589055  0.240956500173  
1.24069499969  -0.448362112045  -1.81810832024  -1.23523759842  -0.362959802151  0.25163179636  -0.118953213096  
1.24879813194  -0.434911251068  -1.81586658955  -1.17246687412  0.0213505774736  -0.239431470633  -0.288232773542  
1.25690197945  -0.430427610874  -1.81810832024  -1.17470872402  -0.466662615538  0.338559150696  0.305008232594  
1.26492810249  -0.434911251068  -1.82035017014  -1.22178673744  0.0732019767165  -0.172329649329  -0.384310364723  
1.27298903465  -0.43939486146  -1.80689930916  -1.17022514343  -0.460562437773  -0.00457512354478  0.118953213096  
1.28110599518  -0.42818582058  -1.82259202003  -1.1859177351  0.00610016472638  0.28213262558  0.0350759476423  
1.2891740799  -0.432669430971  -1.87863719463  -1.22627031803  -0.347709387541  -0.260782033205  -0.399560779333  
1.29725813866  -0.497681945562  -2.74173426628  -1.44148421288  -0.103702798486  0.344659298658  0.367534935474  
1.30543613434  -0.64115780592  -2.60050034523  -1.6611815691  -0.123528338969  -0.154029160738  -0.237906426191  
1.3134560585  -0.780150055885  -3.23941636086  -1.83604288101  -0.353809565306  0.105227842927  0.195205271244  
1.32152795792  -0.293677181005  -3.46808099747  -1.70153415203  0.0381260290742  0.260782033205  0.0579515658319  
1.32958698273  -0.479747444391  -3.95455384254  -1.82707560062  -0.532239377499  0.161654368043  0.0305008236319  
1.337692976  -0.627706944942  -4.35583782196  -2.00642037392  -0.0122003294528  0.439211845398  0.20435552299  
1.34579610825  -0.197279334068  -4.49483013153  -2.0736746788  -0.562740206718  0.349234431982  0.161654368043  
1.35384893417  -0.226422861218  -4.22132921219  -2.12747812271  0.100652717054  0.347709387541  0.0137253701687  
1.36190605164  -0.168135792017  -4.11820602417  -2.19024896622  -0.30043309927  0.30043309927  0.250106751919  
1.370002985  -0.00224181055091  -4.58898639679  -2.23732686043  0.125053375959  0.23638138175  0.102177761495  
1.37802600861  0.103123284876  -3.88505768776  -2.0759165287  -0.0701518952847  0.341609239578  0.103702798486  
1.38614106178  0.208488374949  -4.1652841568  -1.91450619698  0.0122003294528  0.440736889839  0.170804619789  
1.39425897598  0.36765691638  -3.71916365623  -1.88984632492  -0.0122003294528  0.379735261202  0.198255360126  
1.40242600441  0.27350088954  -4.05543518066  -1.93916606903  -0.141828835011  0.175379738212  0.0808271840215  
1.41049909592  0.470780223608  -3.52412629128  -2.01987123489  0.0396510697901  0.240956500173  0.178429812193  
1.41863393784  0.34523883462  -3.41427755356  -1.86742818356  0.0808271840215  0.414811193943  0.176904782653  
1.42668008804  0.452845722437  -3.35374855995  -1.9032971859  -0.0533764399588  0.320258647203  0.100652717054  
1.43475914001  0.464054793119  -2.86279201508  -1.94140791893  0.126578420401  0.163179412484  0.207405596972  
1.44284701347  0.513374626637  -2.96815705299  -1.91002261639  -0.0594766065478  0.340084195137  0.138778746128  
1.4509100914  0.551485419273  -3.2013053894  -1.82483375072  0.0427011549473  0.28213262558  0.132678583264  
1.45903205872  0.612014293671  -2.93677186966  -1.7799975872  0.117428168654  0.0838772654533  0.25163179636  
1.46709895134  0.603047013283  -2.8538248539  -1.85173547268  -0.0381260290742  0.231806263328  0.207405596972  
1.47517895699  0.42818582058  -3.0286860466  -1.87639546394  0.0625266879797  0.247056677938  0.190630152822  
1.48327994347  0.15468493104  -2.61395120621  -1.75533771515  0.0945525541902  0.0854023098946  0.195205271244  
1.49134302139  -0.304886221886  -2.58929109573  -1.85173547268  -0.0244006589055  0.199780389667  0.265357166529  
1.4994199276  -0.277984499931  -2.75742697716  -1.81810832024  0.0213505774736  0.298908084631  0.254681885242  
1.50764393806  -0.448362112045  -2.31130671501  -1.60961997509  0.056426525116  0.181479901075  0.196730315685  
1.51561594009  -0.499923765659  -2.54221320152  -1.77551400661  0.144878908992  0.0945525541902  0.213505759835  
1.52370095253  -0.719621181488  -2.68793082237  -1.86742818356  0.199780389667  0.332458972931  0.274507403374  
1.5318031311  -0.824986279011  -2.56238937378  -1.85173547268  0.0915024727583  0.291282862425  0.291282862425  
1.53986907005  -0.995363891125  -2.40994644165  -1.95710062981  0.0396510697901  0.147928997874  0.231806263328  
1.54800105095  -1.05140912533  -2.35838460922  -1.93019890785  -0.0427011549473  0.228756174445  0.219605922699  
1.55609107018  -1.05365097523  -2.32251572609  -1.88312089443  0.056426525116  0.401085823774  0.271457344294  
1.56419110298  -0.990880250931  -2.49513506889  -2.01987123489  0.129628494382  0.352284520864  0.355334609747  
1.57242512703  -0.930351376534  -2.10057640076  -1.94813334942  0.146403953433  0.22113096714  0.276032447815  
1.58046603203  -0.775666475296  -2.54221320152  -2.05574035645  0.179954856634  0.117428168654  0.202830478549  
1.58837294579  -0.708412110806  -2.54221320152  -1.9638260603  0.0549014806747  0.208930641413  0.193680226803  
1.59652709961  -0.744281113148  -2.41218805313  -2.0804002285  -0.00915024708956  0.311108410358  0.244006589055  
1.60457611084  -0.800326347351  -2.94349718094  -1.91226434708  -0.0320258662105  0.347709387541  0.183004945517  
1.61267900467  -0.838437139988  -2.77087783813  -2.20818328857  0.0533764399588  0.285182714462  0.22113096714  
1.62080311775  -0.876547932625  -2.39425373077  -2.09160923958  0.0808271840215  0.196730315685  0.224181056023  
1.62890410423  -0.789117336273  -2.83364844322  -2.0804002285  0.117428168654  0.109802961349  0.289757817984  
1.63698506355  -0.692719459534  -2.83589029312  -2.13196182251  0.154029160738  0.129628494382  0.257731974125  
1.64507007599  -0.68823581934  -2.57584023476  -2.20145797729  0.111328005791  0.178429812193  0.167754530907  
1.65321111679  -0.685994029045  -2.75294327736  -2.21939253807  0.0579515658319  0.211980730295  0.33093392849  
1.66121506691  -0.748764753342  -3.00850987434  -2.14989638329  0.0518513992429  0.289757817984  0.167754530907  
1.66946601868  -0.934835016727  -2.57135677338  -2.05798196793  0.0747270211577  0.28213262558  0.201305434108  
1.67748308182  -0.881031572819  -2.69913983345  -2.20818328857  0.125053375959  0.245531633496  0.193680226803  
1.68550205231  -0.751006543636  -2.91435360909  -2.14765453339  0.128103464842  0.163179412484  0.314158469439  
1.69354295731  -0.753248333931  -2.83589029312  -2.23508501053  0.0579515658319  0.0732019767165  0.309583365917  
1.70163607597  -0.728588402271  -2.62516021729  -2.31803202629  0.0167754534632  0.0533764399588  0.160129323602  
1.70971012115  -0.661334097385  -3.06231331825  -2.24405241013  -0.0335509069264  0.0335509069264  0.160129323602  
1.71780705452  -0.603047013283  -3.2057890892  -2.24181056023  0.0335509069264  0.0854023098946  0.109802961349  
1.72590208054  -0.540276348591  -2.68344712257  -2.21490883827  0.0762520581484  0.117428168654  0.134203627706  
1.7340669632  -0.618739724159  -2.65878725052  -2.17007255554  -0.00305008236319  0.166229486465  0.0350759476423  
1.74210214615  -0.650125086308  -3.05558776855  -2.16334724426  0.0747270211577  0.227231130004  -0.0884523913264  
1.75023603439  -0.665817737579  -2.64533638954  -2.23060154915  0.111328005791  0.254681885242  -0.0274507403374  
1.75845909119  -0.674784958363  -2.80450510979  -2.23284339905  0.0411761105061  0.26688221097  -0.131153538823  
1.766518116  -0.670301377773  -3.2035472393  -2.30682301521  0.0381260290742  0.228756174445  -0.111328005791  
1.77462291718  -0.68823581934  -2.96367359161  -2.11851096153  0.0350759476423  0.193680226803  -0.0533764399588  
1.78269100189  -0.672543168068  -2.65206193924  -2.21042513847  0.0686268508434  0.115903131664  -0.0106752887368  
1.79080700874  -0.652366876602  -2.93453001976  -2.31354856491  0.108277924359  0.0960775911808  -0.0518513992429  
1.79888892174  -0.582870721817  -2.83364844322  -2.22163414955  0.0777771025896  0.0793021395802  -0.150979071856  
1.80698513985  -0.567178070545  -2.7260415554  -2.30906486511  0.0457512363791  0.138778746128  -0.239431470633  
1.81511306763  -0.547001779079  -3.09145665169  -2.41442990303  0.0686268508434  0.183004945517  -0.202830478549  
1.82320213318  -0.542518138885  -3.01299333572  -2.29113030434  0.097602635622  0.245531633496  -0.00915024708956  
1.83129096031  -0.490956515074  -2.5534222126  -2.26198673248  0.0472762770951  0.306533277035  -0.0930275097489  
1.83948397636  -0.466296583414  -3.0242023468  -2.2575032711  0.140303790569  0.256206929684  -0.179954856634  
1.84750509262  -0.513374626637  -2.81123042107  -2.18800711632  0.105227842927  0.144878908992  -0.230281218886  
1.85558605194  -0.508890986443  -2.78881239891  -2.26647043228  0.0838772654533  0.0457512363791  -0.115903131664  
1.86369895935  -0.508890986443  -3.2080309391  -2.33596658707  0.056426525116  0.122003294528  -0.0869273468852  
1.87178111076  -0.609772443771  -2.7327671051  -2.33148288727  0.0960775911808  0.286707729101  -0.202830478549  
1.87982702255  -0.499923765659  -3.17888736725  -2.12747812271  0.144878908992  0.269932299852  -0.277557492256  
1.88792991638  -0.504407346249  -2.96367359161  -2.18800711632  0.0579515658319  0.213505759835  -0.208930641413  
1.89601707458  -0.535792708397  -2.99057531357  -2.32924127579  0.114378087223  0.157079234719  -0.0655767694116  
1.90408611298  -0.627706944942  -3.1475019455  -2.32699942589  0.0579515658319  0.324833780527  -0.176904782653  
1.91220211983  -0.659092307091  -2.74173426628  -2.35838460922  0.0655767694116  0.303483188152  -0.225706100464  
1.92039299011  -0.717379391193  -3.01523518562  -2.33372473717  0.157079234719  0.167754530907  -0.292807906866  
1.93115592003  -0.746522903442  -2.73725056648  -2.26198673248  0.112853050232  0.150979071856  -0.215030804276  
1.93929100037  -0.719621181488  -3.03989505768  -2.27992129326  0.128103464842  0.376685172319  -0.150979071856  
1.94743299484  -0.782391905785  -2.68568897247  -2.09385108948  0.143353864551  0.157079234719  -0.181479901075  
1.95549607277  -0.948285877705  -2.97264075279  -2.20145797729  0.132678583264  0.216555848718  -0.277557492256  
1.96357393265  -1.04916739464  -2.70362353325  -2.29337215424  0.134203627706  0.294332951307  -0.326358824968  
1.9716489315  -1.16798329353  -3.18112921715  -2.259745121  0.132678583264  0.100652717054  -0.407186001539  
1.97975993156  -1.11642169952  -2.88072657585  -2.35390114784  0.056426525116  0.22113096714  -0.280607581139  
1.98785591125  -0.977429389954  -2.98384976387  -2.2530195713  0.0945525541902  0.218080893159  -0.269932299852  
1.99593806267  -0.845162570477  -2.81571412086  -2.05574035645  0.169279575348  0.125053375959  -0.0884523913264  
2.00407195091  -0.905691444874  -2.91435360909  -2.14092898369  0.0762520581484  0.338559150696  -0.0762520581484  
2.01222109795  -1.13211429119  -2.44805717468  -2.18352341652  0.160129323602  0.117428168654  -0.0457512363791  
2.02045893669  -1.05589282513  -2.61395120621  -1.99072778225  0.155554205179  0.263832122087  -0.0915024727583  
2.02847409248  -1.03795826435  -2.76415252686  -2.0826420784  0.135728672147  0.28213262558  -0.122003294528  
2.03658795357  -1.30249190331  -2.57135677338  -2.16334724426  0.155554205179  0.150979071856  -0.123528338969  
2.04470992088  -1.0132983923  -2.91659545898  -2.10506010056  0.196730315685  0.410236090422  -0.160129323602  
2.05286312103  -1.11642169952  -2.8560667038  -2.0826420784  0.132678583264  0.250106751919  -0.155554205179  
2.06096196175  -1.09400355816  -2.90090274811  -1.99745321274  0.114378087223  0.164704442024  -0.135728672147  
2.06908798218  -1.18367600441  -2.89417743683  -2.05125665665  0.210455685854  0.329408884048  -0.190630152822  
2.07722997665  -1.15004885197  -2.62067651749  -1.94589149952  0.122003294528  0.247056677938  -0.17385469377  
2.08546304703  -1.25989747047  -2.60946750641  -1.89208805561  0.253156840801  0.265357166529  0.00762520590797  
2.0935280323  -1.37422990799  -2.58704948425  -1.83155918121  0.218080893159  0.320258647203  -0.0808271840215  
2.10159993172  -1.39440619946  -2.39201188087  -1.9032971859  0.161654368043  0.247056677938  0.0228756181896  
2.10967612267  -1.26438117027  -2.50858592987  -1.99296963215  0.222656011581  0.0960775911808  -0.0167754534632  
2.11772608757  -0.966220319271  -2.65878725052  -1.8427683115  0.17385469377  0.0457512363791  0.0350759476423  
2.12584614754  -0.822744488716  -2.28216314316  -1.74188685417  0.187580063939  0.048801317811  0.105227842927  
2.13391304016  -1.06485998631  -2.25077772141  -1.71722686291  0.211980730295  0.0533764399588  0.0518513992429  
2.14197611809  -1.1859177351  -2.47495889664  -1.77327215672  0.199780389667  -0.00152504118159  0.244006589055  
2.15009307861  -1.56926739216  -2.41218805313  -1.75982129574  0.202830478549  -0.195205271244  0.0289757829159  
2.15819311142  -1.56926739216  -2.21939253807  -1.6611815691  0.211980730295  -0.193680226803  0.291282862425  
2.16629099846  -1.32266819477  -2.1992161274  -1.45941865444  0.237906426191  -0.108277924359  0.0503263585269  
2.17446208  -1.0671018362  -2.24405241013  -1.33163547516  0.178429812193  -0.222656011581  0.257731974125  
2.18256902695  -1.1253888607  -2.12523651123  -0.612014293671  0.215030804276  -0.0991276800632  0.0167754534632  
2.19062900543  -1.18143415451  -1.74861228466  -0.930351376534  0.279082536697  0.00457512354478  0.292807906866  
2.19875097275  -1.51322209835  -1.75757944584  -0.681510388851  0.207405596972  -0.161654368043  0.0533764399588  
2.20716691017  -1.32715189457  -1.96606791019  -0.56941986084  0.22113096714  -0.216555848718  0.224181056023  
2.21830391884  -1.24196302891  -1.82483375072  -0.573903501034  0.193680226803  -0.161654368043  0.0716769322753  
2.22652292252  -1.11193799973  -2.01314592361  -0.68823581934  0.175379738212  -0.161654368043  0.186055019498  
2.23454999924  -1.23523759842  -1.83604288101  -0.708412110806  0.234856337309  -0.234856337309  0.263832122087  
2.24265193939  -1.15004885197  -1.84501004219  -0.665817737579  0.211980730295  0.00152504118159  0.120478250086  
2.25072407722  -1.23299574852  -1.83380103111  -0.443878501654  0.242481544614  -0.225706100464  0.17385469377  
2.25882291794  -1.29576647282  -1.75757944584  -0.549243569374  0.176904782653  -0.115903131664  0.0335509069264  
2.26691102982  -1.33611905575  -2.06022381783  -0.733072042465  0.157079234719  -0.259256988764  0.097602635622  
2.27501511574  -1.21057772636  -1.70153415203  -0.748764753342  0.245531633496  -0.0808271840215  -0.0244006589055  
2.28315401077  -1.05589282513  -1.93916606903  -0.408009529114  0.301958143711  -0.22113096714  0.0244006589055  
2.29125809669  -1.0088146925  -1.82035017014  -0.576145291328  0.122003294528  -0.295857995749  -0.00610016472638  
2.29948091507  -1.25317203999  -2.0848839283  -0.831711709499  0.0549014806747  -0.176904782653  -0.0289757829159  
2.30750799179  -1.17246687412  -1.9615842104  -0.818260848522  0.198255360126  -0.245531633496  0.122003294528  
2.31561994553  -1.18143415451  -1.64548897743  -0.414734959602  0.0610016472638  -0.254681885242  0.00457512354478  
2.32369303703  -1.25989747047  -1.88760447502  -0.470780223608  0.237906426191  -0.0732019767165  0.196730315685  
2.33174014091  -1.31370103359  -1.76654672623  -0.831711709499  0.0350759476423  -0.20435552299  0.167754530907  
2.33984613419  -1.03571653366  -1.75085401535  -0.782391905785  0.131153538823  -0.271457344294  0.190630152822  
2.34795403481  -0.97294574976  -2.1969742775  -0.499923765659  0.160129323602  -0.250106751919  0.125053375959  
2.35602998734  -1.0693436861  -2.03556394577  -0.68823581934  0.0701518952847  -0.183004945517  0.0457512363791  
2.36411714554  -1.38095533848  -1.84501004219  -1.03123283386  0.0183004941791  -0.222656011581  0.0671018138528  
2.37221312523  -1.17470872402  -2.05125665665  -0.99312210083  0.0640517324209  -0.23638138175  0.193680226803  
2.3804500103  -1.03571653366  -1.8405264616  -0.63667422533  0.0732019767165  -0.295857995749  0.230281218886  
2.38849496841  -1.27334845066  -1.69705057144  -0.661334097385  0.00762520590797  -0.291282862425  0.118953213096  
2.39653205872  -1.3652626276  -1.98848593235  -0.97294574976  0.0396510697901  -0.254681885242  0.0610016472638  
2.40461206436  -0.829469919205  -1.95710062981  -0.885515153408  -0.132678583264  -0.186055019498  0.25163179636  
2.41270399094  -0.979671239853  -1.81810832024  -0.576145291328  -0.111328005791  -0.193680226803  0.140303790569  
2.4207880497  -1.41682422161  -1.6611815691  -0.793600916862  -0.240956500173  -0.178429812193  0.132678583264  
2.42889714241  -1.21281945705  -1.58271825314  -1.11417984962  -0.262307077646  -0.147928997874  0.218080893159  
2.4391810894  -1.26438117027  -1.90553891659  -0.724104821682  -0.286707729101  -0.181479901075  0.271457344294  
2.44726014137  -1.32715189457  -1.81810832024  -0.878789722919  -0.222656011581  -0.179954856634  0.137253701687  
2.45545101166  -1.09848713875  -1.5423656702  -1.03347468376  -0.176904782653  -0.219605922699  0.263832122087  
2.46347093582  -0.914658725262  -1.55357468128  -0.782391905785  -0.257731974125  -0.274507403374  0.150979071856  
2.47156095505  -1.01554012299  -1.71498501301  -0.73531383276  -0.340084195137  -0.195205271244  0.157079234719  
2.47968411446  -1.38768076897  -1.71722686291  -1.10745441914  -0.42396146059  -0.219605922699  0.143353864551  
2.48777914047  -1.28231561184  -1.56478381157  -1.17695057392  -0.373635083437  -0.179954856634  0.25163179636  
2.49585700035  -0.887757003307  -1.68359971046  -0.831711709499  -0.207405596972  -0.17385469377  0.135728672147  
2.50391507149  -1.25765573978  -1.86518633366  -0.762215614319  -0.253156840801  -0.195205271244  0.277557492256  
2.51200008392  -1.45941865444  -1.81138288975  -1.07606911659  -0.353809565306  -0.259256988764  0.115903131664  
2.52007913589  -0.820502638817  -1.65221440792  -1.1298725605  -0.42396146059  -0.169279575348  0.289757817984  
2.5281291008  -0.712895750999  -1.70601785183  -1.14108157158  -0.390410542488  -0.147928997874  0.0625266879797  
2.53625297546  -1.19936859608  -1.50649666786  -1.37871348858  -0.265357166529  -0.196730315685  0.233331307769  
2.54441714287  -1.32266819477  -1.1253888607  -2.06694936752  -0.247056677938  -0.166229486465  0.15860427916  
2.55245995522  -0.872064292431  -0.932593166828  -1.88087904453  -0.349234431982  -0.225706100464  0.257731974125  
2.56052708626  -0.885515153408  -0.984154820442  -1.7217104435  -0.399560779333  -0.187580063939  0.0854023098946  
2.56857895851  -1.19712686539  -0.952769458294  -1.99745321274  -0.422436416149  -0.175379738212  0.224181056023  
2.5767159462  -1.20161044598  -0.719621181488  -2.3830447197  -0.489538222551  -0.152504116297  0.122003294528  
2.58477306366  -0.598563432693  -0.526825487614  -2.25077772141  -0.443786978722  -0.186055019498  0.254681885242  
2.59287405014  -0.697203099728  -0.596321582794  -1.91674804688  -0.375160127878  -0.176904782653  0.0716769322753  
2.60097908974  -1.04020011425  -0.670301377773  -2.10506010056  -0.388885498047  -0.256206929684  0.317208558321  
2.60908412933  -1.05589282513  -0.508890986443  -2.39873719215  -0.305008232594  -0.228756174445  0.112853050232  
2.61719799042  -1.03571653366  -0.457329362631  -2.26198673248  -0.166229486465  -0.193680226803  0.298908084631  
2.6253991127  -0.831711709499  -0.551485419273  -2.03556394577  -0.29738304019  -0.157079234719  0.166229486465  
2.6334900856  -0.901207864285  -0.585112571716  -2.17455625534  -0.123528338969  -0.181479901075  0.0869273468852  
2.64155697823  -0.753248333931  -0.349722445011  -2.43460631371  -0.269932299852  -0.181479901075  0.265357166529  
2.64967393875  -0.910175085068  -0.215213805437  -2.43908977509  -0.141828835011  -0.207405596972  0.137253701687  
2.65775513649  -0.710653960705  -0.365415126085  -2.05349850655  -0.0472762770951  -0.237906426191  0.219605922699  
2.66584706306  -0.829469919205  -0.757731974125  -2.01314592361  0.0320258662105  -0.176904782653  0.245531633496  
2.67394304276  -0.634432375431  -0.730830252171  -2.31354856491  0.0533764399588  -0.213505759835  0.0991276800632  
2.68207812309  -0.827228069305  -0.336271584034  -2.47720074654  -0.00152504118159  -0.26688221097  0.0808271840215  
2.69030499458  -0.697203099728  -0.477505654097  -2.40546274185  -0.0747270211577  -0.289757817984  0.213505759835  
2.69844293594  -0.697203099728  -0.327304333448  -2.1969742775  -0.0305008236319  -0.364484846592  0.17385469377  
2.7064139843  -0.742039263248  -0.0493198335171  -2.10057640076  0.0869273468852  -0.269932299852  0.0640517324209  
2.71448206902  -0.533550918102  -0.547001779079  -2.32027387619  0.100652717054  -0.152504116297  0.152504116297  
2.7225830555  -0.358689695597  -0.376624166965  -2.20369982719  0.0427011549473  -0.227231130004  0.25163179636  
2.73070192337  -0.632190585136  -0.325062543154  -2.27319598198  -0.0732019767165  -0.326358824968  0.274507403374  
2.73880410194  -0.396800458431  -0.138992249966  -2.23956871033  0.0777771025896  -0.20435552299  0.18910510838  
2.74685192108  -0.625465154648  -0.105365097523  -2.06694936752  0.103702798486  -0.219605922699  0.0655767694116  
2.75495505333  -0.706170320511  -0.325062543154  -2.13644552231  0.0533764399588  -0.317208558321  0.0701518952847  
2.76305699348  -0.757731974125  -0.242115542293  -2.17679810524  0.0244006589055  -0.183004945517  0.155554205179  
2.77117013931  -0.318337112665  -0.217455625534  -2.30233955383  0.0915024727583  -0.276032447815  0.187580063939  
2.77925395966  -0.0112090529874  -0.668059527874  -2.27992129326  0.0884523913264  -0.314158469439  0.219605922699  
2.78737711906  -0.13675044477  -0.381107807159  -2.29785585403  0.0213505774736  -0.321783691645  0.239431470633  
2.79548311234  -0.354206055403  -0.372140556574  -2.30233955383  -0.0549014806747  -0.149454042315  0.239431470633  
2.80351805687  -0.477505654097  -0.643399655819  -2.30009770393  0.0732019767165  -0.280607581139  0.211980730295  
2.81159806252  -0.603047013283  -0.208488374949  -2.19249081612  0.111328005791  -0.0915024727583  0.218080893159  
2.81969499588  -0.576145291328  -0.138992249966  -2.09609293938  0.0869273468852  -0.303483188152  0.155554205179  
2.82776212692  -0.511132776737  -0.468538403511  -2.27095413208  -0.0366009883583  -0.298908084631  0.247056677938  
2.83588504791  -0.479747444391  -0.410251319408  -2.19024896622  -0.0472762770951  -0.0411761105061  0.0686268508434  
2.84398293495  -0.419218569994  -0.502165555954  -2.24853587151  0.0289757829159  -0.207405596972  0.0915024727583  
2.85210609436  -0.0605288855731  -0.56941986084  -2.44133162498  0.0655767694116  -0.225706100464  0.18910510838  
2.86024212837  -0.188312083483  -0.607530653477  -2.52652049065  0.0991276800632  -0.274507403374  -0.0259256996214  
2.86843299866  0.286951750517  -0.663575947285  -2.36062645912  0.0701518952847  -0.17385469377  0.155554205179  
2.87647891045  0.163652166724  -0.307128041983  -2.05125665665  0.0427011549473  -0.0732019767165  0.0503263585269  
2.88455104828  0.529067277908  -0.255566388369  -2.21715068817  -0.00762520590797  -0.118953213096  0.0198255348951  
2.89267396927  0.715137541294  -0.535792708397  -2.28664684296  -0.0152504118159  -0.146403953433  0.138778746128  
2.90077114105  0.80256819725  -0.520100057125  -2.21715068817  -0.215030804276  -0.186055019498  0.0442261956632  
2.90880799294  0.829469919205  -0.872064292431  -2.30682301521  -0.152504116297  -0.183004945517  -0.00610016472638  
2.91694808006  0.663575947285  -0.551485419273  -2.24181056023  -0.0899774283171  -0.231806263328  0.097602635622  
2.92501401901  0.499923765659  -0.63667422533  -2.26871228218  -0.166229486465  -0.195205271244  0.0396510697901  
2.93312907219  0.573903501034  -0.591838002205  -2.29337215424  -0.224181056023  -0.15860427916  0.0427011549473  
2.94122314453  0.762215614319  -0.672543168068  -2.10730195045  -0.306533277035  -0.0533764399588  -0.18910510838  
2.94937396049  0.912416875362  -0.914658725262  -2.28888845444  -0.353809565306  0.00762520590797  -0.242481544614  
2.95747113228  0.753248333931  -1.06261825562  -2.28440499306  -0.22113096714  -0.00915024708956  0.056426525116  
2.96551203728  0.647883236408  -0.789117336273  -2.17455625534  -0.262307077646  0.0808271840215  -0.280607581139  
2.97360992432  0.490956515074  -0.881031572819  -2.22387599945  -0.3461843431  0.0899774283171  -0.0533764399588  
2.98170304298  0.638916015625  -0.990880250931  -2.43012261391  -0.381260305643  0.154029160738  -0.234856337309  
2.98975610733  0.795842766762  -1.0671018362  -2.33148288727  -0.247056677938  0.125053375959  -0.150979071856  
2.99785614014  0.894482433796  -1.43027508259  -2.39649558067  -0.387360453606  0.25163179636  -0.224181056023  
3.00593709946  0.816019058228  -1.13435614109  -2.32924127579  -0.341609239578  0.15860427916  -0.242481544614  
3.01407003403  0.831711709499  -1.12314713001  -2.16783070564  -0.233331307769  0.295857995749  -0.234856337309  
3.02215003967  0.97294574976  -0.92138415575  -2.19249081612  -0.411761105061  0.103702798486  -0.224181056023  
3.03030800819  1.04244196415  -1.00208926201  -2.24853587151  -0.303483188152  0.167754530907  -0.231806263328  
3.03837299347  0.885515153408  -1.53115665913  -2.3718354702  -0.343134254217  0.0747270211577  -0.166229486465  
3.04641604424  0.820502638817  -1.3630207777  -2.30233955383  -0.434636741877  0.0899774283171  -0.26688221097  
3.0546169281  1.0693436861  -1.28231561184  -2.35838460922  -0.305008232594  0.0747270211577  -0.105227842927  
3.06259012222  0.831711709499  -1.43700051308  -2.27767944336  -0.460562437773  0.123528338969  -0.164704442024  
3.07071614265  0.663575947285  -1.40337336063  -2.34717559814  -0.369059979916  0.187580063939  -0.0457512363791  
3.07880711555  0.975187599659  -1.35405361652  -2.11626911163  -0.378210216761  0.244006589055  -0.202830478549  
3.08689308167  0.939318597317  -1.59841096401  -2.28664684296  -0.437686830759  0.305008232594  0.0137253701687  
3.09498810768  0.775666475296  -1.61858725548  -2.24629426003  -0.271457344294  0.320258647203  -0.123528338969  
3.1031229496  0.912416875362  -1.54684925079  -2.33148288727  -0.465137571096  0.259256988764  0.0747270211577  
3.1111869812  0.869822502136  -1.68808329105  -2.30233955383  -0.347709387541  0.15860427916  -0.0930275097489  
3.1192381382  0.75997376442  -1.32491004467  -2.18800711632  -0.333984017372  0.0594766065478  0.120478250086  
3.12738800049  0.820502638817  -1.3047337532  -2.20594167709  -0.411761105061  0.117428168654  -0.0945525541902  
3.13547706604  0.878789722919  -1.61634540558  -2.20369982719  -0.308058321476  0.222656011581  0.292807906866  
3.14362096786  0.712895750999  -1.3630207777  -2.34941744804  -0.327883839607  0.350759476423  -0.277557492256  
3.15163993835  0.988638460636  -1.62979626656  -2.27543759346  -0.448362112045  0.31568351388  0.225706100464  
3.15972495079  1.11642169952  -1.45493507385  -2.17231440544  -0.420911371708  0.210455685854  -0.150979071856  
3.16781711578  1.08951997757  -1.95710062981  -2.30009770393  -0.265357166529  0.111328005791  0.115903131664  
3.17590713501  1.19264316559  -1.56254196167  -2.16783070564  -0.369059979916  0.202830478549  0.137253701687  
3.18397212029  0.795842766762  -1.66790699959  -2.40546274185  -0.516988933086  0.311108410358  -0.253156840801  
3.19207000732  0.948285877705  -1.50201308727  -2.18352341652  -0.44226193428  0.262307077646  0.30043309927  
3.20020198822  0.813777208328  -1.64997255802  -2.05125665665  -0.216555848718  0.0625266879797  -0.327883839607  
3.20822095871  1.19712686539  -1.65893983841  -2.09385108948  -0.378210216761  0.0960775911808  0.256206929684  
3.21643710136  0.963978528976  -1.40337336063  -2.06694936752  -0.459037393332  0.254681885242  0.0152504118159  
3.22441291809  0.959494888783  -1.77327215672  -2.26422858238  -0.454462260008  0.193680226803  -0.218080893159  
3.23255109787  0.999847531319  -1.62755441666  -2.31579041481  -0.486488133669  0.0716769322753  0.30043309927  
3.24060297012  1.0132983923  -1.97055149078  -2.23956871033  -0.381260305643  0.277557492256  -0.317208558321  
3.24867391586  0.988638460636  -2.14541268349  -2.26198673248  -0.305008232594  0.242481544614  0.256206929684  
3.25678896904  1.08727812767  -1.59168553352  -2.22387599945  -0.268407255411  0.056426525116  -0.18910510838  
3.26490712166  0.995363891125  -1.80914115906  -2.28888845444  -0.314158469439  0.321783691645  0.0930275097489  
3.27298212051  1.33387732506  -1.73740315437  -2.24181056023  -0.337034106255  0.210455685854  0.170804619789  
3.28108310699  1.09400355816  -1.55805838108  -2.23060154915  -0.385835409164  0.18910510838  -0.289757817984  
3.28922200203  1.27334845066  -1.86967003345  -2.17455625534  -0.381260305643  0.311108410358  0.398035734892  
3.29732513428  1.31370103359  -2.10730195045  -2.0736746788  -0.340084195137  0.0747270211577  -0.202830478549  
3.30547809601  1.05589282513  -1.69256699085  -2.16110539436  -0.366009891033  0.341609239578  0.114378087223  
3.3135471344  0.995363891125  -1.6051363945  -2.28216314316  -0.413286149502  0.123528338969  0.262307077646  
3.32166790962  0.99312210083  -1.73291957378  -2.17679810524  -0.350759476423  0.305008232594  -0.33093392849  
3.32980513573  0.824986279011  -1.88760447502  -2.17455625534  -0.25163179636  0.0457512363791  0.410236090422  
3.33794212341  1.07606911659  -1.77551400661  -2.29785585403  -0.152504116297  0.263832122087  -0.170804619789  
3.34608602524  1.56030011177  -1.82035017014  -2.25077772141  -0.224181056023  0.0869273468852  0.105227842927  
3.35410904884  1.65445613861  -2.00193691254  -2.24629426003  -0.00610016472638  0.213505759835  0.218080893159  
3.36249804497  1.70825958252  -2.21715068817  -2.1947324276  -0.230281218886  0.211980730295  -0.291282862425  
3.37043595314  1.49528765678  -2.40322089195  -2.33596658707  0.0686268508434  0.132678583264  0.431586652994  
3.3785200119  0.97294574976  -2.04453110695  -2.27319598198  -0.117428168654  0.326358824968  -0.0762520581484  
3.38664793968  0.748764753342  -1.64100527763  -2.14092898369  0.125053375959  0.0869273468852  0.100652717054  
3.3946659565  0.845162570477  -1.59616911411  -2.32251572609  0.0198255348951  0.169279575348  0.20588055253  
3.40276408195  1.26213932037  -1.75982129574  -2.26422858238  0.0183004941791  0.31568351388  -0.256206929684  
3.41090512276  1.75757944584  -1.95710062981  -2.1992161274  -0.00457512354478  0.131153538823  0.462087482214  
3.41908311844  1.69032514095  -2.03108024597  -2.13196182251  -0.0854023098946  0.157079234719  -0.161654368043  
3.42711997032  1.16798329353  -1.73964500427  -2.21715068817  -0.134203627706  0.240956500173  0.340084195137  
3.43516492844  0.665817737579  -1.47286951542  -2.00193691254  -0.0899774283171  0.314158469439  0.0960775911808  
3.44340395927  0.905691444874  -1.46166050434  -2.11851096153  0.00610016472638  0.245531633496  -0.128103464842  
3.45148491859  1.30249190331  -1.71498501301  -2.32475757599  0.0625266879797  0.0793021395802  0.44226193428  
3.45956897736  1.74637043476  -2.00193691254  -2.19024896622  0.0457512363791  0.260782033205  -0.260782033205  
3.46763491631  1.37647163868  -2.05125665665  -2.06694936752  -0.0198255348951  0.326358824968  0.376685172319  
3.47579598427  1.04692554474  -2.01090407372  -2.0736746788  -0.0625266879797  0.227231130004  0.00152504118159  
3.4839091301  0.829469919205  -1.87415361404  -1.95261704922  0.0671018138528  0.160129323602  -0.0625266879797  
3.49194097519  1.21057772636  -1.69480872154  -2.12299466133  0.0732019767165  0.115903131664  0.3126334548  
3.50008511543  1.17246687412  -1.62755441666  -2.31130671501  0.0167754534632  0.265357166529  -0.358384668827  
3.5081820488  1.0693436861  -1.53564023972  -2.26647043228  -0.100652717054  0.294332951307  0.140303790569  
3.51639294624  0.912416875362  -1.51322209835  -1.99521136284  0.0808271840215  0.314158469439  -0.350759476423  
3.52446007729  1.21281945705  -1.66790699959  -1.93692433834  0.0625266879797  0.349234431982  -0.103702798486  
3.53245806694  1.55357468128  -1.87191176414  -2.17903995514  0.00762520590797  0.211980730295  -0.163179412484  
3.54057192802  1.47511136532  -1.88760447502  -2.28440499306  0.0274507403374  0.207405596972  -0.256206929684  
3.5486600399  1.15901601315  -1.68359971046  -2.09833478928  0.170804619789  0.135728672147  -0.216555848718  
3.55676603317  0.865338861942  -1.6051363945  -2.05349850655  0.0320258662105  0.20435552299  -0.195205271244  
3.56482100487  1.17470872402  -1.68808329105  -2.02659678459  -0.0320258662105  0.109802961349  -0.122003294528  
3.57297611237  1.31145918369  -1.89208805561  -2.15662169456  0.0945525541902  0.144878908992  -0.109802961349  
3.58100700378  1.07382726669  -1.91674804688  -2.23060154915  0.0289757829159  0.15860427916  -0.230281218886  
3.58911013603  0.959494888783  -1.85173547268  -2.09160923958  -0.0823522210121  0.215030804276  -0.265357166529  
3.59719109535  1.33163547516  -1.94589149952  -1.91898977757  0.0884523913264  0.250106751919  -0.276032447815  
3.6053340435  1.23523759842  -2.21042513847  -2.35165929794  -0.161654368043  0.31568351388  -0.208930641413  
3.61344909668  0.984154820442  -2.04228949547  -2.23284339905  0.128103464842  0.262307077646  -0.213505759835  
3.62149310112  1.14332342148  -1.89432990551  -2.05574035645  0.0183004941791  0.321783691645  -0.0640517324209  
3.62955093384  1.29352474213  -1.91226434708  -2.06022381783  -0.0350759476423  0.301958143711  -0.247056677938  
3.63760709763  1.27783203125  -1.9032971859  -2.3740773201  0.115903131664  0.317208558321  -0.125053375959  
3.64570212364  0.793600916862  -1.85846090317  -2.29561400414  -0.0289757829159  0.352284520864  -0.155554205179  
3.6538131237  1.0088146925  -1.78896486759  -2.04004764557  -0.00915024708956  0.414811193943  -0.0594766065478  
3.66188502312  1.49080395699  -1.86070275307  -2.04004764557  0.0549014806747  0.329408884048  -0.271457344294  
3.66998696327  1.54684925079  -1.94589149952  -2.3785610199  -0.0152504118159  0.321783691645  -0.0396510697901  
3.67809200287  1.08503627777  -2.04228949547  -2.30233955383  0.0854023098946  0.262307077646  -0.186055019498  
3.68611812592  0.932593166828  -2.02659678459  -1.94813334942  0.00762520590797  0.309583365917  -0.230281218886  
3.69432902336  1.09624540806  -2.10954380035  -1.85621917248  -0.0350759476423  0.30043309927  -0.0503263585269  
3.70245695114  1.23299574852  -2.08936738968  -2.36511015892  0.0869273468852  0.384310364723  -0.128103464842  
3.71044111252  0.75549018383  -1.95037519932  -2.26647043228  -0.0991276800632  0.289757817984  -0.22113096714  
3.71845293045  0.887757003307  -1.87191176414  -1.97055149078  0.0655767694116  0.337034106255  -0.237906426191  
3.72655391693  1.28679931164  -1.86518633366  -2.04677295685  -0.00610016472638  0.259256988764  -0.225706100464  
3.73467493057  1.40785706043  -1.81810832024  -2.38528633118  -0.0518513992429  0.289757817984  -0.134203627706  
3.74275493622  1.02226555347  -1.75982129574  -2.259745121  0.0732019767165  0.280607581139  -0.120478250086  
3.75086593628  0.889998793602  -1.73740315437  -1.95037519932  -0.0594766065478  0.344659298658  -0.117428168654  
3.75894904137  1.17470872402  -1.88984632492  -1.9615842104  0.146403953433  0.193680226803  -0.111328005791  
3.7670519352  1.3069756031  -1.91674804688  -2.27767944336  -0.0259256996214  0.242481544614  -0.0899774283171  
3.77514004707  0.829469919205  -1.78896486759  -2.29337215424  0.0625266879797  0.155554205179  -0.149454042315  
3.78324198723  0.791359126568  -1.75533771515  -2.09385108948  0.0335509069264  0.163179412484  -0.125053375959  
3.79137992859  1.03347468376  -1.82483375072  -2.04677295685  0.0411761105061  0.131153538823  -0.18910510838  
3.7994389534  1.24420487881  -1.95934247971  -2.32924127579  0.0533764399588  0.193680226803  -0.141828835011  
3.80754709244  0.836195349693  -1.79569029808  -2.36511015892  -0.0579515658319  0.160129323602  -0.190630152822  
3.81566810608  0.609772443771  -1.96830964088  -2.10057640076  0.134203627706  0.20435552299  -0.120478250086  
3.82372403145  0.813777208328  -2.00866222382  -2.01314592361  0.0259256996214  0.248581707478  -0.172329649329  
3.83180403709  1.19264316559  -2.04677295685  -2.26871228218  -0.0335509069264  0.269932299852  -0.160129323602  
3.83992695808  0.952769458294  -2.16334724426  -2.47720074654  0.0640517324209  0.333984017372  -0.228756174445  
3.84799814224  0.719621181488  -2.38528633118  -2.24405241013  -0.0960775911808  0.314158469439  -0.175379738212  
3.85602092743  0.726346611977  -2.38977003098  -2.05125665665  0.097602635622  0.269932299852  -0.210455685854  
3.8640871048  0.986396670341  -2.57135677338  -2.28888845444  0.0244006589055  0.108277924359  -0.164704442024  
3.87219309807  0.863097071648  -2.66551280022  -2.31803202629  -0.00915024708956  0.150979071856  -0.222656011581  
3.88023495674  0.585112571716  -2.58929109573  -2.0804002285  0.117428168654  0.178429812193  -0.167754530907  
3.88834404945  0.419218569994  -2.66551280022  -2.03556394577  -0.0152504118159  0.28213262558  -0.192155182362  
3.89639902115  0.547001779079  -2.71483254433  -2.15213823318  0.0213505774736  0.353809565306  -0.150979071856  
3.90449810028  0.901207864285  -2.75518512726  -2.28216314316  0.105227842927  0.215030804276  -0.120478250086  
3.912555933  0.730830252171  -2.88745188713  -2.24181056023  0.0122003294528  0.202830478549  -0.118953213096  
3.92062306404  0.553727209568  -2.71931624413  -2.21939253807  0.135728672147  0.20588055253  -0.18910510838  
3.92868614197  0.369898736477  -2.76415252686  -2.0804002285  0.144878908992  0.372110038996  -0.253156840801  
3.93677091599  0.605288863182  -2.76191067696  -2.0736746788  0.00305008236319  0.253156840801  -0.306533277035  
3.94481897354  0.836195349693  -2.88745188713  -2.18128156662  0.0244006589055  0.150979071856  -0.294332951307  
3.95287513733  0.746522903442  -2.94798088074  -2.22611784935  0.144878908992  0.308058321476  -0.146403953433  
3.96097111702  0.634432375431  -2.89866113663  -2.11851096153  0.0594766065478  0.225706100464  -0.169279575348  
3.96904301643  0.275742709637  -2.94349718094  -2.08936738968  -0.0732019767165  0.170804619789  -0.272982358932  
3.97716903687  0.264533638954  -3.10266590118  -2.12971997261  0.0808271840215  0.390410542488  -0.259256988764  
3.98532795906  0.464054793119  -3.36271572113  -2.21266698837  0.0701518952847  0.164704442024  -0.132678583264  
3.99350905418  0.782391905785  -3.55326962471  -2.06694936752  -0.0259256996214  0.349234431982  -0.288232773542  
4.00150895119  0.919142305851  -3.61828231812  -2.01314592361  -0.106752879918  0.0991276800632  -0.233331307769  
4.00960993767  0.459571152925  -3.59138059616  -1.9638260603  0.0732019767165  0.277557492256  -0.22113096714  
4.0177090168  0.408009529114  -3.47256445885  -2.06694936752  0.0808271840215  0.155554205179  -0.332458972931  
4.02584910393  0.311611652374  -3.37168312073  -2.14317083359  0.0396510697901  0.288232773542  -0.233331307769  
4.03392004967  0.313853472471  -3.34253954887  -2.11178565025  -0.0533764399588  0.0518513992429  -0.222656011581  
4.04200291634  0.511132776737  -3.45014643669  -2.0804002285  -0.0320258662105  0.318733602762  -0.219605922699  
4.0501139164  0.690477669239  -3.74606537819  -2.06022381783  0.0533764399588  0.146403953433  -0.0930275097489  
4.05825996399  0.804809987545  -3.99042272568  -1.76430487633  0.117428168654  0.161654368043  -0.268407255411  
4.06647896767  0.668059527874  -3.79314351082  -1.64548897743  0.0945525541902  0.292807906866  -0.245531633496  
4.07448005676  0.401284098625  -3.60483145714  -1.20161044598  0.0381260290742  0.106752879918  -0.0411761105061  
4.08256006241  0.410251319408  -4.03077554703  -1.14556515217  -0.0183004941791  0.154029160738  -0.218080893159  
4.09059810638  0.237631917  -3.90299224854  -0.99312210083  -0.0823522210121  0.332458972931  -0.248581707478  
4.09870100021  0.625465154648  -3.72364735603  -0.838437139988  -0.0915024727583  0.23638138175  -0.263832122087  
4.10676908493  0.652366876602  -4.22805452347  -0.73531383276  -0.00610016472638  0.111328005791  -0.192155182362  
4.1148481369  0.672543168068  -3.63621664047  -0.771182835102  0.0366009883583  0.286707729101  -0.123528338969  
4.12290406227  0.912416875362  -4.08009529114  -0.804809987545  0.0655767694116  0.327883839607  -0.0899774283171  
4.13094091415  0.762215614319  -4.09130430222  -0.703928530216  0.0579515658319  0.274507403374  -0.0610016472638  
4.13899993896  0.607530653477  -4.12268972397  -0.80705177784  -0.0686268508434  0.105227842927  -0.100652717054  
4.14708805084  0.61649787426  -4.17425107956  -0.869822502136  -0.0716769322753  0.138778746128  -0.0838772654533  
4.15513896942  0.544759988785  -4.12941503525  -0.672543168068  0.0396510697901  0.29738304019  0.0167754534632  
4.16319608688  0.502165555954  -3.70122933388  -0.75549018383  0.0335509069264  0.321783691645  0.0625266879797  
4.17128396034  0.298160791397  -3.77072525024  -0.585112571716  -0.0106752887368  0.280607581139  0.115903131664  
4.17942214012  0.40352588892  -3.66536021233  -0.632190585136  -0.0991276800632  0.183004945517  0.0594766065478  
4.18746805191  0.697203099728  -3.76848363876  -0.571661710739  0.103702798486  0.103702798486  0.234856337309  
4.19553899765  0.777908265591  -3.73261451721  -0.477505654097  -0.048801317811  0.132678583264  0.0335509069264  
4.20366692543  0.685994029045  -3.72588920593  -0.643399655819  -0.056426525116  0.195205271244  0.201305434108  
4.21173000336  0.542518138885  -3.63621664047  -0.719621181488  -0.00152504118159  0.271457344294  0.0305008236319  
4.21979808807  0.513374626637  -3.47480630875  -0.558210849762  -0.105227842927  0.303483188152  0.0350759476423  
4.22790408134  0.748764753342  -3.40755200386  -0.547001779079  0.0396510697901  0.268407255411  0.0930275097489  
4.23599600792  0.845162570477  -3.34029769897  -0.538034558296  0.00762520590797  0.179954856634  0.0518513992429  
4.24408006668  0.80705177784  -3.41427755356  -0.681510388851  -0.00305008236319  0.102177761495  0.0808271840215  
4.25214195251  0.789117336273  -3.23941636086  -0.365415126085  0.118953213096  0.0320258662105  0.140303790569  
4.26039505005  0.623223304749  -3.30891227722  -0.405767709017  -0.0350759476423  0.0533764399588  0.118953213096  
4.26848912239  0.506649196148  -3.3313305378  -0.531309127808  0.00152504118159  0.0793021395802  0.134203627706  
4.27656292915  0.63667422533  -3.58241319656  -0.48647287488  0.0732019767165  0.146403953433  0.215030804276  
4.28454494476  0.840678930283  -3.47480630875  -0.567178070545  0.0183004941791  0.195205271244  -0.102177761495  
4.29263496399  0.742039263248  -3.35374855995  -0.408009529114  -0.0518513992429  0.256206929684  0.120478250086  
4.30077195168  0.692719459534  -3.17440366745  -0.376624166965  -0.0274507403374  0.262307077646  -0.244006589055  
4.30883598328  0.68375223875  -2.99954247475  -0.369898736477  -0.0289757829159  0.225706100464  -0.0411761105061  
4.31690406799  0.685994029045  -3.10266590118  -0.470780223608  0.0228756181896  0.166229486465  -0.138778746128  
4.32509803772  0.733072042465  -2.79553771019  -0.347480624914  0.097602635622  0.0899774283171  -0.120478250086  
4.33317112923  0.717379391193  -2.93004631996  -0.430427610874  0.0915024727583  0.0716769322753  -0.0381260290742  
4.34126806259  0.744281113148  -2.78881239891  -0.358689695597  0.0655767694116  0.0991276800632  -0.152504116297  
4.34934210777  0.663575947285  -2.851583004  -0.423702180386  0.0686268508434  0.163179412484  -0.257731974125  
4.35753107071  0.457329362631  -2.59601664543  -0.363173305988  0.0228756181896  0.30043309927  -0.202830478549  
4.36558008194  0.360931485891  -2.70362353325  -0.42818582058  0.0244006589055  0.245531633496  -0.111328005791  
4.37372994423  0.358689695597  -2.58256578445  -0.325062543154  0.00915024708956  0.0960775911808  -0.0579515658319  
4.38181304932  0.457329362631  -2.47271704674  -0.289193570614  -0.0366009883583  0.0457512363791  -0.122003294528  
4.38989305496  0.452845722437  -2.29561400414  -0.336271584034  0.102177761495  0.154029160738  -0.154029160738  
4.39792704582  0.387833237648  -2.2530195713  -0.385591417551  0.102177761495  0.318733602762  -0.140303790569  
4.40601491928  0.470780223608  -2.50858592987  -0.524583697319  0.152504116297  0.248581707478  -0.120478250086  
4.41415810585  0.51785826683  -2.53100419044  -0.408009529114  0.150979071856  0.109802961349  -0.118953213096  
4.42240095139  0.434911251068  -2.5579059124  -0.302644431591  0.150979071856  0.20588055253  -0.122003294528  
4.43037295341  0.385591417551  -2.40097904205  -0.349722445011  0.186055019498  0.372110038996  -0.100652717054  
4.43854594231  0.334029763937  -2.54221320152  -0.461812973022  0.186055019498  0.193680226803  -0.137253701687  
4.44657802582  0.374382376671  -2.41442990303  -0.414734959602  0.114378087223  0.0716769322753  -0.144878908992  
4.45469594002  0.416976749897  -2.47720074654  -0.235390111804  0.154029160738  0.366009891033  -0.132678583264  
4.46276211739  0.39231684804  -2.28440499306  -0.286951750517  0.0716769322753  0.152504116297  -0.115903131664  
4.47082996368  0.410251319408  -2.34717559814  -0.354206055403  0.0594766065478  0.128103464842  -0.166229486465  
4.47896695137  0.396800458431  -2.30906486511  -0.42818582058  0.0625266879797  0.314158469439  -0.134203627706  
4.48704004288  0.340755194426  -2.45926618576  -0.448362112045  0.167754530907  0.160129323602  -0.131153538823  
4.49515414238  0.230906486511  -2.43460631371  -0.342997014523  0.135728672147  0.111328005791  -0.18910510838  
4.50319910049  -0.143475875258  -2.22835969925  -0.26229184866  0.0198255348951  0.242481544614  -0.125053375959  
4.51126599312  -0.369898736477  -2.18576526642  -0.399042278528  0.106752879918  0.0808271840215  -0.172329649329  
4.51950097084  -0.443878501654  -2.25077772141  -0.376624166965  0.166229486465  0.30043309927  -0.163179412484  
4.52749204636  -0.558210849762  -2.20369982719  -0.36765691638  0.0137253701687  0.222656011581  -0.169279575348  
4.53557109833  -0.737555682659  -1.93468248844  -0.27350088954  0.155554205179  0.0686268508434  -0.184529989958  
4.54364609718  -0.838437139988  -1.7822394371  -0.304886221886  0.0289757829159  0.353809565306  -0.122003294528  
4.55181002617  -0.912416875362  -1.74861228466  -0.416976749897  0.0640517324209  0.262307077646  -0.181479901075  
4.55986094475  -0.903449654579  -1.81138288975  -0.459571152925  0.0305008236319  0.115903131664  -0.176904782653  
4.56791210175  -0.762215614319  -1.80689930916  -0.470780223608  0.056426525116  0.367534935474  -0.178429812193  
4.57601904869  -0.798084557056  -1.75757944584  -0.419218569994  0.0442261956632  0.317208558321  -0.242481544614  
4.58413100243  -0.910175085068  -1.53564023972  -0.529067277908  0.114378087223  0.147928997874  -0.178429812193  
4.59225606918  -1.05589282513  -1.59168553352  -0.473022013903  -0.0350759476423  0.210455685854  -0.224181056023  
4.60034704208  -0.995363891125  -1.64324712753  -0.488714694977  0.157079234719  0.355334609747  -0.274507403374  
4.60840797424  -0.901207864285  -1.62082898617  -0.576145291328  0.0533764399588  0.332458972931  -0.23638138175  
4.61646795273  -0.784633696079  -1.70153415203  -0.488714694977  0.0472762770951  0.224181056023  -0.318733602762  
4.62456202507  -0.896724224091  -1.41682422161  -0.582870721817  0.149454042315  0.125053375959  -0.353809565306  
4.63266205788  -1.01778197289  -1.34956991673  -0.529067277908  0.0899774283171  0.175379738212  -0.265357166529  
4.64069700241  -0.833953499794  -1.38319706917  -0.567178070545  -0.0396510697901  0.202830478549  -0.31568351388  
4.64879012108  -0.894482433796  -1.58944368362  -0.564936280251  -0.00762520590797  0.254681885242  -0.385835409164  
4.65690898895  -1.07382726669  -1.76878857613  -0.643399655819  0.100652717054  0.263832122087  -0.350759476423  
4.66502213478  -0.822744488716  -1.57599282265  -0.751006543636  0.118953213096  0.283657670021  -0.387360453606  
4.67316508293  -0.791359126568  -1.60737812519  -0.710653960705  0.128103464842  0.260782033205  -0.338559150696  
4.68121600151  -0.914658725262  -1.57150924206  -0.632190585136  0.0457512363791  0.175379738212  -0.366009891033  
4.68939995766  -0.786875486374  -1.27783203125  -0.665817737579  0.00305008236319  0.0915024727583  -0.390410542488  
4.69746613503  -1.05365097523  -1.62531268597  -0.645641446114  -0.0472762770951  -0.0106752887368  -0.399560779333  
4.70548701286  -0.816019058228  -1.62979626656  -0.645641446114  -0.0594766065478  0.109802961349  -0.420911371708  
4.7135989666  -0.845162570477  -1.80465745926  -0.775666475296  -0.222656011581  -0.149454042315  -0.366009891033  
4.72166109085  -0.910175085068  -1.71946871281  -0.813777208328  -0.132678583264  -0.138778746128  -0.396510720253  
4.72976207733  -0.820502638817  -1.62307083607  -0.703928530216  -0.285182714462  -0.190630152822  -0.384310364723  
4.73783493042  -1.08503627777  -1.88312089443  -0.746522903442  -0.0945525541902  -0.15860427916  -0.414811193943  
4.74591994286  -0.934835016727  -1.59841096401  -0.75997376442  -0.193680226803  -0.0335509069264  -0.341609239578  
4.75401997566  -1.13211429119  -1.73067772388  -0.632190585136  -0.15860427916  -0.149454042315  -0.379735261202  
4.76211500168  -1.02002382278  -1.41458249092  -0.663575947285  -0.254681885242  -0.240956500173  -0.407186001539  
4.77022910118  -0.916900515556  -1.88087904453  -0.80256819725  -0.332458972931  -0.274507403374  -0.347709387541  
4.77835798264  -1.02226555347  -1.56702554226  -0.737555682659  -0.36143475771  0.00610016472638  -0.320258647203  
4.78651595116  -0.751006543636  -1.93019890785  -0.656850516796  -0.413286149502  -0.199780389667  -0.440736889839  
4.79451608658  -0.914658725262  -2.00193691254  -0.798084557056  -0.433111697435  -0.262307077646  -0.341609239578  
4.80259895325  -0.863097071648  -2.01314592361  -0.768941044807  -0.370584994555  -0.0686268508434  -0.321783691645  
4.81072306633  -0.881031572819  -1.97727692127  -0.838437139988  -0.274507403374  -0.233331307769  -0.350759476423  
4.81885194778  -1.13659799099  -1.73740315437  -0.724104821682  -0.239431470633  -0.184529989958  -0.262307077646  
4.82695913315  -1.1276307106  -1.93916606903  -0.618739724159  -0.247056677938  -0.321783691645  -0.317208558321  
4.83913803101  -0.963978528976  -1.61410355568  -0.703928530216  -0.3126334548  -0.199780389667  -0.245531633496  
4.84722900391  -0.748764753342  -1.901055336  -0.699444890022  -0.352284520864  -0.314158469439  -0.30043309927  
4.85534501076  -0.995363891125  -1.71946871281  -0.737555682659  -0.405660957098  -0.0823522210121  -0.280607581139  
4.8711810112  -1.25541388988  -1.89208805561  -0.867580711842  -0.385835409164  -0.157079234719  -0.260782033205  
4.87927603722  -1.21281945705  -1.32939362526  -0.663575947285  -0.369059979916  -0.259256988764  -0.225706100464  
4.88728308678  -1.17695057392  -1.35629534721  -0.650125086308  -0.317208558321  -0.146403953433  -0.263832122087  
4.89547610283  -0.856371641159  -1.63876354694  -0.701686680317  -0.30043309927  -0.207405596972  -0.253156840801  
4.90352892876  -0.68823581934  -1.4885622263  -0.618739724159  -0.333984017372  -0.25163179636  -0.199780389667  
4.91162514687  -0.872064292431  -1.59841096401  -0.766699194908  -0.227231130004  -0.178429812193  -0.230281218886  
4.9196870327  -1.13659799099  -1.80017387867  -0.84964621067  -0.208930641413  -0.320258647203  -0.274507403374  
4.92776894569  -1.33836090565  -1.40113162994  -0.943802237511  -0.355334609747  -0.169279575348  -0.233331307769  
4.93585395813  -1.0693436861  -1.20385229588  -0.75997376442  -0.0671018138528  -0.289757817984  -0.257731974125  
4.94397711754  -0.932593166828  -1.46166050434  -0.576145291328  -0.344659298658  -0.135728672147  -0.210455685854  
4.95205998421  -1.09400355816  -1.20609402657  -0.627706944942  -0.0793021395802  -0.207405596972  -0.25163179636  
4.96015095711  -1.29128289223  -1.08055269718  -0.753248333931  -0.291282862425  -0.320258647203  -0.268407255411  
4.96827793121  -1.3069756031  -1.26662302017  -0.84964621067  -0.140303790569  -0.0945525541902  -0.265357166529  
4.97640895844  -0.999847531319  -1.15901601315  -0.701686680317  -0.109802961349  -0.222656011581  -0.279082536697  
4.98449897766  -1.09176170826  -1.22402858734  -0.75549018383  -0.218080893159  -0.269932299852  -0.269932299852  
4.99261713028  -1.23075401783  -1.51322209835  -0.865338861942  -0.0122003294528  -0.134203627706  -0.314158469439  
5.00066208839  -1.39664793015  -1.05589282513  -0.928109586239  -0.247056677938  -0.271457344294  -0.308058321476  
5.00878691673  -1.09400355816  -0.816019058228  -0.73531383276  0.0503263585269  -0.253156840801  -0.305008232594  
5.01684498787  -1.13883972168  -1.19712686539  -0.553727209568  -0.0899774283171  -0.123528338969  -0.283657670021  
5.02490711212  -1.6028945446  -0.87430614233  -0.85412979126  -0.00152504118159  -0.227231130004  -0.256206929684  
5.03302001953  -1.56478381157  -1.07831084728  -0.937076807022  0.0427011549473  -0.337034106255  -0.309583365917  
5.04112911224  -0.842920780182  -1.11642169952  -1.02674925327  0.00305008236319  -0.149454042315  -0.30043309927  
5.04935503006  -0.64115780592  -1.06261825562  -0.661334097385  0.0960775911808  -0.112853050232  -0.283657670021  
5.05735993385  -1.86967003345  -0.988638460636  -0.724104821682  0.0869273468852  -0.192155182362  -0.291282862425  
5.06551194191  -1.85621917248  -0.751006543636  -1.00208926201  0.0320258662105  -0.30043309927  -0.295857995749  
5.07353806496  -1.10521256924  -0.838437139988  -0.827228069305  -0.0457512363791  -0.347709387541  -0.323308736086  
5.08161497116  -1.27559018135  -0.708412110806  -0.665817737579  -0.0686268508434  -0.219605922699  -0.350759476423  
5.08967900276  -2.13644552231  -0.715137541294  -0.748764753342  -0.0213505774736  -0.242481544614  -0.298908084631  
5.0977640152  -1.425791502  -0.701686680317  -0.981913030148  -0.00915024708956  -0.0945525541902  -0.298908084631  
5.10583209991  -0.600805222988  -0.901207864285  -1.02450740337  0.0686268508434  -0.123528338969  -0.355334609747  
5.11397314072  -1.83380103111  -1.05140912533  -0.881031572819  0.0930275097489  -0.196730315685  -0.343134254217  
5.12202095985  -2.11851096153  -0.555968999863  -0.878789722919  0.0335509069264  -0.277557492256  -0.263832122087  
5.13011693954  -0.542518138885  -0.609772443771  -0.872064292431  -0.100652717054  -0.193680226803  -0.31568351388  
5.13824295998  -1.5446075201  -0.587354362011  -0.898966014385  -0.0289757829159  -0.279082536697  -0.378210216761  
5.14718604088  -2.32699942589  -0.623223304749  -0.816019058228  0.0549014806747  -0.271457344294  -0.286707729101  
5.15524697304  -1.02226555347  -0.858613431454  -0.80256819725  0.0762520581484  -0.202830478549  -0.254681885242  
5.16350698471  -1.57150924206  -0.744281113148  -0.903449654579  0.0167754534632  -0.198255360126  -0.372110038996  
5.17151594162  -2.09385108948  -0.468538403511  -0.990880250931  -0.0915024727583  -0.259256988764  -0.378210216761  
5.17958593369  -1.23972117901  -0.582870721817  -1.08727812767  -0.0503263585269  -0.263832122087  -0.353809565306  
5.18766403198  -1.71946871281  -0.753248333931  -0.986396670341  0.0823522210121  -0.219605922699  -0.292807906866  
5.19576191902  -1.19488501549  -0.685994029045  -0.733072042465  0.0945525541902  -0.199780389667  -0.321783691645  
5.20389103889  -1.52218937874  -0.416976749897  -0.894482433796  0.0381260290742  -0.263832122087  -0.376685172319  
5.21202301979  -1.94589149952  -0.538034558296  -0.990880250931  -0.0625266879797  -0.245531633496  -0.257731974125  
5.2200460434  -1.13659799099  -0.889998793602  -0.979671239853  -0.00762520590797  -0.218080893159  -0.410236090422  
5.22817206383  -1.77327215672  -0.885515153408  -1.00657296181  0.100652717054  -0.303483188152  -0.175379738212  
5.23627305031  -1.07382726669  -0.907933294773  -0.959494888783  0.106752879918  -0.260782033205  -0.198255360126  
5.24454402924  -1.52891480923  -0.620981514454  -0.955011308193  0.134203627706  -0.320258647203  -0.0625266879797  
5.25250792503  -1.64773070812  -0.495440125465  -0.97294574976  0.0549014806747  -0.25163179636  0.0442261956632  
5.26056098938  -1.08279454708  -0.441636681557  -0.981913030148  0.0  -0.272982358932  -0.181479901075  
5.26868391037  -1.75533771515  -0.318337112665  -1.00657296181  -0.056426525116  -0.333984017372  -0.0137253701687  
5.27676391602  -0.739797472954  -0.387833237648  -0.959494888783  -0.123528338969  -0.218080893159  0.0350759476423  
5.28486704826  -1.80465745926  -0.340755194426  -1.18367600441  -0.146403953433  -0.268407255411  0.0320258662105  
5.29296207428  -1.29352474213  -0.39231684804  -1.45493507385  -0.305008232594  -0.289757817984  -0.0549014806747  
5.30104613304  -1.09400355816  -0.365415126085  -1.86742818356  -0.350759476423  -0.279082536697  0.0  
5.30916714668  -1.7777557373  -0.0874306112528  -1.78448116779  -0.187580063939  -0.318733602762  0.0427011549473  
5.31732797623  -0.659092307091  0.215213805437  -1.86742818356  -0.215030804276  -0.262307077646  0.00915024708956  
5.32542014122  -0.773424625397  0.374382376671  -1.93468248844  -0.240956500173  -0.306533277035  0.0533764399588  
5.33347201347  -1.23747944832  0.347480624914  -2.20818328857  -0.324833780527  -0.3126334548  -0.0503263585269  
5.34153008461  -1.17470872402  0.40352588892  -2.33372473717  -0.437686830759  -0.291282862425  0.0442261956632  
5.34962701797  -0.515616416931  0.374382376671  -2.17903995514  -0.309583365917  -0.301958143711  0.0747270211577  
5.35771012306  -1.6028945446  0.271259069443  -2.11402726173  -0.291282862425  -0.317208558321  0.0854023098946  
5.36580014229  -0.941560447216  0.15468493104  -2.06246566772  -0.437686830759  -0.31568351388  0.0457512363791  
5.37388491631  -0.746522903442  0.0739797502756  -2.09160923958  -0.337034106255  -0.277557492256  0.0594766065478  
5.38195705414  -1.38095533848  0.365415126085  -2.31130671501  -0.340084195137  -0.338559150696  0.150979071856  
5.38999605179  -0.21969743073  0.455087542534  -2.31130671501  -0.394985675812  -0.292807906866  0.169279575348  
5.39809012413  -0.997605681419  0.401284098625  -2.33372473717  -0.341609239578  -0.417861282825  0.109802961349  
5.40622091293  -1.41682422161  0.242115542293  -2.30458116531  -0.347709387541  -0.387360453606  0.120478250086  
5.4144949913  -0.322820723057  0.342997014523  -2.23508501053  -0.385835409164  -0.3461843431  0.20588055253  
5.42239499092  -0.513374626637  0.587354362011  -2.14092898369  -0.250106751919  -0.378210216761  0.211980730295  
5.43046402931  -0.986396670341  0.277984499931  -2.09160923958  -0.401085823774  -0.414811193943  0.161654368043  
5.43852710724  -0.773424625397  0.186070278287  -2.24853587151  -0.306533277035  -0.318733602762  0.160129323602  
5.44664812088  -0.311611652374  0.0963978543878  -2.19249081612  -0.398035734892  -0.157079234719  0.20435552299  
5.45472311974  -0.156926736236  0.280226320028  -2.08712553978  -0.462087482214  -0.326358824968  0.175379738212  
5.46280813217  -1.2486884594  0.221939250827  -2.30458116531  -0.314158469439  -0.257731974125  0.166229486465  
5.47089505196  -0.674784958363  0.318337112665  -2.47271704674  -0.404135912657  -0.326358824968  0.256206929684  
5.47902703285  -0.18382845819  0.48647287488  -2.31354856491  -0.428536564112  -0.193680226803  0.199780389667  
5.48710608482  -0.484231084585  0.553727209568  -2.04453110695  -0.230281218886  -0.350759476423  0.211980730295  
5.49527692795  -0.475263834  0.174861222506  -2.11178565025  -0.347709387541  -0.353809565306  0.341609239578  
5.50322914124  -0.533550918102  -0.105365097523  -2.31354856491  -0.446837067604  -0.22113096714  0.244006589055  
5.51144194603  -0.652366876602  0.416976749897  -2.29561400414  -0.26688221097  0.0808271840215  0.326358824968  
5.5194299221  -0.724104821682  0.282468140125  -2.27767944336  -0.410236090422  -0.108277924359  0.42396146059  
5.52747297287  -0.425944000483  0.5940797925  -2.16110539436  -0.495638370514  0.234856337309  0.292807906866  
5.53559708595  -0.3564478755  0.573903501034  -2.10730195045  -0.259256988764  -0.0854023098946  0.410236090422  
5.54363012314  -0.419218569994  0.159168556333  -2.28888845444  -0.359909713268  0.0137253701687  0.341609239578  
5.5517539978  -0.331787973642  0.511132776737  -2.0848839283  -0.40871104598  0.25163179636  0.332458972931  
5.55988502502  -0.226422861218  0.405767709017  -2.12971997261  -0.318733602762  0.122003294528  0.434636741877  
5.56797194481  -0.277984499931  0.596321582794  -2.27767944336  -0.250106751919  0.259256988764  0.337034106255  
5.57605791092  -0.28470993042  0.470780223608  -2.16334724426  -0.3461843431  0.138778746128  0.44226193428  
5.58418703079  0.00448362110183  0.127783194184  -2.20369982719  -0.428536564112  0.225706100464  0.474287807941  
5.59229302406  -0.0560452640057  0.289193570614  -2.21266698837  -0.390410542488  0.0823522210121  0.390410542488  
5.60044312477  0.739797472954  -0.0807051807642  -2.1947324276  -0.323308736086  0.233331307769  0.489538222551  
5.60846710205  0.549243569374  0.233148291707  -2.28440499306  -0.344659298658  0.181479901075  0.446837067604  
5.6165599823  0.730830252171  -0.212972000241  -2.37631917  -0.40871104598  0.0671018138528  0.486488133669  
5.62468004227  0.634432375431  0.159168556333  -2.19024896622  -0.437686830759  0.147928997874  0.541389644146  
5.63276910782  0.609772443771  0.147959500551  -2.14317083359  -0.372110038996  0.320258647203  0.459037393332  
5.64086103439  0.777908265591  0.132266819477  -2.14765453339  -0.295857995749  0.379735261202  0.555114984512  
5.64894604683  0.838437139988  0.0941560417414  -2.02435493469  -0.372110038996  0.199780389667  0.596291124821  
5.65706014633  0.957253098488  -0.257808208466  -2.21490883827  -0.451412200928  0.178429812193  0.486488133669  
5.66509413719  0.979671239853  -0.020176295191  -2.2575032711  -0.402610868216  0.117428168654  0.608491420746  
5.67325496674  1.02899098396  0.0650125071406  -2.04453110695  -0.327883839607  0.157079234719  0.599341213703  
5.68141913414  0.894482433796  -0.0717379376292  -2.02435493469  -0.454462260008  0.218080893159  0.561215162277  
5.68953299522  0.789117336273  -0.0582870729268  -2.19249081612  -0.291282862425  0.332458972931  0.614591598511  
5.69755005836  0.710653960705  -0.00448362110183  -2.01314592361  -0.439211845398  0.367534935474  0.597816169262  
5.70561099052  0.726346611977  -0.354206055403  -2.05125665665  -0.31568351388  0.301958143711  0.518513977528  
5.71369409561  0.937076807022  -0.634432375431  -2.12747812271  -0.425486475229  0.31568351388  0.549014806747  
5.72182607651  0.863097071648  -0.331787973642  -2.13196182251  -0.500213503838  0.22113096714  0.585615813732  
5.7298989296  0.757731974125  0.0  -2.20818328857  -0.431586652994  0.228756174445  0.581040680408  
5.73798704147  0.672543168068  -0.0650125071406  -2.17007255554  -0.211980730295  0.17385469377  0.463612526655  
5.74606609344  0.690477669239  -0.17261941731  -2.16334724426  -0.40871104598  0.219605922699  0.509363770485  
5.7544491291  0.827228069305  -0.329546153545  -2.12075281143  -0.0884523913264  0.105227842927  0.529189288616  
5.76247596741  0.800326347351  -0.253324598074  -2.03332209587  0.00152504118159  0.160129323602  0.471237719059  
5.77056503296  0.715137541294  -0.168135792017  -1.99969506264  -0.123528338969  0.147928997874  0.481913000345  
5.77865099907  0.589596152306  0.0134508628398  -1.98848593235  0.0427011549473  0.22113096714  0.489538222551  
5.7867629528  0.459571152925  0.0538034513593  -1.95934247971  -0.154029160738  0.269932299852  0.4727627635  
5.79486703873  0.43939486146  0.0851887986064  -2.04901480675  -0.0579515658319  0.341609239578  0.507838726044  
5.80295705795  0.437153071165  0.134508639574  -2.13644552231  -0.00152504118159  0.382785350084  0.466662615538  
5.81112313271  0.571661710739  0.107606902719  -2.11851096153  0.00305008236319  0.26688221097  0.452937245369  
5.81920409203  0.560452640057  0.0156926736236  -2.09160923958  0.056426525116  0.260782033205  0.500213503838  
5.82724499702  0.515616416931  -0.0313853472471  -2.05349850655  0.0213505774736  0.132678583264  0.506313681602  
5.83555603027  0.495440125465  -0.0291435364634  -2.03108024597  -0.0259256996214  0.152504116297  0.42701151967  
5.84350895882  0.549243569374  -0.255566388369  -2.0736746788  -0.0579515658319  0.149454042315  0.411761105061  
5.85162496567  0.508890986443  -0.15468493104  -2.10281825066  0.00610016472638  0.245531633496  0.269932299852  
5.8596739769  0.511132776737  -0.432669430971  -2.03780579567  -0.0137253701687  0.30043309927  0.401085823774  
5.86776995659  0.437153071165  -0.304886221886  -2.03332209587  0.0533764399588  0.291282862425  0.20588055253  
5.87591600418  0.421460390091  -0.255566388369  -1.95485877991  0.0137253701687  0.326358824968  0.218080893159  
5.88401603699  0.455087542534  -0.511132776737  -1.99072778225  0.0106752887368  0.248581707478  0.318733602762  
5.89209103584  0.504407346249  -0.360931485891  -2.01762938499  0.0396510697901  0.244006589055  0.305008232594  
5.90018296242  0.446120291948  -0.103123284876  -2.0826420784  0.0396510697901  0.193680226803  0.216555848718  
5.90840411186  0.479747444391  -0.416976749897  -2.05798196793  0.0427011549473  0.225706100464  0.179954856634  
5.91644597054  0.493198335171  0.134508639574  -2.14092898369  0.0411761105061  0.0899774283171  0.181479901075  
5.92449998856  0.414734959602  -0.30936986208  -2.27095413208  0.105227842927  0.15860427916  0.211980730295  
5.93249607086  0.562694430351  0.425944000483  -2.23508501053  0.0838772654533  0.115903131664  0.138778746128  
5.94055294991  0.329546153545  0.141234070063  -2.27992129326  0.102177761495  0.150979071856  0.196730315685  
5.9486451149  0.067254319787  0.385591417551  -2.20818328857  0.126578420401  0.149454042315  0.257731974125  
5.95673513412  0.165893986821  0.327304333448  -2.21715068817  0.0960775911808  0.175379738212  0.306533277035  
5.96485304832  -0.109848715365  0.217455625534  -2.18128156662  0.0869273468852  0.128103464842  0.0808271840215  
5.97293806076  -0.0829469934106  0.141234070063  -2.19249081612  0.141828835011  0.155554205179  0.0915024727583  
5.98097801208  -0.260050028563  0.0134508628398  -2.08712553978  0.106752879918  0.103702798486  -0.00762520590797  
5.98909401894  -0.237631917  0.0224181059748  -1.99745321274  0.144878908992  0.169279575348  0.211980730295  
5.99715209007  -0.360931485891  0.0582870729268  -2.06919121742  0.178429812193  0.175379738212  0.129628494382  
6.00530099869  -0.495440125465  0.21969743073  -2.14317083359  0.125053375959  0.332458972931  0.097602635622  
6.01355791092  -0.506649196148  0.504407346249  -2.11851096153  0.201305434108  0.186055019498  0.109802961349  
6.02152991295  -0.564936280251  0.457329362631  -2.01314592361  0.150979071856  0.190630152822  0.0396510697901  
6.02961993217  -0.549243569374  0.385591417551  -2.08712553978  0.161654368043  0.240956500173  0.0106752887368  
6.03771400452  -0.567178070545  0.452845722437  -2.14541268349  0.172329649329  0.240956500173  0.0610016472638  
6.04577803612  -0.461812973022  0.576145291328  -2.28664684296  0.131153538823  0.20588055253  0.0579515658319  
6.05386590958  -0.468538403511  0.3564478755  -2.16558909416  0.198255360126  0.228756174445  0.178429812193  
6.06199598312  -0.455087542534  0.242115542293  -2.14092898369  0.259256988764  0.187580063939  0.0732019767165  
6.07005691528  -0.385591417551  0.547001779079  -2.13196182251  0.143353864551  0.335509061813  0.0793021395802  
6.07814598083  -0.365415126085  0.48647287488  -2.09385108948  0.169279575348  0.219605922699  0.163179412484  
6.08620691299  -0.197279334068  0.246599167585  -2.10730195045  0.149454042315  0.250106751919  0.15860427916  
6.09441614151  -0.0538034513593  0.378865987062  -2.0826420784  0.215030804276  0.215030804276  0.135728672147  
6.10246610641  -0.0941560417414  -0.0156926736236  -2.16558909416  0.216555848718  0.256206929684  0.150979071856  
6.1105029583  0.170377597213  0.567178070545  -2.08936738968  0.128103464842  0.233331307769  0.18910510838  
6.11870503426  0.091914229095  0.322820723057  -2.22835969925  0.0777771025896  0.263832122087  0.144878908992  
6.12670397758  0.27350088954  0.511132776737  -2.28664684296  0.108277924359  0.337034106255  0.170804619789  
6.1347899437  0.30936986208  0.10088147223  -2.20369982719  0.0854023098946  0.231806263328  0.17385469377  
6.14289212227  0.307128041983  0.526825487614  -2.09160923958  0.115903131664  0.254681885242  0.202830478549  
6.15092206001  0.455087542534  0.311611652374  -2.06694936752  0.0899774283171  0.29738304019  0.196730315685  
6.15902614594  0.580628931522  0.300402611494  -2.09160923958  0.147928997874  0.230281218886  0.213505759835  
6.16714191437  0.739797472954  -0.0358689688146  -2.11178565025  0.125053375959  0.283657670021  0.210455685854  
6.17519712448  0.851888000965  0.0941560417414  -2.13644552231  -0.0503263585269  0.268407255411  0.265357166529  
6.18328809738  0.959494888783  0.156926736236  -2.32251572609  0.126578420401  0.309583365917  0.248581707478  
6.19133710861  0.96846216917  -0.331787973642  -2.41667175293  -0.048801317811  0.265357166529  0.283657670021  
6.19943499565  0.934835016727  0.0313853472471  -2.31803202629  0.155554205179  0.265357166529  0.245531633496  
6.20745611191  0.829469919205  0.208488374949  -2.15886354446  0.0122003294528  0.349234431982  0.29738304019  
6.21570706367  0.668059527874  -0.0403525903821  -2.21715068817  -0.0167754534632  0.28213262558  0.276032447815  
6.22373199463  0.703928530216  0.197279334068  -2.17679810524  0.183004945517  0.318733602762  0.30043309927  
6.23180508614  0.966220319271  -0.0313853472471  -2.02659678459  0.135728672147  0.414811193943  0.323308736086  
6.2399430275  1.00433111191  -0.141234070063  -2.23732686043  0.0594766065478  0.3126334548  0.308058321476  
6.24801802635  0.957253098488  -0.0381107777357  -2.43012261391  -0.118953213096  0.324833780527  0.306533277035  
6.25605010986  1.11417984962  -0.255566388369  -2.39649558067  -0.138778746128  0.344659298658  0.289757817984  
6.2641749382  1.11193799973  -0.28470993042  -2.33372473717  -0.193680226803  0.306533277035  0.33093392849  
6.27227902412  0.75549018383  -0.230906486511  -2.22611784935  -0.396510720253  0.285182714462  0.367534935474  
6.28040409088  0.827228069305  -0.248840972781  -2.2575032711  -0.131153538823  0.295857995749  0.329408884048  
6.28849291801  0.827228069305  -0.0627706944942  -2.31579041481  -0.128103464842  0.338559150696  0.33093392849  
6.29666495323  0.975187599659  -0.43939486146  -2.27319598198  -0.237906426191  0.338559150696  0.327883839607  
6.30469512939  1.07606911659  -0.235390111804  -2.36062645912  -0.329408884048  0.288232773542  0.318733602762  
6.31276392937  0.85412979126  -0.161410361528  -2.1969742775  -0.396510720253  0.366009891033  0.36143475771  
6.32086014748  1.06261825562  -0.513374626637  -2.2552614212  -0.292807906866  0.311108410358  0.327883839607  
6.32896208763  0.999847531319  -0.244357347488  -2.28440499306  -0.321783691645  0.30043309927  0.317208558321  
6.33704805374  1.04692554474  -0.0694961249828  -2.24181056023  -0.40871104598  0.329408884048  0.401085823774  
6.34513497353  1.13211429119  -0.325062543154  -2.31803202629  -0.329408884048  0.384310364723  0.295857995749  
6.35327196121  0.975187599659  -0.00896724220365  -2.19249081612  -0.375160127878  0.289757817984  0.288232773542  
6.36132407188  0.99312210083  -0.107606902719  -2.18800711632  -0.452937245369  0.364484846592  0.317208558321  
6.36943602562  1.08279454708  -0.724104821682  -2.23732686043  -0.289757817984  0.259256988764  0.359909713268  
6.37768292427  1.23747944832  -0.421460390091  -2.36062645912  -0.460562437773  0.288232773542  0.364484846592  
6.38569307327  0.934835016727  -0.551485419273  -2.51082777977  -0.286707729101  0.393460631371  0.257731974125  
6.39376711845  1.04244196415  -0.623223304749  -2.54221320152  -0.463612526655  0.274507403374  0.337034106255  
6.4018099308  1.11642169952  -0.224181056023  -2.34493374825  -0.248581707478  0.199780389667  0.128103464842  
6.40985202789  1.11193799973  -0.206246569753  -2.13644552231  -0.350759476423  0.314158469439  0.283657670021  
6.41796112061  1.39888978004  -0.212972000241  -2.0736746788  -0.303483188152  0.372110038996  0.187580063939  
6.42601513863  1.32939362526  -0.271259069443  -2.18352341652  -0.317208558321  0.343134254217  0.172329649329  
6.43488001823  1.19712686539  -0.531309127808  -2.23060154915  -0.4727627635  0.259256988764  0.26688221097  
6.44300103188  0.831711709499  -0.40352588892  -2.34045028687  -0.451412200928  0.198255360126  0.216555848718  
6.45109510422  0.813777208328  -0.551485419273  -2.31579041481  -0.378210216761  0.199780389667  0.150979071856  
6.45917391777  0.96846216917  -0.443878501654  -2.33596658707  -0.36143475771  0.190630152822  0.202830478549  
6.46726703644  1.20161044598  -0.421460390091  -2.28440499306  -0.417861282825  0.29738304019  -0.154029160738  
6.47529292107  1.30025017262  -0.816019058228  -2.31579041481  -0.452937245369  0.190630152822  -0.0808271840215  
6.48338413239  1.27110660076  -0.42818582058  -2.3718354702  -0.404135912657  0.22113096714  -0.0991276800632  
6.49159312248  0.979671239853  -0.181586652994  -2.2552614212  -0.382785350084  0.15860427916  -0.0594766065478  
6.49970412254  1.09848713875  -0.645641446114  -2.01987123489  -0.382785350084  0.201305434108  -0.233331307769  
6.5076880455  1.07606911659  -0.477505654097  -2.14317083359  -0.372110038996  0.259256988764  0.0594766065478  
6.51581001282  1.30921733379  -0.645641446114  -2.45478248596  -0.394985675812  0.358384668827  -0.135728672147  
6.52390503883  0.97294574976  -0.858613431454  -2.53324604034  -0.394985675812  0.399560779333  -0.216555848718  
6.53203201294  1.17022514343  -0.414734959602  -2.32027387619  -0.387360453606  0.178429812193  -0.056426525116  
6.54010295868  1.07831084728  -0.416976749897  -1.97951877117  -0.394985675812  0.237906426191  -0.0915024727583  
6.54819107056  1.10745441914  -0.419218569994  -2.15662169456  -0.384310364723  0.33093392849  -0.0945525541902  
6.55625605583  0.813777208328  -0.567178070545  -2.41667175293  -0.317208558321  0.134203627706  -0.141828835011  
6.56439304352  0.813777208328  -0.457329362631  -2.49737691879  -0.347709387541  0.187580063939  -0.115903131664  
6.5724401474  1.14556515217  -0.289193570614  -2.16110539436  -0.420911371708  0.402610868216  -0.0350759476423  
6.58067893982  1.29800832272  -0.883273363113  -2.1947324276  -0.411761105061  0.15860427916  -0.140303790569  
6.58875107765  1.40785706043  -0.80256819725  -2.35165929794  -0.428536564112  0.407186001539  -0.132678583264  
6.5968170166  0.988638460636  -0.603047013283  -2.70810723305  -0.475812852383  0.216555848718  -0.141828835011  
6.60491013527  0.912416875362  -0.63667422533  -2.26198673248  -0.337034106255  0.366009891033  -0.103702798486  
6.61304497719  0.858613431454  -0.0538034513593  -1.94140791893  -0.340084195137  0.321783691645  -0.17385469377  
6.62115502357  1.10297083855  -0.365415126085  -1.97055149078  -0.359909713268  0.129628494382  -0.143353864551  
6.62928104401  0.966220319271  -0.654608666897  -2.50634407997  -0.414811193943  0.352284520864  -0.157079234719  
6.63737797737  1.08055269718  -0.578387141228  -2.34717559814  -0.445312023163  0.247056677938  -0.131153538823  
6.6456580162  1.2464466095  -0.744281113148  -2.19024896622  -0.341609239578  0.149454042315  -0.202830478549  
6.65364694595  1.29128289223  -0.549243569374  -2.36286830902  -0.391935586929  0.286707729101  -0.193680226803  
6.66167092323  1.01554012299  -0.538034558296  -2.44581532478  -0.393460631371  0.291282862425  -0.169279575348  
6.6697781086  0.786875486374  -0.526825487614  -2.35390114784  -0.4727627635  0.318733602762  -0.237906426191  
6.67782998085  0.87430614233  -0.0874306112528  -2.18352341652  -0.344659298658  0.294332951307  -0.138778746128  
6.68590307236  1.1904014349  -0.304886221886  -2.10506010056  -0.352284520864  0.244006589055  -0.224181056023  
6.69400691986  1.15901601315  -0.919142305851  -2.48392605782  -0.489538222551  0.20588055253  -0.207405596972  
6.70211291313  0.979671239853  -0.786875486374  -2.67896366119  -0.44226193428  0.179954856634  -0.265357166529  
6.71023893356  0.795842766762  -0.652366876602  -2.5601477623  -0.388885498047  0.0  -0.216555848718  
6.71829605103  0.977429389954  -0.777908265591  -2.1969742775  -0.468187630177  0.115903131664  -0.227231130004  
6.72660899162  1.02450740337  -0.798084557056  -2.19249081612  -0.372110038996  0.135728672147  -0.222656011581  
6.73454403877  1.07158541679  -0.795842766762  -2.47047519684  -0.40871104598  -0.0198255348951  -0.257731974125  
6.74268293381  0.838437139988  -0.68823581934  -2.51979494095  -0.469712674618  -0.0137253701687  -0.196730315685  
6.75077199936  0.820502638817  -0.668059527874  -2.24181056023  -0.407186001539  -0.102177761495  -0.248581707478  
6.75886702538  0.885515153408  -0.948285877705  -2.16334724426  -0.466662615538  -0.164704442024  -0.219605922699  
6.76693511009  0.912416875362  -0.782391905785  -2.35614299774  -0.477337896824  -0.166229486465  -0.254681885242  
6.77503991127  0.865338861942  -0.898966014385  -2.53100419044  -0.452937245369  -0.0167754534632  -0.294332951307  
6.78321409225  0.603047013283  -1.2486884594  -2.34941744804  -0.510888814926  -0.196730315685  -0.326358824968  
6.79123902321  0.571661710739  -0.869822502136  -2.05125665665  -0.385835409164  -0.248581707478  -0.237906426191  
6.79968810081  0.836195349693  -0.824986279011  -2.04677295685  -0.452937245369  0.0457512363791  -0.279082536697  
6.80762410164  0.887757003307  -1.23972117901  -2.36062645912  -0.483438044786  -0.196730315685  -0.263832122087  
6.8157119751  1.11417984962  -1.39216434956  -2.38977003098  -0.520039021969  -0.0350759476423  -0.247056677938  
6.82376408577  0.762215614319  -1.32042646408  -2.34941744804  -0.4727627635  -0.187580063939  -0.314158469439  
6.83183002472  0.408009529114  -1.45941865444  -2.26647043228  -0.459037393332  -0.155554205179  -0.248581707478  
6.83997297287  0.228664681315  -1.14108157158  -2.15213823318  -0.448362112045  -0.0838772654533  -0.33093392849  
6.84798908234  0.311611652374  -1.38543891907  -2.31130671501  -0.545964717865  -0.225706100464  -0.274507403374  
6.85611200333  0.587354362011  -1.6051363945  -2.19024896622  -0.475812852383  -0.202830478549  -0.271457344294  
6.86418604851  0.784633696079  -1.62979626656  -2.38977003098  -0.480387985706  -0.248581707478  -0.353809565306  
6.87229013443  0.733072042465  -1.51098036766  -2.1992161274  -0.549014806747  -0.198255360126  -0.262307077646  
6.88037514687  0.605288863182  -1.56478381157  -2.23508501053  -0.498688459396  -0.18910510838  -0.306533277035  
6.88857007027  0.535792708397  -1.51322209835  -2.19024896622  -0.507838726044  -0.176904782653  -0.254681885242  
6.89653611183  0.237631917  -1.71498501301  -2.21939253807  -0.507838726044  -0.198255360126  -0.298908084631  
6.90464496613  0.244357347488  -1.54909110069  -2.27992129326  -0.532239377499  -0.186055019498  -0.366009891033  
6.91267704964  0.560452640057  -1.19264316559  -2.09160923958  -0.492588311434  -0.178429812193  -0.31568351388  
6.92076802254  0.650125086308  -1.29352474213  -1.97951877117  -0.53376442194  -0.202830478549  -0.3461843431  
6.92884612083  0.800326347351  -1.6028945446  -2.09833478928  -0.466662615538  -0.22113096714  -0.250106751919  
6.93693494797  0.497681945562  -1.63427984715  -2.0804002285  -0.481913000345  -0.216555848718  -0.340084195137  
6.9450750351  0.293677181005  -1.59168553352  -2.14541268349  -0.504788637161  -0.183004945517  -0.352284520864  
6.95320010185  0.114332340658  -1.61186182499  -2.20594167709  -0.483438044786  -0.215030804276  -0.305008232594  
6.96130108833  0.19055390358  -1.73516142368  -2.20818328857  -0.468187630177  -0.239431470633  -0.279082536697  
6.96936798096  0.331787973642  -1.75982129574  -2.09385108948  -0.497163414955  -0.195205271244  -0.269932299852  
6.97745895386  0.443878501654  -1.75309586525  -2.06470751762  -0.518513977528  -0.183004945517  -0.29738304019  
6.98563408852  0.468538403511  -1.71274328232  -1.90553891659  -0.445312023163  -0.268407255411  -0.294332951307  
6.9936671257  0.408009529114  -1.86294460297  -1.86967003345  -0.407186001539  -0.20435552299  -0.367534935474  
7.00177311897  0.399042278528  -2.01090407372  -1.91674804688  -0.416336238384  -0.23638138175  -0.309583365917  
7.00987696648  0.381107807159  -2.33372473717  -2.04677295685  -0.40871104598  -0.248581707478  -0.311108410358  
7.01796793938  0.48647287488  -2.77984499931  -2.06022381783  -0.428536564112  -0.224181056023  -0.269932299852  
7.02608013153  0.506649196148  -2.47271704674  -2.04901480675  -0.42701151967  -0.259256988764  -0.295857995749  
7.03416609764  0.612014293671  -2.58480763435  -2.0848839283  -0.355334609747  -0.31568351388  -0.353809565306  
7.04228591919  0.681510388851  -2.58032393456  -2.02435493469  -0.356859624386  -0.283657670021  -0.305008232594  
7.0503590107  0.654608666897  -2.52652049065  -1.92795705795  -0.4727627635  -0.306533277035  -0.352284520864  
7.05846810341  0.654608666897  -2.41667175293  -1.92795705795  -0.401085823774  -0.279082536697  -0.31568351388  
7.06720209122  0.645641446114  -2.38977003098  -1.53788208961  -0.298908084631  -0.283657670021  -0.320258647203  
7.07514405251  0.564936280251  -2.44805717468  -1.26662302017  -0.443786978722  -0.3126334548  -0.407186001539  
7.08319711685  0.64115780592  -2.59601664543  -1.14556515217  -0.272982358932  -0.279082536697  -0.318733602762  
7.09129500389  0.5940797925  -2.70810723305  -1.17246687412  -0.434636741877  -0.291282862425  -0.329408884048  
7.09938597679  0.540276348591  -2.74845981598  -1.10072898865  -0.333984017372  -0.36143475771  -0.295857995749  
7.10759401321  0.363173305988  -2.71483254433  -0.995363891125  -0.452937245369  -0.309583365917  -0.370584994555  
7.11564397812  0.535792708397  -2.59153294563  -0.903449654579  -0.244006589055  -0.265357166529  -0.327883839607  
7.12375092506  0.620981514454  -2.47271704674  -0.836195349693  -0.413286149502  -0.318733602762  -0.364484846592  
7.13178706169  0.61649787426  -2.39201188087  -0.840678930283  -0.349234431982  -0.314158469439  -0.321783691645  
7.13990712166  0.946044027805  -2.34269213676  -0.800326347351  -0.237906426191  -0.349234431982  -0.362959802151  
7.14800000191  0.73531383276  -2.42788076401  -0.706170320511  -0.393460631371  -0.291282862425  -0.337034106255  
7.15606403351  0.885515153408  -2.59601664543  -0.721862971783  -0.359909713268  -0.320258647203  -0.343134254217  
7.16413092613  0.818260848522  -2.77536153793  -0.75997376442  -0.186055019498  -0.347709387541  -0.333984017372  
7.17224907875  0.757731974125  -2.82019758224  -0.791359126568  -0.337034106255  -0.31568351388  -0.364484846592  
7.18037104607  0.710653960705  -2.65206193924  -0.818260848522  -0.350759476423  -0.309583365917  -0.321783691645  
7.18856310844  0.692719459534  -2.59153294563  -0.833953499794  -0.218080893159  -0.366009891033  -0.391935586929  
7.19662714005  0.663575947285  -2.49737691879  -0.887757003307  -0.332458972931  -0.29738304019  -0.314158469439  
7.20472407341  0.647883236408  -2.41218805313  -0.950527667999  -0.385835409164  -0.327883839607  -0.398035734892  
7.21277999878  0.598563432693  -2.23956871033  -0.905691444874  -0.240956500173  -0.333984017372  -0.29738304019  
7.22087597847  0.605288863182  -2.14092898369  -0.910175085068  -0.301958143711  -0.295857995749  -0.352284520864  
7.22902703285  0.623223304749  -2.18800711632  -0.878789722919  -0.375160127878  -0.311108410358  -0.333984017372  
