Ethan-CYM/ros_catkin_ws/test/moveJ_正常操作/ur_joint_target_degree.txt
time  shoulder_pan_joint  shoulder_lift_joint  elbow_joint  wrist_1_joint  wrist_2_joint  wrist_3_joint
0.146190166473  1.57000005245  -1.22109806538  2.09333586693  -3.1521923542  -1.57099908395  -0.0845472365618  
0.154242992401  1.57000005245  -1.22109806538  2.09333586693  -3.1521923542  -1.57124411058  -0.0845472365618  
0.162250995636  1.57000005245  -1.22109806538  2.09333586693  -3.1521923542  -1.5713681862  -0.0845472365618  
0.170323133469  1.57000005245  -1.22109806538  2.09333586693  -3.1521923542  -1.57138228416  -0.0845472365618  
0.178411006927  1.57000005245  -1.22109806538  2.09333586693  -3.1521923542  -1.57138228416  -0.0845472365618  
0.18649315834  1.57000005245  -1.22109806538  2.09333586693  -3.1521923542  -1.57138228416  -0.0845472365618  
0.194586038589  1.57000005245  -1.22109806538  2.09333586693  -3.1521923542  -1.57138228416  -0.0845472365618  
0.202670097351  1.57000005245  -1.22109806538  2.09333586693  -3.1521923542  -1.57131828416  -0.0845472365618  
0.210759162903  1.57000005245  -1.22109806538  2.09333586693  -3.1521923542  -1.57112628416  -0.0845472365618  
0.218904972076  1.57000005245  -1.22109806538  2.09333586693  -3.1521923542  -1.57088125753  -0.0845472365618  
0.226971149445  1.57000005245  -1.22109806538  2.09333586693  -3.1521923542  -1.57075718192  -0.0845472365618  
0.23521900177  1.57000005245  -1.22109806538  2.09333586693  -3.1521923542  -1.57074308395  -0.0845472365618  
0.243267059326  1.57000005245  -1.22109806538  2.09333586693  -3.1521923542  -1.57074308395  -0.0845472365618  
0.251307010651  1.57000005245  -1.22109806538  2.09333586693  -3.1521923542  -1.57074308395  -0.0845472365618  
0.259423971176  1.57000005245  -1.22109806538  2.09333586693  -3.1521923542  -1.57074308395  -0.0845472365618  
0.267523050308  1.57000005245  -1.22109806538  2.09333586693  -3.15218985414  -1.57074308395  -0.0844832365618  
0.275636196136  1.57000005245  -1.22109806538  2.09333586693  -3.15218235397  -1.57074308395  -0.0842912365618  
0.283667087555  1.57000005245  -1.22109806538  2.09333586693  -3.15216985368  -1.57074308395  -0.0839712365618  
0.291820049286  1.57000005245  -1.22109806538  2.09333586693  -3.15215235327  -1.57074308395  -0.0835232365618  
0.299951076508  1.57000005245  -1.22109806538  2.09333586693  -3.15212985275  -1.57074308395  -0.0829472365618  
0.308009147644  1.57000005245  -1.22109806538  2.09333586693  -3.15210235211  -1.57074308395  -0.0822432365618  
0.316073179245  1.57000005245  -1.22109806538  2.09333586693  -3.15206985136  -1.57074308395  -0.0814112365618  
0.324210166931  1.57000005245  -1.22109806538  2.09333586693  -3.15203235049  -1.57074308395  -0.0804512365618  
0.332226991653  1.57000005245  -1.22109806538  2.09333586693  -3.1519898495  -1.57074308395  -0.0793632365618  
0.340304136276  1.57000005245  -1.22109806538  2.09333586693  -3.1519423484  -1.57074308395  -0.0781472365618  
0.348405122757  1.57000005245  -1.22109806538  2.09333586693  -3.15188984718  -1.57074308395  -0.0768032365618  
0.356504201889  1.57000005245  -1.22109806538  2.09333586693  -3.15183234585  -1.57074308395  -0.0753312365618  
0.364583969116  1.57000005245  -1.22109806538  2.09333586693  -3.1517698444  -1.57074308395  -0.0737312365618  
0.372646093369  1.57000005245  -1.22109806538  2.09333586693  -3.15170234283  -1.57074308395  -0.0720032365618  
0.380743980408  1.57000005245  -1.22109806538  2.09333586693  -3.15162984115  -1.57074308395  -0.0701472365618  
0.388872146606  1.57000005245  -1.22109806538  2.09333586693  -3.15155233987  -1.57074308395  -0.0681632498423  
0.396921157837  1.57000005245  -1.22109806538  2.09333586693  -3.15147493994  -1.57074308395  -0.0661818574494  
0.405042171478  1.57000005245  -1.22109806538  2.09333586693  -3.15140254012  -1.57074308395  -0.0643284650564  
0.413073062897  1.57000005245  -1.22109806538  2.09333586693  -3.15133514041  -1.57074308395  -0.0626030726635  
0.42124414444  1.57000005245  -1.22109806538  2.09333586693  -3.15127274083  -1.57074308395  -0.0610056802706  
0.429233074188  1.57000005245  -1.22109806538  2.09333586693  -3.15121534135  -1.57074308395  -0.0595362878777  
0.437313079834  1.57000005245  -1.22109806538  2.09333586693  -3.151162942  -1.57074308395  -0.0581948954848  
0.445409059525  1.57000005245  -1.22109806538  2.09333586693  -3.15111554276  -1.57074308395  -0.0569815030919  
0.453515052795  1.57000005245  -1.22109806538  2.09333586693  -3.15107314363  -1.57074308395  -0.055896110699  
0.461585044861  1.57000005245  -1.22109806538  2.09333586693  -3.15103574463  -1.57074308395  -0.0549387183061  
0.469685077667  1.57000005245  -1.22109806538  2.09333586693  -3.15100334573  -1.57074308395  -0.0541093259132  
0.47780418396  1.57000005245  -1.22109806538  2.09333586693  -3.15097594696  -1.57074308395  -0.0534079335202  
0.485975027084  1.57000005245  -1.22109806538  2.09333586693  -3.1509535483  -1.57074308395  -0.0528345411273  
0.494076013565  1.57000005245  -1.22109806538  2.09333586693  -3.15093614975  -1.57074308395  -0.0523891487344  
0.502285003662  1.57000005245  -1.22109806538  2.09333586693  -3.15092375133  -1.57074308395  -0.0520717563415  
0.510210990906  1.57000005245  -1.22109806538  2.09333586693  -3.15091635301  -1.57074308395  -0.0518823639486  
0.518285036087  1.57000005245  -1.22109806538  2.09333586693  -3.15091395378  -1.57074308395  -0.0518209449947  
0.526432991028  1.57000005245  -1.22109806538  2.09333586693  -3.15091395378  -1.57074308395  -0.0518209449947  
0.534572124481  1.57000005245  -1.22109806538  2.09333586693  -3.15091395378  -1.57074308395  -0.0518209449947  
0.54261803627  1.57000005245  -1.22109806538  2.09333586693  -3.15091395378  -1.57074308395  -0.0518209449947  
0.550738096237  1.57000005245  -1.22109806538  2.09333586693  -3.15092195397  -1.57074308395  -0.0520769449947  
0.558744192123  1.57000005245  -1.22109806538  2.09333586693  -3.1509319542  -1.57074308395  -0.0523969449947  
0.566804170609  1.57000005245  -1.22109806538  2.09333586693  -3.15094595452  -1.57074308395  -0.0528449449947  
0.574922084808  1.57000005245  -1.22109806538  2.09333586693  -3.15096395494  -1.57074308395  -0.0534209449947  
0.582952022552  1.57000005245  -1.22109806538  2.09333586693  -3.15098595545  -1.57074308395  -0.0541249449947  
0.591148138046  1.57000005245  -1.22109806538  2.09333586693  -3.15101195606  -1.57074308395  -0.0549569449947  
0.599234104156  1.57000005245  -1.22109806538  2.09333586693  -3.15104195675  -1.57074308395  -0.0559169449947  
0.607218027115  1.57000005245  -1.22109806538  2.09333586693  -3.15107595754  -1.57074308395  -0.0570049449947  
0.615327119827  1.57000005245  -1.22109806538  2.09333586693  -3.15111395843  -1.57074308395  -0.0582209449947  
0.623412132263  1.57000005245  -1.22109806538  2.09333586693  -3.1511559594  -1.57074308395  -0.0595649449947  
0.63153719902  1.57000005245  -1.22109806538  2.09333586693  -3.15120196047  -1.57074308395  -0.0610369449947  
0.63964009285  1.57000005245  -1.22109806538  2.09333586693  -3.15125196163  -1.57074308395  -0.0626369449947  
0.647710084915  1.57000005245  -1.22109806538  2.09333586693  -3.15130596288  -1.57074308395  -0.0643649449947  
0.655768156052  1.57000005245  -1.22109806538  2.09333586693  -3.15136396423  -1.57074308395  -0.0662209449947  
0.663928031921  1.57000005245  -1.22109806538  2.09333586693  -3.15142596567  -1.57074308395  -0.0682049449947  
0.672013998032  1.57000005245  -1.22109806538  2.09333586693  -3.1514919672  -1.57074308395  -0.0703169449947  
0.68022608757  1.57000005245  -1.22109806538  2.09333586693  -3.15156190846  -1.57074308395  -0.0725550133716  
0.688220977783  1.57000005245  -1.22109806538  2.09333586693  -3.15163092731  -1.57074308395  -0.0747635651441  
0.69627404213  1.57000005245  -1.22109806538  2.09333586693  -3.15169594606  -1.57074308395  -0.0768441169166  
0.704353094101  1.57000005245  -1.22109806538  2.09333586693  -3.15175696472  -1.57074308395  -0.078796668689  
0.712476968765  1.57000005245  -1.22109806538  2.09333586693  -3.15181398329  -1.57074308395  -0.0806212204615  
0.720600128174  1.57000005245  -1.22109806538  2.09333586693  -3.15186700176  -1.57074308395  -0.082317772234  
0.728718996048  1.57000005245  -1.22109806538  2.09333586693  -3.15191602014  -1.57074308395  -0.0838863240064  
0.736816167831  1.57000005245  -1.22109806538  2.09333586693  -3.15196103843  -1.57074308395  -0.0853268757789  
0.745002985001  1.57000005245  -1.22109806538  2.09333586693  -3.15200205663  -1.57074308395  -0.0866394275514  
0.753134012222  1.57000005245  -1.22109806538  2.09333586693  -3.15203907473  -1.57074308395  -0.0878239793238  
0.76119017601  1.57000005245  -1.22109806538  2.09333586693  -3.15207209274  -1.57074308395  -0.0888805310963  
0.769289016724  1.57000005245  -1.22109806538  2.09333586693  -3.15210111066  -1.57074308395  -0.0898090828688  
0.777409076691  1.57000005245  -1.22109806538  2.09333586693  -3.15212612848  -1.57074308395  -0.0906096346413  
0.785530090332  1.57000005245  -1.22109806538  2.09333586693  -3.15214714621  -1.57074308395  -0.0912821864137  
0.793625116348  1.57000005245  -1.22109806538  2.09333586693  -3.15216416385  -1.57074308395  -0.0918267381862  
0.801747083664  1.57000005245  -1.22109806538  2.09333586693  -3.15217718139  -1.57074308395  -0.0922432899587  
0.80989408493  1.57000005245  -1.22109806538  2.09333586693  -3.15218619885  -1.57074308395  -0.0925318417311  
0.817979097366  1.57000005245  -1.22109806538  2.09333586693  -3.15219121621  -1.57074308395  -0.0926923935036  
0.826228141785  1.57000005245  -1.22109806538  2.09333586693  -3.1521923542  -1.57074308395  -0.0927288085222  
0.834244012833  1.57000005245  -1.22109806538  2.09333586693  -3.1521923542  -1.57074308395  -0.0927288085222  
0.84229016304  1.57000005245  -1.22109806538  2.09333586693  -3.1521923542  -1.57074308395  -0.0927288085222  
0.850381135941  1.57000005245  -1.22109806538  2.09333586693  -3.1521923542  -1.57074308395  -0.0927288085222  
0.858472108841  1.56999967401  -1.22112435058  2.09333619482  -3.15218670701  -1.57075296637  -0.0927928085222  
0.866563081741  1.56999853867  -1.22120320621  2.0933371785  -3.15216976542  -1.57078261362  -0.0929848085222  
0.874647140503  1.56999664644  -1.22133463225  2.09333881796  -3.15214152944  -1.5708320257  -0.0933048085222  
0.882758140564  1.56999399732  -1.22151862871  2.09334111321  -3.15210199908  -1.57090120261  -0.0937528085222  
0.890896081924  1.56999059131  -1.22175519559  2.09334406424  -3.15205117432  -1.57099014436  -0.0943288085222  
0.899019002914  1.56998642841  -1.22204433289  2.09334767106  -3.15198905517  -1.57109885094  -0.0950328085222  
0.907196044922  1.56998150862  -1.2223860406  2.09335193367  -3.15191564163  -1.57122732235  -0.0958648085222  
0.915315151215  1.56997583193  -1.22278031873  2.09335685205  -3.1518309337  -1.57137555859  -0.0968248085222  
0.923321008682  1.56996939836  -1.22322716728  2.09336242623  -3.15173493138  -1.57154355967  -0.0979128085222  
0.931430101395  1.56996220789  -1.22372658624  2.09336865619  -3.15162763467  -1.57173132558  -0.0991288085222  
0.939556121826  1.56995426053  -1.22427857562  2.09337554193  -3.15150904357  -1.57193885632  -0.100472808522  
0.947637081146  1.56994555628  -1.22488313542  2.09338308346  -3.15137915808  -1.5721661519  -0.101944808522  
0.955744028091  1.56993609514  -1.22554026564  2.09339128078  -3.15123797819  -1.5724132123  -0.103544808522  
0.963863134384  1.56992587711  -1.22624996627  2.09340013388  -3.15108550392  -1.57268003754  -0.105272808522  
0.971924066544  1.56991490218  -1.22701223732  2.09340964276  -3.15092173526  -1.57296662761  -0.107128808522  
0.980008125305  1.56990317037  -1.22782707879  2.09341980743  -3.1507466722  -1.57327298252  -0.109112808522  
0.988154172897  1.56989068166  -1.22869449068  2.09343062789  -3.15056031476  -1.57359910225  -0.111224808522  
0.996232032776  1.56987743607  -1.22961447298  2.09344210413  -3.15036266292  -1.57394498682  -0.113464808522  
1.00434112549  1.56986343358  -1.2305870257  2.09345423616  -3.15015371669  -1.57431063623  -0.115832808522  
1.01244306564  1.5698486742  -1.23161214884  2.09346702397  -3.14993347608  -1.57469605046  -0.118328808522  
1.02055501938  1.56983315793  -1.23268984239  2.09348046757  -3.14970194107  -1.57510122953  -0.120952808522  
1.02863717079  1.56981688476  -1.23382010636  2.09349456695  -3.14945911167  -1.57552617343  -0.123704808522  
1.03679418564  1.56979985471  -1.23500294075  2.09350932212  -3.14920498788  -1.57597088216  -0.126584808522  
1.04483509064  1.56978206776  -1.23623834556  2.09352473307  -3.1489395697  -1.57643535572  -0.129592808522  
1.05297398567  1.56976352393  -1.23752632078  2.09354079981  -3.14866285713  -1.57691959412  -0.132728808522  
1.06103897095  1.5697442232  -1.23886686643  2.09355752233  -3.14837485017  -1.57742359735  -0.135992808522  
1.06923413277  1.56972483409  -1.24021355062  2.09357432143  -3.14808552438  -1.57792990848  -0.139271754853  
1.07730007172  1.56970619913  -1.24150785489  2.09359046711  -3.14780745206  -1.5784165264  -0.142423164998  
1.08530902863  1.56968832106  -1.24274958874  2.09360595702  -3.14754067413  -1.57888337949  -0.145446575143  
1.09343719482  1.56967119989  -1.24393875218  2.09362079114  -3.14728519059  -1.57933046774  -0.148341985287  
1.1014521122  1.5696548356  -1.24507534519  2.09363496947  -3.14704100144  -1.57975779117  -0.151109395432  
1.10957813263  1.56963922821  -1.24615936779  2.09364849202  -3.14680810668  -1.58016534976  -0.153748805576  
1.1176609993  1.5696243777  -1.24719081997  2.09366135878  -3.14658650631  -1.58055314351  -0.156260215721  
1.1257610321  1.56961028409  -1.24816970174  2.09367356976  -3.14637620034  -1.58092117244  -0.158643625866  
1.1338891983  1.56959694737  -1.24909601309  2.09368512495  -3.14617718875  -1.58126943653  -0.16089903601  
1.14206004143  1.56958436754  -1.24996975402  2.09369602436  -3.14598947155  -1.58159793579  -0.163026446155  
1.15027499199  1.5695725446  -1.25079092453  2.09370626798  -3.14581304874  -1.58190667022  -0.1650258563  
1.1582531929  1.56956147855  -1.25155952463  2.09371585582  -3.14564792033  -1.58219563981  -0.166897266444  
1.16634511948  1.5695511694  -1.2522755543  2.09372478787  -3.1454940863  -1.58246484457  -0.168640676589  
1.17443108559  1.56954161713  -1.25293901357  2.09373306413  -3.14535154667  -1.5827142845  -0.170256086733  
1.18253016472  1.56953282176  -1.25354990241  2.09374068461  -3.14522030143  -1.5829439596  -0.171743496878  
1.19064211845  1.56951750169  -1.25461396885  2.09375395822  -3.14499169411  -1.5833440153  -0.174334317167  
1.19876003265  1.56951097699  -1.25506714644  2.09375961135  -3.14489433204  -1.5835143959  -0.175437727312  
1.20682215691  1.56950520918  -1.25546775361  2.09376460869  -3.14480826436  -1.58366501166  -0.176413137457  
1.21487212181  1.56950019826  -1.25581579037  2.09376895024  -3.14473349107  -1.5837958626  -0.177260547601  
1.22295713425  1.56949594424  -1.25611125671  2.09377263601  -3.14467001217  -1.5839069487  -0.177979957746  
1.2310590744  1.5694924471  -1.25635415263  2.093775666  -3.14461782766  -1.58399826997  -0.17857136789  
1.23919415474  1.56948970686  -1.25654447814  2.09377804019  -3.14457693754  -1.5840698264  -0.179034778035  
1.24726009369  1.56948772351  -1.25668223323  2.09377975861  -3.14454734181  -1.58412161801  -0.17937018818  
1.25534796715  1.56948649705  -1.2567674179  2.09378082124  -3.14452904047  -1.58415364478  -0.179577598324  
1.26347017288  1.56948602748  -1.25680003215  2.09378122808  -3.14452203353  -1.58416590672  -0.179657008469  
1.2715780735  1.569486022  -1.25680041313  2.09378123283  -3.14452195168  -1.58416604996  -0.179657936096  
1.27975916862  1.569486022  -1.25680041313  2.09378123283  -3.14452195168  -1.58416604996  -0.179657936096  
1.28781819344  1.569486022  -1.25680041313  2.09378123283  -3.14452195168  -1.58416604996  -0.179657936096  
1.29596614838  1.569486022  -1.25680041313  2.09378123283  -3.14452195168  -1.58416604996  -0.179657936096  
1.30404210091  1.56948361709  -1.25685792473  2.09376070268  -3.14445795168  -1.58416365743  -0.179657936096  
1.31207799911  1.56947640236  -1.25703045951  2.09369911222  -3.14426595168  -1.58415647985  -0.179657936096  
1.32017016411  1.56946437782  -1.25731801748  2.09359646145  -3.14394595168  -1.58414451722  -0.179657936096  
1.32822608948  1.56944754346  -1.25772059864  2.09345275037  -3.14349795168  -1.58412776954  -0.179657936096  
1.33639216423  1.56942589929  -1.25823820299  2.09326797898  -3.14292195168  -1.58410623681  -0.179657936096  
1.34442305565  1.5693994453  -1.25887083053  2.09304214729  -3.14221795168  -1.58407991902  -0.179657936096  
1.35253214836  1.56936818149  -1.25961848126  2.09277525528  -3.14138595168  -1.58404881618  -0.179657936096  
1.36059117317  1.56933210786  -1.26048115518  2.09246730297  -3.14042595168  -1.5840129283  -0.179657936096  
1.36867713928  1.56929122442  -1.26145885229  2.09211829035  -3.13933795168  -1.58397225535  -0.179657936096  
1.37677502632  1.56924553116  -1.26255157258  2.09172821743  -3.13812195168  -1.58392679736  -0.179657936096  
1.38485717773  1.56919502809  -1.26375931607  2.09129708419  -3.13677795168  -1.58387655431  -0.179657936096  
1.39301609993  1.5691397152  -1.26508208274  2.09082489065  -3.13530595168  -1.58382152622  -0.179657936096  
1.40103816986  1.56907959249  -1.2665198726  2.09031163679  -3.13370595168  -1.58376171307  -0.179657936096  
1.40920305252  1.56901465997  -1.26807268565  2.08975732263  -3.13197795168  -1.58369711487  -0.179657936096  
1.41719508171  1.56894491762  -1.2697405219  2.08916194817  -3.13012195168  -1.58362773161  -0.179657936096  
1.42532706261  1.56887036547  -1.27152338133  2.08852551339  -3.12813795168  -1.58355356331  -0.179657936096  
1.43339514732  1.56879100349  -1.27342126394  2.0878480183  -3.12602595168  -1.58347460995  -0.179657936096  
1.44150114059  1.5687068317  -1.27543416975  2.08712946291  -3.12378595168  -1.58339087154  -0.179657936096  
1.44957208633  1.56861785009  -1.27756209875  2.08636984721  -3.12141795168  -1.58330234808  -0.179657936096  
1.45763111115  1.56852405867  -1.27980505093  2.0855691712  -3.11892195168  -1.58320903957  -0.179657936096  
1.46572804451  1.56842545743  -1.28216302631  2.08472743488  -3.11629795168  -1.583110946  -0.179657936096  
1.47384214401  1.56832204637  -1.28463602487  2.08384463826  -3.11354595168  -1.58300806739  -0.179657936096  
1.48196697235  1.5682138255  -1.28722404663  2.08292078132  -3.11066595168  -1.58290040372  -0.179657936096  
1.49010109901  1.5681007948  -1.28992709157  2.08195586408  -3.10765795168  -1.582787955  -0.179657936096  
1.4981610775  1.5679829543  -1.2927451597  2.08094988653  -3.10452195168  -1.58267072123  -0.179657936096  
1.50620818138  1.56786030397  -1.29567825102  2.07990284867  -3.10125795168  -1.5825487024  -0.179657936096  
1.51425409317  1.56773284383  -1.29872636553  2.07881475051  -3.09786595168  -1.58242189852  -0.179657936096  
1.5223531723  1.56760057387  -1.30188950322  2.07768559203  -3.09434595168  -1.5822903096  -0.179657936096  
1.53042817116  1.5674634941  -1.30516766411  2.07651537325  -3.09069795168  -1.58215393562  -0.179657936096  
1.53854298592  1.56732160451  -1.30856084819  2.07530409416  -3.08692195168  -1.58201277658  -0.179657936096  
1.54665398598  1.5671749051  -1.31206905545  2.07405175476  -3.08301795168  -1.5818668325  -0.179657936096  
1.55476403236  1.56702339588  -1.31569228591  2.07275835505  -3.07898595168  -1.58171610336  -0.179657936096  
1.56288003922  1.56686753903  -1.31941948656  2.07142784067  -3.07483825166  -1.58156104899  -0.179657936096  
1.57099509239  1.56671420198  -1.3230864282  2.0701188372  -3.07075760901  -1.58140850143  -0.179657936096  
1.57920217514  1.56656567474  -1.32663834665  2.06885089404  -3.06680496637  -1.58126073893  -0.179657936096  
1.58718299866  1.56642195732  -1.33007524191  2.06762401118  -3.06298032373  -1.58111776148  -0.179657936096  
1.595236063  1.56628304972  -1.33339711399  2.06643818863  -3.05928368108  -1.58097956908  -0.179657936096  
1.60337996483  1.56614895193  -1.33660396287  2.06529342639  -3.05571503844  -1.58084616173  -0.179657936096  
1.61148309708  1.56601966396  -1.33969578857  2.06418972446  -3.0522743958  -1.58071753944  -0.179657936096  
1.61956214905  1.5658951858  -1.34267259107  2.06312708284  -3.04896175315  -1.5805937022  -0.179657936096  
1.62764811516  1.56577551747  -1.34553437039  2.06210550152  -3.04577711051  -1.58047465  -0.179657936096  
1.63573408127  1.56566065895  -1.34828112652  2.06112498052  -3.04272046787  -1.58036038287  -0.179657936096  
1.64384317398  1.56555061024  -1.35091285946  2.06018551982  -3.03979182523  -1.58025090078  -0.179657936096  
1.65195012093  1.56544537135  -1.35342956921  2.05928711943  -3.03699118258  -1.58014620374  -0.179657936096  
1.66005301476  1.56534494228  -1.35583125577  2.05842977934  -3.03431853994  -1.58004629176  -0.179657936096  
1.66826200485  1.56524932303  -1.35811791914  2.05761349957  -3.0317738973  -1.57995116483  -0.179657936096  
1.67627120018  1.56515851359  -1.36028955933  2.0568382801  -3.02935725465  -1.57986082295  -0.179657936096  
1.68434214592  1.56507251397  -1.36234617632  2.05610412095  -3.02706861201  -1.57977526612  -0.179657936096  
1.69246006012  1.56499132417  -1.36428777013  2.0554110221  -3.02490796937  -1.57969449435  -0.179657936096  
1.70052599907  1.56491494418  -1.36611434074  2.05475898356  -3.02287532672  -1.57961850762  -0.179657936096  
1.70866513252  1.56484337401  -1.36782588817  2.05414800532  -3.02097068408  -1.57954730595  -0.179657936096  
1.7167069912  1.56477661366  -1.36942241241  2.0535780874  -3.01919404144  -1.57948088933  -0.179657936096  
1.72476816177  1.56471466312  -1.37090391346  2.05304922978  -3.01754539879  -1.57941925776  -0.179657936096  
1.73286509514  1.5646575224  -1.37227039132  2.05256143247  -3.01602475615  -1.57936241125  -0.179657936096  
1.74099802971  1.56460519149  -1.37352184599  2.05211469547  -3.01463211351  -1.57931034978  -0.179657936096  
1.74929618835  1.5645576704  -1.37465827748  2.05170901878  -3.01336747087  -1.57926307337  -0.179657936096  
1.75726914406  1.56451495913  -1.37567968577  2.05134440239  -3.01223082822  -1.57922058201  -0.179657936096  
1.76531720161  1.56447705768  -1.37658607087  2.05102084632  -3.01122218558  -1.5791828757  -0.179657936096  
1.77336812019  1.56444396604  -1.37737743279  2.05073835055  -3.01034154294  -1.57914995445  -0.179657936096  
1.78148508072  1.56441568422  -1.37805377152  2.05049691509  -3.00958890029  -1.57912181824  -0.179657936096  
1.7895720005  1.56439221222  -1.37861508705  2.05029653994  -3.00896425765  -1.57909846709  -0.179657936096  
1.79769396782  1.56437355003  -1.3790613794  2.05013722509  -3.00846761501  -1.57907990099  -0.179657936096  
1.80582213402  1.56435969766  -1.37939264856  2.05001897056  -3.00809897236  -1.57906611994  -0.179657936096  
1.81386899948  1.5643506551  -1.37960889453  2.04994177633  -3.00785832972  -1.57905712394  -0.179657936096  
1.82201313972  1.56434642236  -1.37971011731  2.04990564241  -3.00774568708  -1.579052913  -0.179657936096  
1.83007311821  1.56434607506  -1.37971842289  2.04990267754  -3.00773644447  -1.57905256748  -0.179657936096  
1.83816719055  1.56434607506  -1.37971842289  2.04990267754  -3.00773644447  -1.57905256748  -0.179657936096  
1.84628796577  1.56434607506  -1.37971842289  2.04990267754  -3.00773644447  -1.57905256748  -0.179657936096  
1.8543741703  1.56434607506  -1.37971842289  2.04990267754  -3.00773644447  -1.57905256748  -0.179657936096  
1.86247515678  1.5643500996  -1.37977142753  2.04988552389  -3.00767244447  -1.57904270964  -0.179650171156  
1.87053203583  1.56436217323  -1.37993044144  2.04983406294  -3.00748044447  -1.57901313613  -0.179626876336  
1.87865114212  1.56438229595  -1.38019546462  2.04974829471  -3.00716044447  -1.57896384694  -0.179588051636  
1.88685917854  1.56444668866  -1.38104353881  2.04947383634  -3.00613644447  -1.57880612154  -0.179463812595  
1.89486098289  1.56449095864  -1.38162658982  2.04928514622  -3.00543244447  -1.57869768533  -0.179378398254  
1.90293312073  1.56454327772  -1.3823156501  2.0490621488  -3.00460044447  -1.57856953344  -0.179277454033  
1.91101312637  1.56460364588  -1.38311071965  2.04880484408  -3.00364044447  -1.57842166588  -0.179160979932  
1.91917109489  1.56467206313  -1.38401179848  2.04851323207  -3.00255244447  -1.57825408264  -0.179028975951  
1.92725515366  1.56474852946  -1.38501888658  2.04818731276  -3.00133644447  -1.57806678372  -0.17888144209  
1.93528699875  1.56483304489  -1.38613198396  2.04782708616  -2.99999244447  -1.57785976913  -0.178718378349  
1.94333720207  1.5649256094  -1.38735109061  2.04743255226  -2.99852044447  -1.57763303887  -0.178539784727  
1.95146417618  1.565026223  -1.38867620653  2.04700371107  -2.99692044447  -1.57738659293  -0.178345661226  
1.95956206322  1.56513488569  -1.39010733173  2.04654056258  -2.99519244447  -1.57712043131  -0.178136007844  
1.96765017509  1.56525159747  -1.3916444662  2.04604310679  -2.99333644447  -1.57683455402  -0.177910824582  
1.97576618195  1.56537635833  -1.39328760994  2.04551134371  -2.99135244447  -1.57652896106  -0.17767011144  
1.98388910294  1.56550916829  -1.39503676296  2.04494527334  -2.98924044447  -1.57620365242  -0.177413868418  
1.99193811417  1.56565002733  -1.39689192525  2.04434489566  -2.98700044447  -1.5758586281  -0.177142095516  
2.00002098083  1.56579893546  -1.39885309682  2.0437102107  -2.98463244447  -1.57549388811  -0.176854792733  
2.00809907913  1.56595589267  -1.40092027766  2.04304121843  -2.98213644447  -1.57510943244  -0.176551960071  
2.01619410515  1.56612089898  -1.40309346777  2.04233791888  -2.97951244447  -1.5747052611  -0.176233597528  
2.02432012558  1.56629395437  -1.40537266716  2.04160031202  -2.97676044447  -1.57428137408  -0.175899705106  
2.03234100342  1.56647505886  -1.40775787582  2.04082839787  -2.97388044447  -1.57383777139  -0.175550282803  
2.04043006897  1.56666421243  -1.41024909376  2.04002217643  -2.97087244447  -1.57337445302  -0.17518533062  
2.04860901833  1.56686141508  -1.41284632097  2.03918164769  -2.96773644447  -1.57289141898  -0.174804848557  
2.05665111542  1.56706666683  -1.41554955745  2.03830681165  -2.96447244447  -1.57238866926  -0.174408836614  
2.06472301483  1.56727996766  -1.41835880321  2.03739766832  -2.96108044447  -1.57186620387  -0.17399729479  
2.07277011871  1.56750131759  -1.42127405824  2.0364542177  -2.95756044447  -1.5713240228  -0.173570223087  
2.0808391571  1.5677307166  -1.42429532254  2.03547645978  -2.95391244447  -1.57076212606  -0.173127621503  
2.08893418312  1.5679681647  -1.42742259612  2.03446439456  -2.95013644447  -1.57018051364  -0.17266949004  
2.09704208374  1.56821366188  -1.43065587897  2.03341802205  -2.94623244447  -1.56957918555  -0.172195828696  
2.10511302948  1.56846720816  -1.4339951711  2.03233734224  -2.94220044447  -1.56895814178  -0.171706637472  
2.11319112778  1.56872880352  -1.4374404725  2.03122235513  -2.93804044447  -1.56831738234  -0.171201916368  
2.12132406235  1.56899844797  -1.44099178317  2.03007306073  -2.93375244447  -1.56765690722  -0.170681665383  
2.12944197655  1.56927614151  -1.44464910312  2.02888945904  -2.92933644447  -1.56697671642  -0.170145884519  
2.13771414757  1.56956188414  -1.44841243234  2.02767155005  -2.92479244447  -1.56627680995  -0.169594573775  
2.14576506615  1.56985567585  -1.45228177084  2.02641933376  -2.92012044447  -1.56555718781  -0.16902773315  
2.15373015404  1.57015751665  -1.4562571186  2.02513281018  -2.91532044447  -1.56481784999  -0.168445362645  
2.16182518005  1.57046740655  -1.46033847565  2.0238119793  -2.91039244447  -1.56405879649  -0.16784746226  
2.1699590683  1.57078534553  -1.46452584196  2.02245684113  -2.90533644447  -1.56328002732  -0.167234031995  
2.17808914185  1.57111133359  -1.46881921756  2.02106739566  -2.90015244447  -1.56248154248  -0.16660507185  
2.18642401695  1.57144537075  -1.47321860242  2.0196436429  -2.89484044447  -1.56166334196  -0.165960581825  
2.19437098503  1.57178745699  -1.47772399656  2.01818558284  -2.88940044447  -1.56082542576  -0.16530056192  
2.20248198509  1.57213759232  -1.48233539997  2.01669321549  -2.88383244447  -1.55996779389  -0.164625012134  
2.21069097519  1.57249577674  -1.48705281266  2.01516654084  -2.87813644447  -1.55909044634  -0.163933932469  
2.21872615814  1.57286193831  -1.49187528708  2.01360586554  -2.87231358857  -1.55819355934  -0.163227461733  
2.22677516937  1.57322664985  -1.4966786643  2.01205137058  -2.86651379142  -1.55730022406  -0.162523788651  
2.23483514786  1.57358331231  -1.50137603225  2.01053118291  -2.86084199426  -1.55642660444  -0.161835645448  
2.24289917946  1.57393192569  -1.50596739093  2.00904530255  -2.85529819711  -1.55557270051  -0.161163032126  
2.25102615356  1.57427248997  -1.51045274033  2.00759372947  -2.84988239996  -1.55473851224  -0.160505948684  
2.25906705856  1.57460500517  -1.51483208046  2.0061764637  -2.8445946028  -1.55392403966  -0.159864395122  
2.26720905304  1.57492947127  -1.51910541131  2.00479350521  -2.83943480565  -1.55312928274  -0.159238371441  
2.27532505989  1.57524588829  -1.52327273289  2.00344485403  -2.8344030085  -1.55235424151  -0.158627877639  
2.28342318535  1.57555425622  -1.5273340452  2.00213051014  -2.82949921135  -1.55159891594  -0.158032913718  
2.29162597656  1.57585457507  -1.53128934823  2.00085047354  -2.82472341419  -1.55086330606  -0.157453479676  
2.29975104332  1.57614684482  -1.53513864199  1.99960474424  -2.82007561704  -1.55014741185  -0.156889575515  
2.30772018433  1.57643106549  -1.53888192648  1.99839332224  -2.81555581989  -1.54945123331  -0.156341201234  
2.31585907936  1.57670723707  -1.54251920169  1.99721620753  -2.81116402273  -1.54877477045  -0.155808356833  
2.32385206223  1.57697535956  -1.54605046763  1.99607340011  -2.80690022558  -1.54811802326  -0.155291042312  
2.33195114136  1.57723543296  -1.54947572429  1.9949649  -2.80276442843  -1.54748099175  -0.154789257671  
2.34008002281  1.57748745728  -1.55279497168  1.99389070717  -2.79875663127  -1.54686367592  -0.154303002911  
2.34812712669  1.57773143251  -1.5560082098  1.99285082165  -2.79487683412  -1.54626607576  -0.15383227803  
2.35619211197  1.57796735864  -1.55911543864  1.99184524342  -2.79112503697  -1.54568819127  -0.15337708303  
2.3642821312  1.57819523569  -1.56211665821  1.99087397248  -2.78750123981  -1.54513002246  -0.15293741791  
2.37233614922  1.57841506366  -1.5650118685  1.98993700884  -2.78400544266  -1.54459156933  -0.15251328267  
2.38054513931  1.57862684253  -1.56780106952  1.9890343525  -2.78063764551  -1.54407283187  -0.15210467731  
2.38868308067  1.57883057232  -1.57048426127  1.98816600345  -2.77739784835  -1.54357381008  -0.15171160183  
2.39682412148  1.57902625302  -1.57306144374  1.98733196169  -2.7742860512  -1.54309450397  -0.15133405623  
2.40480399132  1.57921388463  -1.57553261694  1.98653222723  -2.77130225405  -1.54263491354  -0.150972040511  
2.41292309761  1.57939346715  -1.57789778087  1.98576680007  -2.7684464569  -1.54219503878  -0.150625554671  
2.42109298706  1.57956500058  -1.58015693552  1.9850356802  -2.76571865974  -1.5417748797  -0.150294598712  
2.42910504341  1.57972848493  -1.5823100809  1.98433886763  -2.76311886259  -1.54137443629  -0.149979172632  
2.43721413612  1.57988392019  -1.584357217  1.98367636236  -2.76064706544  -1.54099370856  -0.149679276433  
2.44529914856  1.58003130636  -1.58629834383  1.98304816438  -2.75830326828  -1.5406326965  -0.149394910114  
2.45354914665  1.58017064344  -1.58813346139  1.98245427369  -2.75608747113  -1.54029140012  -0.149126073676  
2.46168708801  1.58030193143  -1.58986256967  1.9818946903  -2.75399967398  -1.53996981941  -0.148872767117  
2.46973419189  1.58042517034  -1.59148566868  1.98136941421  -2.75203987682  -1.53966795438  -0.148634990438  
2.47773003578  1.58054036015  -1.59300275841  1.98087844541  -2.75020807967  -1.53938580502  -0.14841274364  
2.48577713966  1.58064750088  -1.59441383887  1.9804217839  -2.74850428252  -1.53912337134  -0.148206026721  
2.49392008781  1.58074659253  -1.59571891006  1.9799994297  -2.74692848536  -1.53888065333  -0.148014839683  
2.50198197365  1.58083763508  -1.59691797197  1.97961138278  -2.74548068821  -1.538657651  -0.147839182525  
2.51011419296  1.58092062854  -1.59801102461  1.97925764317  -2.74416089106  -1.53845436434  -0.147679055247  
2.51820397377  1.58099557292  -1.59899806798  1.97893821085  -2.74296909391  -1.53827079336  -0.147534457849  
2.5263171196  1.58106246821  -1.59987910207  1.97865308582  -2.74190529675  -1.53810693806  -0.147405390332  
2.53445315361  1.58112131441  -1.60065412689  1.97840226809  -2.7409694996  -1.53796279843  -0.147291852694  
2.54248404503  1.58117211152  -1.60132314243  1.97818575766  -2.74016170245  -1.53783837447  -0.147193844937  
2.55077219009  1.58124955848  -1.6023431457  1.97785565867  -2.73893010814  -1.53764867359  -0.147044419062  
2.55871915817  1.58127620833  -1.60269413342  1.97774207012  -2.73850631099  -1.53758339666  -0.146993000945  
2.56678819656  1.58129480909  -1.60293911187  1.97766278887  -2.73821051383  -1.5375378354  -0.146957112708  
2.57489013672  1.58130536077  -1.60307808104  1.97761781491  -2.73804271668  -1.53751198982  -0.146936754351  
2.58299398422  1.58130800724  -1.60311293602  1.97760653496  -2.73800063133  -1.53750550747  -0.146931648254  
2.59117412567  1.58130800724  -1.60311293602  1.97760653496  -2.73800063133  -1.53750550747  -0.146931648254  
2.59918618202  1.58130800724  -1.60311293602  1.97760653496  -2.73800063133  -1.53750550747  -0.146931648254  
2.60731601715  1.58130800724  -1.60311293602  1.97760653496  -2.73800063133  -1.53750550747  -0.146931648254  
2.61541509628  1.58129177113  -1.60316907072  1.97760926587  -2.73793663133  -1.53750385668  -0.146926772059  
2.62348103523  1.58124306282  -1.60333747483  1.97761745861  -2.73774463133  -1.53749890432  -0.146912143471  
2.63170719147  1.58116188229  -1.60361814834  1.97763111317  -2.73742463133  -1.53749065039  -0.146887762491  
2.63979005814  1.58104822955  -1.60401109125  1.97765022955  -2.73697663133  -1.53747909488  -0.14685362912  
2.64778113365  1.5809021046  -1.60451630357  1.97767480776  -2.73640063133  -1.5374642378  -0.146809743357  
2.65594601631  1.58072350743  -1.60513378529  1.9777048478  -2.73569663133  -1.53744607915  -0.146756105202  
2.66391515732  1.58051243806  -1.60586353641  1.97774034966  -2.73486463133  -1.53742461893  -0.146692714656  
2.67201113701  1.58026889647  -1.60670555694  1.97778131334  -2.73390463133  -1.53739985713  -0.146619571717  
2.68009805679  1.57999288267  -1.60765984687  1.97782773885  -2.73281663133  -1.53737179375  -0.146536676387  
2.68821310997  1.57968439666  -1.60872640621  1.97787962618  -2.73160063133  -1.53734042881  -0.146444028665  
2.69632506371  1.57934343844  -1.60990523495  1.97793697534  -2.73025663133  -1.53730576229  -0.146341628552  
2.70441198349  1.57897000801  -1.61119633309  1.97799978632  -2.72878463133  -1.5372677942  -0.146229476046  
2.71246099472  1.57856410536  -1.61259970064  1.97806805912  -2.72718463133  -1.53722652453  -0.146107571149  
2.72067213058  1.57812573051  -1.61411533759  1.97814179375  -2.72545663133  -1.5371819533  -0.14597591386  
2.72871899605  1.57765488344  -1.61574324395  1.97822099021  -2.72360063133  -1.53713408048  -0.145834504179  
2.73680019379  1.57715156416  -1.61748341971  1.97830564848  -2.72161663133  -1.5370829061  -0.145683342107  
2.74489498138  1.57661577267  -1.61933586487  1.97839576859  -2.71950463133  -1.53702843014  -0.145522427642  
2.75295305252  1.57604750897  -1.62130057944  1.97849135051  -2.71726463133  -1.53697065261  -0.145351760786  
2.76098704338  1.57544677306  -1.62337756341  1.97859239427  -2.71489663133  -1.53690957351  -0.145171341538  
2.76912403107  1.57481356493  -1.62556681678  1.97869889984  -2.71240063133  -1.53684519283  -0.144981169899  
2.77720618248  1.57414788459  -1.62786833956  1.97881086724  -2.70977663133  -1.53677751058  -0.144781245867  
2.78533005714  1.57344973204  -1.63028213174  1.97892829647  -2.70702463133  -1.53670652675  -0.144571569444  
2.79342913628  1.57271910728  -1.63280819333  1.97905118752  -2.70414463133  -1.53663224136  -0.144352140629  
2.8015999794  1.57195601031  -1.63544652432  1.97917954039  -2.70113663133  -1.53655465439  -0.144122959422  
2.80963110924  1.57116044113  -1.63819712471  1.97931335509  -2.69800063133  -1.53647376584  -0.143884025824  
2.81770706177  1.57033239974  -1.64105999451  1.97945263161  -2.69473663133  -1.53638957573  -0.143635339833  
2.8257830143  1.56947188613  -1.64403513371  1.97959736996  -2.69134463133  -1.53630208404  -0.143376901451  
2.83386301994  1.56857890031  -1.64712254231  1.97974757013  -2.68782463133  -1.53621129077  -0.143108710677  
2.84194612503  1.56765344228  -1.65032222032  1.97990323213  -2.68417663133  -1.53611719594  -0.142830767511  
2.85002303123  1.56669551204  -1.65363416773  1.98006435595  -2.68040063133  -1.53601979953  -0.142543071954  
2.85810112953  1.56570510959  -1.65705838455  1.98023094159  -2.67649663133  -1.53591910154  -0.142245624005  
2.86620497704  1.56468223493  -1.66059487077  1.98040298906  -2.67246463133  -1.53581510199  -0.141938423664  
2.87430119514  1.56362688805  -1.66424362639  1.98058049835  -2.66830463133  -1.53570780086  -0.141621470931  
2.8824570179  1.56253906896  -1.66800465142  1.98076346947  -2.66401663133  -1.53559719816  -0.141294765806  
2.89059305191  1.56141877766  -1.67187794585  1.98095190242  -2.65960063133  -1.53548329388  -0.14095830829  
2.89864802361  1.56026601415  -1.67586350969  1.98114579718  -2.65505663133  -1.53536608803  -0.140612098382  
2.90672802925  1.55908077843  -1.67996134293  1.98134515377  -2.65038463133  -1.53524558061  -0.140256136082  
2.91482019424  1.5578630705  -1.68417144557  1.98154997219  -2.64558463133  -1.53512177162  -0.13989042139  
2.92290210724  1.55661289035  -1.68849381762  1.98176025243  -2.64065663133  -1.53499466105  -0.139514954307  
2.93099212646  1.555330238  -1.69292845907  1.98197599449  -2.63560063133  -1.53486424891  -0.139129734831  
2.93909406662  1.55401511343  -1.69747536992  1.98219719838  -2.63041663133  -1.53473053519  -0.138734762964  
2.94719314575  1.55266751665  -1.70213455018  1.9824238641  -2.62510463133  -1.5345935199  -0.138330038705  
2.95528817177  1.55128744766  -1.70690599984  1.98265599163  -2.61966463133  -1.53445320304  -0.137915562055  
2.96335101128  1.54987490646  -1.71178971891  1.982893581  -2.61409663133  -1.53430958461  -0.137491333013  
2.9714820385  1.54842989304  -1.71678570737  1.98313663218  -2.60840063133  -1.5341626646  -0.137057351578  
2.97965097427  1.54695240742  -1.72189396525  1.98338514519  -2.60257663133  -1.53401244302  -0.136613617752  
2.98766803741  1.54544244958  -1.72711449253  1.98363912003  -2.59662463133  -1.53385891986  -0.136160131535  
2.99574804306  1.54390001953  -1.73244728921  1.98389855669  -2.59054463133  -1.53370209514  -0.135696892925  
3.00382113457  1.54232511727  -1.73789235529  1.98416345517  -2.58433663133  -1.53354196884  -0.135223901924  
3.01194310188  1.5407177428  -1.74344969078  1.98443381548  -2.57800063133  -1.53337854096  -0.134741158531  
3.02002906799  1.53910039509  -1.74904150772  1.98470585329  -2.57162531852  -1.53321409907  -0.134255419873  
3.02804517746  1.53751460732  -1.75452420936  1.98497258272  -2.56537440967  -1.533052866  -0.133779159622  
3.03615498543  1.53596129177  -1.75989464159  1.98523385032  -2.55925150083  -1.5328949345  -0.133312651764  
3.04424405098  1.53444044842  -1.76515280442  1.9854896561  -2.55325659198  -1.53274030458  -0.132855896297  
3.05232906342  1.53295207729  -1.77029869784  1.98574000005  -2.54738968314  -1.53258897623  -0.132408893222  
3.06042814255  1.53149617836  -1.77533232186  1.98598488218  -2.54165077429  -1.53244094945  -0.131971642539  
3.06861400604  1.53007275165  -1.78025367648  1.98622430248  -2.53603986545  -1.53229622424  -0.131544144248  
3.07658314705  1.52868179715  -1.78506276169  1.98645826096  -2.5305569566  -1.53215480061  -0.131126398348  
3.08463215828  1.52732331487  -1.7897595775  1.98668675762  -2.52520204775  -1.53201667855  -0.13071840484  
3.09276413918  1.52599730479  -1.7943441239  1.98690979245  -2.51997513891  -1.53188185807  -0.130320163724  
3.10080599785  1.52470376692  -1.79881640091  1.98712736545  -2.51487623006  -1.53175033915  -0.129931675  
3.10888409615  1.52344270127  -1.8031764085  1.98733947664  -2.50990532122  -1.53162212181  -0.129552938667  
3.11695098877  1.52221410783  -1.8074241467  1.98754612599  -2.50506241237  -1.53149720605  -0.129183954727  
3.12502217293  1.5210179866  -1.81155961549  1.98774731353  -2.50034750353  -1.53137559185  -0.128824723178  
3.13309502602  1.51985433758  -1.81558281487  1.98794303924  -2.49576059468  -1.53125727923  -0.128475244021  
3.14123010635  1.51872316077  -1.81949374485  1.98813330312  -2.49130168584  -1.53114226819  -0.128135517255  
3.1493461132  1.51762445618  -1.82329240543  1.98831810518  -2.48697077699  -1.53103055871  -0.127805542882  
3.15748906136  1.51655822379  -1.82697879661  1.98849744542  -2.48276786814  -1.53092215081  -0.1274853209  
3.16568398476  1.51552446362  -1.83055291838  1.98867132383  -2.4786929593  -1.53081704449  -0.12717485131  
3.17371201515  1.51452317566  -1.83401477075  1.98883974042  -2.47474605045  -1.53071523973  -0.126874134111  
3.18178796768  1.51355435991  -1.83736435371  1.98900269518  -2.47092714161  -1.53061673655  -0.126583169305  
3.1898291111  1.51261801637  -1.84060166727  1.98916018812  -2.46723623276  -1.53052153494  -0.12630195689  
3.19792604446  1.51171414504  -1.84372671142  1.98931221923  -2.46367332392  -1.53042963491  -0.126030496867  
3.20601916313  1.51084274593  -1.84673948618  1.98945878852  -2.46023841507  -1.53034103645  -0.125768789236  
3.21415400505  1.51000381903  -1.84963999152  1.98959989598  -2.45693150622  -1.53025573956  -0.125516833997  
3.22220301628  1.50919736433  -1.85242822747  1.98973554162  -2.45375259738  -1.53017374425  -0.125274631149  
3.23029899597  1.50842338185  -1.85510419401  1.98986572544  -2.45070168853  -1.53009505051  -0.125042180693  
3.23837614059  1.50768187159  -1.85766789114  1.98999044743  -2.44777877969  -1.53001965834  -0.124819482629  
3.24642419815  1.50697283353  -1.86011931888  1.9901097076  -2.44498387084  -1.52994756774  -0.124606536957  
3.2547121048  1.50565217405  -1.86468536613  1.99033184246  -2.43977805315  -1.52981329127  -0.124209902788  
3.2626349926  1.50504055263  -1.86679998565  1.99043471715  -2.43736714431  -1.5297511054  -0.124026214291  
3.2707490921  1.50446140342  -1.86880233577  1.99053213002  -2.43508423546  -1.5296922211  -0.123852278186  
3.27875709534  1.50391472642  -1.87069241648  1.99062408107  -2.43292932661  -1.52963663837  -0.123688094472  
3.2867770195  1.50340052163  -1.87247022779  1.99071057029  -2.43090241777  -1.52958435721  -0.123533663151  
3.29479908943  1.50291878905  -1.8741357697  1.99079159768  -2.42900350892  -1.52953537763  -0.123388984221  
3.30283117294  1.50246952869  -1.8756890422  1.99086716326  -2.42723260008  -1.52948969962  -0.123254057683  
3.31092309952  1.50205274053  -1.8771300453  1.990937267  -2.42558969123  -1.52944732318  -0.123128883537  
3.31899809837  1.50166842459  -1.878458779  1.99100190893  -2.42407478239  -1.52940824832  -0.123013461782  
3.32714414597  1.50131658086  -1.87967524329  1.99106108902  -2.42268787354  -1.52937247503  -0.12290779242  
3.33519411087  1.50099720934  -1.88077943817  1.9911148073  -2.42142896469  -1.52934000331  -0.122811875449  
3.34326100349  1.50071031004  -1.88177136366  1.99116306375  -2.42029805585  -1.52931083317  -0.12272571087  
3.35134410858  1.50045588294  -1.88265101974  1.99120585837  -2.419295147  -1.5292849646  -0.122649298682  
3.35944008827  1.50023392806  -1.88341840641  1.99124319117  -2.41842023816  -1.5292623976  -0.122582638887  
3.36763310432  1.50004444539  -1.88407352368  1.99127506215  -2.41767332931  -1.52924313218  -0.122525731483  
3.37568902969  1.49988743493  -1.88461637155  1.9913014713  -2.41705442047  -1.52922716833  -0.122478576471  
3.38375306129  1.49976289668  -1.88504695002  1.99132241863  -2.41656351162  -1.52921450605  -0.122441173851  
3.39184498787  1.49967083064  -1.88536525908  1.99133790413  -2.41620060278  -1.52920514535  -0.122413523622  
3.39995908737  1.49961123681  -1.88557129873  1.99134792781  -2.41596569393  -1.52919908622  -0.122395625786  
3.40802812576  1.4995841152  -1.88566506899  1.99135248967  -2.41585878508  -1.52919632866  -0.122387480341  
3.41611814499  1.49958229065  -1.88567137718  1.99135279655  -2.41585159302  -1.52919614315  -0.122386932373  
3.42420101166  1.49958229065  -1.88567137718  1.99135279655  -2.41585159302  -1.52919614315  -0.122386932373  
3.43231296539  1.49958229065  -1.88567137718  1.99135279655  -2.41585159302  -1.52919614315  -0.122386932373  
3.44043302536  1.49958229065  -1.88567137718  1.99135279655  -2.41585159302  -1.52919614315  -0.122386932373  
3.4485039711  1.49951829065  -1.88567293937  1.99133950328  -2.41583559041  -1.52922499891  -0.122378488444  
3.45661401749  1.49932629065  -1.88567762594  1.99129962347  -2.41578758257  -1.5293115662  -0.122353156657  
3.46471810341  1.49900629065  -1.88568543689  1.99123315711  -2.41570756951  -1.529455845  -0.122310937013  
3.47280597687  1.49855829065  -1.88569637221  1.99114010422  -2.41559555123  -1.52965783533  -0.122251829511  
3.48091006279  1.49798229065  -1.88571043192  1.99102046477  -2.41545152773  -1.52991753718  -0.122175834151  
3.48892617226  1.49727829065  -1.885727616  1.99087423879  -2.41527549901  -1.53023495056  -0.122082950933  
3.49702596664  1.49644629065  -1.88574792447  1.99070142627  -2.41506746506  -1.53061007545  -0.121973179857  
3.5051240921  1.49548629065  -1.88577135731  1.9905020272  -2.41482742588  -1.53104291187  -0.121846520924  
3.51320719719  1.49439829065  -1.88579791453  1.99027604159  -2.41455538149  -1.53153345982  -0.121702974133  
3.52134108543  1.49318229065  -1.88582759613  1.99002346944  -2.41425133187  -1.53208171928  -0.121542539484  
3.52938914299  1.49183829065  -1.88586040211  1.98974431074  -2.41391527703  -1.53268769027  -0.121365216977  
3.53761410713  1.49036629065  -1.88589633247  1.9894385655  -2.41354721697  -1.53335137278  -0.121171006613  
3.5456430912  1.48876629065  -1.8859353872  1.98910623372  -2.41314715168  -1.53407276681  -0.120959908391  
3.55370211601  1.48703829065  -1.88597756632  1.9887473154  -2.41271508117  -1.53485187236  -0.120731922311  
3.56177806854  1.48518229065  -1.88602286981  1.98836181054  -2.41225100544  -1.53568868944  -0.120487048373  
3.569876194  1.48319829065  -1.88607129769  1.98794971913  -2.41175492449  -1.53658321804  -0.120225286577  
3.57799601555  1.48108629065  -1.88612284994  1.98751104118  -2.41122683831  -1.53753545817  -0.119946636924  
3.58609104156  1.47884629065  -1.88617752657  1.98704577669  -2.41066674691  -1.53854540981  -0.119651099413  
3.59416413307  1.47647829065  -1.88623532758  1.98655392566  -2.41007465028  -1.53961307298  -0.119338674044  
3.60222911835  1.47398229065  -1.88629625297  1.98603548808  -2.40945054844  -1.54073844767  -0.119009360817  
3.61037302017  1.47135829065  -1.88636030274  1.98549046396  -2.40879444137  -1.54192153388  -0.118663159733  
3.61845898628  1.46860629065  -1.88642747689  1.9849188533  -2.40810632907  -1.54316233162  -0.118300070791  
3.62672615051  1.46572629065  -1.88649777541  1.9843206561  -2.40738621156  -1.54446084088  -0.117920093991  
3.63468408585  1.46271829065  -1.88657119832  1.98369587235  -2.40663408882  -1.54581706166  -0.117523229333  
3.64277696609  1.45958229065  -1.8866477456  1.98304450206  -2.40584996086  -1.54723099396  -0.117109476817  
3.65092515945  1.45631829065  -1.88672741727  1.98236654523  -2.40503382767  -1.54870263779  -0.116678836444  
3.65897417068  1.45292629065  -1.88681021331  1.98166200186  -2.40418568927  -1.55023199314  -0.116231308213  
3.66710400581  1.44940629065  -1.88689613373  1.98093087194  -2.40330554564  -1.55181906001  -0.115766892124  
3.67519211769  1.44575829065  -1.88698517853  1.98017315548  -2.40239339678  -1.5534638384  -0.115285588177  
3.68337202072  1.44198229065  -1.88707734771  1.97938885248  -2.40144924271  -1.55516632832  -0.114787396373  
3.69157505035  1.43807829065  -1.88717264127  1.97857796294  -2.40047308341  -1.55692652976  -0.11427231671  
3.69966316223  1.43404629065  -1.8872710592  1.97774048686  -2.39946491889  -1.55874444272  -0.11374034919  
3.70775318146  1.42988629065  -1.88737260152  1.97687642423  -2.39842474914  -1.5606200672  -0.113191493812  
3.71580815315  1.42559829065  -1.88747726821  1.97598577506  -2.39735257418  -1.56255340321  -0.112625750577  
3.72385716438  1.42118229065  -1.88758505929  1.97506853935  -2.39624839399  -1.56454445074  -0.112043119483  
3.7319149971  1.41663829065  -1.88769597474  1.97412471709  -2.39511220857  -1.56659320979  -0.111443600532  
3.74017810822  1.41196629065  -1.88781001457  1.9731543083  -2.39394401794  -1.56869968037  -0.110827193723  
3.74819517136  1.40716629065  -1.88792717878  1.97215731296  -2.39274382208  -1.57086386246  -0.110193899057  
3.75635099411  1.40223829065  -1.88804746737  1.97113373108  -2.391511621  -1.57308575608  -0.109543716532  
3.76448917389  1.39718229065  -1.88817088034  1.97008356265  -2.39024741469  -1.57536536123  -0.10887664615  
3.77264809608  1.39199829065  -1.88829741769  1.96900680769  -2.38895120316  -1.57770267789  -0.10819268791  
3.78075313568  1.38668629065  -1.88842707941  1.96790346618  -2.38762298641  -1.58009770608  -0.107491841812  
3.78881001472  1.38124629065  -1.88855986552  1.96677353813  -2.38626276444  -1.58255044579  -0.106774107856  
3.79689407349  1.37567829065  -1.888695776  1.96561702353  -2.38487053724  -1.58506089702  -0.106039486043  
3.80499219894  1.36998229065  -1.88883481087  1.9644339224  -2.38344630482  -1.58762905978  -0.105287976372  
3.81317305565  1.36415829065  -1.88897697011  1.96322423472  -2.38199006718  -1.59025493406  -0.104519578843  
3.8211979866  1.35820629065  -1.88912225373  1.9619879605  -2.38050182431  -1.59293851986  -0.103734293456  
3.82932400703  1.35212629065  -1.88927066173  1.96072509974  -2.37898157623  -1.59567981718  -0.102932120212  
3.837444067  1.34591829065  -1.88942219411  1.95943565243  -2.37742932292  -1.59847882603  -0.102113059109  
3.84569001198  1.33958229065  -1.88957685087  1.95811961858  -2.37584506438  -1.6013355464  -0.101277110149  
3.85365104675  1.33311829065  -1.889734632  1.95677699819  -2.37422880062  -1.60424997829  -0.100424273332  
3.8618221283  1.32652629065  -1.88989553752  1.95540779126  -2.37258053164  -1.6072221217  -0.0995545486559  
3.86983299255  1.31980629065  -1.89005956742  1.95401199778  -2.37090025744  -1.61025197664  -0.0986679361225  
3.87793111801  1.31295829065  -1.89022672169  1.95258961777  -2.36918797802  -1.6133395431  -0.0977644357314  
3.8859910965  1.30598229065  -1.89039700034  1.95114065121  -2.36744369337  -1.61648482108  -0.0968440474824  
3.89410614967  1.29887829065  -1.89057040337  1.94966509811  -2.3656674035  -1.61968781058  -0.0959067713757  
3.90218710899  1.29164629065  -1.89074693078  1.94816295846  -2.3638591084  -1.62294851161  -0.0949526074112  
3.91034007072  1.28428629065  -1.89092658257  1.94663423228  -2.36201880809  -1.62626692416  -0.0939815555889  
3.91847801208  1.27679829065  -1.89110935874  1.94507891955  -2.36014650254  -1.62964304823  -0.0929936159088  
3.92677211761  1.26143829065  -1.89148428422  1.94188853446  -2.3563058758  -1.63656843094  -0.0909670729754  
3.93478703499  1.25363361095  -1.89167479029  1.94026744503  -2.35435438741  -1.64008733679  -0.0899373517191  
3.94280004501  1.24594726653  -1.89186240789  1.9386709347  -2.35243248767  -1.64355288866  -0.0889232431921  
3.95085000992  1.2383889221  -1.89204690111  1.93710101092  -2.35054259315  -1.64696072902  -0.0879260225228  
3.95901918411  1.23095857768  -1.89222826995  1.93555767367  -2.34868470386  -1.65031085785  -0.0869456897113  
3.96702814102  1.22365623326  -1.89240651441  1.93404092298  -2.34685881979  -1.65360327515  -0.0859822447576  
3.97507715225  1.21648188883  -1.89258163449  1.93255075882  -2.34506494094  -1.65683798093  -0.0850356876617  
3.98315906525  1.20943554441  -1.8927536302  1.93108718121  -2.34330306732  -1.6600149752  -0.0841060184236  
3.9913520813  1.20251719999  -1.89292250152  1.92965019013  -2.34157319892  -1.66313425793  -0.0831932370432  
3.99945616722  1.19572685556  -1.89308824847  1.9282397856  -2.33987533574  -1.66619582915  -0.0822973435206  
4.00766706467  1.18906451114  -1.89325087104  1.92685596762  -2.33820947778  -1.66919968884  -0.0814183378558  
4.01578712463  1.18253016672  -1.89341036923  1.92549873617  -2.33657562505  -1.67214583701  -0.0805562200488  
4.02384901047  1.17612382229  -1.89356674304  1.92416809127  -2.33497377754  -1.67503427366  -0.0797109900995  
4.03188514709  1.16984547787  -1.89371999247  1.92286403291  -2.33340393525  -1.67786499879  -0.0788826480081  
4.04000401497  1.16369513345  -1.89387011752  1.92158656109  -2.33186609819  -1.68063801239  -0.0780711937744  
4.0480401516  1.15767278902  -1.89401711819  1.92033567582  -2.33036026634  -1.68335331447  -0.0772766273985  
4.05612111092  1.1517784446  -1.89416099449  1.91911137708  -2.32888643973  -1.68601090503  -0.0764989488803  
4.0642080307  1.14601210018  -1.8943017464  1.91791366489  -2.32744461833  -1.68861078406  -0.07573815822  
4.07229399681  1.14037375575  -1.89443937394  1.91674253925  -2.32603480216  -1.69115295158  -0.0749942554174  
4.08040118217  1.13486341133  -1.89457387709  1.91559800014  -2.32465699121  -1.69363740757  -0.0742672404726  
4.08866715431  1.12948106691  -1.89470525587  1.91448004758  -2.32331118548  -1.69606415203  -0.0735571133856  
4.09659218788  1.12422672248  -1.89483351027  1.91338868156  -2.32199738498  -1.69843318498  -0.0728638741563  
4.10467505455  1.11910037806  -1.89495864029  1.91232390208  -2.3207155897  -1.7007445064  -0.0721875227849  
4.11279416084  1.11410203364  -1.89508064593  1.91128570914  -2.31946579964  -1.7029981163  -0.0715280592712  
4.12084007263  1.10923168921  -1.8951995272  1.91027410275  -2.3182480148  -1.70519401468  -0.0708854836153  
4.12896108627  1.10448934479  -1.89531528408  1.9092890829  -2.31706223519  -1.70733220153  -0.0702597958172  
4.13704609871  1.09987500037  -1.89542791658  1.90833064959  -2.3159084608  -1.70941267686  -0.0696509958768  
4.14514303207  1.09538865594  -1.89553742471  1.90739880282  -2.31478669163  -1.71143544067  -0.0690590837943  
4.15330815315  1.09103031152  -1.89564380846  1.9064935426  -2.31369692769  -1.71340049296  -0.0684840595695  
4.16134405136  1.0867999671  -1.89574706782  1.90561486891  -2.31263916897  -1.71530783372  -0.0679259232025  
4.1694881916  1.08269762267  -1.89584720281  1.90476278177  -2.31161341547  -1.71715746296  -0.0673846746932  
4.17748618126  1.07872327825  -1.89594421342  1.90393728118  -2.3106196672  -1.71894938068  -0.0668603140418  
4.18570303917  1.07487693383  -1.89603809965  1.90313836712  -2.30965792414  -1.72068358688  -0.0663528412481  
4.1936981678  1.0711585894  -1.8961288615  1.90236603961  -2.30872818632  -1.72236008155  -0.0658622563122  
4.20185804367  1.06756824498  -1.89621649898  1.90162029864  -2.30783045371  -1.7239788647  -0.0653885592341  
4.20990514755  1.06410590056  -1.89630101207  1.90090114421  -2.30696472633  -1.72553993633  -0.0649317500138  
4.2179980278  1.06077155613  -1.89638240079  1.90020857633  -2.30613100417  -1.72704329644  -0.0644918286512  
4.22607898712  1.05756521171  -1.89646066512  1.89954259498  -2.30532928723  -1.72848894502  -0.0640687951465  
4.23421311378  1.05448686729  -1.89653580508  1.89890320018  -2.30455957551  -1.72987688208  -0.0636626494995  
4.24223709106  1.05153652286  -1.89660782066  1.89829039193  -2.30382186902  -1.73120710762  -0.0632733917102  
4.2503221035  1.04871417844  -1.89667671186  1.89770417021  -2.30311616775  -1.73247962163  -0.0629010217788  
4.25839209557  1.04601983402  -1.89674247868  1.89714453504  -2.30244247171  -1.73369442412  -0.0625455397051  
4.26661515236  1.04345348959  -1.89680512112  1.89661148641  -2.30180078089  -1.73485151509  -0.0622069454893  
4.27461099625  1.04101514517  -1.89686463918  1.89610502432  -2.30119109529  -1.73595089454  -0.0618852391312  
4.28269505501  1.03870480075  -1.89692103286  1.89562514877  -2.30061341491  -1.73699256247  -0.0615804206308  
4.2908680439  1.03652245632  -1.89697430217  1.89517185977  -2.30006773975  -1.73797651887  -0.0612924899883  
4.29887008667  1.0344681119  -1.89702444709  1.89474515731  -2.29955406982  -1.73890276375  -0.0610214472035  
4.30696702003  1.03254176748  -1.89707146764  1.89434504139  -2.29907240511  -1.73977129711  -0.0607672922765  
4.31505012512  1.03074342305  -1.89711536381  1.89397151201  -2.29862274563  -1.74058211894  -0.0605300252073  
4.32314419746  1.02907307863  -1.8971561356  1.89362456918  -2.29820509137  -1.74133522925  -0.0603096459959  
4.33123517036  1.02753073421  -1.89719378301  1.89330421288  -2.29781944233  -1.74203062804  -0.0601061546422  
4.33939313889  1.02611638978  -1.89722830604  1.89301044313  -2.29746579851  -1.74266831531  -0.0599195511464  
4.3476600647  1.02483004536  -1.89725970469  1.89274325993  -2.29714415992  -1.74324829105  -0.0597498355083  
4.35568118095  1.02367170094  -1.89728797896  1.89250266326  -2.29685452655  -1.74377055527  -0.059597007728  
4.36383318901  1.02264135651  -1.89731312886  1.89228865314  -2.2965968984  -1.74423510797  -0.0594610678054  
4.37184810638  1.02173901209  -1.89733515437  1.89210122956  -2.29637127547  -1.74464194915  -0.0593420157407  
4.37994718552  1.02096466767  -1.89735405551  1.89194039252  -2.29617765777  -1.7449910788  -0.0592398515337  
4.38804507256  1.02031832324  -1.89736983226  1.89180614203  -2.29601604529  -1.74528249694  -0.0591545751845  
4.39620614052  1.01979997882  -1.89738248464  1.89169847807  -2.29588643803  -1.74551620354  -0.0590861866931  
4.40429997444  1.0194096344  -1.89739201264  1.89161740066  -2.295788836  -1.74569219863  -0.0590346860594  
4.41240596771  1.01914728997  -1.89739841626  1.89156290979  -2.29572323919  -1.74581048219  -0.0590000732836  
4.42062497139  1.01901294555  -1.8974016955  1.89153500547  -2.2956896476  -1.74587105423  -0.0589823483655  
4.43080711365  1.0189936161  -1.89740216732  1.8915309906  -2.29568481445  -1.74587976933  -0.0589797981083  
4.4388320446  1.0189936161  -1.89740216732  1.8915309906  -2.29568481445  -1.74587976933  -0.0589797981083  
4.4467921257  1.0189936161  -1.89740216732  1.8915309906  -2.29568481445  -1.74587976933  -0.0589797981083  
4.45485401154  1.01899591641  -1.89733816732  1.89147901906  -2.29570021757  -1.74588251986  -0.0589658913262  
4.46291899681  1.01900281732  -1.89714616732  1.89132310442  -2.2957464269  -1.74589077148  -0.0589241709799  
4.47097706795  1.01901431884  -1.89682616732  1.8910632467  -2.29582344246  -1.74590452418  -0.0588546370694  
4.47906517982  1.01903042096  -1.89637816732  1.89069944588  -2.29593126425  -1.74592377796  -0.0587572895947  
4.48715019226  1.01905112369  -1.89580216732  1.89023170198  -2.29606989225  -1.74594853282  -0.0586321285558  
4.495262146  1.01907642703  -1.89509816732  1.88966001499  -2.29623932649  -1.74597878875  -0.0584791539527  
4.50338196754  1.01910633098  -1.89426616732  1.88898438491  -2.29643956694  -1.74601454577  -0.0582983657854  
4.51173210144  1.01914083553  -1.89330616732  1.88820481174  -2.29667061362  -1.74605580386  -0.0580897640539  
4.51970696449  1.01917994069  -1.89221816732  1.88732129547  -2.29693246653  -1.74610256303  -0.0578533487582  
4.52776503563  1.01922364646  -1.89100216732  1.88633383612  -2.29722512566  -1.74615482328  -0.0575891198982  
4.53582906723  1.01927195283  -1.88965816732  1.88524243368  -2.29754859101  -1.74621258462  -0.0572970774741  
4.54393696785  1.01932485982  -1.88818616732  1.88404708815  -2.29790286258  -1.74627584703  -0.0569772214858  
4.55197310448  1.01938236741  -1.88658616732  1.88274779954  -2.29828794038  -1.74634461052  -0.0566295519333  
4.56001615524  1.0194444756  -1.88485816732  1.88134456783  -2.29870382441  -1.74641887509  -0.0562540688166  
4.56808614731  1.0195111844  -1.88300216732  1.87983739303  -2.29915051466  -1.74649864073  -0.0558507721356  
4.57618403435  1.01958249382  -1.88101816732  1.87822627514  -2.29962801113  -1.74658390746  -0.0554196618905  
4.58426618576  1.01965840383  -1.87890616732  1.87651121416  -2.30013631383  -1.74667467527  -0.0549607380812  
4.59238910675  1.01973891446  -1.87666616732  1.8746922101  -2.30067542275  -1.74677094415  -0.0544740007076  
4.60053896904  1.01982402569  -1.87429816732  1.87276926294  -2.30124533789  -1.74687271412  -0.0539594497699  
4.6086139679  1.01991373753  -1.87180216732  1.8707423727  -2.30184605926  -1.74697998516  -0.053417085268  
4.61669802666  1.02000804997  -1.86917816732  1.86861153936  -2.30247758685  -1.74709275729  -0.0528469072018  
4.6247689724  1.02010696303  -1.86642616732  1.86637676294  -2.30313992067  -1.74721103049  -0.0522489155715  
4.63285517693  1.02021047669  -1.86354616732  1.86403804342  -2.30383306071  -1.74733480477  -0.0516231103769  
4.64095115662  1.02031859095  -1.86053816732  1.86159538082  -2.30455700698  -1.74746408013  -0.0509694916182  
4.64897799492  1.02043130583  -1.85740216732  1.85904877512  -2.30531175947  -1.74759885657  -0.0502880592952  
4.65710020065  1.02054862131  -1.85413816732  1.85639822634  -2.30609731818  -1.74773913409  -0.0495788134081  
4.66516709328  1.0206705374  -1.85074616732  1.85364373447  -2.30691368312  -1.74788491269  -0.0488417539567  
4.67325305939  1.02079705409  -1.84722616732  1.85078529951  -2.30776085428  -1.74803619237  -0.0480768809412  
4.68138003349  1.0209281714  -1.84357816732  1.84782292146  -2.30863883166  -1.74819297312  -0.0472841943614  
4.68951201439  1.02106388931  -1.83980216732  1.84475660031  -2.30954761527  -1.74835525496  -0.0464636942175  
4.697712183  1.02120420782  -1.83589816732  1.84158633608  -2.3104872051  -1.74852303788  -0.0456153805093  
4.70577001572  1.02134912695  -1.83186616732  1.83831212876  -2.31145760116  -1.74869632187  -0.044739253237  
4.71379899979  1.02149864668  -1.82770616732  1.83493397835  -2.31245880344  -1.74887510694  -0.0438353124004  
4.72188615799  1.02165276702  -1.82341816732  1.83145188486  -2.31349081195  -1.7490593931  -0.0429035579996  
4.72995114326  1.02181148796  -1.81900216732  1.82786584827  -2.31455362668  -1.74924918033  -0.0419439900347  
4.73808717728  1.02197480952  -1.81445816732  1.82417586859  -2.31564724763  -1.74944446864  -0.0409566085055  
4.74617099762  1.02214273168  -1.80978616732  1.82038194582  -2.31677167481  -1.74964525803  -0.0399414134121  
4.75426197052  1.02231525444  -1.80498616732  1.81648407996  -2.31792690821  -1.7498515485  -0.0388984047546  
4.76254606247  1.02249237782  -1.80005816732  1.81248227102  -2.31911294783  -1.75006334005  -0.0378275825328  
4.77057600021  1.0226741018  -1.79500216732  1.80837651898  -2.32032979368  -1.75028063268  -0.0367289467468  
4.77856612206  1.02286042639  -1.78981816732  1.80416682386  -2.32157744576  -1.75050342639  -0.0356024973966  
4.78668904305  1.02305135158  -1.78450616732  1.79985318564  -2.32285590405  -1.75073172117  -0.0344482344823  
4.79479503632  1.02324687738  -1.77906616732  1.79543560433  -2.32416516858  -1.75096551704  -0.0332661580037  
4.80280399323  1.02344700379  -1.77349816732  1.79091407994  -2.32550523932  -1.75120481398  -0.0320562679609  
4.81089019775  1.02365173081  -1.76780216732  1.78628861246  -2.32687611629  -1.75144961201  -0.0308185643539  
4.8189740181  1.02386105843  -1.76197816732  1.78155920188  -2.32827779949  -1.75169991111  -0.0295530471827  
4.82715702057  1.02407498666  -1.75602616732  1.77672584822  -2.3297102889  -1.75195571129  -0.0282597164473  
4.83516407013  1.0242935155  -1.74994616732  1.77178855147  -2.33117358455  -1.75221701255  -0.0269385721477  
4.8432841301  1.02451664495  -1.74373816732  1.76674731163  -2.33266768641  -1.75248381489  -0.025589614284  
4.85137200356  1.024744375  -1.73740216732  1.76160212869  -2.3341925945  -1.75275611831  -0.024212842856  
4.85962510109  1.02497670566  -1.73093816732  1.75635300267  -2.33574830881  -1.75303392281  -0.0228082578638  
4.86761498451  1.02521363693  -1.72434616732  1.75099993356  -2.33733482935  -1.75331722839  -0.0213758593074  
4.87566900253  1.0254551688  -1.71762616732  1.74554292136  -2.33895215611  -1.75360603505  -0.0199156471868  
4.88378214836  1.0257012517  -1.71077954683  1.73998308631  -2.34059995709  -1.7539002835  -0.01842792126  
4.89185905457  1.02594642896  -1.70395812328  1.73444371257  -2.34224169382  -1.75419344905  -0.0169456704653  
4.89989304543  1.02618700562  -1.69726469974  1.72900828193  -2.34385262433  -1.75448111353  -0.0154912332348  
4.90803909302  1.02642298167  -1.69069927619  1.72367679437  -2.34543274862  -1.75476327693  -0.0140646095685  
4.91603899002  1.02665435711  -1.68426185265  1.7184492499  -2.34698206668  -1.75503993925  -0.0126657994664  
4.92412018776  1.02688113194  -1.6779524291  1.71332564852  -2.34850057852  -1.75531110048  -0.0112948029285  
4.93221497536  1.02710330617  -1.67177100556  1.70830599024  -2.34998828413  -1.75557676064  -0.00995161995481  
4.94041109085  1.02732087979  -1.66571758201  1.70339027504  -2.35144518353  -1.75583691972  -0.00863625054532  
4.94842004776  1.02753385281  -1.65979215847  1.69857850293  -2.35287127669  -1.75609157773  -0.00734869470004  
4.95652198792  1.02774222521  -1.65399473492  1.69387067391  -2.35426656363  -1.75634073465  -0.00608895241895  
4.964605093  1.02794599701  -1.64832531138  1.68926678798  -2.35563104435  -1.75658439049  -0.00485702370207  
4.97265315056  1.0281451682  -1.64278388783  1.68476684514  -2.35696471884  -1.75682254525  -0.00365290854939  
4.98077297211  1.02833973879  -1.63737046429  1.68037084538  -2.35826758711  -1.75705519894  -0.00247660696091  
4.98887515068  1.02852970877  -1.63208504074  1.67607878872  -2.35953964916  -1.75728235154  -0.00132811893664  
4.99693608284  1.02871507814  -1.6269276172  1.67189067515  -2.36078090498  -1.75750400307  -0.000207444476561  
5.00494599342  1.0288958469  -1.62189819365  1.66780650467  -2.36199135458  -1.75772015352  0.000885416419312  
5.01306319237  1.02907201506  -1.61699677011  1.66382627727  -2.36317099795  -1.75793080288  0.00195046375098  
5.02119708061  1.02924358261  -1.61222334656  1.65994999297  -2.3643198351  -1.75813595117  0.00298769751845  
5.02921819687  1.02941054955  -1.60757792302  1.65617765175  -2.36543786603  -1.75833559838  0.00399711772172  
5.03730511665  1.02957291588  -1.60306049947  1.65250925363  -2.36652509073  -1.75852974451  0.00497872436078  
5.04539608955  1.02973068161  -1.59867107592  1.64894479859  -2.36758150921  -1.75871838956  0.00593251743565  
5.0536429882  1.02988384673  -1.59440965238  1.64548428665  -2.36860712146  -1.75890153354  0.00685849694631  
5.06162309647  1.03003241125  -1.59027622883  1.64212771779  -2.36960192749  -1.75907917643  0.00775666289277  
5.06968212128  1.03017637515  -1.58627080529  1.63887509203  -2.3705659273  -1.75925131824  0.00862701527503  
5.07769298553  1.03031573845  -1.58239338174  1.63572640935  -2.37149912088  -1.75941795898  0.00946955409308  
5.08585500717  1.03045050115  -1.5786439582  1.63268166976  -2.37240150824  -1.75957909863  0.0102842793469  
5.09390306473  1.03058066323  -1.57502253465  1.62974087326  -2.37327308937  -1.75973473721  0.0110711910366  
5.10202908516  1.03070622471  -1.57152911111  1.62690401985  -2.37411386428  -1.7598848747  0.011830289162  
5.11009311676  1.03082718558  -1.56816368756  1.62417110954  -2.37492383296  -1.76002951112  0.0125615737233  
5.11818099022  1.03094354585  -1.56492626402  1.62154214231  -2.37570299543  -1.76016864646  0.0132650447203  
5.12637615204  1.0310553055  -1.56181684047  1.61901711817  -2.37645135166  -1.76030228072  0.0139407021532  
5.13443112373  1.03116246455  -1.55883541693  1.61659603712  -2.37716890168  -1.7604304139  0.0145885460218  
5.14252614975  1.031265023  -1.55598199338  1.61427889915  -2.37785564546  -1.760553046  0.0152085763263  
5.15062117577  1.03145633806  -1.55065914629  1.6099564525  -2.37913671437  -1.76078180696  0.0163651962425  
5.15874505043  1.03154509468  -1.54818972275  1.60795114381  -2.37973103949  -1.76088793582  0.0169017858544  
5.16678118706  1.0316292507  -1.5458482992  1.60604977821  -2.38029455838  -1.76098856361  0.017410561902  
5.17483901978  1.0317088061  -1.54363487566  1.60425235569  -2.38082727105  -1.76108369031  0.0178915243854  
5.18291497231  1.0317837609  -1.54154945211  1.60255887627  -2.38132917749  -1.76117331594  0.0183446733047  
5.19096899033  1.0318541151  -1.53959202857  1.60096933993  -2.38180027772  -1.76125744049  0.0187700086597  
5.19901299477  1.03191986868  -1.53776260502  1.59948374669  -2.38224057171  -1.76133606395  0.0191675304505  
5.20712518692  1.03198102166  -1.53606118148  1.59810209653  -2.38265005948  -1.76140918634  0.0195372386771  
5.21520113945  1.03203757403  -1.53448775793  1.59682438947  -2.38302874103  -1.76147680765  0.0198791333396  
5.22327518463  1.0320895258  -1.53304233439  1.59565062549  -2.38337661636  -1.76153892788  0.0201932144378  
5.23139214516  1.03213687695  -1.53172491084  1.59458080461  -2.38369368546  -1.76159554703  0.0204794819718  
5.23961400986  1.0321796275  -1.5305354873  1.59361492681  -2.38397994834  -1.7616466651  0.0207379359416  
5.24769306183  1.03221777745  -1.52947406375  1.5927529921  -2.38423540499  -1.76169228209  0.0209685763472  
5.25573611259  1.03225132678  -1.52854064021  1.59199500048  -2.38446005542  -1.76173239801  0.0211714031886  
5.26380705833  1.03228027551  -1.52773521666  1.59134095195  -2.38465389962  -1.76176701284  0.0213464164658  
5.27188396454  1.03230462363  -1.52705779312  1.59079084652  -2.3848169376  -1.76179612659  0.0214936161789  
5.27992010117  1.03232437115  -1.52650836957  1.59034468417  -2.38494916936  -1.76181973927  0.0216130023277  
5.28801417351  1.03233951805  -1.52608694603  1.59000246491  -2.38505059489  -1.76183785086  0.0217045749123  
5.2961139679  1.03235006436  -1.52579352248  1.58976418873  -2.3851212142  -1.76185046138  0.0217683339327  
5.3041601181  1.03235601005  -1.52562809893  1.58962985565  -2.38516102728  -1.76185757082  0.0218042793889  
5.31228017807  1.0323574543  -1.52558791637  1.58959722519  -2.38517069817  -1.76185929775  0.0218130107969  
5.32033610344  1.0323574543  -1.52558791637  1.58959722519  -2.38517069817  -1.76185929775  0.0218130107969  
5.32844114304  1.0323574543  -1.52558791637  1.58959722519  -2.38517069817  -1.76185929775  0.0218130107969  
5.33663010597  1.0323574543  -1.52558791637  1.58959722519  -2.38517069817  -1.76185929775  0.0218130107969  
5.34461712837  1.0324214543  -1.52555745054  1.58957945186  -2.38518199095  -1.76182515045  0.0217994594591  
5.35267400742  1.0326134543  -1.52546605304  1.58952613189  -2.38521586929  -1.76172270854  0.0217588054459  
5.36078715324  1.0329334543  -1.52531372388  1.58943726526  -2.3852723332  -1.76155197203  0.021691048757  
5.36889314651  1.0333814543  -1.52510046305  1.58931285197  -2.38535138267  -1.76131294091  0.0215961893927  
5.37702417374  1.0339574543  -1.52482627055  1.58915289204  -2.3854530177  -1.76100561519  0.0214742273528  
5.38507199287  1.0346614543  -1.52449114639  1.58895738546  -2.3855772383  -1.76062999487  0.0213251626375  
5.39315605164  1.0354934543  -1.52409509056  1.58872633222  -2.38572404445  -1.76018607994  0.0211489952465  
5.40121603012  1.0364534543  -1.52363810307  1.58845973233  -2.38589343618  -1.7596738704  0.0209457251801  
5.40931105614  1.0375414543  -1.52312018391  1.58815758579  -2.38608541346  -1.75909336626  0.0207153524382  
5.41742801666  1.0387574543  -1.52254133308  1.5878198926  -2.38629997631  -1.75844456752  0.0204578770207  
5.42567014694  1.0401014543  -1.52190155059  1.58744665275  -2.38653712472  -1.75772747417  0.0201732989277  
5.43360209465  1.0415734543  -1.52120083643  1.58703786626  -2.38679685869  -1.75694208622  0.0198616181591  
5.44167518616  1.0431734543  -1.52043919061  1.58659353311  -2.38707917822  -1.75608840366  0.0195228347151  
5.44976019859  1.0449014543  -1.51961661312  1.58611365331  -2.38738408332  -1.75516642649  0.0191569485955  
5.45792508125  1.0467574543  -1.51873310396  1.58559822686  -2.38771157398  -1.75417615473  0.0187639598004  
5.46591615677  1.0487414543  -1.51778866314  1.58504725375  -2.38806165021  -1.75311758835  0.0183438683297  
5.47402906418  1.0508534543  -1.51678329066  1.584460734  -2.38843431199  -1.75199072738  0.0178966741836  
5.48211717606  1.0530934543  -1.5157169865  1.58383866759  -2.38882955934  -1.75079557179  0.0174223773619  
5.49020600319  1.0554614543  -1.51458975068  1.58318105453  -2.38924739225  -1.74953212161  0.0169209778647  
5.49836707115  1.0579574543  -1.5134015832  1.58248789482  -2.38968781073  -1.74820037682  0.016392475692  
5.50643396378  1.0605814543  -1.51215248405  1.58175918846  -2.39015081476  -1.74680033742  0.0158368708437  
5.51459813118  1.0633334543  -1.51084245323  1.58099493544  -2.39063640437  -1.74533200342  0.0152541633199  
5.52259612083  1.0662134543  -1.50947149075  1.58019513577  -2.39114457953  -1.74379537481  0.0146443531206  
5.53066897392  1.0692214543  -1.5080395966  1.57935978946  -2.39167534025  -1.7421904516  0.0140074402458  
5.53870296478  1.0723574543  -1.50654677079  1.57848889649  -2.39222868654  -1.74051723379  0.0133434246954  
5.54679512978  1.0756214543  -1.50499301331  1.57758245686  -2.39280461839  -1.73877572137  0.0126523064695  
5.5549030304  1.0790134543  -1.50337832416  1.57664047059  -2.39340313581  -1.73696591435  0.0119340855681  
5.56304001808  1.0825334543  -1.50170270335  1.57566293766  -2.39402423879  -1.73508781272  0.0111887619912  
5.57109308243  1.0861814543  -1.49996615087  1.57464985809  -2.39466792733  -1.73314141648  0.0104163357387  
5.57919001579  1.0899574543  -1.49816866673  1.57360123186  -2.39533420143  -1.73112672565  0.00961680681077  
5.58730006218  1.0938614543  -1.49631025092  1.57251705897  -2.39602306109  -1.7290437402  0.00879017520726  
5.59537410736  1.0978934543  -1.49439090345  1.57139733944  -2.39673450632  -1.72689246016  0.00793644092823  
5.60350298882  1.1020534543  -1.49241062431  1.57024207326  -2.39746853711  -1.7246728855  0.00705560397368  
5.6115231514  1.1063414543  -1.4903694135  1.56905126042  -2.39822515347  -1.72238501625  0.0061476643436  
5.61970210075  1.1107574543  -1.48826727103  1.56782490093  -2.39900435538  -1.72002885239  0.00521262203799  
5.62776613235  1.1153014543  -1.48610419689  1.56656299479  -2.39980614286  -1.71760439392  0.00425047705687  
5.63578510284  1.1199734543  -1.48388019108  1.565265542  -2.40063051591  -1.71511164085  0.00326122940021  
5.64385414124  1.1247734543  -1.48159525361  1.56393254255  -2.40147747451  -1.71255059317  0.00224487906803  
5.65194606781  1.1297014543  -1.47924938448  1.56256399646  -2.40234701868  -1.70992125089  0.00120142606033  
5.66012215614  1.1347574543  -1.47684258368  1.56115990371  -2.40323914841  -1.70722361401  0.000130870377104  
5.66813206673  1.1399414543  -1.47437485121  1.55972026431  -2.4041538637  -1.70445768252  -0.000966787981648  
5.6762239933  1.1452534543  -1.47184618707  1.55824507826  -2.40509116456  -1.70162345642  -0.00209154901593  
5.68440103531  1.1506934543  -1.46925659127  1.55673434555  -2.40605105098  -1.69872093572  -0.00324341272573  
5.69253015518  1.1562614543  -1.46660606381  1.5551880662  -2.40703352296  -1.69575012042  -0.00442237911105  
5.70064115524  1.1619574543  -1.46389460468  1.55360624019  -2.40803858051  -1.69271101051  -0.00562844817191  
5.70861315727  1.1677814543  -1.46112221388  1.55198886753  -2.40906622362  -1.689603606  -0.00686161990828  
5.71666097641  1.1737334543  -1.45828889142  1.55033594822  -2.41011645229  -1.68642790688  -0.00812189432018  
5.72476100922  1.1798134543  -1.45539463729  1.54864748225  -2.41118926652  -1.68318391316  -0.00940927140761  
5.73284697533  1.18601389518  -1.45244304985  1.54692556887  -2.41228333251  -1.67987565802  -0.0107221506041  
5.74092316628  1.19215968367  -1.44951747852  1.5452188329  -2.4133677551  -1.67659656274  -0.0120234577239  
5.74901103973  1.19817747216  -1.44665283885  1.54354764359  -2.41442959213  -1.67338576207  -0.0132976621681  
5.7570950985  1.20406726065  -1.44384913084  1.54191200092  -2.4154688436  -1.670243256  -0.0145447639368  
5.76521515846  1.20982904914  -1.44110635451  1.54031190491  -2.41648550951  -1.66716904454  -0.01576476303  
5.7733399868  1.21546283763  -1.43842450984  1.53874735555  -2.41747958985  -1.66416312768  -0.0169576594476  
5.78140211105  1.22096862612  -1.43580359683  1.53721835284  -2.41845108463  -1.66122550542  -0.0181234531897  
5.78959918022  1.22634641462  -1.43324361549  1.53572489679  -2.41939999385  -1.65835617777  -0.0192621442563  
5.79762005806  1.23159620311  -1.43074456582  1.53426698738  -2.4203263175  -1.65555514473  -0.0203737326474  
5.80571103096  1.2367179916  -1.42830644781  1.53284462463  -2.42123005559  -1.65282240629  -0.021458218363  
5.81377005577  1.24171178009  -1.42592926147  1.53145780853  -2.42211120812  -1.65015796245  -0.022515601403  
5.82192802429  1.24657756858  -1.42361300679  1.53010653908  -2.42296977508  -1.64756181322  -0.0235458817675  
5.82995820045  1.25131535707  -1.42135768378  1.52879081628  -2.42380575649  -1.6450339586  -0.0245490594565  
5.83807206154  1.25592514556  -1.41916329243  1.52751064014  -2.42461915233  -1.64257439858  -0.0255251344699  
5.8461561203  1.26040693406  -1.41702983276  1.52626601064  -2.4254099626  -1.64018313316  -0.0264741068078  
5.85424304008  1.26476072255  -1.41495730474  1.5250569278  -2.42617818732  -1.63786016235  -0.0273959764702  
5.8623611927  1.26898651104  -1.4129457084  1.52388339161  -2.42692382647  -1.63560548614  -0.0282907434571  
5.87054109573  1.27308429953  -1.41099504371  1.52274540207  -2.42764688006  -1.63341910454  -0.0291584077685  
5.87860703468  1.27705408802  -1.4091053107  1.52164295919  -2.42834734808  -1.63130101754  -0.0299989694043  
5.88661408424  1.28089587651  -1.40727650935  1.52057606295  -2.42902523055  -1.62925122515  -0.0308124283646  
5.89478802681  1.2881954535  -1.40380170165  1.51854891044  -2.43031323878  -1.62535652418  -0.0323580382586  
5.90279316902  1.29165324199  -1.4021556953  1.51758865416  -2.43092336456  -1.6235116156  -0.0330901891923  
5.9108979702  1.29498303048  -1.40057062061  1.51666394453  -2.43151090477  -1.62173500163  -0.0337952374505  
5.91892409325  1.29818481897  -1.39904647759  1.51577478156  -2.43207585942  -1.62002668226  -0.0344731830332  
5.9270169735  1.30125860746  -1.39758326624  1.51492116523  -2.43261822851  -1.61838665749  -0.0351240259404  
5.9351131916  1.30420439595  -1.39618098655  1.51410309556  -2.43313801203  -1.61681492733  -0.035747766172  
5.94325900078  1.30702218444  -1.39483963853  1.51332057254  -2.43363520999  -1.61531149178  -0.0363444037281  
5.95136404037  1.30971197294  -1.39355922217  1.51257359618  -2.43410982239  -1.61387635082  -0.0369139386087  
5.95968008041  1.31227376143  -1.39233973748  1.51186216646  -2.43456184922  -1.61250950448  -0.0374563708137  
5.96760106087  1.31470754992  -1.39118118445  1.5111862834  -2.43499129049  -1.61121095274  -0.0379717003433  
5.97576999664  1.31701333841  -1.3900835631  1.51054594698  -2.4353981462  -1.6099806956  -0.0384599271973  
5.98383498192  1.3191911269  -1.3890468734  1.50994115722  -2.43578241635  -1.60881873307  -0.0389210513758  
5.99187207222  1.32124091539  -1.38807111538  1.50937191412  -2.43614410093  -1.60772506514  -0.0393550728787  
6.00001502037  1.32316270388  -1.38715628901  1.50883821766  -2.43648319996  -1.60669969182  -0.0397619917061  
6.00808000565  1.32495649238  -1.38630239432  1.50834006785  -2.43679971341  -1.6057426131  -0.040141807858  
6.01617312431  1.32662228087  -1.38550943129  1.5078774647  -2.43709364131  -1.60485382899  -0.0404945213344  
6.0242869854  1.32816006936  -1.38477739993  1.5074504082  -2.43736498364  -1.60403333948  -0.0408201321353  
6.03236103058  1.32956985785  -1.38410630023  1.50705889835  -2.43761374041  -1.60328114457  -0.0411186402606  
6.04047298431  1.33085164634  -1.3834961322  1.50670293515  -2.43783991162  -1.60259724428  -0.0413900457104  
6.04869008064  1.33200543483  -1.38294689583  1.50638251861  -2.43804349726  -1.60198163858  -0.0416343484847  
6.05667710304  1.33303122332  -1.38245859113  1.50609764871  -2.43822449734  -1.60143432749  -0.0418515485834  
6.06475305557  1.33392901182  -1.3820312181  1.50584832547  -2.43838291186  -1.60095531101  -0.0420416460067  
6.07277297974  1.33469880031  -1.38166477673  1.50563454888  -2.43851874082  -1.60054458912  -0.0422046407544  
6.08079719543  1.3353405888  -1.38135926702  1.50545631894  -2.43863198421  -1.60020216185  -0.0423405328266  
6.08888196945  1.33585437729  -1.38111468899  1.50531363566  -2.43872264204  -1.59992802918  -0.0424493222232  
6.09700798988  1.33624016578  -1.38093104262  1.50520649902  -2.43879071431  -1.59972219111  -0.0425310089444  
6.10513615608  1.33649795427  -1.38080832791  1.50513490904  -2.43883620101  -1.59958464765  -0.04258559299  
6.11316514015  1.33662774276  -1.38074654487  1.50509886571  -2.43885910215  -1.59951539879  -0.04261307436  
6.12128710747  1.33664464951  -1.38073849678  1.50509417057  -2.43886208534  -1.59950637817  -0.0426166541874  
6.12943100929  1.33664464951  -1.38073849678  1.50509417057  -2.43886208534  -1.59950637817  -0.0426166541874  
6.13752317429  1.33664464951  -1.38073849678  1.50509417057  -2.43886208534  -1.59950637817  -0.0426166541874  
6.14565110207  1.33664464951  -1.38073849678  1.50509417057  -2.43886208534  -1.59950637817  -0.0426166541874  
6.15373897552  1.33666907715  -1.38080249678  1.50515352453  -2.43885515727  -1.59949078995  -0.0426253942749  
6.16180610657  1.33674236009  -1.38099449678  1.5053315864  -2.43883437304  -1.59944402529  -0.0426516145371  
6.16985297203  1.33686449833  -1.38131449678  1.50562835619  -2.43879973265  -1.59936608418  -0.0426953149741  
6.17794299126  1.33703549186  -1.38176249678  1.50604383389  -2.43875123612  -1.59925696663  -0.042756495586  
6.18601703644  1.33725534068  -1.38233849678  1.50657801951  -2.43868888343  -1.59911667263  -0.0428351563727  
6.19414019585  1.33752404479  -1.38304249678  1.50723091304  -2.43861267459  -1.59894520219  -0.0429312973342  
6.20227909088  1.3378416042  -1.38387449678  1.50800251449  -2.43852260959  -1.59874255531  -0.0430449184706  
6.21032309532  1.33820801891  -1.38483449678  1.50889282386  -2.43841868845  -1.59850873198  -0.0431760197818  
6.21845817566  1.3386232889  -1.38592249678  1.50990184114  -2.43830091115  -1.59824373221  -0.0433246012678  
6.22658514977  1.33908741419  -1.38713849678  1.51102956633  -2.43816927769  -1.59794755599  -0.0434906629286  
6.23471403122  1.33960039478  -1.38848249678  1.51227599944  -2.43802378809  -1.59762020334  -0.0436742047642  
6.24277210236  1.34016223066  -1.38995449678  1.51364114046  -2.43786444233  -1.59726167424  -0.0438752267747  
6.25082612038  1.34077292183  -1.39155449678  1.5151249894  -2.43769124042  -1.59687196869  -0.04409372896  
6.25885510445  1.3414324683  -1.39328249678  1.51672754626  -2.43750418235  -1.5964510867  -0.0443297113201  
6.26694607735  1.34214087006  -1.39513849678  1.51844881103  -2.43730326813  -1.59599902827  -0.044583173855  
6.2750120163  1.34289812711  -1.39712249678  1.52028878372  -2.43708849776  -1.59551579339  -0.0448541165647  
6.28319406509  1.34370423946  -1.39923449678  1.52224746432  -2.43685987124  -1.59500138207  -0.0451425394493  
6.29119420052  1.3445592071  -1.40147449678  1.52432485283  -2.43661738856  -1.59445579431  -0.0454484425087  
6.29930114746  1.34546303003  -1.40384249678  1.52652094926  -2.43636104973  -1.59387903011  -0.0457718257429  
6.30742502213  1.34641570826  -1.40633849678  1.52883575361  -2.43609085475  -1.59327108946  -0.046112689152  
6.31560397148  1.34741724178  -1.40896249678  1.53126926587  -2.43580680361  -1.59263197236  -0.0464710327358  
6.32361912727  1.3484676306  -1.41171449678  1.53382148605  -2.43550889632  -1.59196167882  -0.0468468564945  
6.33176898956  1.34956687471  -1.41459449678  1.53649241414  -2.43519713288  -1.59126020884  -0.047240160428  
6.3398141861  1.35071497411  -1.41760249678  1.53928205015  -2.43487151328  -1.59052756242  -0.0476509445364  
6.34787201881  1.35191192881  -1.42073849678  1.54219039407  -2.43453203754  -1.58976373955  -0.0480792088195  
6.35592198372  1.3531577388  -1.42400249678  1.54521744591  -2.43417870564  -1.58896874024  -0.0485249532775  
6.36406612396  1.35445240409  -1.42739449678  1.54836320566  -2.43381151758  -1.58814256448  -0.0489881779103  
6.37214612961  1.35579592466  -1.43091449678  1.55162767333  -2.43343047338  -1.58728521229  -0.0494688827179  
6.38016915321  1.35718830054  -1.43456249678  1.55501084891  -2.43303557302  -1.58639668364  -0.0499670677004  
6.38828110695  1.3586295317  -1.43833849678  1.55851273241  -2.4326268165  -1.58547697856  -0.0504827328576  
6.39632797241  1.36011961816  -1.44224249678  1.56213332382  -2.43220420384  -1.58452609703  -0.0510158781897  
6.40446805954  1.36165855992  -1.44627449678  1.56587262315  -2.43176773502  -1.58354403905  -0.0515665036966  
6.41255497932  1.36324635697  -1.45043449678  1.5697306304  -2.43131741005  -1.58253080464  -0.0521346093784  
6.4207110405  1.36488300931  -1.45472249678  1.57370734556  -2.43085322892  -1.58148639378  -0.0527201952349  
6.42862606049  1.36656851694  -1.45913849678  1.57780276863  -2.43037519164  -1.58041080647  -0.0533232612663  
6.43681406975  1.36830287987  -1.46368249678  1.58201689962  -2.42988329821  -1.57930404273  -0.0539438074725  
6.4448029995  1.37008609809  -1.46835449678  1.58634973853  -2.42937754863  -1.57816610253  -0.0545818338535  
6.45292019844  1.37191817161  -1.47315449678  1.59080128535  -2.42885794289  -1.5769969859  -0.0552373404094  
6.46098518372  1.37379910042  -1.47808249678  1.59537154008  -2.428324481  -1.57579669282  -0.0559103271401  
6.4690990448  1.37572888452  -1.48313849678  1.60006050273  -2.42777716296  -1.5745652233  -0.0566007940455  
6.47723698616  1.37770752392  -1.48832249678  1.6048681733  -2.42721598876  -1.57330257733  -0.0573087411259  
6.48533415794  1.37973501861  -1.49363449678  1.60979455178  -2.42664095842  -1.57200875492  -0.058034168381  
6.49339699745  1.3818113686  -1.49907449678  1.61483963817  -2.42605207191  -1.57068375607  -0.058777075811  
6.50161314011  1.38393657388  -1.50464249678  1.62000343248  -2.42544932926  -1.56932758078  -0.0595374634158  
6.50970816612  1.38611063445  -1.51033849678  1.62528593471  -2.42483273045  -1.56794022904  -0.0603153311954  
6.51779103279  1.38833355032  -1.51616249678  1.63068714485  -2.42420227549  -1.56652170085  -0.0611106791498  
6.52590513229  1.39060532148  -1.52211449678  1.63620706291  -2.42355796438  -1.56507199623  -0.061923507279  
6.53393101692  1.39292594793  -1.52819449678  1.64184568888  -2.42289979711  -1.56359111515  -0.0627538155831  
6.54203605652  1.39529540393  -1.53440242932  1.64760296021  -2.42222778099  -1.56207907407  -0.0636015948496  
6.55015707016  1.39766264254  -1.54060455234  1.65335484375  -2.42155639377  -1.56056844799  -0.0644485807451  
6.55829000473  1.39998102586  -1.54667867536  1.65898801937  -2.42089886269  -1.55908899835  -0.0652780864657  
6.56634497643  1.40225055388  -1.55262479837  1.66450248708  -2.42025518777  -1.55764072516  -0.0660901120116  
6.57452607155  1.40447122661  -1.55844292139  1.66989824688  -2.419625369  -1.55622362841  -0.0668846573826  
6.58268809319  1.40664304404  -1.56413304441  1.67517529876  -2.41900940638  -1.5548377081  -0.0676617225788  
6.59082317352  1.41084011303  -1.57512929045  1.68537327878  -2.4178190496  -1.55215939682  -0.0691634124467  
6.59877800941  1.41286536459  -1.58043541346  1.69029420691  -2.41724465545  -1.55086700584  -0.0698880371184  
6.60686302185  1.41484176085  -1.58561353648  1.69509642713  -2.41668411744  -1.54960579131  -0.0705951816153  
6.61500000954  1.41676930181  -1.5906636595  1.69977993943  -2.41613743559  -1.54837575322  -0.0712848459374  
6.62309098244  1.41864798748  -1.59558578252  1.70434474382  -2.41560460989  -1.54717689157  -0.0719570300847  
6.63117814064  1.42047781786  -1.60037990553  1.7087908403  -2.41508564034  -1.54600920637  -0.0726117340571  
6.63924908638  1.42225879295  -1.60504602855  1.71311822886  -2.41458052695  -1.54487269761  -0.0732489578547  
6.64733505249  1.42399091274  -1.60958415157  1.7173269095  -2.41408926971  -1.5437673653  -0.0738687014775  
6.65540409088  1.42567417723  -1.61399427459  1.72141688223  -2.41361186862  -1.54269320943  -0.0744709649255  
6.66360497475  1.42730858644  -1.61827639761  1.72538814704  -2.41314832369  -1.54165023  -0.0750557481986  
6.67164516449  1.42889414035  -1.62243052062  1.72924070394  -2.41269863491  -1.54063842702  -0.0756230512969  
6.67967414856  1.43043083896  -1.62645664364  1.73297455292  -2.41226280228  -1.53965780048  -0.0761728742204  
6.68783903122  1.43191868228  -1.63035476666  1.73658969399  -2.4118408258  -1.53870835038  -0.0767052169691  
6.69589710236  1.43335767031  -1.63412488968  1.74008612714  -2.41143270548  -1.53779007673  -0.077220079543  
6.70399904251  1.43474780305  -1.63776701269  1.74346385238  -2.41103844131  -1.53690297952  -0.077717461942  
6.71206998825  1.43608908049  -1.64128113571  1.7467228697  -2.41065803329  -1.53604705875  -0.0781973641662  
6.72018313408  1.43738150263  -1.64466725873  1.74986317911  -2.41029148143  -1.53522231443  -0.0786597862156  
6.72828006744  1.43862506949  -1.64792538175  1.7528847806  -2.40993878572  -1.53442874655  -0.0791047280902  
6.73635697365  1.43981978105  -1.65105550477  1.75578767417  -2.40959994616  -1.53366635511  -0.0795321897899  
6.7443959713  1.44096563731  -1.65405762778  1.75857185984  -2.40927496276  -1.53293514012  -0.0799421713148  
6.75260901451  1.44206263828  -1.6569317508  1.76123733758  -2.4089638355  -1.53223510157  -0.0803346726649  
6.76058101654  1.44311078396  -1.65967787382  1.76378410741  -2.40866656441  -1.53156623947  -0.0807096938402  
6.76866197586  1.44411007434  -1.66229599684  1.76621216933  -2.40838314946  -1.53092855381  -0.0810672348406  
6.77672410011  1.44506050944  -1.66478611985  1.76852152333  -2.40811359067  -1.53032204459  -0.0814072956663  
6.78490114212  1.44596208923  -1.66714824287  1.77071216941  -2.40785788803  -1.52974671182  -0.0817298763171  
6.79289698601  1.44681481373  -1.66938236589  1.77278410758  -2.40761604154  -1.52920255549  -0.0820349767931  
6.80096006393  1.44761868294  -1.67148848891  1.77473733784  -2.40738805121  -1.5286895756  -0.0823225970942  
6.80905103683  1.44837369686  -1.67346661193  1.77657186018  -2.40717391703  -1.52820777216  -0.0825927372206  
6.81719303131  1.44907985548  -1.67531673494  1.7782876746  -2.406973639  -1.52775714516  -0.0828453971721  
6.82525897026  1.44973715881  -1.67703885796  1.77988478111  -2.40678721712  -1.5273376946  -0.0830805769488  
6.83340811729  1.45034560684  -1.67863298098  1.7813631797  -2.4066146514  -1.52694942049  -0.0832982765506  
6.84155011177  1.45090519958  -1.680099104  1.78272287038  -2.40645594183  -1.52659232282  -0.0834984959777  
6.84962296486  1.45141593703  -1.68143722701  1.78396385315  -2.40631108842  -1.5262664016  -0.0836812352299  
6.85763502121  1.45187781918  -1.68264735003  1.78508612799  -2.40618009115  -1.52597165682  -0.0838464943073  
6.86578917503  1.45229084604  -1.68372947305  1.78608969493  -2.40606295004  -1.52570808848  -0.0839942732099  
6.87383103371  1.45265501761  -1.68468359607  1.78697455394  -2.40595966509  -1.52547569659  -0.0841245719376  
6.8818860054  1.45297033388  -1.68550971909  1.78774070505  -2.40587023628  -1.52527448113  -0.0842373904906  
6.89001703262  1.45323679485  -1.6862078421  1.78838814823  -2.40579466363  -1.52510444213  -0.0843327288687  
6.89805912971  1.45345440054  -1.68677796512  1.78891688351  -2.40573294713  -1.52496557956  -0.084410587072  
6.90617203712  1.45362315093  -1.68722008814  1.78932691086  -2.40568508679  -1.52485789344  -0.0844709651004  
6.91433811188  1.45374304602  -1.68753421116  1.78961823031  -2.4056510826  -1.52478138377  -0.0845138629541  
6.92253613472  1.45381408583  -1.68772033417  1.78979084183  -2.40563093456  -1.52473605054  -0.0845392806329  
6.93061804771  1.45383632183  -1.68777859211  1.78984487057  -2.40562462807  -1.52472186089  -0.0845472365618  
6.93877100945  1.45383632183  -1.68777859211  1.78984487057  -2.40562462807  -1.52472186089  -0.0845472365618  
6.94675898552  1.45383632183  -1.68777859211  1.78984487057  -2.40562462807  -1.52472186089  -0.0845472365618  
6.95483803749  1.45383632183  -1.68777859211  1.78984487057  -2.40562462807  -1.52472186089  -0.0845472365618  
6.96293616295  1.45389434613  -1.68784259211  1.78990204223  -2.40561965176  -1.5246974185  -0.0845540277318  
6.97098898888  1.45406841904  -1.68803459211  1.79007355722  -2.40560472284  -1.52462409133  -0.0845744012418  
6.97908401489  1.45435854056  -1.68835459211  1.79035941553  -2.4055798413  -1.52450187939  -0.0846083570919  
6.98716616631  1.45476471069  -1.68880259211  1.79075961716  -2.40554500714  -1.52433078267  -0.084655895282  
6.99528312683  1.45528692942  -1.68937859211  1.79127416212  -2.40550022037  -1.52411080118  -0.0847170158121  
7.00352406502  1.45592519676  -1.69008259211  1.7919030504  -2.40544548099  -1.52384193491  -0.0847917186822  
7.01148104668  1.4566795127  -1.69091459211  1.79264628201  -2.40538078899  -1.52352418386  -0.0848800038923  
7.01948308945  1.45754987725  -1.69187459211  1.79350385694  -2.40530614437  -1.52315754804  -0.0849818714425  
7.02769207954  1.45853629041  -1.69296259211  1.79447577519  -2.40522154714  -1.52274202744  -0.0850973213327  
7.03572702408  1.45963875218  -1.69417859211  1.79556203677  -2.4051269973  -1.52227762206  -0.0852263535629  
7.04379701614  1.46085726255  -1.69552259211  1.79676264167  -2.40502249484  -1.5217643319  -0.0853689681332  
7.05185008049  1.46219182153  -1.69699459211  1.7980775899  -2.40490803976  -1.52120215697  -0.0855251650434  
7.05989408493  1.46364242912  -1.69859459211  1.79950688145  -2.40478363207  -1.52059109727  -0.0856949442937  
7.06797814369  1.46520908532  -1.70032259211  1.80105051633  -2.40464927176  -1.51993115278  -0.085878305884  
7.07604002953  1.46689179012  -1.70217859211  1.80270849453  -2.40450495884  -1.51922232352  -0.0860752498143  
7.0841460228  1.46869054353  -1.70416259211  1.80448081605  -2.4043506933  -1.51846460949  -0.0862857760847  
7.09223103523  1.47060534554  -1.70627459211  1.8063674809  -2.40418647514  -1.51765801067  -0.0865098846951  
7.10035204887  1.47263619616  -1.70851459211  1.80836848907  -2.40401230437  -1.51680252708  -0.0867475756455  
7.10840606689  1.47478309539  -1.71088259211  1.81048384057  -2.40382818099  -1.51589815872  -0.0869988489359  
7.11666202545  1.47704604323  -1.71337859211  1.81271353538  -2.40363410499  -1.51494490557  -0.0872637045664  
7.12464308739  1.47942503967  -1.71600259211  1.81505757353  -2.40343007637  -1.51394276765  -0.0875421425368  
7.13270902634  1.48192008472  -1.71875459211  1.817515955  -2.40321609514  -1.51289174496  -0.0878341628473  
7.14076018333  1.48453117838  -1.72163459211  1.82008867979  -2.4029921613  -1.51179183749  -0.0881397654978  
7.14884400368  1.48725832064  -1.72464259211  1.8227757479  -2.40275827483  -1.51064304524  -0.0884589504884  
7.15695500374  1.49010151152  -1.72777859211  1.82557715934  -2.40251443576  -1.50944536821  -0.0887917178189  
7.16501307487  1.49306075099  -1.73104259211  1.82849291411  -2.40226064406  -1.50819880641  -0.0891380674895  
7.17309617996  1.49613603908  -1.73443459211  1.8315230122  -2.40199689976  -1.50690335983  -0.0894979995001  
7.18123412132  1.49932737577  -1.73795459211  1.83466745361  -2.40172320283  -1.50555902848  -0.0898715138507  
7.18929004669  1.50263476107  -1.74160259211  1.83792623835  -2.40143955329  -1.50416581234  -0.0902586105414  
7.19739103317  1.50605819498  -1.74537859211  1.84129936641  -2.40114595114  -1.50272371144  -0.0906592895721  
7.20565319061  1.50959767749  -1.74928259211  1.84478683779  -2.40084239637  -1.50123272575  -0.0910735509428  
7.2136361599  1.51325320861  -1.75331459211  1.8483886525  -2.40052888899  -1.49969285529  -0.0915013946535  
7.221763134  1.51702478834  -1.75747459211  1.85210481053  -2.40020542899  -1.49810410005  -0.0919428207042  
7.22981905937  1.52091241667  -1.76176259211  1.85593531189  -2.39987201637  -1.49646646004  -0.092397829095  
7.23794007301  1.52491609361  -1.76617859211  1.85988015657  -2.39952865114  -1.49477993524  -0.0928664198258  
7.24598908424  1.52903581916  -1.77072259211  1.86393934458  -2.39917533329  -1.49304452568  -0.0933485928966  
7.25407600403  1.53327159332  -1.77539459211  1.86811287591  -2.39881206283  -1.49126023133  -0.0938443483074  
7.26215600967  1.53762341608  -1.78019459211  1.87240075056  -2.39843883975  -1.48942705221  -0.0943536860583  
7.27025508881  1.54209128745  -1.78512259211  1.87680296854  -2.39805566406  -1.48754498831  -0.0948766061492  
7.27832603455  1.54667520742  -1.79017859211  1.88131952984  -2.39766253575  -1.48561403964  -0.0954131085801  
7.28640198708  1.55137517601  -1.79536259211  1.88595043446  -2.39725945483  -1.48363420619  -0.095963193351  
7.2946369648  1.5561911932  -1.80067459211  1.89069568241  -2.39684642129  -1.48160548796  -0.096526860462  
7.30267000198  1.56112325899  -1.80611459211  1.89555527369  -2.39642343514  -1.47952788496  -0.0971041099129  
7.31081700325  1.57133553641  -1.81737859211  1.90561748621  -2.39554760498  -1.47522602462  -0.0982993558349  
7.31887817383  1.57661574803  -1.82320259211  1.91082010745  -2.39509476098  -1.47300176729  -0.098917352306  
7.32694411278  1.58200347233  -1.82914517711  1.91612866153  -2.39463269643  -1.47073222088  -0.0995479320718  
7.33498907089  1.58733678553  -1.83502774741  1.92138360406  -2.39417529831  -1.46848559483  -0.100172143557  
7.34309506416  1.59255405013  -1.84078231772  1.92652420326  -2.3937278528  -1.46628785355  -0.100782772703  
7.3511660099  1.59765526611  -1.84640888803  1.93155045913  -2.3932903599  -1.46413899705  -0.101379819508  
7.35928916931  1.60264043349  -1.85190745834  1.93646237169  -2.39286281963  -1.46203902532  -0.101963283973  
7.3673350811  1.60750955227  -1.85727802865  1.94125994092  -2.39244523197  -1.45998793837  -0.102533166099  
7.37542700768  1.61226262243  -1.86252059895  1.94594316682  -2.39203759692  -1.4579857362  -0.103089465884  
7.38358211517  1.61689964399  -1.86763516926  1.9505120494  -2.39163991449  -1.4560324188  -0.103632183329  
7.3916451931  1.62142061695  -1.87262173957  1.95496658866  -2.39125218467  -1.45412798618  -0.104161318435  
7.39974498749  1.62582554129  -1.87748030988  1.95930678459  -2.39087440747  -1.45227243834  -0.1046768712  
7.40786004066  1.63011441703  -1.88221088019  1.9635326372  -2.39050658289  -1.45046577528  -0.105178841625  
7.41595315933  1.63428724416  -1.8868134505  1.96764414648  -2.39014871092  -1.44870799699  -0.10566722971  
7.42391204834  1.63834402269  -1.8912880208  1.97164131244  -2.38980079156  -1.44699910347  -0.106142035455  
