Ethan-CYM/ros_catkin_ws/test/moveJ_正常操作/ur_joint_actual_current.txt
time  shoulder_pan_joint  shoulder_lift_joint  elbow_joint  wrist_1_joint  wrist_2_joint  wrist_3_joint
0.146172046661  -0.354206055403  -2.2530195713  -0.585112571716  -0.196730315685  -0.0960775911808  -0.0503263585269  
0.154180049896  -0.365415126085  -2.2575032711  -0.589596152306  -0.186055019498  -0.298908084631  -0.0457512363791  
0.162235021591  -0.3564478755  -2.24629426003  -0.573903501034  -0.18910510838  -0.117428168654  -0.048801317811  
0.170312166214  -0.372140556574  -2.25077772141  -0.582870721817  -0.190630152822  -0.196730315685  -0.0503263585269  
0.178400039673  -0.372140556574  -2.2530195713  -0.564936280251  -0.181479901075  -0.0396510697901  -0.0442261956632  
0.186482191086  -0.358689695597  -2.25077772141  -0.564936280251  -0.186055019498  -0.0732019767165  -0.0396510697901  
0.194574117661  -0.349722445011  -2.26198673248  -0.571661710739  -0.176904782653  -0.117428168654  -0.0396510697901  
0.202659130096  -0.378865987062  -2.22611784935  -0.576145291328  -0.160129323602  -0.163179412484  -0.0350759476423  
0.210748195648  -0.372140556574  -2.2552614212  -0.578387141228  -0.161654368043  0.0808271840215  -0.0320258662105  
0.218891143799  -0.360931485891  -2.27767944336  -0.589596152306  -0.15860427916  0.0945525541902  -0.0274507403374  
0.22696018219  -0.363173305988  -2.26422858238  -0.578387141228  -0.169279575348  0.0244006589055  -0.0244006589055  
0.235177993774  -0.365415126085  -2.24853587151  -0.571661710739  -0.135728672147  -0.0793021395802  -0.0183004941791  
0.243242025375  -0.354206055403  -2.2575032711  -0.605288863182  -0.150979071856  -0.0793021395802  -0.0122003294528  
0.25129199028  -0.349722445011  -2.259745121  -0.582870721817  -0.125053375959  -0.102177761495  -0.0122003294528  
0.259412050247  -0.36765691638  -2.24629426003  -0.567178070545  -0.135728672147  -0.102177761495  -0.00762520590797  
0.267506122589  -0.363173305988  -2.24629426003  -0.580628931522  -0.128103464842  -0.102177761495  -0.00305008236319  
0.275606155396  -0.365415126085  -2.24853587151  -0.571661710739  -0.0671018138528  -0.103702798486  0.0198255348951  
0.283652067184  -0.338513404131  -2.25077772141  -0.564936280251  -0.0366009883583  -0.0960775911808  0.215030804276  
0.291781187057  -0.358689695597  -2.259745121  -0.5940797925  -0.178429812193  -0.097602635622  0.187580063939  
0.299916982651  -0.354206055403  -2.24405241013  -0.571661710739  -0.146403953433  -0.102177761495  0.25163179636  
0.307981967926  -0.360931485891  -2.2530195713  -0.580628931522  -0.0183004941791  -0.103702798486  0.210455685854  
0.316056966782  -0.365415126085  -2.25077772141  -0.582870721817  -0.183004945517  -0.108277924359  0.0472762770951  
0.324182987213  -0.36765691638  -2.24629426003  -0.596321582794  -0.00915024708956  -0.106752879918  0.100652717054  
0.33220410347  -0.365415126085  -2.259745121  -0.587354362011  -0.228756174445  -0.105227842927  0.237906426191  
0.340286970139  -0.363173305988  -2.2552614212  -0.578387141228  -0.0869273468852  -0.106752879918  0.115903131664  
0.34837603569  -0.360931485891  -2.2530195713  -0.5940797925  0.0594766065478  -0.103702798486  0.172329649329  
0.356460094452  -0.342997014523  -2.25077772141  -0.585112571716  -0.175379738212  -0.106752879918  0.208930641413  
0.364557027817  -0.349722445011  -2.2552614212  -0.582870721817  -0.00457512354478  -0.103702798486  0.0442261956632  
0.372604131699  -0.358689695597  -2.26198673248  -0.562694430351  0.0854023098946  -0.102177761495  0.218080893159  
0.380729198456  -0.358689695597  -2.26871228218  -0.582870721817  -0.0366009883583  -0.108277924359  0.132678583264  
0.388840198517  -0.358689695597  -2.259745121  -0.562694430351  0.115903131664  -0.106752879918  0.155554205179  
0.396903038025  -0.347480624914  -2.259745121  -0.576145291328  -0.0762520581484  -0.105227842927  0.195205271244  
0.40500497818  -0.360931485891  -2.24629426003  -0.571661710739  0.0457512363791  -0.103702798486  0.22113096714  
0.413055181503  -0.3564478755  -2.2530195713  -0.587354362011  -0.0122003294528  -0.105227842927  0.362959802151  
0.421190977097  -0.365415126085  -2.2575032711  -0.598563432693  0.0137253701687  -0.103702798486  0.181479901075  
0.429220199585  -0.36765691638  -2.24629426003  -0.589596152306  0.122003294528  -0.108277924359  0.277557492256  
0.437301158905  -0.3564478755  -2.2530195713  -0.5940797925  -0.0625266879797  -0.105227842927  0.224181056023  
0.44539809227  -0.349722445011  -2.24629426003  -0.573903501034  0.0899774283171  -0.112853050232  0.154029160738  
0.453500986099  -0.358689695597  -2.2530195713  -0.551485419273  0.048801317811  -0.108277924359  0.318733602762  
0.461574077606  -0.381107807159  -2.26198673248  -0.564936280251  -0.163179412484  -0.103702798486  0.253156840801  
0.469675064087  -0.34523883462  -2.2575032711  -0.567178070545  0.144878908992  -0.108277924359  0.0808271840215  
0.477792978287  -0.360931485891  -2.259745121  -0.5940797925  -0.306533277035  -0.111328005791  0.195205271244  
0.485933065414  -0.360931485891  -2.2575032711  -0.580628931522  0.317208558321  -0.109802961349  0.292807906866  
0.494063138962  -0.3564478755  -2.2575032711  -0.558210849762  -0.326358824968  -0.102177761495  0.303483188152  
0.502257108688  -0.354206055403  -2.24405241013  -0.580628931522  0.28213262558  -0.109802961349  0.239431470633  
0.510195016861  -0.360931485891  -2.2575032711  -0.56941986084  -0.268407255411  -0.105227842927  0.22113096714  
0.518274068832  -0.363173305988  -2.25077772141  -0.589596152306  0.0808271840215  -0.106752879918  0.199780389667  
0.526390075684  -0.369898736477  -2.26198673248  -0.578387141228  -0.117428168654  -0.109802961349  -0.00762520590797  
0.53453207016  -0.34523883462  -2.2575032711  -0.580628931522  0.0167754534632  -0.109802961349  0.122003294528  
0.542587995529  -0.363173305988  -2.2552614212  -0.576145291328  -0.0274507403374  -0.108277924359  0.114378087223  
0.550726175308  -0.349722445011  -2.26647043228  -0.5940797925  -0.0427011549473  -0.106752879918  0.0350759476423  
0.55873298645  -0.372140556574  -2.24853587151  -0.571661710739  -0.048801317811  -0.106752879918  -0.0442261956632  
0.566792964935  -0.365415126085  -2.259745121  -0.576145291328  -0.0671018138528  -0.103702798486  -0.0442261956632  
0.574882984161  -0.349722445011  -2.26198673248  -0.576145291328  -0.097602635622  -0.105227842927  -0.163179412484  
0.582941055298  -0.358689695597  -2.24853587151  -0.576145291328  -0.0777771025896  -0.105227842927  -0.231806263328  
0.591107130051  -0.354206055403  -2.26198673248  -0.573903501034  -0.0930275097489  -0.103702798486  -0.112853050232  
0.599162101746  -0.369898736477  -2.2552614212  -0.549243569374  -0.131153538823  -0.106752879918  -0.0259256996214  
0.60720705986  -0.360931485891  -2.259745121  -0.580628931522  -0.0945525541902  -0.109802961349  -0.199780389667  
0.615317106247  -0.354206055403  -2.2552614212  -0.591838002205  0.0167754534632  -0.103702798486  -0.207405596972  
0.623401165009  -0.381107807159  -2.2530195713  -0.585112571716  -0.149454042315  -0.111328005791  -0.128103464842  
0.631525039673  -0.36765691638  -2.24853587151  -0.600805222988  0.0915024727583  -0.103702798486  -0.314158469439  
0.639621019363  -0.358689695597  -2.2552614212  -0.603047013283  -0.344659298658  -0.102177761495  -0.0427011549473  
0.647699117661  -0.372140556574  -2.259745121  -0.573903501034  0.187580063939  -0.102177761495  -0.216555848718  
0.655757188797  -0.34523883462  -2.2552614212  -0.585112571716  -0.366009891033  -0.100652717054  -0.0640517324209  
0.663913011551  -0.36765691638  -2.2575032711  -0.573903501034  0.0899774283171  -0.106752879918  -0.22113096714  
0.671986103058  -0.365415126085  -2.2552614212  -0.564936280251  -0.126578420401  -0.102177761495  -0.0701518952847  
0.680072069168  -0.360931485891  -2.2552614212  -0.587354362011  -0.172329649329  -0.103702798486  -0.160129323602  
0.688167095184  -0.36765691638  -2.2552614212  -0.587354362011  0.097602635622  -0.106752879918  -0.286707729101  
0.696262121201  -0.351964265108  -2.26198673248  -0.585112571716  -0.414811193943  -0.100652717054  -0.144878908992  
0.704343080521  -0.372140556574  -2.24853587151  -0.589596152306  0.15860427916  -0.106752879918  -0.303483188152  
0.712466001511  -0.358689695597  -2.26871228218  -0.564936280251  -0.434636741877  -0.109802961349  -0.269932299852  
0.720589160919  -0.34523883462  -2.2552614212  -0.580628931522  0.0320258662105  -0.108277924359  -0.309583365917  
0.728708028793  -0.36765691638  -2.2552614212  -0.564936280251  -0.338559150696  -0.108277924359  -0.166229486465  
0.736805200577  -0.363173305988  -2.2575032711  -0.598563432693  -0.0183004941791  -0.106752879918  -0.257731974125  
0.744974136353  -0.363173305988  -2.2552614212  -0.5940797925  -0.364484846592  -0.105227842927  -0.102177761495  
0.753050088882  -0.387833237648  -2.2530195713  -0.585112571716  -0.0381260290742  -0.105227842927  -0.260782033205  
0.761178970337  -0.349722445011  -2.24853587151  -0.562694430351  -0.358384668827  -0.109802961349  -0.26688221097  
0.769275188446  -0.342997014523  -2.2530195713  -0.580628931522  -0.0716769322753  -0.106752879918  -0.0579515658319  
0.777398109436  -0.354206055403  -2.25077772141  -0.571661710739  -0.184529989958  -0.103702798486  -0.20435552299  
0.785520076752  -0.358689695597  -2.2575032711  -0.573903501034  -0.286707729101  -0.105227842927  -0.216555848718  
0.793614149094  -0.342997014523  -2.26198673248  -0.580628931522  0.0411761105061  -0.106752879918  -0.263832122087  
0.801723003387  -0.374382376671  -2.2575032711  -0.553727209568  -0.419386327267  -0.109802961349  -0.210455685854  
0.809851169586  -0.351964265108  -2.2552614212  -0.589596152306  0.0640517324209  -0.108277924359  -0.108277924359  
0.817969083786  -0.363173305988  -2.2530195713  -0.587354362011  -0.481913000345  -0.108277924359  -0.0350759476423  
0.826173067093  -0.351964265108  -2.259745121  -0.580628931522  0.0854023098946  -0.108277924359  -0.0198255348951  
0.834195137024  -0.360931485891  -2.24853587151  -0.582870721817  -0.245531633496  -0.111328005791  0.128103464842  
0.842279195786  -0.360931485891  -2.2552614212  -0.540276348591  -0.210455685854  -0.109802961349  0.00152504118159  
0.850368976593  -0.349722445011  -2.26198673248  -0.578387141228  -0.154029160738  -0.105227842927  0.0106752887368  
0.858461141586  -0.363173305988  -2.2575032711  -0.582870721817  -0.138778746128  -0.106752879918  0.0244006589055  
0.866552114487  -0.378865987062  -3.08697319031  -0.553727209568  -0.103702798486  -0.192155182362  0.0137253701687  
0.874636173248  -0.383349597454  -2.64533638954  -0.587354362011  -0.154029160738  -0.143353864551  -0.155554205179  
0.882747173309  -0.387833237648  -3.00626802444  -0.555968999863  -0.152504116297  -0.120478250086  -0.00305008236319  
0.890878200531  -0.405767709017  -2.82468128204  -0.562694430351  -0.0854023098946  -0.280607581139  -0.122003294528  
0.89900803566  -0.405767709017  -2.87400102615  -0.555968999863  -0.0305008236319  -0.0625266879797  -0.20588055253  
0.907179117203  -0.42818582058  -2.89866113663  -0.549243569374  -0.126578420401  -0.260782033205  -0.195205271244  
0.915279150009  -0.443878501654  -2.93453001976  -0.526825487614  -0.00457512354478  -0.122003294528  -0.0122003294528  
0.923309087753  -0.470780223608  -3.0286860466  -0.538034558296  -0.0854023098946  -0.337034106255  -0.155554205179  
0.931390047073  -0.533550918102  -3.13629293442  -0.490956515074  -0.0350759476423  -0.150979071856  -0.195205271244  
0.939512968063  -0.493198335171  -3.24838352203  -0.470780223608  0.0899774283171  -0.337034106255  -0.108277924359  
0.947604179382  -0.529067277908  -3.16095280647  -0.446120291948  -0.103702798486  -0.103702798486  -0.25163179636  
0.955715179443  -0.560452640057  -3.13629293442  -0.499923765659  0.0640517324209  -0.308058321476  -0.216555848718  
0.963839054108  -0.488714694977  -2.89866113663  -0.598563432693  -0.0594766065478  -0.0655767694116  -0.179954856634  
0.971907138824  -0.596321582794  -2.851583004  -0.652366876602  0.109802961349  -0.0899774283171  -0.147928997874  
0.979997158051  -0.598563432693  -2.78432869911  -0.520100057125  -0.0732019767165  -0.138778746128  -0.254681885242  
0.988126039505  -0.558210849762  -2.89866113663  -0.524583697319  0.128103464842  -0.20435552299  -0.0503263585269  
0.996205091476  -0.600805222988  -3.19009637833  -0.526825487614  -0.135728672147  -0.285182714462  -0.225706100464  
1.00432014465  -0.629948735237  -3.32012152672  -0.533550918102  0.0533764399588  -0.29738304019  -0.17385469377  
1.01243209839  -0.560452640057  -3.29546141624  -0.434911251068  -0.137253701687  -0.318733602762  -0.0350759476423  
1.02054405212  -0.513374626637  -3.04437875748  -0.51785826683  -0.0869273468852  -0.359909713268  -0.175379738212  
1.02862596512  -0.652366876602  -2.80674672127  -0.564936280251  -0.100652717054  -0.265357166529  -0.250106751919  
1.03674697876  -0.654608666897  -2.90538644791  -0.634432375431  -0.0854023098946  -0.172329649329  -0.183004945517  
1.04482507706  -0.542518138885  -3.25735068321  -0.508890986443  -0.0152504118159  -0.135728672147  -0.150979071856  
1.05292606354  -0.614256083965  -3.24614167213  -0.479747444391  0.0305008236319  -0.210455685854  -0.0594766065478  
1.06099915504  -0.663575947285  -2.99281716347  -0.434911251068  0.0594766065478  -0.321783691645  -0.118953213096  
1.06909704208  -0.715137541294  -2.92780447006  -0.488714694977  0.0793021395802  -0.327883839607  -0.100652717054  
1.0772550106  -0.672543168068  -3.00850987434  -0.654608666897  0.106752879918  -0.387360453606  -0.198255360126  
1.08529806137  -0.589596152306  -3.08697319031  -0.694961249828  0.109802961349  -0.305008232594  -0.207405596972  
1.09340310097  -0.721862971783  -2.71931624413  -0.493198335171  0.0930275097489  -0.100652717054  -0.245531633496  
1.10144114494  -0.68375223875  -2.40097904205  -0.394558668137  0.0305008236319  -0.0671018138528  -0.306533277035  
1.1095430851  -0.609772443771  -2.38977003098  -0.43939486146  -0.00915024708956  -0.129628494382  -0.285182714462  
1.11765098572  -0.742039263248  -2.61170935631  -0.51785826683  -0.0549014806747  -0.184529989958  -0.166229486465  
1.12575101852  -0.798084557056  -2.83364844322  -0.555968999863  -0.0442261956632  -0.210455685854  -0.198255360126  
1.13387799263  -0.582870721817  -2.89641928673  -0.555968999863  -0.0747270211577  -0.244006589055  -0.340084195137  
1.14200997353  -0.670301377773  -2.82692313194  -0.542518138885  -0.0167754534632  -0.268407255411  -0.240956500173  
1.15024900436  -0.652366876602  -2.59601664543  -0.473022013903  -0.0259256996214  -0.228756174445  -0.341609239578  
1.15824198723  -0.650125086308  -2.52427864075  -0.504407346249  0.0472762770951  -0.190630152822  -0.228756174445  
1.1663351059  -0.614256083965  -2.49289321899  -0.504407346249  -0.0259256996214  -0.125053375959  -0.247056677938  
1.17442107201  -0.643399655819  -2.51082777977  -0.538034558296  0.0518513992429  -0.0777771025896  -0.253156840801  
1.18252015114  -0.728588402271  -2.60498380661  -0.542518138885  0.0610016472638  -0.0655767694116  -0.289757817984  
1.19059801102  -0.701686680317  -2.64533638954  -0.473022013903  0.0549014806747  -0.0472762770951  -0.0838772654533  
1.19875001907  -0.529067277908  -2.8583085537  -0.51785826683  -0.0122003294528  -0.102177761495  -0.225706100464  
1.20678114891  -0.578387141228  -2.93453001976  -0.508890986443  0.161654368043  -0.150979071856  -0.103702798486  
1.21486115456  -0.571661710739  -2.83589029312  -0.506649196148  0.0198255348951  -0.15860427916  -0.247056677938  
1.22294616699  -0.692719459534  -2.7305252552  -0.502165555954  0.0457512363791  -0.179954856634  -0.311108410358  
1.2310321331  -0.690477669239  -2.70586538315  -0.506649196148  0.123528338969  -0.219605922699  -0.263832122087  
1.23917412758  -0.538034558296  -2.64085292816  -0.533550918102  0.0198255348951  -0.149454042315  -0.128103464842  
1.24724912643  -0.497681945562  -2.63188552856  -0.567178070545  -0.00915024708956  -0.172329649329  -0.0899774283171  
1.25533699989  -0.515616416931  -2.59377479553  -0.544759988785  0.167754530907  -0.15860427916  -0.0152504118159  
1.26345896721  -0.506649196148  -2.41442990303  -0.573903501034  -0.210455685854  -0.108277924359  0.00305008236319  
1.27156710625  -0.567178070545  -2.0759165287  -0.589596152306  0.30043309927  -0.0427011549473  0.112853050232  
1.27971220016  -0.540276348591  -2.31354856491  -0.573903501034  -0.0838772654533  -0.0930275097489  0.0716769322753  
1.28777813911  -0.547001779079  -2.31130671501  -0.598563432693  0.0152504118159  -0.0945525541902  0.0930275097489  
1.29589414597  -0.553727209568  -2.30906486511  -0.609772443771  0.0228756181896  -0.0823522210121  0.0960775911808  
1.30398702621  -0.547001779079  -2.32251572609  -0.571661710739  0.0183004941791  -0.0823522210121  0.097602635622  
1.31206512451  -0.598563432693  -3.09594035149  -1.27334845066  0.048801317811  -0.115903131664  0.100652717054  
1.32015514374  -0.654608666897  -3.1452600956  -1.39888978004  0.097602635622  -0.0960775911808  0.100652717054  
1.32821106911  -0.670301377773  -3.2080309391  -1.38095533848  -0.0198255348951  -0.0854023098946  0.109802961349  
1.33634305  -0.542518138885  -3.03989505768  -1.38992249966  -0.0991276800632  -0.0533764399588  0.106752879918  
1.34441208839  -0.421460390091  -2.93004631996  -1.54684925079  -0.112853050232  -0.0244006589055  0.103702798486  
1.35252118111  -0.699444890022  -2.84037399292  -1.60961997509  0.048801317811  0.00305008236319  0.103702798486  
1.36058115959  -0.63667422533  -2.98833346367  -1.58944368362  0.105227842927  -0.0152504118159  0.103702798486  
1.36866617203  -0.650125086308  -3.12508392334  -1.60961997509  0.0106752887368  -0.108277924359  0.105227842927  
1.37676405907  -0.789117336273  -3.21699810028  -1.60961997509  0.0533764399588  0.0884523913264  0.106752879918  
1.38484716415  -0.564936280251  -3.10266590118  -1.68584156036  0.129628494382  -0.161654368043  0.109802961349  
1.39299201965  -0.585112571716  -2.90762829781  -1.75757944584  -0.0701518952847  0.22113096714  0.103702798486  
1.40102219582  -0.697203099728  -3.19906353951  -1.79569029808  0.103702798486  -0.18910510838  0.106752879918  
1.40918302536  -0.511132776737  -3.57344603539  -1.86967003345  -0.0823522210121  0.33093392849  0.103702798486  
1.41718411446  -0.782391905785  -3.37840843201  -1.93019890785  0.0594766065478  -0.106752879918  0.100652717054  
1.42528414726  -0.408009529114  -2.99730062485  -2.01538777351  -0.125053375959  0.172329649329  0.112853050232  
1.43337607384  -0.762215614319  -3.42548656464  -1.91674804688  0.0274507403374  0.0610016472638  0.106752879918  
1.4414870739  -0.452845722437  -3.39858484268  -1.75757944584  0.0533764399588  -0.0183004941791  0.109802961349  
1.44956111908  -0.56941986084  -3.0309278965  -1.75309586525  -0.0503263585269  0.280607581139  0.102177761495  
1.45762014389  -0.555968999863  -3.38961744308  -1.75085401535  0.0915024727583  -0.175379738212  0.0991276800632  
1.46571707726  -0.549243569374  -3.34702324867  -1.77551400661  0.114378087223  0.48801317811  0.111328005791  
1.47383117676  -0.573903501034  -2.94573903084  -1.82483375072  0.0122003294528  -0.122003294528  0.105227842927  
1.48193907738  -0.553727209568  -3.22372364998  -1.91674804688  -0.0716769322753  0.500213503838  0.108277924359  
1.48998808861  -0.582870721817  -2.94125533104  -1.86518633366  -0.0411761105061  -0.00152504118159  0.106752879918  
1.49808502197  -0.479747444391  -3.29097795486  -1.83380103111  -0.00305008236319  0.248581707478  0.109802961349  
1.50619196892  -0.533550918102  -3.27528524399  -1.91226434708  0.0381260290742  0.155554205179  0.106752879918  
1.51424312592  -0.48647287488  -3.30891227722  -1.91450619698  0.00305008236319  0.141828835011  0.109802961349  
1.52234196663  -0.421460390091  -3.35374855995  -2.02435493469  0.0381260290742  0.190630152822  0.102177761495  
1.53041696548  -0.455087542534  -3.61379861832  -2.05798196793  -0.0167754534632  0.167754530907  0.106752879918  
1.53853201866  -0.387833237648  -3.3223631382  -1.95485877991  -0.0518513992429  0.155554205179  0.106752879918  
1.5466439724  -0.432669430971  -3.30218696594  -1.91898977757  -0.0167754534632  0.106752879918  0.108277924359  
1.55475401878  -0.434911251068  -3.06455492973  -1.87191176414  0.0137253701687  0.0838772654533  0.108277924359  
1.56286907196  -0.477505654097  -3.12732577324  -1.81810832024  0.0701518952847  0.0533764399588  0.106752879918  
1.57098412514  -0.466296583414  -2.56687307358  -1.87191176414  0.112853050232  0.115903131664  0.109802961349  
1.57917809486  -0.475263834  -2.29785585403  -1.63203811646  0.0854023098946  0.00915024708956  0.106752879918  
1.5871720314  -0.488714694977  -2.49961876869  -1.57375097275  0.134203627706  0.109802961349  0.105227842927  
1.59522509575  -0.535792708397  -1.93916606903  -1.5401238203  0.0594766065478  0.147928997874  0.105227842927  
1.60332798958  -0.533550918102  -2.3830447197  -1.71050143242  0.0869273468852  0.131153538823  0.108277924359  
1.61145997047  -0.547001779079  -2.2552614212  -1.74637043476  0.0808271840215  0.175379738212  0.108277924359  
1.61955213547  -0.553727209568  -2.76415252686  -1.65893983841  0.0747270211577  0.176904782653  0.106752879918  
1.6276371479  -0.52234184742  -2.53324604034  -1.6611815691  -0.00457512354478  0.227231130004  0.103702798486  
1.63572311401  -0.605288863182  -2.5511803627  -1.64100527763  0.0640517324209  0.164704442024  0.105227842927  
1.64382910728  -0.538034558296  -2.3830447197  -1.56030011177  0.120478250086  0.303483188152  0.105227842927  
1.65192508698  -0.591838002205  -2.16783070564  -1.62082898617  0.172329649329  0.161654368043  0.105227842927  
1.66001415253  -0.643399655819  -2.47944235802  -1.65893983841  0.193680226803  0.404135912657  0.106752879918  
1.66822504997  -0.591838002205  -2.0804002285  -1.75533771515  0.0106752887368  0.106752879918  0.105227842927  
1.6762471199  -0.712895750999  -2.33372473717  -1.76206314564  0.0716769322753  0.333984017372  0.103702798486  
1.68433117867  -0.589596152306  -2.47944235802  -1.67463243008  0.160129323602  0.164704442024  0.109802961349  
1.69243216515  -0.587354362011  -2.17455625534  -1.69032514095  -0.00457512354478  0.285182714462  0.106752879918  
1.70051503181  -0.600805222988  -2.5511803627  -1.67911612988  0.109802961349  0.294332951307  0.105227842927  
1.70864009857  -0.51785826683  -2.65206193924  -1.64997255802  0.137253701687  0.157079234719  0.105227842927  
1.71669602394  -0.708412110806  -2.27767944336  -1.6656652689  0.0884523913264  0.303483188152  0.106752879918  
1.72475719452  -0.609772443771  -1.94813334942  -1.64548897743  0.122003294528  0.271457344294  0.109802961349  
1.73285317421  -0.533550918102  -2.14317083359  -1.74412858486  0.108277924359  -0.103702798486  0.106752879918  
1.74098801613  -0.775666475296  -2.24853587151  -1.69705057144  0.0838772654533  0.571890413761  0.102177761495  
1.74926710129  -0.533550918102  -2.22611784935  -1.75533771515  0.175379738212  -0.115903131664  0.105227842927  
1.75721311569  -0.461812973022  -2.17007255554  -1.73291957378  0.0762520581484  0.237906426191  0.105227842927  
1.76527905464  -0.600805222988  -2.09833478928  -1.73067772388  0.0198255348951  0.291282862425  0.106752879918  
1.77335715294  -0.620981514454  -2.06919121742  -1.71498501301  0.167754530907  -0.166229486465  0.105227842927  
1.78147411346  -0.623223304749  -2.15213823318  -1.65893983841  0.137253701687  0.506313681602  0.103702798486  
1.78956103325  -0.620981514454  -2.24853587151  -1.64548897743  0.0549014806747  -0.17385469377  0.105227842927  
1.79768204689  -0.520100057125  -2.30233955383  -1.62979626656  -0.0366009883583  0.198255360126  0.106752879918  
1.80577611923  -0.51785826683  -2.35165929794  -1.58496010303  -0.0213505774736  0.169279575348  0.108277924359  
1.81385803223  -0.607530653477  -2.35390114784  -1.59841096401  -0.0777771025896  -0.157079234719  0.111328005791  
1.82199001312  -0.533550918102  -2.16110539436  -1.39888978004  -0.0594766065478  0.523089110851  0.103702798486  
1.83006215096  -0.479747444391  -1.91002261639  -1.02674925327  -0.225706100464  -0.256206929684  0.100652717054  
1.83815598488  -0.381107807159  -1.97055149078  -1.188159585  -0.22113096714  0.244006589055  0.109802961349  
1.84626603127  -0.383349597454  -2.09385108948  -1.26438117027  -0.257731974125  0.102177761495  0.106752879918  
1.85434913635  -0.412493139505  -2.2530195713  -1.26213932037  -0.256206929684  0.0915024727583  0.106752879918  
1.86244511604  -0.383349597454  -2.31354856491  -1.23299574852  -0.283657670021  0.115903131664  0.102177761495  
1.87051320076  -0.313853472471  -2.99730062485  -1.86070275307  -0.170804619789  0.179954856634  0.152504116297  
1.87861514091  -0.165893986821  -3.22148180008  -1.80914115906  -0.0213505774736  0.0854023098946  0.186055019498  
1.88681697845  -0.0851887986064  -3.0331697464  -1.81362473965  0.00762520590797  0.0930275097489  0.143353864551  
1.89481806755  -0.020176295191  -2.91883730888  -1.92347347736  -0.0106752887368  0.102177761495  0.22113096714  
1.90289711952  0.0739797502756  -2.77311968803  -1.88536262512  -0.137253701687  -0.0122003294528  0.0  
1.91099619865  -0.0269017256796  -2.58032393456  -1.85397732258  -0.106752879918  0.0701518952847  0.233331307769  
1.91909098625  0.246599167585  -2.49961876869  -1.84949374199  0.0503263585269  -0.0167754534632  -0.0320258662105  
1.92721199989  0.192795708776  -2.68344712257  -1.80689930916  -0.0244006589055  0.0930275097489  0.187580063939  
1.93525099754  0.260050028563  -2.97264075279  -1.82483375072  -0.0320258662105  -0.0747270211577  0.0594766065478  
1.94330811501  0.354206055403  -3.03765320778  -1.91002261639  0.0610016472638  0.222656011581  0.0350759476423  
1.95144104958  0.197279334068  -2.80002140999  -1.95485877991  -0.141828835011  0.0137253701687  0.0610016472638  
1.95953607559  0.520100057125  -2.64757823944  -2.01314592361  0.0945525541902  0.237906426191  -0.0625266879797  
1.96761107445  0.304886221886  -3.11611676216  -2.01762938499  -0.0686268508434  0.183004945517  0.097602635622  
1.97574019432  0.549243569374  -3.25510883331  -2.04004764557  0.0716769322753  0.259256988764  -0.0472762770951  
1.98385620117  0.457329362631  -2.81123042107  -2.04453110695  -0.00610016472638  0.288232773542  0.187580063939  
1.99191117287  0.508890986443  -2.74621796608  -2.00642037392  -0.0152504118159  0.224181056023  0.109802961349  
2.0  0.587354362011  -3.12732577324  -2.05125665665  0.048801317811  0.179954856634  0.210455685854  
2.00806498528  0.623223304749  -2.84261584282  -2.05125665665  -0.0457512363791  0.0960775911808  0.230281218886  
2.01617717743  0.672543168068  -2.84037399292  -1.99072778225  -0.0610016472638  0.0823522210121  0.25163179636  
2.02428412437  0.746522903442  -3.13405108452  -1.89432990551  -0.0244006589055  0.132678583264  0.228756174445  
2.03232097626  0.701686680317  -2.87400102615  -1.93692433834  0.0808271840215  0.198255360126  0.18910510838  
2.04039716721  0.777908265591  -2.76639413834  -2.05125665665  0.103702798486  0.274507403374  0.131153538823  
2.04856514931  0.753248333931  -2.90538644791  -2.08712553978  0.0777771025896  0.323308736086  0.0808271840215  
2.05660009384  0.753248333931  -2.62067651749  -2.0759165287  0.0122003294528  0.277557492256  0.097602635622  
2.06469917297  0.777908265591  -3.15422749519  -2.06919121742  0.0137253701687  0.17385469377  0.169279575348  
2.07274913788  0.775666475296  -2.65430378914  -1.98176050186  0.0655767694116  0.0610016472638  0.250106751919  
2.08082914352  0.730830252171  -3.1475019455  -1.93019890785  0.0594766065478  0.131153538823  0.279082536697  
2.08892297745  0.717379391193  -2.82916498184  -1.97279334068  0.106752879918  0.23638138175  0.23638138175  
2.09701609612  0.694961249828  -3.27304339409  -2.11851096153  0.0732019767165  0.347709387541  0.256206929684  
2.10510206223  0.692719459534  -2.87848472595  -2.15886354446  -0.0106752887368  0.323308736086  0.0732019767165  
2.1131811142  0.726346611977  -2.95918989182  -2.06022381783  -0.0198255348951  0.192155182362  0.0244006589055  
2.12131309509  0.668059527874  -2.82019758224  -1.99296963215  -0.0106752887368  0.138778746128  0.097602635622  
2.12942504883  0.620981514454  -2.8560667038  -1.96606791019  0.0930275097489  0.274507403374  0.186055019498  
2.13768005371  0.612014293671  -2.71034884453  -2.0759165287  0.0793021395802  0.396510720253  0.242481544614  
2.14574313164  0.620981514454  -2.62067651749  -2.0781583786  -0.00457512354478  0.329408884048  0.207405596972  
2.15371918678  0.656850516796  -3.13180923462  -2.08712553978  0.0869273468852  0.225706100464  0.120478250086  
2.16181516647  0.690477669239  -3.04886245728  -2.06022381783  0.0167754534632  0.0838772654533  0.0838772654533  
2.16994905472  0.717379391193  -3.0264441967  -2.05349850655  0.0366009883583  0.30043309927  0.144878908992  
2.1780769825  0.898966014385  -3.23044896126  -2.11851096153  -0.00305008236319  0.337034106255  0.247056677938  
2.18632006645  0.907933294773  -2.95246458054  -2.13644552231  0.106752879918  0.233331307769  0.248581707478  
2.19436097145  0.943802237511  -2.62291836739  -2.05574035645  0.0427011549473  0.103702798486  0.161654368043  
2.20247101784  0.92138415575  -2.7305252552  -2.01314592361  0.106752879918  0.231806263328  -0.00610016472638  
2.21060919762  0.941560447216  -2.84037399292  -2.18800711632  0.0183004941791  0.306533277035  0.0503263585269  
2.21869897842  0.919142305851  -3.06231331825  -2.19249081612  0.0945525541902  0.178429812193  0.170804619789  
2.22676420212  0.943802237511  -2.8493411541  -2.0826420784  0.0549014806747  0.0259256996214  0.202830478549  
2.2348241806  0.863097071648  -2.30009770393  -1.81810832024  0.0945525541902  0.215030804276  0.122003294528  
2.24288797379  0.724104821682  -2.29337215424  -1.74412858486  0.210455685854  0.25163179636  0.0686268508434  
2.25099802017  0.634432375431  -1.56254196167  -1.78672301769  0.23638138175  0.146403953433  0.0945525541902  
2.25905609131  0.477505654097  -1.32491004467  -1.78448116779  0.163179412484  0.0869273468852  0.230281218886  
2.26719307899  0.515616416931  -1.76878857613  -1.78672301769  0.17385469377  0.202830478549  0.259256988764  
2.27531409264  0.576145291328  -2.26422858238  -1.80465745926  0.160129323602  0.294332951307  0.207405596972  
2.28341317177  0.587354362011  -2.27543759346  -2.03108024597  0.123528338969  0.239431470633  0.0899774283171  
2.29161214828  0.576145291328  -2.51082777977  -2.0736746788  0.109802961349  0.0762520581484  0.0289757829159  
2.29970312119  0.618739724159  -2.3718354702  -1.98848593235  0.120478250086  0.0930275097489  0.154029160738  
2.30770897865  0.625465154648  -1.99521136284  -1.76206314564  0.190630152822  0.274507403374  0.225706100464  
2.31582403183  0.623223304749  -2.0804002285  -1.73516142368  0.106752879918  0.301958143711  0.265357166529  
2.32384109497  0.618739724159  -1.58496010303  -1.87639546394  0.115903131664  0.224181056023  0.248581707478  
2.3319401741  0.668059527874  -1.88536262512  -1.95710062981  0.155554205179  0.134203627706  0.175379738212  
2.34004712105  0.685994029045  -1.98848593235  -1.89208805561  0.169279575348  0.132678583264  0.0808271840215  
2.34811711311  0.768941044807  -2.10057640076  -1.98176050186  0.199780389667  0.256206929684  0.114378087223  
2.35618114471  0.782391905785  -2.01762938499  -1.97503507137  0.170804619789  0.375160127878  0.160129323602  
2.36427116394  0.768941044807  -2.0759165287  -1.99072778225  0.0991276800632  0.378210216761  0.219605922699  
2.37232518196  0.715137541294  -1.97503507137  -2.05349850655  0.164704442024  0.265357166529  0.305008232594  
2.38046717644  0.710653960705  -1.91450619698  -1.94813334942  0.149454042315  0.108277924359  0.276032447815  
2.38865208626  0.670301377773  -1.36974620819  -1.8405264616  0.157079234719  0.0640517324209  0.186055019498  
2.39676117897  0.68823581934  -1.77551400661  -1.87415361404  0.22113096714  0.144878908992  0.135728672147  
2.40479302406  0.68375223875  -1.67911612988  -1.89432990551  0.260782033205  0.250106751919  0.0823522210121  
2.41291308403  0.668059527874  -2.08936738968  -1.87863719463  0.126578420401  0.320258647203  0.0457512363791  
2.42104101181  0.703928530216  -2.2552614212  -2.01762938499  0.0793021395802  0.3126334548  0.0442261956632  
2.42909407616  0.63667422533  -1.73516142368  -2.04677295685  0.0732019767165  0.276032447815  0.0930275097489  
2.43720412254  0.571661710739  -1.9032971859  -2.05798196793  0.193680226803  0.208930641413  0.146403953433  
2.4452881813  0.576145291328  -1.71722686291  -1.94140791893  0.102177761495  0.0960775911808  0.186055019498  
2.45340514183  0.477505654097  -1.35181176662  -1.88312089443  0.0442261956632  0.0960775911808  0.244006589055  
2.46151208878  0.531309127808  -1.64773070812  -1.95934247971  0.199780389667  0.131153538823  0.239431470633  
2.46969103813  0.446120291948  -1.84725189209  -1.95710062981  0.0305008236319  0.160129323602  0.227231130004  
2.47769808769  0.479747444391  -1.79793202877  -1.97727692127  0.161654368043  0.211980730295  0.224181056023  
2.48576617241  0.461812973022  -1.64773070812  -1.94364976883  0.0137253701687  0.240956500173  0.199780389667  
2.4938621521  0.387833237648  -1.62979626656  -1.95261704922  0.141828835011  0.288232773542  0.166229486465  
2.50197100639  0.488714694977  -1.69480872154  -1.8988134861  0.0167754534632  0.289757817984  0.137253701687  
2.51010298729  0.302644431591  -1.74861228466  -1.84501004219  0.22113096714  0.298908084631  0.112853050232  
2.51819300652  0.479747444391  -1.64548897743  -1.90553891659  0.141828835011  0.260782033205  0.109802961349  
2.52630615234  0.291435360909  -1.56030011177  -1.89657175541  0.00762520590797  0.265357166529  0.0884523913264  
2.53444314003  0.34523883462  -1.45269322395  -1.93019890785  0.169279575348  0.161654368043  0.143353864551  
2.5424721241  0.410251319408  -1.39216434956  -1.97055149078  0.186055019498  0.245531633496  -0.0137253701687  
2.55072617531  0.331787973642  -1.58496010303  -1.97055149078  0.0213505774736  0.178429812193  0.0518513992429  
2.55870819092  0.316095292568  -1.64773070812  -1.93468248844  0.0137253701687  0.0732019767165  0.0213505774736  
2.56677818298  0.251082777977  -1.65221440792  -1.98176050186  -0.0244006589055  -0.0411761105061  0.17385469377  
2.57487916946  0.253324598074  -1.56254196167  -1.88087904453  -0.00457512354478  0.125053375959  -0.131153538823  
2.58298015594  0.163652166724  -1.46838593483  -1.51322209835  -0.0869273468852  -0.123528338969  0.218080893159  
2.59113907814  0.0694961249828  -1.0693436861  -1.38992249966  -0.294332951307  0.0457512363791  -0.140303790569  
2.59917497635  0.0986396670341  -1.56478381157  -1.51994752884  -0.184529989958  0.0442261956632  0.0427011549473  
2.60730600357  0.145717680454  -1.69705057144  -1.57599282265  -0.196730315685  0.0106752887368  0.00915024708956  
2.61540412903  0.127783194184  -1.64100527763  -1.5423656702  -0.222656011581  0.0  -0.0320258662105  
2.62347006798  -0.253324598074  -2.78657054901  -1.63876354694  -0.141828835011  0.0625266879797  0.0244006589055  
2.63167905807  -0.13675044477  -2.46823334694  -1.57150924206  0.0167754534632  0.0777771025896  0.0274507403374  
2.63973116875  -0.511132776737  -2.64982008934  -1.49080395699  -0.0381260290742  0.106752879918  0.0106752887368  
2.64775919914  -0.221939250827  -2.51082777977  -1.32715189457  0.0335509069264  0.131153538823  0.105227842927  
2.65593099594  -0.470780223608  -2.42115545273  -1.32042646408  -0.0137253701687  0.0411761105061  -0.0152504118159  
2.66390419006  -0.378865987062  -2.34717559814  -1.35181176662  -0.144878908992  -0.0122003294528  0.102177761495  
2.67200016975  -0.481989264488  -2.13868737221  -1.39216434956  -0.0762520581484  0.152504116297  0.00305008236319  
2.68008613586  -0.513374626637  -2.01314592361  -1.26438117027  0.0549014806747  -0.0838772654533  0.111328005791  
2.68818712234  -0.459571152925  -2.16783070564  -1.30025017262  -0.0427011549473  0.256206929684  0.240956500173  
2.69628620148  -0.477505654097  -2.42339730263  -1.10297083855  -0.00305008236319  -0.190630152822  0.0244006589055  
2.70439600945  -0.490956515074  -2.41218805313  -1.29800832272  0.0808271840215  0.0350759476423  0.291282862425  
2.71245098114  -0.504407346249  -2.10730195045  -1.12314713001  -0.128103464842  0.0686268508434  0.0213505774736  
2.72064805031  -0.5940797925  -2.11402726173  -1.11193799973  0.097602635622  -0.279082536697  0.276032447815  
2.72869110107  -0.587354362011  -2.61170935631  -1.11642169952  -0.0915024727583  0.301958143711  0.0472762770951  
2.73677802086  -0.647883236408  -2.64757823944  -1.04244196415  0.0396510697901  -0.337034106255  0.376685172319  
2.74486517906  -0.672543168068  -2.23956871033  -1.19936859608  -0.0183004941791  0.254681885242  0.125053375959  
2.75293517113  -0.768941044807  -2.259745121  -0.977429389954  -0.0747270211577  -0.144878908992  0.405660957098  
2.76096916199  -0.813777208328  -2.41442990303  -1.05813455582  0.0610016472638  0.186055019498  0.195205271244  
2.76910305023  -0.789117336273  -2.21939253807  -0.887757003307  -0.0152504118159  -0.163179412484  0.410236090422  
2.77718710899  -0.681510388851  -2.32924127579  -1.04692554474  -0.0579515658319  -0.0411761105061  0.20435552299  
2.78528213501  -0.627706944942  -2.42339730263  -0.930351376534  0.00152504118159  0.0472762770951  0.248581707478  
2.79338908195  -0.585112571716  -1.99969506264  -0.939318597317  0.0732019767165  -0.295857995749  0.181479901075  
2.80151820183  -0.452845722437  -2.30458116531  -0.914658725262  0.125053375959  0.355334609747  0.0899774283171  
2.80959796906  -0.596321582794  -2.19249081612  -0.865338861942  0.100652717054  -0.333984017372  0.0854023098946  
2.81767010689  -0.746522903442  -2.5601477623  -0.928109586239  0.00610016472638  0.18910510838  0.0198255348951  
2.82576799393  -0.773424625397  -2.45702433586  -0.937076807022  0.00610016472638  -0.0930275097489  0.0427011549473  
2.83383703232  -0.68375223875  -2.47944235802  -0.869822502136  0.0457512363791  -0.112853050232  0.0838772654533  
2.84190917015  -0.582870721817  -2.31130671501  -0.928109586239  0.0411761105061  0.178429812193  0.132678583264  
2.8500020504  -0.466296583414  -2.54221320152  -0.905691444874  0.134203627706  -0.285182714462  0.164704442024  
2.8580801487  -0.51785826683  -2.27992129326  -0.932593166828  0.123528338969  0.428536564112  0.213505759835  
2.86616706848  -0.677026808262  -2.34941744804  -0.84964621067  0.0198255348951  -0.109802961349  0.23638138175  
2.8742711544  -0.742039263248  -2.02883863449  -0.811535418034  0.0213505774736  0.259256988764  0.216555848718  
2.88241314888  -0.710653960705  -2.28664684296  -0.863097071648  0.0305008236319  0.0686268508434  0.202830478549  
2.89055418968  -0.603047013283  -2.14317083359  -0.836195349693  0.0793021395802  0.260782033205  0.129628494382  
2.89862918854  -0.632190585136  -2.15213823318  -0.856371641159  0.0335509069264  0.0854023098946  0.0793021395802  
2.90670800209  -0.618739724159  -2.5534222126  -0.872064292431  -0.0305008236319  0.349234431982  0.0777771025896  
2.91479897499  -0.762215614319  -2.37631917  -0.943802237511  0.111328005791  0.146403953433  0.0899774283171  
2.92286014557  -0.777908265591  -2.3740773201  -0.92586773634  -0.00762520590797  0.366009891033  0.149454042315  
2.93094611168  -0.715137541294  -2.48168420792  -0.889998793602  0.0899774283171  0.210455685854  0.184529989958  
2.93905806541  -0.721862971783  -2.13868737221  -0.87430614233  0.0396510697901  0.3461843431  0.257731974125  
2.94714903831  -0.674784958363  -1.95485877991  -0.822744488716  0.097602635622  0.178429812193  0.272982358932  
2.95525312424  -0.748764753342  -2.10506010056  -0.800326347351  0.0366009883583  0.366009891033  0.207405596972  
2.96333312988  -0.775666475296  -2.32475757599  -0.894482433796  0.0930275097489  0.123528338969  0.123528338969  
2.97144007683  -0.670301377773  -2.52876234055  -0.912416875362  0.00610016472638  0.283657670021  0.0259256996214  
2.97954010963  -0.663575947285  -2.32924127579  -0.912416875362  0.0610016472638  0.0823522210121  0.0503263585269  
2.98765015602  -0.820502638817  -2.15886354446  -0.898966014385  0.0899774283171  0.190630152822  0.132678583264  
2.99572110176  -0.981913030148  -1.95934247971  -0.858613431454  0.0610016472638  0.0869273468852  0.207405596972  
3.00378799438  -0.746522903442  -2.00642037392  -0.804809987545  0.0793021395802  0.0838772654533  0.254681885242  
3.01189208031  -0.423702180386  -2.23956871033  -0.878789722919  0.0945525541902  0.115903131664  0.242481544614  
3.01995801926  -0.721862971783  -2.24405241013  -0.858613431454  0.0732019767165  0.0381260290742  0.175379738212  
3.02803397179  -0.551485419273  -1.85846090317  -0.903449654579  0.118953213096  0.169279575348  0.103702798486  
3.03614401817  -0.542518138885  -1.49304580688  -0.757731974125  0.208930641413  0.0167754534632  0.103702798486  
3.04423308372  -0.777908265591  -1.05365097523  -0.506649196148  0.253156840801  0.164704442024  0.186055019498  
3.05231714249  -1.02450740337  -0.898966014385  -0.52234184742  0.201305434108  0.097602635622  0.250106751919  
3.06041717529  -0.932593166828  -1.10297083855  -0.587354362011  0.208930641413  0.20435552299  0.295857995749  
3.0685801506  -0.64115780592  -1.53115665913  -0.681510388851  0.178429812193  0.138778746128  0.276032447815  
3.07656812668  -0.612014293671  -1.67463243008  -0.789117336273  0.149454042315  0.222656011581  0.207405596972  
3.08462119102  -0.708412110806  -1.65669798851  -0.80705177784  0.149454042315  0.201305434108  0.140303790569  
3.09272909164  -0.786875486374  -1.33163547516  -0.751006543636  0.164704442024  0.237906426191  0.0396510697901  
3.10079216957  -0.670301377773  -1.46838593483  -0.777908265591  0.18910510838  0.402610868216  0.0518513992429  
3.10887312889  -0.699444890022  -1.65893983841  -0.75549018383  0.117428168654  0.260782033205  0.0884523913264  
3.11694002151  -0.609772443771  -1.3047337532  -0.831711709499  0.128103464842  0.390410542488  0.128103464842  
3.12500500679  -0.780150055885  -1.28231561184  -0.800326347351  0.170804619789  0.23638138175  0.237906426191  
3.13308501244  -0.833953499794  -1.39888978004  -0.724104821682  0.112853050232  0.375160127878  0.234856337309  
3.14121317863  -0.896724224091  -0.912416875362  -0.739797472954  0.15860427916  0.146403953433  0.265357166529  
3.14932918549  -0.697203099728  -1.1253888607  -0.73531383276  0.18910510838  0.369059979916  0.225706100464  
3.15745711327  -0.535792708397  -1.31818461418  -0.809293627739  0.15860427916  0.048801317811  0.18910510838  
3.16562509537  -0.603047013283  -1.28455746174  -0.813777208328  0.0442261956632  0.333984017372  0.134203627706  
3.1736869812  -0.724104821682  -1.4280333519  -0.867580711842  0.0503263585269  -0.0244006589055  0.105227842927  
3.18176913261  -0.822744488716  -1.09624540806  -0.887757003307  0.106752879918  0.187580063939  0.115903131664  
3.18981814384  -0.748764753342  -1.41682422161  -0.887757003307  0.138778746128  -0.00762520590797  0.111328005791  
3.19791603088  -0.580628931522  -1.05140912533  -0.867580711842  0.138778746128  0.0655767694116  0.15860427916  
3.20600914955  -0.553727209568  -1.29128289223  -0.87430614233  0.164704442024  0.122003294528  0.20588055253  
3.2141289711  -0.416976749897  -1.04468369484  -0.948285877705  0.161654368043  -0.0503263585269  0.222656011581  
3.22219204903  -0.562694430351  -1.28679931164  -0.858613431454  0.166229486465  0.150979071856  0.269932299852  
3.23028802872  -0.764457404613  -0.92138415575  -0.881031572819  0.0777771025896  -0.0457512363791  0.274507403374  
3.23834705353  -0.840678930283  -0.813777208328  -0.824986279011  0.0518513992429  0.0823522210121  0.321783691645  
3.24640798569  -0.708412110806  -1.03347468376  -0.92138415575  0.048801317811  -0.0960775911808  0.280607581139  
3.25462198257  -0.538034558296  -1.37422990799  -0.970703959465  0.140303790569  -0.0945525541902  0.218080893159  
3.2625951767  -0.538034558296  -1.37422990799  -0.970703959465  0.140303790569  -0.0945525541902  0.218080893159  
3.27073097229  -0.394558668137  -0.840678930283  -0.952769458294  0.105227842927  -0.0640517324209  0.125053375959  
3.27870702744  -0.394558668137  -0.840678930283  -0.952769458294  0.105227842927  -0.0640517324209  0.125053375959  
3.28676509857  -0.533550918102  -0.872064292431  -0.930351376534  0.0472762770951  -0.30043309927  0.0244006589055  
3.29476118088  -0.562694430351  -0.786875486374  -0.73531383276  0.198255360126  0.3126334548  0.131153538823  
3.30281710625  -0.600805222988  -0.937076807022  -0.943802237511  -0.0122003294528  -0.23638138175  -0.0579515658319  
3.3109061718  -0.668059527874  -1.12314713001  -0.84964621067  0.149454042315  0.155554205179  0.0411761105061  
3.31898713112  -0.659092307091  -1.13659799099  -0.872064292431  -0.0198255348951  0.0610016472638  0.128103464842  
3.32712602615  -0.659092307091  -0.831711709499  -1.00433111191  0.128103464842  -0.269932299852  -0.144878908992  
3.33516311646  -0.652366876602  -0.589596152306  -0.822744488716  0.0411761105061  0.347709387541  0.167754530907  
3.34325003624  -0.61649787426  -0.573903501034  -0.717379391193  -0.0183004941791  -0.29738304019  -0.0762520581484  
3.35133314133  -0.61649787426  -0.804809987545  -0.979671239853  0.128103464842  0.216555848718  0.0  
3.35943007469  -0.535792708397  -0.934835016727  -0.878789722919  0.0991276800632  0.0198255348951  0.114378087223  
3.36760902405  -0.51785826683  -1.03571653366  -0.948285877705  0.0960775911808  -0.225706100464  -0.115903131664  
3.37566709518  -0.457329362631  -1.00208926201  -0.923625946045  -0.0457512363791  0.362959802151  0.117428168654  
3.3837211132  -0.443878501654  -0.905691444874  -0.901207864285  -0.00915024708956  -0.289757817984  -0.208930641413  
3.39182710648  -0.36765691638  -0.811535418034  -0.963978528976  0.0427011549473  0.254681885242  0.228756174445  
3.39993906021  -0.42818582058  -0.645641446114  -1.03347468376  -0.0228756181896  0.0213505774736  -0.114378087223  
3.40800118446  -0.134508639574  -0.513374626637  -1.02226555347  0.00457512354478  -0.20588055253  -0.0640517324209  
3.41609811783  0.0515616424382  -0.00672543141991  -1.09848713875  -0.147928997874  0.347709387541  0.25163179636  
3.4241900444  -0.0896724238992  -0.340755194426  -1.21057772636  -0.15860427916  -0.0549014806747  -0.0777771025896  
3.43227696419  -0.0941560417414  -0.43939486146  -1.20833587646  -0.131153538823  -0.0106752887368  -0.0716769322753  
3.44041705132  -0.0403525903821  -0.40352588892  -1.19712686539  -0.149454042315  0.0274507403374  -0.00457512354478  
3.44847917557  -0.0134508628398  -0.63667422533  -1.1859177351  -0.172329649329  0.0549014806747  -0.00457512354478  
3.45657014847  -0.937076807022  -0.912416875362  -1.63652169704  -0.0350759476423  -0.0960775911808  0.0823522210121  
3.46470713615  -0.699444890022  -0.553727209568  -1.70377600193  -0.123528338969  0.0122003294528  -0.00152504118159  
3.47278118134  -0.620981514454  -0.544759988785  -1.79569029808  0.0716769322753  -0.248581707478  0.155554205179  
3.48087501526  -0.719621181488  -0.571661710739  -1.64773070812  -0.0594766065478  -0.0335509069264  0.0259256996214  
3.48891496658  -1.03795826435  -0.325062543154  -1.81138288975  0.192155182362  -0.333984017372  0.190630152822  
3.49700212479  -0.876547932625  -0.598563432693  -1.92123162746  -0.0274507403374  -0.213505759835  0.0335509069264  
3.50511312485  -0.957253098488  -0.762215614319  -2.01762938499  0.210455685854  -0.134203627706  0.225706100464  
3.51319599152  -1.02450740337  -0.419218569994  -2.0736746788  0.0305008236319  -0.0671018138528  0.105227842927  
3.52131199837  -0.946044027805  -0.907933294773  -2.0804002285  0.0503263585269  -0.0442261956632  0.279082536697  
3.52937698364  -0.753248333931  -0.703928530216  -2.16783070564  0.0305008236319  -0.239431470633  0.128103464842  
3.53758406639  -0.715137541294  -0.659092307091  -2.20594167709  -0.0701518952847  -0.26688221097  0.335509061813  
3.54560303688  -0.932593166828  -0.867580711842  -2.10730195045  -0.0762520581484  -0.308058321476  0.0930275097489  
3.5536801815  -0.952769458294  -0.860855221748  -2.14765453339  -0.0366009883583  -0.18910510838  0.355334609747  
3.56176710129  -0.876547932625  -0.654608666897  -2.22835969925  0.0335509069264  -0.186055019498  0.0701518952847  
3.56986498833  -0.970703959465  -0.894482433796  -2.18576526642  0.0610016472638  -0.291282862425  0.213505759835  
3.57797217369  -1.11417984962  -1.07158541679  -2.21266698837  0.0808271840215  -0.341609239578  0.0945525541902  
3.5860581398  -0.856371641159  -0.690477669239  -2.25077772141  0.0198255348951  -0.125053375959  0.0808271840215  
3.59413814545  -0.851888000965  -1.02674925327  -2.18576526642  -0.0594766065478  -0.23638138175  0.0960775911808  
3.60221815109  -0.876547932625  -0.564936280251  -2.0826420784  -0.0899774283171  -0.289757817984  0.129628494382  
3.61036205292  -1.02450740337  -0.773424625397  -2.10281825066  0.0335509069264  -0.097602635622  0.181479901075  
3.61844801903  -1.08727812767  -0.75997376442  -2.13420367241  0.108277924359  -0.283657670021  0.224181056023  
3.62657904625  -0.811535418034  -0.73531383276  -2.22387599945  0.0579515658319  -0.298908084631  0.265357166529  
3.6346681118  -0.928109586239  -0.863097071648  -2.26198673248  -0.0640517324209  -0.0442261956632  0.274507403374  
3.64276719093  -0.858613431454  -0.97294574976  -2.27095413208  -0.0777771025896  -0.211980730295  0.240956500173  
3.6509001255  -1.09624540806  -0.793600916862  -2.28440499306  0.0259256996214  -0.138778746128  0.135728672147  
3.65896296501  -0.889998793602  -1.00433111191  -2.28888845444  0.0625266879797  -0.303483188152  0.0625266879797  
3.66709303856  -1.188159585  -0.674784958363  -2.25077772141  -0.0625266879797  -0.228756174445  0.0640517324209  
3.67518115044  -1.00433111191  -0.73531383276  -2.24629426003  -0.140303790569  -0.263832122087  0.172329649329  
3.68334698677  -0.932593166828  -0.549243569374  -2.14989638329  0.0762520581484  -0.237906426191  0.227231130004  
3.69142699242  -1.10745441914  -0.656850516796  -2.16110539436  0.0503263585269  -0.309583365917  0.256206929684  
3.69961810112  -1.00433111191  -0.627706944942  -2.29785585403  -0.0838772654533  -0.254681885242  0.262307077646  
3.70772719383  -0.92586773634  -0.706170320511  -2.35165929794  0.0427011549473  -0.248581707478  0.155554205179  
3.71576905251  -0.981913030148  -0.860855221748  -2.34493374825  0.109802961349  -0.135728672147  0.117428168654  
3.72383999825  -0.975187599659  -0.878789722919  -2.35165929794  -0.0106752887368  -0.298908084631  0.161654368043  
3.73190402985  -1.06485998631  -1.03795826435  -2.33596658707  -0.00457512354478  -0.0579515658319  0.250106751919  
3.7401611805  -1.17246687412  -0.858613431454  -2.18128156662  0.0960775911808  -0.231806263328  0.289757817984  
3.74818301201  -1.2509303093  -0.856371641159  -2.17007255554  0.0167754534632  -0.268407255411  0.279082536697  
3.75633001328  -1.01554012299  -0.75997376442  -2.29785585403  0.0686268508434  -0.131153538823  0.0838772654533  
3.76446819305  -0.847404360771  -0.824986279011  -2.20818328857  0.102177761495  -0.269932299852  0.0610016472638  
3.77250504494  -0.977429389954  -0.916900515556  -2.16783070564  -0.0625266879797  -0.263832122087  0.17385469377  
3.78074216843  -1.1904014349  -1.02899098396  -2.16783070564  0.0793021395802  -0.143353864551  0.228756174445  
3.78879904747  -1.4235496521  -1.04916739464  -2.23060154915  0.0289757829159  -0.256206929684  0.213505759835  
3.79688405991  -1.23075401783  -1.03795826435  -2.36735200882  -0.0701518952847  -0.33093392849  0.0991276800632  
3.80498218536  -1.25989747047  -0.966220319271  -2.33372473717  0.0884523913264  -0.0960775911808  0.125053375959  
3.81311607361  -0.858613431454  -1.07606911659  -2.13196182251  -0.0793021395802  -0.131153538823  0.247056677938  
3.82118701935  -0.937076807022  -1.26886475086  -2.12747812271  0.097602635622  -0.250106751919  0.23638138175  
3.82931399345  -1.02450740337  -1.37871348858  -2.16558909416  -0.0167754534632  -0.311108410358  0.132678583264  
3.83743214607  -1.27559018135  -1.34732818604  -2.32699942589  0.0411761105061  -0.30043309927  -0.00457512354478  
3.84566116333  -1.34508633614  -1.20609402657  -2.24629426003  0.0167754534632  -0.198255360126  0.157079234719  
3.85363602638  -1.13659799099  -1.16125786304  -2.14541268349  -0.0137253701687  -0.154029160738  0.193680226803  
3.86170697212  -1.04244196415  -1.30249190331  -2.17231440544  0.0594766065478  -0.208930641413  0.125053375959  
3.8698220253  -1.22627031803  -1.44596779346  -2.19024896622  -0.0183004941791  -0.263832122087  0.0625266879797  
3.87790203094  -1.32715189457  -1.39664793015  -2.36735200882  0.0823522210121  -0.285182714462  0.192155182362  
3.88598108292  -1.34508633614  -1.21954488754  -2.35390114784  -0.0533764399588  -0.311108410358  0.240956500173  
3.89409518242  -1.00433111191  -1.17919230461  -2.14092898369  0.0671018138528  -0.305008232594  0.132678583264  
3.90217614174  -1.1276307106  -1.37198805809  -2.04453110695  -0.0518513992429  -0.253156840801  0.0594766065478  
3.91031503677  -1.35629534721  -1.5401238203  -2.27992129326  0.00152504118159  -0.25163179636  0.242481544614  
3.91845703125  -1.42130792141  -1.38319706917  -2.52203679085  -0.0167754534632  -0.17385469377  0.230281218886  
3.92667603493  -1.01554012299  -1.05589282513  -1.99969506264  0.140303790569  -0.208930641413  0.25163179636  
3.93477201462  -1.49304580688  -1.12090528011  -2.27319598198  -0.0472762770951  -0.295857995749  0.271457344294  
3.94277596474  -1.17470872402  -1.07606911659  -2.32475757599  0.123528338969  -0.253156840801  0.155554205179  
3.9508330822  -0.430427610874  -0.867580711842  -2.08712553978  0.0106752887368  -0.237906426191  0.0945525541902  
3.95896220207  -0.448362112045  -0.961736738682  -1.80465745926  0.149454042315  -0.222656011581  0.254681885242  
3.96699309349  -1.01554012299  -1.12314713001  -2.07143306732  -0.0381260290742  -0.271457344294  0.234856337309  
3.975066185  -1.27334845066  -1.02226555347  -2.39873719215  0.0289757829159  -0.230281218886  0.114378087223  
3.98314905167  -0.791359126568  -0.728588402271  -2.27095413208  -0.0335509069264  -0.269932299852  0.211980730295  
3.99133515358  -0.703928530216  -0.728588402271  -1.92571520805  0.0655767694116  -0.183004945517  0.303483188152  
3.99944519997  -1.11417984962  -0.907933294773  -2.03332209587  -0.0427011549473  -0.178429812193  0.215030804276  
4.00764203072  -1.04468369484  -0.87430614233  -2.33372473717  0.0381260290742  -0.218080893159  0.0335509069264  
4.01576209068  -0.883273363113  -0.786875486374  -2.36735200882  -0.0259256996214  -0.286707729101  0.17385469377  
4.02378797531  -0.612014293671  -0.661334097385  -2.0848839283  0.0930275097489  -0.320258647203  0.239431470633  
4.03187417984  -0.955011308193  -0.730830252171  -1.84501004219  -0.0335509069264  -0.301958143711  0.183004945517  
4.03997015953  -1.02674925327  -0.869822502136  -2.1969742775  0.109802961349  -0.250106751919  0.0899774283171  
4.04802799225  -1.10297083855  -0.869822502136  -2.3785610199  -0.0167754534632  -0.215030804276  0.15860427916  
4.05611014366  -0.876547932625  -0.766699194908  -2.24405241013  0.135728672147  -0.257731974125  0.279082536697  
4.06419706345  -0.865338861942  -0.782391905785  -1.93244063854  0.0183004941791  -0.376685172319  0.230281218886  
4.07228302956  -0.721862971783  -0.831711709499  -1.98400235176  0.056426525116  -0.135728672147  0.0808271840215  
4.08039116859  -0.856371641159  -1.02226555347  -2.27767944336  0.0594766065478  -0.179954856634  0.0899774283171  
4.08855605125  -0.92586773634  -1.16574144363  -2.49065160751  -0.0884523913264  -0.295857995749  0.213505759835  
4.09657716751  -0.829469919205  -1.0693436861  -2.27095413208  0.100652717054  -0.277557492256  0.272982358932  
4.1046640873  -0.818260848522  -0.914658725262  -2.03556394577  0.0152504118159  -0.140303790569  0.210455685854  
4.11277103424  -0.526825487614  -0.934835016727  -1.97055149078  -0.0594766065478  -0.332458972931  0.125053375959  
4.12082910538  -0.878789722919  -1.12314713001  -2.05798196793  0.097602635622  -0.20435552299  0.161654368043  
4.12893819809  -0.701686680317  -1.3047337532  -2.19249081612  0.00152504118159  -0.15860427916  0.213505759835  
4.13701200485  -0.804809987545  -1.13435614109  -2.14765453339  -0.00457512354478  -0.298908084631  0.271457344294  
4.14513301849  -0.959494888783  -1.05365097523  -2.10057640076  0.117428168654  -0.0640517324209  0.248581707478  
4.15327811241  -0.780150055885  -0.92586773634  -2.03332209587  0.0320258662105  -0.245531633496  0.155554205179  
4.16133308411  -0.652366876602  -1.09176170826  -2.00866222382  -0.0610016472638  -0.219605922699  0.0472762770951  
4.16946005821  -0.706170320511  -1.20833587646  -1.99296963215  0.100652717054  -0.239431470633  0.0777771025896  
4.17747616768  -0.603047013283  -1.37871348858  -2.09609293938  0.0640517324209  -0.234856337309  0.179954856634  
4.18568110466  -0.701686680317  -1.28231561184  -2.29561400414  -0.0366009883583  -0.227231130004  0.245531633496  
4.19368600845  -0.97294574976  -1.17695057392  -2.33820843697  0.0350759476423  -0.317208558321  0.247056677938  
4.20183300972  -0.721862971783  -1.12090528011  -2.1947324276  0.123528338969  -0.291282862425  0.239431470633  
4.20989513397  -0.829469919205  -1.04692554474  -2.06246566772  0.0259256996214  -0.199780389667  0.131153538823  
4.21798706055  -0.791359126568  -1.08951997757  -2.04004764557  -0.0854023098946  -0.259256988764  0.0945525541902  
4.22606897354  -0.558210849762  -0.97294574976  -2.03332209587  0.0640517324209  -0.0793021395802  0.135728672147  
4.2341799736  -0.39231684804  -1.15004885197  -1.95261704922  0.109802961349  -0.250106751919  0.17385469377  
4.24222612381  -0.64115780592  -1.13211429119  -1.99969506264  0.0716769322753  -0.172329649329  0.227231130004  
4.25031113625  -0.744281113148  -1.13659799099  -2.0781583786  -0.0472762770951  -0.193680226803  0.265357166529  
4.25838017464  -0.99312210083  -1.25989747047  -2.18576526642  -0.0671018138528  -0.271457344294  0.320258647203  
4.26648902893  -0.625465154648  -0.99312210083  -2.17007255554  0.0305008236319  -0.120478250086  0.262307077646  
4.27459597588  -0.692719459534  -1.13211429119  -2.14541268349  0.0762520581484  -0.240956500173  0.222656011581  
4.28268313408  -0.513374626637  -1.15004885197  -2.02435493469  0.0747270211577  -0.26688221097  0.149454042315  
4.29081606865  -0.721862971783  -0.876547932625  -2.00866222382  -0.0152504118159  -0.20588055253  0.0793021395802  
4.29885911942  -0.804809987545  -1.05140912533  -2.01762938499  -0.102177761495  -0.103702798486  0.0320258662105  
4.30695605278  -0.573903501034  -0.892240583897  -2.04453110695  -0.103702798486  -0.335509061813  0.0396510697901  
4.31503915787  -0.52234184742  -0.775666475296  -2.08712553978  -0.0244006589055  -0.311108410358  0.0549014806747  
4.32312917709  -0.560452640057  -0.984154820442  -2.0736746788  0.048801317811  -0.228756174445  0.0960775911808  
4.33122396469  -0.490956515074  -1.10297083855  -2.06022381783  0.0762520581484  -0.135728672147  0.125053375959  
4.33938217163  -0.533550918102  -0.84964621067  -2.10954380035  0.097602635622  -0.20435552299  0.141828835011  
4.34762811661  -0.488714694977  -0.946044027805  -2.10506010056  0.0579515658319  -0.283657670021  0.149454042315  
4.35566997528  -0.697203099728  -1.04468369484  -2.01762938499  0.0442261956632  -0.323308736086  0.218080893159  
4.36376404762  -0.777908265591  -0.609772443771  -2.05349850655  -0.0305008236319  -0.318733602762  0.154029160738  
4.37183618546  -0.742039263248  -0.831711709499  -2.03108024597  -0.0457512363791  -0.234856337309  0.268407255411  
4.37992215157  -0.573903501034  -0.961736738682  -2.0826420784  -0.106752879918  -0.109802961349  0.0838772654533  
4.3880341053  -0.511132776737  -0.816019058228  -2.10730195045  -0.0625266879797  -0.0472762770951  0.202830478549  
4.39618611336  -0.374382376671  -0.75549018383  -2.0826420784  -0.161654368043  -0.0106752887368  0.118953213096  
4.40428304672  -0.376624166965  -0.789117336273  -2.06919121742  -0.0808271840215  -0.056426525116  0.154029160738  
4.41239500046  -0.410251319408  -0.912416875362  -2.00417852402  -0.0472762770951  -0.00457512354478  0.257731974125  
4.42058515549  -0.165893986821  -0.719621181488  -1.8382846117  -0.26688221097  -0.0503263585269  -0.0442261956632  
4.43072509766  0.186070278287  -0.764457404613  -1.56926739216  -0.239431470633  0.138778746128  -0.0152504118159  
4.43872117996  0.00672543141991  -0.733072042465  -1.64324712753  -0.225706100464  0.0671018138528  0.146403953433  
4.44678115845  0.0807051807642  -0.726346611977  -1.64548897743  -0.222656011581  0.0823522210121  0.114378087223  
4.45484304428  0.125541388988  -0.739797472954  -1.60961997509  -0.225706100464  0.097602635622  0.114378087223  
4.46290802956  0.1188159585  0.0851887986064  -2.36735200882  -0.31568351388  0.0183004941791  0.230281218886  
4.47096610069  0.192795708776  -0.00224181055091  -2.40097904205  -0.333984017372  -0.00457512354478  0.0777771025896  
4.47905397415  0.28470993042  0.260050028563  -2.16558909416  -0.257731974125  -0.0106752887368  0.347709387541  
4.48713898659  0.179344847798  0.313853472471  -2.11626911163  -0.373635083437  -0.048801317811  0.112853050232  
4.49525117874  0.28470993042  0.416976749897  -2.33148288727  -0.230281218886  -0.0213505774736  0.31568351388  
4.50337100029  0.26229184866  0.68823581934  -2.2575032711  -0.387360453606  -0.048801317811  0.097602635622  
4.51156997681  0.253324598074  0.80705177784  -2.29561400414  -0.215030804276  -0.0991276800632  0.272982358932  
4.51968312263  0.363173305988  0.710653960705  -2.24629426003  -0.228756174445  0.00915024708956  0.0762520581484  
4.5277299881  0.378865987062  0.497681945562  -2.20594167709  -0.213505759835  -0.0640517324209  0.0823522210121  
4.53580403328  0.325062543154  0.248840972781  -2.17007255554  -0.218080893159  -0.179954856634  0.112853050232  
4.54389119148  0.34523883462  0.547001779079  -2.24629426003  -0.285182714462  0.0228756181896  0.0640517324209  
4.5519361496  0.423702180386  0.753248333931  -2.27543759346  -0.396510720253  -0.150979071856  0.140303790569  
4.55999612808  0.40352588892  0.558210849762  -2.34269213676  -0.381260305643  -0.0823522210121  0.195205271244  
4.56807518005  0.363173305988  0.513374626637  -2.23284339905  -0.454462260008  -0.0808271840215  0.230281218886  
4.57617306709  0.448362112045  0.786875486374  -2.2530195713  -0.428536564112  -0.265357166529  0.288232773542  
4.58425498009  0.30936986208  0.52234184742  -2.34045028687  -0.375160127878  -0.0274507403374  0.230281218886  
4.59237909317  0.416976749897  0.360931485891  -2.17231440544  -0.215030804276  -0.210455685854  0.146403953433  
4.60051608086  0.298160791397  0.739797472954  -2.10954380035  -0.286707729101  -0.0747270211577  0.0427011549473  
4.60856199265  0.342997014523  0.638916015625  -2.259745121  -0.329408884048  -0.259256988764  0.0610016472638  
4.6166870594  0.464054793119  0.677026808262  -2.17231440544  -0.398035734892  -0.196730315685  0.22113096714  
4.62475919724  0.295919001102  0.609772443771  -2.21042513847  -0.42396146059  -0.211980730295  0.237906426191  
4.63284516335  0.421460390091  0.208488374949  -2.36062645912  -0.288232773542  -0.301958143711  0.231806263328  
4.64093613625  0.307128041983  0.623223304749  -2.30906486511  -0.250106751919  -0.155554205179  0.137253701687  
4.64896607399  0.378865987062  0.432669430971  -2.33596658707  -0.375160127878  -0.396510720253  0.118953213096  
4.65707397461  0.300402611494  0.502165555954  -2.36511015892  -0.40871104598  -0.164704442024  0.163179412484  
4.66515612602  0.307128041983  0.446120291948  -2.29561400414  -0.382785350084  -0.420911371708  0.333984017372  
4.67324209213  0.280226320028  0.603047013283  -2.40994644165  -0.22113096714  -0.0793021395802  0.256206929684  
4.68136906624  0.26229184866  0.833953499794  -2.22611784935  -0.3126334548  -0.367534935474  0.138778746128  
4.68947601318  0.20176294446  0.464054793119  -2.27319598198  -0.359909713268  -0.0579515658319  0.0838772654533  
4.69767212868  0.280226320028  0.771182835102  -2.22611784935  -0.327883839607  -0.294332951307  0.224181056023  
4.70573496819  0.242115542293  0.612014293671  -2.32027387619  -0.198255360126  0.00305008236319  0.208930641413  
4.71378803253  0.334029763937  0.322820723057  -2.33820843697  -0.390410542488  -0.167754530907  0.140303790569  
4.72187519073  0.32057890296  0.56941986084  -2.26198673248  -0.413286149502  -0.0289757829159  0.125053375959  
4.72993898392  0.327304333448  0.598563432693  -2.3808028698  -0.259256988764  -0.0640517324209  0.276032447815  
4.738063097  0.289193570614  0.275742709637  -2.46599149704  -0.364484846592  -0.105227842927  0.187580063939  
4.74616003036  0.260050028563  0.668059527874  -2.38528633118  -0.430061608553  -0.0655767694116  0.00610016472638  
4.75424718857  0.298160791397  0.764457404613  -2.30458116531  -0.292807906866  -0.215030804276  0.161654368043  
4.76241517067  0.3564478755  0.603047013283  -2.1992161274  -0.36143475771  -0.134203627706  0.163179412484  
4.77045607567  0.421460390091  0.587354362011  -2.23956871033  -0.446837067604  -0.277557492256  0.048801317811  
4.7785320282  0.363173305988  0.293677181005  -2.39425373077  -0.288232773542  -0.244006589055  0.157079234719  
4.78666901588  0.383349597454  0.405767709017  -2.44357347488  -0.398035734892  -0.321783691645  0.230281218886  
4.79474210739  0.399042278528  0.490956515074  -2.41218805313  -0.407186001539  -0.291282862425  0.0686268508434  
4.80278706551  0.354206055403  0.598563432693  -2.47720074654  -0.224181056023  -0.301958143711  0.225706100464  
4.81087899208  0.387833237648  0.742039263248  -2.3785610199  -0.367534935474  -0.240956500173  0.216555848718  
4.81896305084  0.450603932142  0.535792708397  -2.3740773201  -0.29738304019  -0.146403953433  0.122003294528  
4.82709908485  0.618739724159  0.560452640057  -2.42788076401  -0.338559150696  -0.0930275097489  0.3126334548  
4.8351521492  0.582870721817  0.325062543154  -2.41667175293  -0.36143475771  -0.0320258662105  0.175379738212  
4.84327411652  0.470780223608  0.547001779079  -2.3808028698  -0.26688221097  -0.0472762770951  0.0808271840215  
4.8513610363  0.410251319408  0.562694430351  -2.2552614212  -0.384310364723  -0.0442261956632  0.295857995749  
4.85959815979  0.437153071165  0.710653960705  -2.43236446381  -0.219605922699  -0.131153538823  0.131153538823  
4.86759996414  0.481989264488  0.48647287488  -2.53772950172  -0.463612526655  -0.135728672147  0.274507403374  
4.87564897537  0.625465154648  0.455087542534  -2.35165929794  -0.327883839607  -0.195205271244  0.192155182362  
4.88376116753  0.544759988785  0.48647287488  -2.46374988556  -0.448362112045  -0.230281218886  0.0747270211577  
4.89182710648  0.430427610874  0.414734959602  -2.35614299774  -0.323308736086  -0.263832122087  0.216555848718  
4.89988207817  0.414734959602  -0.410251319408  -2.00642037392  -0.362959802151  -0.268407255411  0.109802961349  
4.90799403191  0.638916015625  -0.692719459534  -2.18800711632  -0.388885498047  -0.239431470633  0.308058321476  
4.91602015495  0.798084557056  -0.887757003307  -2.66775465012  -0.451412200928  -0.186055019498  0.144878908992  
4.92410898209  0.654608666897  -1.11193799973  -2.70586538315  -0.4727627635  -0.134203627706  0.216555848718  
4.9322040081  0.538034558296  -0.782391905785  -2.47720074654  -0.314158469439  -0.0899774283171  0.222656011581  
4.94033503532  0.652366876602  -0.829469919205  -2.44581532478  -0.393460631371  -0.0838772654533  0.112853050232  
4.94839119911  0.712895750999  -0.43939486146  -2.29337215424  -0.242481544614  -0.0869273468852  0.271457344294  
4.95649600029  0.600805222988  -0.385591417551  -2.36286830902  -0.434636741877  -0.155554205179  0.225706100464  
4.96459102631  0.504407346249  -0.181586652994  -2.29785585403  -0.329408884048  -0.179954856634  0.135728672147  
4.97263908386  0.587354362011  -0.20176294446  -2.09609293938  -0.318733602762  -0.216555848718  0.228756174445  
4.98074412346  0.645641446114  -0.401284098625  -2.23956871033  -0.359909713268  -0.245531633496  0.149454042315  
4.98883605003  0.661334097385  -0.506649196148  -2.3718354702  -0.283657670021  -0.288232773542  0.213505759835  
4.99691319466  0.685994029045  -0.937076807022  -2.42563891411  -0.506313681602  -0.326358824968  0.295857995749  
5.00493597984  0.663575947285  -0.742039263248  -2.41442990303  -0.475812852383  -0.332458972931  0.163179412484  
5.01305317879  0.578387141228  -0.775666475296  -2.43012261391  -0.259256988764  -0.343134254217  0.0793021395802  
5.02117609978  0.638916015625  -0.547001779079  -2.33820843697  -0.428536564112  -0.301958143711  0.240956500173  
5.02920818329  0.768941044807  -0.64115780592  -2.23508501053  -0.437686830759  -0.245531633496  0.198255360126  
5.0372941494  0.856371641159  -1.0110565424  -2.40546274185  -0.207405596972  -0.222656011581  0.0899774283171  
5.04535508156  0.889998793602  -0.822744488716  -2.27543759346  -0.413286149502  -0.108277924359  0.240956500173  
5.05360198021  0.795842766762  -0.742039263248  -2.23732686043  -0.428536564112  -0.114378087223  0.26688221097  
5.06159806252  0.737555682659  -0.941560447216  -2.29113030434  -0.254681885242  -0.0411761105061  0.164704442024  
5.06966018677  0.728588402271  -0.61649787426  -2.20818328857  -0.3126334548  -0.103702798486  0.0869273468852  
5.07768201828  0.762215614319  -0.596321582794  -2.20818328857  -0.375160127878  -0.0122003294528  0.247056677938  
5.08581399918  0.842920780182  -1.15453243256  -2.30458116531  -0.381260305643  -0.157079234719  0.260782033205  
5.09389209747  0.910175085068  -0.860855221748  -2.24629426003  -0.237906426191  -0.0396510697901  0.183004945517  
5.10200119019  0.87430614233  -1.07606911659  -2.34269213676  -0.382785350084  -0.161654368043  0.135728672147  
5.11008214951  0.856371641159  -1.19712686539  -2.17007255554  -0.436161786318  -0.164704442024  0.218080893159  
5.11816906929  0.816019058228  -1.28455746174  -2.27543759346  -0.448362112045  -0.183004945517  0.323308736086  
5.12630414963  0.721862971783  -0.910175085068  -2.21715068817  -0.286707729101  -0.285182714462  0.272982358932  
5.13439297676  0.715137541294  -0.934835016727  -2.27095413208  -0.260782033205  -0.172329649329  0.172329649329  
5.14250016212  0.818260848522  -0.856371641159  -2.14765453339  -0.358384668827  -0.332458972931  0.0503263585269  
5.15058016777  0.775666475296  -1.29352474213  -2.08936738968  -0.411761105061  -0.163179412484  0.106752879918  
5.15870714188  0.685994029045  -1.20161044598  -2.18576526642  -0.333984017372  -0.31568351388  0.234856337309  
5.16674900055  0.923625946045  -1.08279454708  -2.20594167709  -0.201305434108  -0.207405596972  0.231806263328  
5.17481303215  0.701686680317  -1.16125786304  -2.30009770393  -0.335509061813  -0.359909713268  0.176904782653  
5.18287706375  0.842920780182  -1.57375097275  -2.30682301521  -0.375160127878  -0.196730315685  0.106752879918  
5.19093513489  0.742039263248  -1.11417984962  -2.16783070564  -0.443786978722  -0.317208558321  0.0991276800632  
5.19897818565  0.831711709499  -1.11642169952  -2.04453110695  -0.4727627635  -0.31568351388  0.132678583264  
5.20708203316  0.869822502136  -1.2509303093  -2.14989638329  -0.440736889839  -0.184529989958  0.193680226803  
5.21516799927  0.748764753342  -1.20385229588  -2.10730195045  -0.378210216761  -0.308058321476  0.244006589055  
5.22325706482  0.75549018383  -1.03571653366  -2.06919121742  -0.286707729101  -0.265357166529  0.260782033205  
5.23136305809  0.751006543636  -1.19264316559  -2.06694936752  -0.263832122087  -0.166229486465  0.268407255411  
5.23946499825  0.771182835102  -1.35629534721  -2.0826420784  -0.301958143711  -0.269932299852  0.245531633496  
5.24762797356  0.795842766762  -1.50873851776  -2.17231440544  -0.327883839607  -0.20588055253  0.210455685854  
5.25569796562  0.68375223875  -1.51322209835  -2.21042513847  -0.367534935474  -0.123528338969  0.167754530907  
5.26375603676  0.679268598557  -1.34284448624  -2.1992161274  -0.350759476423  -0.26688221097  0.112853050232  
5.27181410789  0.762215614319  -1.27559018135  -2.18576526642  -0.42701151967  -0.143353864551  0.0610016472638  
5.2798871994  0.742039263248  -1.29128289223  -2.10730195045  -0.436161786318  -0.190630152822  0.0137253701687  
5.28798818588  0.784633696079  -1.31594276428  -2.06246566772  -0.391935586929  -0.225706100464  0.0594766065478  
5.29607105255  0.730830252171  -1.35629534721  -2.0781583786  -0.454462260008  -0.175379738212  -0.0793021395802  
5.3041369915  0.654608666897  -1.4885622263  -1.97055149078  -0.384310364723  -0.15860427916  -0.0640517324209  
5.31225299835  0.609772443771  -1.75533771515  -1.87191176414  -0.269932299852  -0.146403953433  -0.179954856634  
5.32032513618  0.52234184742  -1.91674804688  -1.26213932037  -0.237906426191  -0.135728672147  -0.118953213096  
5.32841300964  0.477505654097  -1.45493507385  -1.57823467255  -0.222656011581  -0.137253701687  -0.0945525541902  
5.33656311035  0.479747444391  -1.41682422161  -1.47735309601  -0.25163179636  -0.132678583264  -0.102177761495  
5.34460020065  0.484231084585  -1.38319706917  -1.40113162994  -0.234856337309  -0.131153538823  -0.0960775911808  
5.35266304016  1.20833587646  -0.365415126085  -1.91898977757  -0.358384668827  0.00457512354478  -0.141828835011  
5.36076116562  1.0693436861  -0.831711709499  -1.87191176414  -0.463612526655  -0.0610016472638  -0.20588055253  
5.36885619164  1.03123283386  -0.677026808262  -2.14317083359  -0.288232773542  -0.109802961349  -0.0122003294528  
5.37698197365  0.923625946045  -0.901207864285  -2.09385108948  -0.486488133669  0.0991276800632  -0.274507403374  
5.38506102562  0.85412979126  -0.87430614233  -2.13644552231  -0.274507403374  -0.0427011549473  0.0625266879797  
5.39314508438  0.656850516796  -0.977429389954  -2.11402726173  -0.513938903809  0.117428168654  -0.247056677938  
5.40120601654  0.766699194908  -1.03795826435  -2.17455625534  -0.29738304019  0.207405596972  0.109802961349  
5.40930008888  1.02899098396  -1.05813455582  -2.18576526642  -0.513938903809  0.279082536697  -0.134203627706  
5.41741514206  1.10969626904  -1.07831084728  -2.03108024597  -0.208930641413  0.224181056023  0.0167754534632  
5.42561507225  1.08727812767  -0.932593166828  -2.03108024597  -0.387360453606  0.0747270211577  0.0198255348951  
5.43358302116  1.09400355816  -0.730830252171  -2.05125665665  -0.213505759835  0.0899774283171  -0.143353864551  
5.44166398048  1.31370103359  -0.504407346249  -2.0781583786  -0.22113096714  0.285182714462  -0.0793021395802  
5.44974899292  1.01778197289  -0.549243569374  -2.14989638329  -0.239431470633  0.245531633496  -0.166229486465  
5.45787215233  0.728588402271  -0.694961249828  -2.23284339905  -0.298908084631  0.152504116297  -0.211980730295  
5.46590518951  0.831711709499  -0.984154820442  -2.23732686043  -0.341609239578  0.240956500173  -0.227231130004  
5.47399997711  0.977429389954  -1.29128289223  -2.21042513847  -0.385835409164  0.372110038996  -0.196730315685  
5.48208618164  0.87430614233  -1.27559018135  -2.24629426003  -0.439211845398  0.143353864551  -0.138778746128  
5.49019503593  1.13211429119  -0.860855221748  -2.22611784935  -0.417861282825  0.18910510838  -0.0793021395802  
5.4983291626  0.975187599659  -0.75997376442  -2.27095413208  -0.347709387541  0.222656011581  -0.118953213096  
5.50641417503  0.816019058228  -0.804809987545  -2.24405241013  -0.262307077646  0.112853050232  -0.202830478549  
5.51447415352  0.955011308193  -0.950527667999  -2.21715068817  -0.20588055253  0.318733602762  -0.269932299852  
5.52257704735  0.894482433796  -0.80705177784  -2.17679810524  -0.262307077646  0.0122003294528  -0.259256988764  
5.53064513206  1.20833587646  -0.558210849762  -2.2552614212  -0.31568351388  0.257731974125  -0.102177761495  
5.53868699074  0.952769458294  -0.634432375431  -2.23956871033  -0.378210216761  0.0213505774736  -0.0427011549473  
5.54677820206  1.15004885197  -0.876547932625  -2.18128156662  -0.367534935474  0.301958143711  -0.170804619789  
5.55486297607  0.941560447216  -1.02450740337  -2.11851096153  -0.285182714462  0.100652717054  -0.210455685854  
5.56298112869  1.21057772636  -0.775666475296  -2.14765453339  -0.208930641413  0.352284520864  -0.22113096714  
5.57106304169  1.02226555347  -0.798084557056  -2.08712553978  -0.283657670021  0.109802961349  -0.0991276800632  
5.57916808128  1.03795826435  -1.00208926201  -2.10506010056  -0.356859624386  0.329408884048  -0.105227842927  
5.5872759819  1.19712686539  -0.979671239853  -2.26647043228  -0.419386327267  0.0777771025896  -0.216555848718  
5.59535503387  0.903449654579  -0.847404360771  -2.29561400414  -0.362959802151  0.170804619789  -0.271457344294  
5.60346317291  1.03123283386  -1.10745441914  -2.34493374825  -0.225706100464  0.327883839607  -0.0777771025896  
5.61151313782  1.23972117901  -1.28679931164  -2.24629426003  -0.289757817984  0.0442261956632  -0.0915024727583  
5.61968398094  0.894482433796  -0.68375223875  -2.18576526642  -0.390410542488  0.201305434108  -0.195205271244  
5.62773609161  1.08503627777  -0.955011308193  -2.28664684296  -0.455987304449  0.337034106255  -0.224181056023  
5.63577508926  1.49752950668  -0.919142305851  -2.18128156662  -0.333984017372  0.123528338969  -0.0884523913264  
5.64384317398  1.37422990799  -0.856371641159  -2.15662169456  -0.323308736086  0.172329649329  -0.230281218886  
5.65193510056  1.3069756031  -1.15901601315  -2.03780579567  -0.431586652994  0.271457344294  -0.263832122087  
5.6600830555  1.02002382278  -0.771182835102  -2.10954380035  -0.466662615538  0.283657670021  -0.048801317811  
5.66812109947  0.757731974125  -0.719621181488  -2.26198673248  -0.291282862425  0.211980730295  -0.125053375959  
5.6762111187  0.883273363113  -0.809293627739  -2.13420367241  -0.268407255411  0.0869273468852  -0.193680226803  
5.6843559742  0.986396670341  -0.715137541294  -2.02211308479  -0.381260305643  0.135728672147  -0.109802961349  
5.69242501259  1.5401238203  -1.09400355816  -2.08712553978  -0.42396146059  0.233331307769  -0.149454042315  
5.70061397552  1.63203811646  -0.876547932625  -2.26198673248  -0.227231130004  0.366009891033  -0.233331307769  
5.7085981369  1.52667295933  -0.961736738682  -2.18800711632  -0.378210216761  0.387360453606  -0.0808271840215  
5.71664905548  1.0110565424  -0.932593166828  -2.16558909416  -0.439211845398  0.265357166529  -0.202830478549  
5.72474908829  0.856371641159  -1.10969626904  -2.16110539436  -0.289757817984  0.277557492256  -0.260782033205  
5.73283219337  1.00657296181  -1.20161044598  -2.20145797729  -0.308058321476  0.17385469377  -0.117428168654  
5.74091219902  1.18367600441  -1.23972117901  -2.26422858238  -0.404135912657  0.265357166529  -0.291282862425  
5.74900007248  0.892240583897  -1.33611905575  -2.23060154915  -0.349234431982  0.254681885242  -0.31568351388  
5.75708317757  0.697203099728  -1.27110660076  -2.35390114784  -0.295857995749  0.29738304019  -0.0716769322753  
5.76520419121  0.399042278528  -1.43251693249  -2.28664684296  -0.440736889839  0.115903131664  -0.288232773542  
5.77329611778  0.228664681315  -1.04020011425  -2.07143306732  -0.396510720253  0.163179412484  -0.218080893159  
5.7813911438  0.571661710739  -1.3069756031  -2.0781583786  -0.228756174445  0.172329649329  -0.152504116297  
5.78956508636  0.860855221748  -1.1904014349  -2.33372473717  -0.414811193943  0.274507403374  -0.272982358932  
5.79760909081  1.16798329353  -1.30025017262  -2.22611784935  -0.451412200928  0.350759476423  -0.186055019498  
5.8056910038  0.903449654579  -1.56478381157  -2.03556394577  -0.320258647203  0.272982358932  -0.103702798486  
5.81375813484  0.789117336273  -1.06037640572  -2.09385108948  -0.272982358932  0.237906426191  -0.184529989958  
5.82189798355  0.64115780592  -1.46166050434  -2.27992129326  -0.454462260008  0.163179412484  -0.175379738212  
5.82994699478  0.766699194908  -1.29128289223  -2.33148288727  -0.469712674618  0.340084195137  -0.0686268508434  
5.83806109428  1.00208926201  -1.36974620819  -2.1992161274  -0.352284520864  0.295857995749  -0.216555848718  
5.84614515305  0.768941044807  -1.66790699959  -2.12971997261  -0.260782033205  0.114378087223  -0.259256988764  
5.85423207283  0.475263834  -1.21954488754  -2.01538777351  -0.367534935474  0.228756174445  -0.0427011549473  
5.86234998703  0.555968999863  -1.24420487881  -2.16110539436  -0.480387985706  0.3126334548  -0.141828835011  
5.87051701546  0.555968999863  -1.36974620819  -2.17455625534  -0.401085823774  0.0899774283171  -0.199780389667  
5.87858605385  0.694961249828  -1.20161044598  -2.05125665665  -0.253156840801  0.353809565306  -0.228756174445  
5.88659715652  0.937076807022  -1.17022514343  -2.11851096153  -0.268407255411  0.245531633496  -0.102177761495  
5.89475607872  0.708412110806  -1.62307083607  -2.12971997261  -0.430061608553  0.301958143711  -0.225706100464  
5.90276217461  0.578387141228  -1.33611905575  -2.22387599945  -0.420911371708  0.160129323602  -0.280607581139  
5.91087603569  0.401284098625  -1.38543891907  -2.26647043228  -0.30043309927  0.318733602762  -0.190630152822  
5.91891312599  0.473022013903  -1.56030011177  -2.1992161274  -0.237906426191  0.150979071856  -0.048801317811  
5.92700600624  0.502165555954  -1.71722686291  -2.13196182251  -0.314158469439  0.23638138175  -0.123528338969  
5.93509602547  0.92138415575  -1.4280333519  -2.12747812271  -0.356859624386  0.170804619789  -0.202830478549  
5.94321608543  0.80256819725  -1.47062766552  -2.13196182251  -0.393460631371  0.20435552299  -0.231806263328  
5.95134210587  0.656850516796  -1.69705057144  -2.0848839283  -0.433111697435  0.234856337309  -0.28213262558  
5.95962309837  0.61649787426  -1.94813334942  -2.0826420784  -0.367534935474  0.0610016472638  -0.183004945517  
5.96758818626  0.32057890296  -1.70153415203  -2.17007255554  -0.288232773542  0.335509061813  -0.169279575348  
5.97573208809  0.394558668137  -1.29128289223  -2.23284339905  -0.231806263328  0.186055019498  -0.138778746128  
5.98381114006  0.329546153545  -1.17246687412  -2.22835969925  -0.248581707478  0.140303790569  -0.213505759835  
5.99186110497  0.27350088954  -1.25541388988  -2.12075281143  -0.294332951307  0.382785350084  -0.26688221097  
5.99997711182  0.751006543636  -1.4235496521  -2.14317083359  -0.338559150696  0.240956500173  -0.31568351388  
6.00806117058  0.61649787426  -1.61186182499  -2.17679810524  -0.382785350084  0.0838772654533  -0.350759476423  
6.01614904404  0.473022013903  -1.53788208961  -2.15213823318  -0.419386327267  0.288232773542  -0.347709387541  
6.02423810959  0.638916015625  -1.46166050434  -2.13644552231  -0.434636741877  0.3126334548  -0.280607581139  
6.03231215477  0.5940797925  -1.35181176662  -2.08936738968  -0.42396146059  0.23638138175  -0.120478250086  
6.04044318199  0.414734959602  -1.40113162994  -2.11851096153  -0.425486475229  0.105227842927  -0.0686268508434  
6.04859399796  0.304886221886  -1.4863203764  -2.13868737221  -0.382785350084  0.167754530907  -0.0335509069264  
6.05661797523  0.253324598074  -1.56702554226  -2.1947324276  -0.350759476423  0.240956500173  -0.0869273468852  
6.06470799446  0.387833237648  -1.60737812519  -2.16558909416  -0.314158469439  0.301958143711  -0.0305008236319  
6.07275009155  0.416976749897  -1.55805838108  -2.13644552231  -0.259256988764  0.286707729101  -0.152504116297  
6.08078598976  0.318337112665  -1.56030011177  -2.10730195045  -0.285182714462  0.218080893159  -0.106752879918  
6.08887004852  0.212972000241  -1.63652169704  -2.10057640076  -0.163179412484  0.157079234719  -0.103702798486  
6.09696698189  0.127783194184  -1.70377600193  -2.12523651123  -0.233331307769  0.0716769322753  -0.179954856634  
6.10511302948  0.0470780208707  -1.82483375072  -2.0759165287  -0.22113096714  0.0228756181896  -0.122003294528  
6.1131529808  -0.020176295191  -1.88312089443  -1.90553891659  -0.146403953433  0.0747270211577  0.0  
6.1212720871  -0.228664681315  -2.36286830902  -1.71722686291  -0.0884523913264  -0.123528338969  -0.0793021395802  
6.12936615944  -0.18382845819  -2.26422858238  -1.6656652689  -0.0671018138528  -0.0427011549473  -0.0305008236319  
6.13750004768  0.00224181055091  -2.16783070564  -1.65669798851  -0.109802961349  -0.0259256996214  -0.00152504118159  
6.1456182003  0.0134508628398  -2.15437984467  -1.66790699959  -0.112853050232  -0.0350759476423  0.0  
6.15368413925  -0.0134508628398  -2.12971997261  -1.62979626656  -0.111328005791  -0.0549014806747  0.0  
6.16177296638  0.544759988785  -2.92107915878  -0.773424625397  -0.122003294528  0.100652717054  -0.0838772654533  
6.16981816292  0.502165555954  -2.81123042107  -1.15004885197  -0.0411761105061  -0.0701518952847  -0.179954856634  
6.1779191494  0.51785826683  -3.15646934509  -1.1276307106  -0.0503263585269  0.179954856634  -0.0823522210121  
6.18600511551  0.582870721817  -3.24389982224  -1.05365097523  -0.18910510838  -0.143353864551  -0.164704442024  
6.1941280365  0.600805222988  -3.16319465637  -0.863097071648  0.0122003294528  0.207405596972  -0.213505759835  
6.202242136  0.701686680317  -3.12956762314  -0.858613431454  -0.25163179636  -0.109802961349  -0.152504116297  
6.21031117439  0.703928530216  -3.16319465637  -0.865338861942  -0.0838772654533  0.187580063939  -0.3461843431  
6.21843409538  0.703928530216  -3.40979385376  -0.775666475296  -0.0777771025896  0.0274507403374  -0.125053375959  
6.2265291214  0.663575947285  -3.37616658211  -0.833953499794  -0.161654368043  0.0854023098946  -0.370584994555  
6.2346560955  0.632190585136  -3.17440366745  -0.764457404613  0.0549014806747  0.22113096714  -0.161654368043  
6.24274706841  0.677026808262  -2.93453001976  -0.694961249828  -0.254681885242  0.195205271244  -0.367534935474  
6.25080800056  0.824986279011  -3.44790458679  -0.708412110806  0.0106752887368  0.248581707478  -0.178429812193  
6.25883698463  0.865338861942  -3.6788110733  -0.701686680317  -0.244006589055  0.210455685854  -0.254681885242  
6.26691913605  0.952769458294  -3.24165797234  -0.728588402271  0.0122003294528  0.150979071856  -0.190630152822  
6.27500104904  0.903449654579  -3.18785452843  -0.654608666897  -0.196730315685  0.0579515658319  -0.0930275097489  
6.28316998482  0.876547932625  -3.52860975266  -0.789117336273  0.0183004941791  0.0869273468852  -0.140303790569  
6.29118299484  0.710653960705  -3.13853478432  -0.719621181488  -0.0732019767165  0.160129323602  -0.0945525541902  
6.29927802086  0.620981514454  -3.36719942093  -0.663575947285  0.0  0.259256988764  -0.141828835011  
6.30740213394  0.623223304749  -3.54654431343  -0.697203099728  0.0793021395802  0.271457344294  -0.195205271244  
6.31556797028  0.708412110806  -3.17216181755  -0.706170320511  0.0518513992429  0.17385469377  -0.23638138175  
6.32360911369  0.910175085068  -3.3851339817  -0.677026808262  0.0838772654533  0.0472762770951  -0.288232773542  
6.33171415329  0.881031572819  -3.01971888542  -0.766699194908  0.0808271840215  0.0960775911808  -0.308058321476  
6.33978199959  0.80256819725  -3.30218696594  -0.567178070545  0.0442261956632  0.245531633496  -0.256206929684  
6.34786105156  0.775666475296  -3.0286860466  -0.701686680317  -0.0274507403374  0.271457344294  -0.131153538823  
6.35591197014  0.923625946045  -3.29994511604  -0.596321582794  -0.0366009883583  0.155554205179  -0.048801317811  
6.36402797699  1.188159585  -3.11163306236  -0.679268598557  -0.0838772654533  0.0793021395802  -0.0686268508434  
6.3721241951  1.02002382278  -3.63621664047  -0.585112571716  -0.0274507403374  0.260782033205  -0.172329649329  
6.38015818596  0.847404360771  -3.31339597702  -0.753248333931  0.0289757829159  0.311108410358  -0.210455685854  
6.38826107979  0.670301377773  -3.43445372581  -0.677026808262  0.0305008236319  0.201305434108  -0.268407255411  
6.39631700516  0.860855221748  -3.49498271942  -0.730830252171  0.0854023098946  0.0945525541902  -0.242481544614  
6.40440011024  0.824986279011  -3.0354115963  -0.629948735237  0.0579515658319  0.337034106255  -0.154029160738  
6.41247320175  0.679268598557  -3.13405108452  -0.42818582058  0.0183004941791  0.247056677938  -0.0915024727583  
6.42068314552  0.795842766762  -3.17440366745  -0.493198335171  -0.056426525116  0.122003294528  -0.150979071856  
6.42861199379  0.896724224091  -2.96591544151  -0.531309127808  -0.105227842927  0.250106751919  -0.228756174445  
6.43676114082  0.867580711842  -3.1475019455  -0.582870721817  -0.0350759476423  0.248581707478  -0.305008232594  
6.44479298592  0.80256819725  -3.45911359787  -0.650125086308  0.0579515658319  0.0762520581484  -0.216555848718  
6.45288705826  0.764457404613  -3.27752709389  -0.603047013283  0.0793021395802  0.161654368043  -0.0305008236319  
6.46097397804  0.809293627739  -3.06679677963  -0.553727209568  0.0610016472638  0.228756174445  -0.0671018138528  
6.46908903122  0.715137541294  -3.08473134041  -0.499923765659  -0.00305008236319  0.0655767694116  -0.184529989958  
6.47721409798  0.721862971783  -3.09145665169  -0.490956515074  -0.0991276800632  0.260782033205  -0.285182714462  
6.48530507088  1.00657296181  -3.34478139877  -0.551485419273  -0.0915024727583  0.22113096714  -0.237906426191  
6.4933860302  0.901207864285  -3.29994511604  -0.515616416931  0.0  0.0457512363791  -0.0884523913264  
6.50159716606  0.822744488716  -3.35374855995  -0.446120291948  0.0427011549473  0.3461843431  -0.137253701687  
6.50966215134  1.05140912533  -2.9121119976  -0.502165555954  0.0381260290742  0.208930641413  -0.254681885242  
6.51776003838  0.726346611977  -2.87175941467  -0.464054793119  -0.0472762770951  0.268407255411  -0.292807906866  
6.52588319778  0.889998793602  -2.86055016518  -0.390075027943  -0.141828835011  0.228756174445  -0.102177761495  
6.53392004967  0.952769458294  -3.01747703552  -0.396800458431  -0.0427011549473  0.0701518952847  -0.0701518952847  
6.54202103615  0.791359126568  -3.01971888542  -0.499923765659  0.0274507403374  0.303483188152  -0.17385469377  
6.55014610291  0.916900515556  -2.92556285858  -0.461812973022  0.0640517324209  0.115903131664  -0.225706100464  
6.5582690239  0.437153071165  -1.91898977757  -0.97294574976  -0.00457512354478  0.333984017372  -0.112853050232  
6.56633400917  0.360931485891  -2.26198673248  -0.842920780182  -0.109802961349  0.123528338969  -0.0671018138528  
6.57442617416  0.383349597454  -1.82259202003  -0.459571152925  0.0106752887368  0.176904782653  -0.199780389667  
6.58263516426  0.430427610874  -1.71722686291  -0.253324598074  0.120478250086  0.201305434108  -0.25163179636  
6.59079813957  0.587354362011  -1.74861228466  -0.672543168068  0.0671018138528  0.308058321476  -0.0259256996214  
6.5987432003  0.587354362011  -2.0736746788  -0.672543168068  0.0106752887368  0.137253701687  -0.152504116297  
6.60684204102  0.634432375431  -2.21042513847  -0.560452640057  -0.0930275097489  0.163179412484  -0.210455685854  
6.61496710777  1.04020011425  -2.38528633118  -0.591838002205  -0.00152504118159  0.277557492256  -0.274507403374  
6.62305617332  0.679268598557  -2.26422858238  -0.753248333931  0.0747270211577  0.166229486465  -0.213505759835  
6.63111996651  0.412493139505  -2.17455625534  -0.771182835102  0.0808271840215  0.29738304019  -0.125053375959  
6.63922214508  0.63667422533  -2.18800711632  -0.567178070545  0.0945525541902  0.314158469439  -0.131153538823  
6.64729118347  0.605288863182  -1.8405264616  -0.650125086308  0.0366009883583  0.118953213096  -0.219605922699  
6.65538406372  0.555968999863  -1.7261941433  -0.68375223875  -0.00152504118159  0.201305434108  -0.31568351388  
6.66357302666  0.64115780592  -2.01314592361  -0.656850516796  -0.0457512363791  0.306533277035  -0.276032447815  
6.67161798477  0.623223304749  -2.06694936752  -0.784633696079  0.0152504118159  0.154029160738  -0.240956500173  
6.6796631813  0.506649196148  -1.91450619698  -0.804809987545  0.0533764399588  0.155554205179  -0.048801317811  
6.68781399727  0.423702180386  -2.00193691254  -0.681510388851  0.0960775911808  0.311108410358  -0.125053375959  
6.69586896896  0.280226320028  -1.55805838108  -0.614256083965  0.112853050232  0.208930641413  -0.20588055253  
6.70396399498  0.455087542534  -1.45941865444  -0.638916015625  0.0884523913264  0.0259256996214  -0.244006589055  
6.71204018593  0.475263834  -1.79793202877  -0.782391905785  0.0167754534632  0.125053375959  -0.280607581139  
6.72013616562  0.479747444391  -1.5446075201  -0.659092307091  -0.0549014806747  0.269932299852  -0.305008232594  
6.72823119164  0.372140556574  -1.93916606903  -0.845162570477  -0.097602635622  0.193680226803  -0.169279575348  
6.73633217812  0.48647287488  -1.78672301769  -0.780150055885  -0.0854023098946  0.0793021395802  -0.0945525541902  
6.74437713623  0.654608666897  -2.06919121742  -0.847404360771  -0.0350759476423  0.118953213096  -0.154029160738  
6.75257611275  0.712895750999  -1.69929242134  -0.822744488716  0.0167754534632  0.256206929684  -0.184529989958  
6.76056408882  0.585112571716  -1.74188685417  -0.863097071648  0.0457512363791  0.280607581139  -0.276032447815  
6.76865100861  0.497681945562  -1.48183679581  -0.822744488716  0.097602635622  0.216555848718  -0.280607581139  
6.77671217918  0.374382376671  -1.46390223503  -0.677026808262  0.100652717054  0.0899774283171  -0.350759476423  
6.78483819962  0.401284098625  -1.60961997509  -0.791359126568  0.097602635622  0.056426525116  -0.305008232594  
6.79286503792  0.634432375431  -1.21057772636  -0.887757003307  0.0366009883583  0.164704442024  -0.268407255411  
6.80094909668  0.730830252171  -1.6051363945  -0.818260848522  0.0244006589055  0.234856337309  -0.15860427916  
6.80904006958  0.670301377773  -1.69032514095  -0.928109586239  -0.0579515658319  0.311108410358  -0.0762520581484  
6.81714916229  0.629948735237  -1.47511136532  -0.997605681419  -0.0625266879797  0.277557492256  -0.0244006589055  
6.82524299622  0.580628931522  -1.83604288101  -0.872064292431  -0.128103464842  0.170804619789  -0.0183004941791  
6.83336615562  0.464054793119  -1.95710062981  -0.903449654579  -0.0808271840215  0.100652717054  -0.0625266879797  
6.84144806862  0.410251319408  -1.61410355568  -0.959494888783  -0.15860427916  0.0930275097489  -0.0533764399588  
6.84956717491  0.390075027943  -1.2509303093  -0.946044027805  -0.0640517324209  0.125053375959  -0.112853050232  
6.85760807991  0.39231684804  -1.23523759842  -0.903449654579  -0.109802961349  0.167754530907  -0.0899774283171  
6.86577320099  0.42818582058  -1.35853719711  -0.838437139988  -0.0899774283171  0.181479901075  -0.152504116297  
6.87379217148  0.515616416931  -1.37198805809  -0.867580711842  0.0244006589055  0.244006589055  -0.102177761495  
6.88187503815  0.531309127808  -1.15677428246  -0.910175085068  -0.167754530907  0.26688221097  -0.230281218886  
6.88996315002  0.558210849762  -1.20609402657  -0.990880250931  -0.0411761105061  0.276032447815  -0.0594766065478  
6.89804816246  0.591838002205  -1.23972117901  -1.06037640572  -0.0838772654533  0.291282862425  -0.141828835011  
6.9061601162  0.520100057125  -1.23075401783  -1.10521256924  -0.129628494382  0.254681885242  -0.211980730295  
6.914301157  0.484231084585  -1.30921733379  -1.16125786304  -0.131153538823  0.344659298658  0.00915024708956  
6.92242503166  0.531309127808  -1.23299574852  -1.20385229588  -0.17385469377  0.259256988764  -0.306533277035  
6.93059802055  0.195037513971  -0.999847531319  -1.41682422161  -0.210455685854  0.123528338969  0.118953213096  
6.93874907494  0.0896724238992  -0.529067277908  -1.91002261639  -0.228756174445  0.213505759835  -0.108277924359  
6.94674396515  0.298160791397  -1.08503627777  -1.49528765678  -0.193680226803  0.164704442024  -0.0732019767165  
6.95482611656  0.300402611494  -1.07382726669  -1.4235496521  -0.195205271244  0.166229486465  -0.056426525116  
6.96291708946  0.255566388369  -0.979671239853  -1.50425493717  -0.20435552299  0.172329649329  -0.0640517324209  
6.97097802162  1.22851216793  -2.16558909416  -0.941560447216  -0.0823522210121  0.404135912657  -0.164704442024  
6.97907209396  1.00657296181  -1.9615842104  -0.932593166828  -0.208930641413  0.20435552299  -0.0884523913264  
6.98715400696  0.961736738682  -2.30906486511  -1.0132983923  -0.166229486465  0.414811193943  -0.144878908992  
6.99527215958  0.950527667999  -2.43012261391  -0.966220319271  -0.0183004941791  0.0884523913264  -0.230281218886  
7.00337600708  0.894482433796  -2.41891360283  -0.827228069305  -0.17385469377  0.333984017372  -0.118953213096  
7.01144504547  0.68375223875  -2.46599149704  -0.762215614319  -0.0198255348951  0.0610016472638  -0.248581707478  
7.01946496964  0.742039263248  -2.42339730263  -0.692719459534  -0.186055019498  0.0503263585269  -0.108277924359  
7.02766299248  0.824986279011  -2.05798196793  -0.742039263248  -0.0381260290742  0.106752879918  -0.187580063939  
7.03570508957  0.881031572819  -1.94589149952  -0.789117336273  -0.00762520590797  0.146403953433  -0.106752879918  
7.04375815392  0.845162570477  -1.79344844818  -0.710653960705  -0.0442261956632  0.277557492256  -0.224181056023  
7.05183601379  0.753248333931  -2.12747812271  -0.80256819725  0.097602635622  0.263832122087  -0.100652717054  
7.05988407135  0.775666475296  -2.20594167709  -0.647883236408  -0.0457512363791  0.274507403374  -0.187580063939  
7.06795310974  0.813777208328  -1.98176050186  -0.75997376442  0.190630152822  0.150979071856  -0.0518513992429  
7.07602906227  0.984154820442  -2.14092898369  -0.782391905785  -0.056426525116  0.117428168654  -0.176904782653  
7.08413505554  0.961736738682  -2.65654540062  -0.894482433796  0.18910510838  0.259256988764  0.0259256996214  
7.09222006798  0.786875486374  -2.23060154915  -0.768941044807  -0.0899774283171  0.291282862425  -0.140303790569  
7.1003370285  0.984154820442  -2.24853587151  -0.829469919205  0.15860427916  0.210455685854  -0.0183004941791  
7.10839509964  0.990880250931  -2.46150803566  -0.827228069305  -0.129628494382  0.0183004941791  -0.140303790569  
7.11652207375  0.881031572819  -2.06470751762  -0.75997376442  0.0198255348951  0.176904782653  -0.118953213096  
7.12459397316  1.29352474213  -2.3718354702  -0.766699194908  -0.0991276800632  0.239431470633  -0.146403953433  
7.1326751709  0.957253098488  -2.14765453339  -0.699444890022  -0.143353864551  0.114378087223  -0.224181056023  
7.14075016975  0.997605681419  -2.04901480675  -0.650125086308  -0.0960775911808  0.172329649329  -0.256206929684  
7.14883303642  0.979671239853  -2.10281825066  -0.701686680317  -0.152504116297  0.298908084631  -0.268407255411  
7.15693807602  1.02226555347  -2.04677295685  -0.717379391193  -0.0915024727583  0.157079234719  -0.234856337309  
7.16499614716  0.995363891125  -2.23732686043  -0.708412110806  -0.0930275097489  0.160129323602  -0.167754530907  
7.17308497429  0.813777208328  -2.23732686043  -0.614256083965  -0.0457512363791  0.272982358932  -0.0366009883583  
7.18118715286  1.03123283386  -2.21266698837  -0.706170320511  0.0244006589055  0.125053375959  -0.0228756181896  
