Ethan-CYM/ros_catkin_ws/test/moveJ_正常操作/ur_joint_actual_velocity.txt
time  shoulder_pan_joint  shoulder_lift_joint  elbow_joint  wrist_1_joint  wrist_2_joint  wrist_3_joint
0.146039009094  0.0  0.0  -0.0  -0.00340351997875  -0.0502139031887  -0.000287621398456  
0.154127120972  0.0  0.0  -0.0  -0.00239684502594  -0.0419927239418  -0.000263652967988  
0.162220001221  0.0  0.0  -0.0  -0.00184557074681  -0.0143810706213  -0.000263652967988  
0.170298099518  0.0  0.0  -0.0  -0.00148604391143  0.00203731842339  -0.000239684508415  
0.178385972977  0.0  0.0  -0.0  -0.00127032783348  0.00534496456385  -0.000239684508415  
0.18646812439  0.0  0.0  -0.0  -0.00107858027332  0.0132545530796  -0.000239684508415  
0.194560050964  0.0  0.0  -0.0  -0.00095873803366  0.00994690693915  -0.000239684508415  
0.2026450634  0.0  0.0  -0.0  -0.000862864253577  0.00445813173428  -0.000215716063394  
0.210734128952  0.0  0.0  -0.0  -0.000766990415286  0.0451086238027  -0.000215716063394  
0.218868970871  0.0  0.0  -0.0  -0.000695085094776  0.0339153595269  -0.000215716063394  
0.226947069168  0.0  0.0  -0.0  -0.000647148175631  0.00994690693915  -0.000191747603822  
0.23503112793  0.0  0.0  -0.0  -0.000599211256485  -0.0167539473623  -0.000191747603822  
0.243200063705  0.0  0.0  -0.0  -0.000551274395548  -0.00807736814022  -0.000191747603822  
0.25127696991  0.0  0.0  -0.0  -0.000503337476403  -0.00407463684678  -0.000191747603822  
0.259397983551  0.0  0.0  -0.0  -0.00047936901683  -0.00407463684678  -0.000191747603822  
0.267485141754  0.0  0.0  -0.0  -0.000455400557257  -0.00402669981122  -0.000167779158801  
0.275569200516  0.0  0.0  -0.0  9.58738019108e-05  -0.00390685768798  0.049015481025  
0.28363609314  0.0  0.0  -0.0  0.00723847234622  -0.00390685768798  0.0465946681798  
0.29175901413  0.0  0.0  -0.0  0.0117685096338  -0.00275637186132  0.0610476434231  
0.299880027771  0.0  0.0  -0.0  0.00802943110466  -0.00203731842339  0.0742063224316  
0.307942152023  0.0  0.0  -0.0  -0.00381098361686  -0.00162985466886  0.0865021422505  
0.316035985947  0.0  0.0  -0.0  0.0195342879742  -0.00134223327041  0.109655663371  
0.324140071869  0.0  0.0  -0.0  -0.0103304022923  -0.00115048559383  0.117876842618  
0.332184076309  0.0  0.0  -0.0  0.0215955749154  -0.00100667495281  0.137914463878  
0.340268135071  0.0  0.0  -0.0  0.00822117831558  -0.000886832654942  0.15835955739  
0.348330020905  0.0  0.0  -0.0  -0.0045540058054  -0.000814927334432  0.170247912407  
0.356415987015  0.0  0.0  -0.0  0.0129429632798  -0.000719053496141  0.186138987541  
0.364504098892  0.0  0.0  -0.0  0.00673513486981  -0.000671116635203  0.203899607062  
0.372585058212  0.0  0.0  -0.0  0.0215236693621  -0.000623179716058  0.221324667335  
0.380705118179  0.0  0.0  -0.0  0.00862864218652  -0.000575242796913  0.23462715745  
0.38881611824  0.0  0.0  -0.0  0.00467384792864  -0.000527305935975  0.252387791872  
0.396879196167  0.0  0.0  -0.0  0.0156034613028  -0.000503337476403  0.267559826374  
0.404976129532  0.0  0.0  -0.0  -0.00239684502594  -0.000455400557257  0.234387487173  
0.413035154343  0.0  0.0  -0.0  0.0289299208671  -0.000431432126788  0.222379282117  
0.421148061752  0.0  0.0  -0.0  -0.00256462418474  -0.000407463667216  0.207662656903  
0.429203987122  0.0  0.0  -0.0  0.0386131741107  -0.000383495207643  0.185156285763  
0.437287092209  0.0  0.0  -0.0  -0.0194144453853  -0.000383495207643  0.168785825372  
0.445384025574  0.0  0.0  -0.0  0.0474814996123  -0.00035952674807  0.149898692966  
0.453483104706  0.0  0.0  -0.0  -0.0272521283478  -0.000335558317602  0.137099534273  
0.461560964584  0.0  0.0  -0.0  0.0323813781142  -0.000335558317602  0.114449352026  
0.469660997391  0.0  0.0  -0.0  -0.0276356246322  -0.000311589858029  0.102848619223  
0.477779150009  0.0  0.0  -0.0  0.0259098950773  -0.000287621398456  0.08079764992  
0.485918045044  0.0  0.0  -0.0  -0.0113131087273  -0.000287621398456  0.0652421265841  
0.494049072266  0.0  0.0  -0.0  0.0150282187387  -0.000287621398456  0.0455879941583  
0.502227067947  0.0  0.0  -0.0  0.0047217849642  -0.000263652967988  0.0269405394793  
0.510173082352  0.0  0.0  -0.0  -0.0410100184381  -0.000263652967988  0.0185036435723  
0.518260002136  0.0  0.0  -0.0  0.0415373258293  -0.000239684508415  0.00563258584589  
0.526369094849  0.0  0.0  -0.0  0.0101626226678  -0.000239684508415  -0.0183358639479  
0.534469127655  0.0  0.0  -0.0  -0.0143810706213  -0.000239684508415  -0.0144769446924  
0.542546987534  0.0  0.0  -0.0  0.00167779158801  -0.000215716063394  -0.00719053531066  
0.550711154938  0.0  0.0  -0.0  0.00167779158801  -0.000215716063394  -0.048176586628  
0.55871796608  0.0  0.0  -0.0  0.00167779158801  -0.000215716063394  -0.0425679683685  
0.566779136658  0.0  0.0  -0.0  0.00167779158801  -0.000191747603822  -0.0601847805083  
0.574841976166  0.0  0.0  -0.0  -0.000383495207643  -0.000191747603822  -0.0766271352768  
0.582926988602  0.0  0.0  -0.0  -0.000383495207643  -0.000191747603822  -0.0842011645436  
0.591015100479  0.0  0.0  -0.0  -0.000383495207643  -0.000191747603822  -0.108025804162  
0.599133014679  0.0  0.0  -0.0  -0.000383495207643  -0.000191747603822  -0.115503966808  
0.60719203949  0.0  0.0  -0.0  -0.0106419920921  -0.000167779158801  -0.140646874905  
0.615302085876  0.0  0.0  -0.0  0.00177366530988  -0.000167779158801  -0.156226366758  
0.623387098312  0.0  0.0  -0.0  -0.00213319202885  -0.000167779158801  -0.168953612447  
0.631510972977  0.0  0.0  -0.0  -0.00934769585729  -0.000167779158801  -0.184197545052  
0.63959813118  0.0  0.0  -0.0  -0.00330764614046  -0.000167779158801  -0.206823766232  
0.64768409729  0.0  0.0  -0.0  0.00311589869671  -0.000167779158801  -0.222091659904  
0.655743122101  0.0  0.0  -0.0  -0.0292654782534  -0.000143810699228  -0.236113205552  
0.663873195648  0.0  0.0  -0.0  0.0042663840577  -0.000143810699228  -0.248217269778  
0.671962022781  0.0  0.0  -0.0  -0.0474335625768  -0.000143810699228  -0.259698152542  
0.680049180984  0.0  0.0  -0.0  0.0223625637591  -0.000143810699228  -0.279975473881  
0.688147068024  0.0  0.0  -0.0  -0.0332682095468  -0.000143810699228  -0.290905088186  
0.69624710083  0.0  0.0  -0.0  0.0215955749154  -0.000143810699228  -0.256486386061  
0.704329967499  0.0  0.0  -0.0  -0.0128231216222  -0.000143810699228  -0.245101377368  
0.712453126907  0.0  0.0  -0.0  0.0104981809855  -0.000143810699228  -0.229066491127  
0.720575094223  0.0  0.0  -0.0  -0.0121999410912  -0.000119842254207  -0.215404465795  
0.728694200516  0.0  0.0  -0.0  -0.0286902356893  -0.000119842254207  -0.198338925838  
0.736791133881  0.0  0.0  -0.0  0.0222906600684  -0.000119842254207  -0.18323880434  
0.744922161102  0.0  0.0  -0.0  -0.0450127497315  -0.000119842254207  -0.16665263474  
0.753023147583  0.0  0.0  -0.0  0.0242560729384  -0.000119842254207  -0.154213011265  
0.761165142059  0.0  0.0  -0.0  -0.0435267053545  -0.000119842254207  -0.134079515934  
0.76926112175  0.0  0.0  -0.0  0.0234411451966  -0.000119842254207  -0.113826170564  
0.77738404274  0.0  0.0  -0.0  -0.0300324689597  -0.000119842254207  -0.101937822998  
0.785506010056  0.0  0.0  -0.0  0.0317821651697  -0.000119842254207  -0.0825473442674  
0.793600082397  0.0  0.0  -0.0  -0.0215955749154  -0.000119842254207  -0.0664165765047  
0.80170917511  0.0  0.0  -0.0  0.0234171766788  -0.000119842254207  -0.0434308312833  
0.809817075729  0.0  0.0  -0.0  -0.0267967283726  -9.58738019108e-05  -0.0268446654081  
0.817954063416  0.0  0.0  -0.0  0.0110734244809  -9.58738019108e-05  -0.0143810706213  
0.826052188873  0.0  0.0  -0.0  -0.0143810706213  -9.58738019108e-05  -0.00517718540505  
0.834145069122  0.0  0.0  -0.0  0.0161787047982  -9.58738019108e-05  -0.00302002485842  
0.842264175415  0.0  0.0  -0.0  -0.0140934493393  -9.58738019108e-05  0.0176168121397  
0.850353002548  0.0  0.0  -0.0  -0.00707069318742  -9.58738019108e-05  0.00719053531066  
0.858445167542  0.0  0.0  -0.0  -0.00615989184007  -9.58738019108e-05  0.00381098361686  
0.866536140442  0.0  -0.0157233029604  -0.0  -0.00349939381704  -9.58738019108e-05  -0.0497585050762  
0.874621152878  0.0  -0.0184589028358  -0.0  0.00325970933773  -0.0224105007946  -0.0450846552849  
0.882733106613  0.0  -0.0248888395727  -0.0  0.00325970933773  -0.0113131087273  -0.0509808957577  
0.890860080719  0.0  -0.0317022688687  -0.0  0.0  -0.00153398083057  -0.0755006223917  
0.898993968964  0.0  -0.038502920419  -0.0  0.00795752555132  -0.0201574675739  -0.0860227718949  
0.907065153122  0.0  -0.0449712052941  -0.0  0.00925182178617  -0.00680703995749  -0.102776713669  
0.915220022202  0.0  -0.0513116568327  -0.0  0.00431432109326  -0.0324293151498  -0.118691764772  
0.923288106918  0.0  -0.0583679713309  -0.0  0.0245436932892  -0.00719053531066  -0.136140793562  
0.931370019913  0.0  -0.0631360933185  -0.0  0.0111453300342  -0.0378222167492  -0.149898692966  
0.939479112625  0.0  -0.0698728263378  -0.0  0.00134223327041  -0.0103543708101  -0.167922958732  
0.947590112686  0.0  -0.0753951594234  -0.0  0.017952369526  -0.042951464653  -0.182663559914  
0.955700159073  0.0  -0.0851487219334  0.00244158622809  0.0  -0.0363122038543  -0.203132614493  
0.963785171509  -0.00102265388705  -0.0935216993093  0.00244158622809  0.0377742797136  -0.0336037687957  -0.216051608324  
0.971884965897  -0.00102265388705  -0.0992996916175  0.00208365730941  0.00733434595168  -0.0418009795249  -0.233524620533  
0.979983091354  -0.00102265388705  -0.105652928352  0.00144449865911  0.033028524369  -0.0380618982017  -0.251021593809  
0.988075971603  -0.00102265388705  -0.110088691115  0.00109935295768  0.00917991623282  -0.042951464653  -0.264755517244  
0.996183156967  -0.00108656974044  -0.117311179638  0.000997087568976  0.0400033444166  -0.0503577142954  -0.282420247793  
1.00428819656  -0.00108656974044  -0.122092090547  0.000997087568976  0.0258140210062  -0.0491113550961  -0.29776006937  
1.01241707802  -0.00328527553938  -0.129429638386  0.00189190963283  0.0303440578282  -0.0514123253524  -0.31585624814  
1.02053117752  -0.00259498413652  -0.138927534223  0.00189190963283  0.0365518890321  -0.0540967918932  -0.335797995329  
1.02861309052  -0.00167459575459  -0.1439768821  0.00276116537862  0.0271322857589  -0.0577879361808  -0.346511900425  
1.03673219681  -0.00158511346672  -0.148911193013  0.00276116537862  0.0338674224913  -0.0618146359921  -0.364967614412  
1.04481101036  -0.00407783221453  -0.156312644482  0.00198139180429  0.0335078947246  -0.0596574731171  -0.380882650614  
1.05290818214  -0.0027867318131  -0.162052288651  0.00139336590655  0.0374147519469  -0.0635163933039  -0.390853524208  
1.06098008156  -0.00175129482523  -0.170847117901  0.0011760519119  0.0415852628648  -0.0664165765047  -0.405186653137  
1.06906509399  -0.00143171544187  -0.176318317652  0.0046019423753  0.0409381128848  -0.0650743469596  -0.422300130129  
1.0772190094  -0.00499822106212  -0.161937236786  0.00526666734368  0.0353055298328  -0.0611435174942  -0.399841696024  
1.08528399467  -0.00327249243855  -0.154740318656  0.00327249243855  0.0336756743491  -0.0616947934031  -0.385172992945  
1.09334516525  -0.00209644041024  -0.152081415057  -0.0  0.0307275541127  -0.0621741600335  -0.368562877178  
1.10142707825  -0.00389886787161  -0.143376067281  -0.0  0.0344426631927  -0.051052801311  -0.349268257618  
1.10952806473  -0.00389886787161  -0.133673638105  0.00251828506589  0.0311829540879  -0.0492551662028  -0.332993686199  
1.11763715744  0.0  -0.122986912727  0.00251828506589  0.030368026346  -0.0525628142059  -0.314729720354  
1.12573719025  -0.00396278360859  -0.116914905608  0.00221148901619  0.023393208161  -0.0482245236635  -0.304063767195  
1.13386511803  -0.00396278360859  -0.109270565212  0.00149563129526  0.0267008543015  -0.0423522517085  -0.283450901508  
1.14198803902  -0.00227540498599  -0.108030602336  0.001137702493  0.0182160232216  -0.0391884185374  -0.263581067324  
1.15019202232  -0.00208365730941  -0.101153254509  0.00095873803366  0.0242800414562  -0.0367915704846  -0.244358360767  
1.15822815895  -0.00208365730941  -0.0956437066197  0.00095873803366  0.0135421743616  -0.0358568020165  -0.227724254131  
1.1663210392  -0.00167459575459  -0.0896228328347  0.00095873803366  0.0289778579026  -0.0331723354757  -0.215212717652  
1.17440700531  -0.00122718466446  -0.0831161960959  0.00095873803366  0.00994690693915  -0.0314705744386  -0.198123216629  
1.18250703812  -0.00102265388705  -0.0753951594234  0.00095873803366  0.0309672392905  -0.0241362303495  -0.178684800863  
1.19058418274  -0.00102265388705  -0.0675590708852  0.000894822122063  0.00925182178617  -0.0230576489121  -0.162865623832  
1.1987349987  -0.00242880289443  -0.0531907863915  0.000639158650301  0.0117685096338  -0.023393208161  -0.137099534273  
1.20675301552  -0.00159789668396  -0.0448050238192  0.000562459637877  0.00532099604607  -0.0156993344426  -0.118452087045  
1.21484708786  -0.00118883512914  -0.0419415906072  0.00054967647884  0.0196301620454  -0.0215955749154  -0.107474535704  
1.22293305397  0.0  -0.033900976181  0.00054967647884  0.00615989184007  -0.0161787047982  -0.0839614793658  
1.23100209236  0.0  -0.0279951505363  0.00054967647884  0.0  -0.0134463012218  -0.0715697929263  
1.2391500473  -0.00255663460121  -0.0199928842485  0.00054967647884  0.0112172346562  -0.0107858031988  -0.0598971582949  
1.24723505974  -0.00255663460121  -0.0132178012282  0.00054967647884  0.00580036500469  -0.00462591089308  -0.0250709988177  
1.25532412529  -0.00175129482523  -0.00898657087237  0.00054967647884  0.00266049802303  -0.00292415102012  -0.0167539473623  
1.26344513893  -0.00126553419977  -0.00589304277673  0.00054967647884  -0.00304399314336  -0.00215716054663  -0.00719053531066  
1.27155399323  -0.000997087568976  0.0131922354922  0.00054967647884  0.00517718540505  -0.00139017018955  0.0309432707727  
1.2796561718  -0.000818123109639  0.00418009795249  0.000536893261597  0.0107858031988  0.0100427810103  0.00807736814022  
1.28773903847  0.0  0.00255663460121  0.000472977408208  -0.0183598324656  0.00479369005188  0.00402669981122  
1.2958741188  0.0  0.0010098706698  0.000434627901996  -0.00539290159941  0.00299605634063  0.00268446654081  
1.30394506454  0.0  0.0010098706698  0.000396278366679  -0.00539290159941  0.00218112906441  0.00201334990561  
1.3120470047  0.0  -0.0335046984255  -0.00811731535941  0.0553431510925  0.00172572850715  0.00160588615108  
1.3201379776  0.0  -0.0363553464413  -0.0128598725423  0.0446052886546  0.00141413859092  0.00134223327041  
1.32819414139  -0.00093317165738  -0.0539705567062  -0.0208749230951  0.0638040155172  0.00119842251297  0.00115048559383  
1.33631110191  -0.00682621449232  -0.0703713670373  -0.0231247600168  0.0762915760279  0.00103064335417  0.00100667495281  
1.34439897537  -0.00442297803238  -0.0842027664185  -0.027189809829  0.0807497128844  0.000910801114514  0.000886832654942  
1.35250711441  -0.00227540498599  -0.096653573215  -0.0332618169487  0.102896556258  0.000838895794004  0.000790958874859  
1.36056804657  -0.00828349683434  -0.112121216953  -0.0401263833046  0.119075261056  0.0100907180458  0.000719053496141  
1.36865305901  -0.00559902982786  -0.126757949591  -0.0442809127271  0.137147471309  0.00925182178617  0.000671116635203  
1.37674999237  -0.00342589057982  -0.140078008175  -0.0491129532456  0.152295529842  0.00249271886423  0.000599211256485  
1.38483405113  -0.0130899697542  -0.155635133386  -0.0545841492712  0.172668725252  0.0185036435723  0.000575242796913  
1.39297819138  -0.00559902982786  -0.170041769743  -0.0596590712667  0.185156285763  0.00541686965153  0.000527305935975  
1.40099906921  -0.0131538854912  -0.183234006166  -0.0667025968432  0.20500215888  0.0137818595394  0.000503337476403  
1.4091501236  -0.009063269943  -0.19470050931  -0.0722249299288  0.220893248916  0.0278034023941  0.000455400557257  
1.41717004776  -0.0115176392719  -0.213108286262  -0.0771336704493  0.236664488912  0.0152199659497  0.000431432126788  
1.42525601387  -0.0108529143035  -0.227553278208  -0.0819273591042  0.249080136418  0.0534017086029  0.000407463667216  
1.43335318565  -0.00773382000625  -0.238086611032  -0.0876542180777  0.263365328312  -0.0218352582306  0.000383495207643  
1.44146704674  -0.0138953095302  -0.255778521299  -0.093777358532  0.280287057161  0.0420406609774  0.000383495207643  
1.44954705238  -0.0104566356167  -0.272383868694  -0.0981108546257  0.296274006367  -0.0253106839955  0.00035952674807  
1.45760607719  -0.0141637558118  -0.282022386789  -0.102815061808  0.308018565178  0.0323813781142  0.000335558317602  
1.46570301056  -0.0116966040805  -0.299343585968  -0.107723802328  0.331124156713  -0.0215955749154  0.000335558317602  
1.47381806374  -0.0134351151064  -0.315130800009  -0.113233350217  0.342820763588  0.0149802817032  0.000311589858029  
1.48190307617  -0.0122974133119  -0.329307347536  -0.116978824139  0.367292553186  0.0319499447942  0.000287621398456  
1.48996710777  -0.0126425586641  -0.346986472607  -0.121683031321  0.380475193262  -0.004889564123  0.000287621398456  
1.49806308746  -0.0161834973842  -0.355794072151  -0.127256497741  0.402118712664  0.0535455197096  0.000287621398456  
1.50617408752  -0.0131922354922  -0.372348278761  -0.131321534514  0.416164219379  -0.00328367785551  0.000263652967988  
1.51423001289  -0.017295634374  -0.382638722658  -0.137150675058  0.427908748388  0.0496146939695  0.000263652967988  
1.52232813835  -0.0146750835702  -0.40270832181  -0.143261030316  0.448761314154  0.00762196723372  0.000239684508415  
1.53040409088  -0.0182927213609  -0.413101047277  -0.14825925231  0.459834724665  0.0349939391017  0.000239684508415  
1.53851819038  -0.0162474140525  -0.430716246367  -0.155443385243  0.480471551418  0.0156034613028  0.000239684508415  
1.54663014412  -0.0176152139902  -0.443512201309  -0.158677533269  0.492839276791  0.0347542539239  0.000215716063394  
1.55474019051  -0.0176407787949  -0.463070452213  -0.165248081088  0.502810180187  0.0129429632798  0.000215716063394  
1.56285500526  -0.018203239888  -0.47449862957  -0.168980777264  0.523087441921  0.0385892055929  0.000215716063394  
1.57097005844  -0.0180626250803  -0.472466081381  -0.168776243925  0.526970386505  0.00994690693915  0.000215716063394  
1.57915401459  -0.0198906175792  -0.44201657176  -0.159291118383  0.50472766161  0.0368874445558  0.000191747603822  
1.58715510368  -0.0160300992429  -0.429629683495  -0.155967503786  0.482868403196  0.0107858031988  0.000191747603822  
1.59521198273  -0.0167203918099  -0.416450232267  -0.147415563464  0.463238239288  0.0401950925589  0.000191747603822  
1.60329914093  -0.0164008121938  -0.393593907356  -0.142212808132  0.447994321585  0.00925182178617  0.000191747603822  
1.61141514778  -0.0133584160358  -0.37862482667  -0.138812482357  0.434763729572  0.0363122038543  0.000191747603822  
1.61953806877  -0.01747459732  -0.361329168081  -0.132548719645  0.415996432304  0.00929975882173  0.000167779158801  
1.62762403488  -0.0144066363573  -0.350962042809  -0.12563303113  0.403484910727  0.0342988520861  0.000167779158801  
1.63571000099  -0.0129621382803  -0.336031287909  -0.120660372078  0.387833505869  0.0117685096338  0.000167779158801  
1.64379000664  -0.0156721714884  -0.327044725418  -0.11710665375  0.369713366032  0.028138961643  0.000167779158801  
1.65188407898  -0.0102137560025  -0.313111066818  -0.11053609848  0.353103220463  0.0143810706213  0.000167779158801  
1.65996813774  -0.0121184485033  -0.295393586159  -0.105116032064  0.332825899124  0.00313986698166  0.000167779158801  
1.66813015938  -0.0111213605851  -0.283901512623  -0.099005676806  0.317725777626  0.0161787047982  0.000143810699228  
1.6762201786  -0.00874369032681  -0.266107320786  -0.0938924103975  0.301211506128  0.00925182178617  0.000143810699228  
1.68431711197  -0.0121056651697  -0.25126606226  -0.0897890105844  0.282300412655  0.0259098950773  0.000143810699228  
1.69239807129  -0.00939563289285  -0.239479973912  -0.0856089144945  0.265067100525  0.00553671224043  0.000143810699228  
1.70050096512  -0.0109551800415  -0.224101811647  -0.0796136036515  0.252028256655  0.0202293731272  0.000143810699228  
1.7085981369  -0.00781051907688  -0.206524953246  -0.0759064853191  0.233932077885  0.0127751845866  0.000143810699228  
1.71668219566  -0.00467864144593  -0.195799872279  -0.0703585892916  0.224416598678  0.0470261014998  0.000143810699228  
1.72474312782  -0.00705631170422  -0.182313621044  -0.0654881969094  0.201406896114  -0.0289059523493  0.000143810699228  
1.73283910751  -0.00502378726378  -0.165120258927  -0.0605411082506  0.190429344773  0.0354493372142  0.000119842254207  
1.74097418785  -0.00260776747018  -0.149230763316  -0.0558369010687  0.168474242091  -0.0153158400208  0.000119842254207  
1.74907207489  -0.00813009869307  -0.134402289987  -0.048358745873  0.156609863043  -0.0044341632165  0.000119842254207  
1.75716400146  -0.00502378726378  -0.121478497982  -0.0437823683023  0.144385948777  0.051675979048  0.000119842254207  
1.76526212692  -0.00242880289443  -0.108209565282  -0.0380427241325  0.121112585068  -0.0323813781142  0.000119842254207  
1.77334308624  -0.00173851160798  -0.0944932177663  -0.0338242761791  0.110350750387  0.0215955749154  0.000119842254207  
1.78146100044  -0.00173851160798  -0.081671692431  -0.0291584189981  0.0907205864787  0.00560861732811  0.000119842254207  
1.78954815865  -0.00269724964164  -0.0653987154365  -0.0237894859165  0.0776338130236  -0.0317821651697  0.000119842254207  
1.79766798019  -0.00269724964164  -0.04904903844  -0.0171933677047  0.0604004971683  0.0490873865783  0.000119842254207  
1.80576109886  0.0  -0.0354349575937  -0.0128598725423  0.0375345945358  -0.0315904170275  0.000119842254207  
1.81384396553  0.0  -0.019647737965  -0.0094339819625  0.0135901113972  0.0323813781142  0.000119842254207  
1.82194805145  0.0  -0.00685178115964  -0.00342589057982  0.0086526107043  -0.0259098950773  9.58738019108e-05  
1.83004903793  0.0  0.00986860971898  -0.00186634331476  -0.0027803403791  -0.00373907829635  9.58738019108e-05  
1.8381421566  0.0  0.00685178115964  0.00836019590497  -0.0152439344674  -0.0143810706213  9.58738019108e-05  
1.84622716904  0.0  0.0048320395872  0.00658333441243  -0.00587227055803  0.0157952085137  9.58738019108e-05  
1.85431408882  0.0  0.00738867418841  0.00300404569134  -0.00340351997875  0.00424241600558  9.58738019108e-05  
1.86240315437  0.0  0.00396278360859  0.00182799377944  -0.00263652950525  0.00424241600558  9.58738019108e-05  
1.87049007416  0.0  -0.0303600374609  -0.0121056651697  0.0375825315714  0.00100667495281  9.58738019108e-05  
1.87858605385  -0.000409061554819  -0.0327888391912  -0.0115943383425  0.0408182702959  0.0295770689845  0.00932372733951  
1.88669800758  0.00415453128517  -0.0640820488334  -0.0228179655969  0.0701077207923  0.0385652370751  0.00762196723372  
1.89477515221  0.00415453128517  -0.0795241221786  -0.0269341468811  0.0846325978637  0.00925182178617  0.035689022392  
1.90285897255  0.00774660333991  -0.0922561660409  -0.0313954725862  0.105197533965  0.0400512814522  0.0117685096338  
1.91097617149  0.00685178115964  -0.106905676425  -0.0356139205396  0.115240313113  0.0117685096338  0.0352815613151  
1.91904902458  0.00553511409089  -0.117375098169  -0.0393210425973  0.138178125024  0.0445333831012  0.0143810706213  
1.92718219757  0.0138441771269  -0.12898221612  -0.0440763831139  0.153613805771  0.00994690693915  0.0536413937807  
1.93520903587  0.00792556721717  -0.14225114882  -0.0466330163181  0.164615318179  0.0338913910091  0.00925182178617  
1.9432861805  0.0159661844373  -0.156235948205  -0.0498927272856  0.184389293194  0.0110254874453  0.0444135405123  
1.95138406754  0.012808740139  -0.172483354807  -0.0556068047881  0.196804955602  0.0289299208671  0.0179763380438  
1.95947504044  0.00908883661032  -0.183234006166  -0.0574603639543  0.21514081955  0.0375585630536  0.034850127995  
1.96759009361  0.0134990308434  -0.197180449963  -0.0642610117793  0.22870695591  0.0363601408899  0.0182639602572  
1.97570610046  0.0127320410684  -0.207304731011  -0.0684538930655  0.250230640173  0.0450127497315  0.0340112298727  
1.98382997513  0.0158894844353  -0.227693885565  -0.0725317299366  0.262190878391  0.041129861027  0.0315424799919  
1.99188303947  0.0175640806556  -0.235568314791  -0.0747176483274  0.285967588425  0.0449408441782  0.0334120206535  
1.99996614456  0.0172700677067  -0.248453766108  -0.0800482332706  0.297664195299  0.0502139031887  0.0419687591493  
2.00802707672  0.0194304231554  -0.264343231916  -0.0837936997414  0.313770979643  0.0526586845517  0.0388528592885  
2.01615715027  0.0212456341833  -0.276615083218  -0.0899935439229  0.329230636358  0.0518437586725  0.0408182702959  
2.02423715591  0.0208621397614  -0.286419779062  -0.0950812473893  0.349100500345  0.0519875697792  0.0428795590997  
2.0322971344  0.0238789673895  -0.30434179306  -0.0984432175756  0.364128708839  0.0564457029104  0.0466905422509  
2.04035615921  0.0220509748906  -0.314568340778  -0.101204387844  0.378437876701  0.0622700341046  0.0486559532583  
2.04845619202  0.0255919136107  -0.329793095589  -0.105985291302  0.395071983337  0.062222097069  0.0511247068644  
2.05656313896  0.0258603598922  -0.345759272575  -0.110676713288  0.407943040133  0.0622940026224  0.0519875697792  
2.06465697289  0.0282380301505  -0.352534353733  -0.114192090929  0.424001902342  0.0692208856344  0.0517478846014  
2.07271909714  0.0275605227798  -0.372015923262  -0.118947431445  0.441810458899  0.0686696097255  0.0575003139675  
2.08081507683  0.030232205987  -0.378036797047  -0.123728334904  0.45806106925  0.0649545043707  0.0590822324157  
2.08890914917  0.030935280025  -0.39746722579  -0.126400023699  0.475078672171  0.0697961300611  0.0571647547185  
2.09700202942  0.0325331762433  -0.408038884401  -0.129992097616  0.491784662008  0.0760518908501  0.0615509822965  
2.10508704185  0.03232864663  -0.423391491175  -0.135386586189  0.510767698288  0.0752130001783  0.0669199153781  
2.1131670475  0.0328399725258  -0.435088098049  -0.13979677856  0.518773138523  0.0826432183385  0.0645710080862  
2.1212990284  0.0342461206019  -0.453828215599  -0.145945489407  0.530709445477  0.082475438714  0.0657933950424  
2.12940597534  0.0367899723351  -0.463658481836  -0.150649696589  0.54715180397  0.0807257443666  0.072145037353  
2.13750815392  0.036163598299  -0.475636333227  -0.15462526679  0.572198808193  0.0934290215373  0.0713780447841  
2.14563298225  0.0371862500906  -0.490004599094  -0.159112155437  0.586963415146  0.0872930958867  0.0733674243093  
2.15370512009  0.0382856056094  -0.497763991356  -0.161540970206  0.602710664272  0.0993012934923  0.0767230093479  
2.1618001461  0.0383623018861  -0.511454761028  -0.166590318084  0.619009196758  0.0927099660039  0.0759560242295  
2.16993403435  0.0407144092023  -0.526206552982  -0.168840155005  0.635715246201  0.0976714342833  0.076387450099  
2.17806315422  0.0396406203508  -0.538376152515  -0.17479711771  0.651582360268  0.103615611792  0.0843210071325  
2.18621611595  0.0440635979176  -0.555416107178  -0.177737250924  0.664165794849  0.104502446949  0.0789760425687  
2.19434714317  0.0444854423404  -0.573568224907  -0.182799383998  0.678690671921  0.107786126435  0.0841532275081  
2.20245814323  0.0453674830496  -0.584906876087  -0.188551813364  0.698896050453  0.109200261533  0.0890188291669  
2.21055603027  0.0464412681758  -0.593637824059  -0.191837087274  0.716393053532  0.113993950188  0.082259722054  
2.21866512299  0.0455975793302  -0.607187986374  -0.196886435151  0.732499837875  0.117589220405  0.0899056568742  
2.22675013542  0.0472849570215  -0.611904978752  -0.199455857277  0.739498615265  0.11504856497  0.08714928478  
2.23481106758  0.0434500053525  -0.581302046776  -0.190584331751  0.715554118156  0.10934407264  0.0880840569735  
2.24287319183  0.0455592311919  -0.576291024685  -0.187043398619  0.702227652073  0.105988487601  0.0837457701564  
2.25098419189  0.046019423753  -0.567048788071  -0.181981250644  0.682405769825  0.108457237482  0.0800785943866  
2.25904297829  0.043756801635  -0.549535870552  -0.177673324943  0.665651798248  0.0973358750343  0.0836498960853  
2.26717305183  0.0417242795229  -0.527919471264  -0.172662317753  0.650959134102  0.0975755602121  0.0765552297235  
2.27530002594  0.0386818833649  -0.508808672428  -0.167127206922  0.630346298218  0.0972400084138  0.0743980705738  
2.28339910507  0.0374674797058  -0.496306717396  -0.16192445159  0.619272887707  0.0915834531188  0.0757163390517  
2.29158902168  0.0375313982368  -0.483050554991  -0.158792585135  0.602974295616  0.0944836363196  0.0680464282632  
2.2996430397  0.0355883538723  -0.474051207304  -0.153692096472  0.581858098507  0.0832184627652  0.0672315061092  
2.30769515038  0.0357801020145  -0.469129681587  -0.152388215065  0.563977658749  0.0863583311439  0.0680464282632  
2.31576013565  0.0350131131709  -0.452997326851  -0.147313296795  0.55103468895  0.0826671868563  0.0627733692527  
2.32382798195  0.0351025946438  -0.440099090338  -0.139605045319  0.528768002987  0.0798868462443  0.0613592341542  
2.33192610741  0.0321496799588  -0.423672705889  -0.13561668992  0.51373976469  0.082810997963  0.0613112971187  
2.34000515938  0.0326993577182  -0.41229569912  -0.130810216069  0.502330780029  0.071929320693  0.0583871454  
2.34810304642  0.0291839856654  -0.393875151873  -0.125939831138  0.485504925251  0.0708986744285  0.0565895140171  
2.35616612434  0.029362950474  -0.379340678453  -0.12284629792  0.469613850117  0.0740864798427  0.050837084651  
2.3642551899  0.0292990338057  -0.368104279041  -0.119075261056  0.457413911819  0.0657214894891  0.0562539547682  
2.37231111526  0.0289283208549  -0.35891315341  -0.116122350097  0.438526779413  0.0685497671366  0.0533058345318  
2.38045310974  0.0268830135465  -0.346602976322  -0.113054387271  0.419112324715  0.0692927911878  0.0470740385354  
2.38862800598  0.0281101986766  -0.334305554628  -0.109104387462  0.403173297644  0.0608079582453  0.0464029200375  
2.39668107033  0.0244797766209  -0.317968666553  -0.102815061808  0.386994600296  0.0544802881777  0.0493510402739  
2.40477919579  0.0236360877752  -0.30394551158  -0.0977912768722  0.372206062078  0.0569969750941  0.046570699662  
2.41289806366  0.0220254082233  -0.286419779062  -0.093687877059  0.35346275568  0.0581234917045  0.0395479425788  
2.420992136  0.0212584175169  -0.274761527777  -0.0886001735926  0.340351998806  0.0503097772598  0.0365758575499  
2.42908000946  0.0196349546313  -0.266605854034  -0.0854299515486  0.325635373592  0.0486319884658  0.0373668149114  
2.43718910217  0.0215268637985  -0.252582728863  -0.083934314549  0.307083785534  0.049015481025  0.035689022392  
2.44527316093  0.0182799380273  -0.239633366466  -0.0786676481366  0.287956953049  0.0464508570731  0.0344906002283  
2.45337820053  0.0184972528368  -0.227987900376  -0.0745386853814  0.279304355383  0.0418249480426  0.0331004299223  
2.46149611473  0.0164135955274  -0.210551649332  -0.0681343153119  0.2595064044  0.0361683927476  0.0306316800416  
2.46960115433  0.0165030770004  -0.194253101945  -0.064248226583  0.242416918278  0.0347782224417  0.025837989524  
2.47767615318  0.0125275095925  -0.182147443295  -0.0598891675472  0.225567087531  0.0323334410787  0.0265810117126  
2.48575210571  0.0153398085386  -0.170092910528  -0.0552105270326  0.206344395876  0.033244241029  0.0241841673851  
2.49383306503  0.0102521050721  -0.155443385243  -0.0516440197825  0.195175096393  0.0290976986289  0.0236808285117  
2.50195717812  0.0112364096567  -0.144360378385  -0.0482692644  0.178301304579  0.0263652950525  0.0226262174547  
2.51009011269  0.0108401309699  -0.130477845669  -0.0429386794567  0.164351671934  0.0238965451717  0.0179284010082  
2.51817917824  0.00791278481483  -0.118218787014  -0.0398962832987  0.147022470832  0.0200615935028  0.020037624985  
2.52629303932  0.00960016343743  -0.106662802398  -0.0337092280388  0.130364403129  0.021643511951  0.0118164466694  
2.53442907333  0.0062765381299  -0.0941992029548  -0.0294396486133  0.114017918706  0.0129429632798  0.0192946027964  
2.54245710373  0.00447411090136  -0.0800098851323  -0.0259114932269  0.0998286008835  0.0111453300342  0.0129429632798  
2.55070304871  0.00314466073178  -0.0535231493413  -0.0168993547559  0.06905310601  0.00556068075821  0.021307952702  
2.5586950779  0.00214757304639  -0.0398451499641  -0.0127959568053  0.0388049222529  0.0189111083746  -0.00383495213464  
2.56676411629  0.00147006497718  -0.0246587414294  -0.00729919224977  0.0210203304887  -0.00194144446868  0.0205169934779  
2.57486510277  0.00112491927575  -0.0100731402636  -0.00501100393012  0.0115048559383  -0.0074781565927  0.0081972097978  
2.58295798302  0.000907605339307  -0.00484482292086  0.000997087568976  0.00838895794004  0.0125594679266  0.038133803755  
2.59107708931  0.00075420725625  0.00502378726378  0.000997087568976  -0.00668719783425  -0.017257284373  -0.00302002485842  
2.59916114807  0.000651941867545  0.0108912633732  0.00346424011514  -0.0161787047982  -0.00807736814022  -0.0198458768427  
2.60729217529  0.000575242796913  0.00396278360859  0.00268446654081  -0.00862864218652  0.0  0.00206128670834  
2.61538910866  0.000511326943524  0.00217313948087  0.00171294528991  -0.00417051045224  0.0  0.00206128670834  
2.62345504761  -0.000115048562293  -0.0340415909886  0.00125275098253  0.0460913293064  0.0  0.0  
2.63162612915  -0.0108017819002  -0.0357928872108  0.000984304351732  0.0388049222529  0.0  0.0118164466694  
2.63967609406  -0.0118372188881  -0.0525388419628  0.000882038963027  0.0584830194712  0.000455400557257  0.00508131133392  
2.64773607254  -0.0215268637985  -0.0672267079353  0.000882038963027  0.0719532892108  0.000455400557257  0.00201334990561  
2.65587711334  -0.0199289675802  -0.0823619887233  0.00219870591536  0.0869815051556  0.0130148688331  0.0228659026325  
2.66389012337  -0.0249016229063  -0.0972799509764  0.0052027516067  0.107258819044  -0.00213319202885  -0.00177366530988  
2.67198514938  -0.0290561541915  -0.111341439188  0.00645550247282  0.115120470524  0.00206128670834  0.034850127995  
2.68007111549  -0.0330317206681  -0.124750986695  0.00461472570896  0.138777330518  0.00812530517578  0.0104262763634  
2.68815517426  -0.0390014611185  -0.136882215738  0.00562459649518  0.153613805771  0.00371510977857  0.0277314968407  
2.69625401497  -0.0421333387494  -0.152784496546  0.00654498487711  0.166173264384  -0.00352336233482  0.0117685096338  
2.70438218117  -0.0462239570916  -0.166245177388  0.0105205513537  0.186330735683  0.0446292571723  0.0259818006307  
2.71243715286  -0.0511966086924  -0.183042258024  0.00735032465309  0.199225768447  -0.0339632965624  0.0141653539613  
2.72058606148  -0.054980430752  -0.196145012975  0.0107122994959  0.217897191644  0.0400033444166  0.00189350766595  
2.72867512703  -0.0607328563929  -0.207215249538  0.0104310698807  0.230576500297  -0.0177126843482  0.0215955749154  
2.73672914505  -0.0641971006989  -0.221046641469  0.0122974133119  0.253730028868  0.0123437521979  0.018287928775  
2.74482512474  -0.0704480707645  -0.236654892564  0.00995809212327  0.266049802303  0.0369114130735  0.0215955749154  
2.75291109085  -0.0734137669206  -0.248760551214  0.0113131087273  0.285632014275  0.00922785326838  0.0293613523245  
2.76094412804  -0.0778878778219  -0.263652950525  0.0122590633109  0.296274006367  0.0480807125568  0.0251668728888  
2.76906108856  -0.0824514701962  -0.279555231333  0.0117221698165  0.311134457588  -0.0238006711006  0.0377023741603  
2.77714705467  -0.0878459662199  -0.295393586159  0.0167715232819  0.325755208731  0.0441498868167  0.0160828307271  
2.78525710106  -0.0911951586604  -0.305492281914  0.011415373534  0.350898116827  -0.0220749434084  0.0381098352373  
2.79335403442  -0.0948511511087  -0.32232773304  0.0156210381538  0.360868990421  0.0340351983905  0.0247594099492  
2.80146718025  -0.0974844843149  -0.333845347166  0.015812786296  0.380690902472  -0.0161787047982  0.0365998260677  
2.80957508087  -0.102137558162  -0.349044561386  0.0177686102688  0.394281029701  -0.00395479425788  0.0363122038543  
2.81764912605  -0.107659883797  -0.361303627491  0.0161195825785  0.409884482622  0.0587466731668  0.0334839262068  
2.82573509216  -0.110625579953  -0.376272708178  0.0191108435392  0.425607770681  -0.0260057691485  0.0345864742994  
2.83379817009  -0.115240305662  -0.389055877924  0.0178197436035  0.441810458899  0.0412497036159  0.0326689966023  
2.84188604355  -0.12005956471  -0.407220780849  0.0219870582223  0.456479132175  -0.0278273709118  0.0326689966023  
2.84997606277  -0.123140312731  -0.418175965548  0.0198139194399  0.471699118614  0.0259098950773  0.0380379296839  
2.85803604126  -0.125939831138  -0.435561060905  0.0209388379008  0.485960334539  0.00498543772846  0.0399074703455  
2.86614704132  -0.129966527224  -0.448050230742  0.0217825267464  0.510240375996  0.0145728178322  0.0398835018277  
2.87423706055  -0.131794512272  -0.465921103954  0.0206192582846  0.527186095715  0.0519875697792  0.0431432127953  
2.88235116005  -0.13651150465  -0.476761251688  0.0244286451489  0.536198198795  0.00793355703354  0.0428555905819  
2.8904709816  -0.140589341521  -0.488508969545  0.0242880303413  0.55103468895  0.0268206968904  0.0458756163716  
2.89860510826  -0.144385948777  -0.503861546516  0.0251572858542  0.572869956493  0.0129429632798  0.0480567440391  
2.90666604042  -0.147517815232  -0.51326996088  0.0262310728431  0.590079307556  0.0300804059952  0.0466665737331  
2.91475701332  -0.151288852096  -0.527804434299  0.0269341468811  0.600098073483  0.0129429632798  0.0479848384857  
2.92283701897  -0.154446303844  -0.544090211391  0.0261671561748  0.619320809841  0.0377263426781  0.0474814996123  
2.93092417717  -0.15963627398  -0.558650255203  0.0285703931004  0.634373009205  0.0107858031988  0.0540009178221  
2.93901109695  -0.163011029363  -0.573568224907  0.0266273505986  0.65489000082  0.0349460020661  0.053497582674  
2.94710302353  -0.16855892539  -0.590953350067  0.0284936930984  0.663830220699  0.0143810706213  0.0515321679413  
2.95521116257  -0.17340375483  -0.601819038391  0.0283275116235  0.680775880814  0.0295770689845  0.0524190030992  
2.96331214905  -0.177392095327  -0.61290204525  0.0313187763095  0.694797456264  0.0129429632798  0.0574284084141  
2.97141003609  -0.183451324701  -0.62569797039  0.0315872207284  0.714930951595  0.0328367762268  0.0579077787697  
2.97951698303  -0.18617413938  -0.641203999519  0.0318301022053  0.73393791914  0.0129429632798  0.0549117214978  
2.98761701584  -0.191121220589  -0.660864531994  0.0317917540669  0.748630583286  0.0406025573611  0.0582673028111  
2.99567818642  -0.193409413099  -0.674670338631  0.0328271910548  0.759847819805  0.012152004987  0.0605922453105  
3.00376605988  -0.204160064459  -0.689051389694  0.0326610095799  0.775139689445  0.0390446074307  0.0595376305282  
3.01183700562  -0.205757960677  -0.698191344738  0.0357161872089  0.7972625494  0.016897758469  0.0604724027216  
3.01992106438  -0.210986271501  -0.709478914738  0.0351792946458  0.812985897064  0.0274678450078  0.0636602044106  
3.02802014351  -0.204236760736  -0.684462249279  0.035383824259  0.788969516754  0.00977912824601  0.0610236749053  
3.0361301899  -0.195429161191  -0.671666264534  0.031024761498  0.770082354546  0.0323813781142  0.0589623898268  
3.04421806335  -0.187554717064  -0.662551879883  0.0288516227156  0.751410961151  0.00862864218652  0.0547679103911  
3.05230307579  -0.182863295078  -0.64411854744  0.0298742763698  0.742566585541  0.0389727018774  0.0582433342934  
3.0604031086  -0.180933043361  -0.62321805954  0.0323925614357  0.723104178905  0.00862864218652  0.0558225214481  
3.06849312782  -0.177826732397  -0.60550057888  0.031804535538  0.708363592625  0.0390446074307  0.0515561364591  
3.07655119896  -0.172892421484  -0.592934727669  0.0314977392554  0.693431258202  0.00994690693915  0.0497345365584  
3.08460712433  -0.167050510645  -0.580867409706  0.0297208782285  0.669247090816  0.0378701537848  0.0536174252629  
3.092689991  -0.162435784936  -0.569682121277  0.0273176413029  0.656759500504  0.0117685096338  0.051052801311  
3.1007771492  -0.159239992499  -0.554994285107  0.0277906190604  0.637800455093  0.0432151183486  0.045396246016  
3.10885906219  -0.154382392764  -0.539219796658  0.0256558284163  0.62375497818  0.00994690693915  0.0419927239418  
3.1169230938  -0.148706659675  -0.526564478874  0.0278161857277  0.606833219528  0.0305358059704  0.0464029200375  
3.12498402596  -0.145843222737  -0.513500094414  0.024057932198  0.59089422226  0.00994690693915  0.0462591089308  
3.13306999207  -0.142711356282  -0.499489724636  0.0233676414937  0.572869956493  0.0154117140919  0.0413935147226  
3.14118814468  -0.138480111957  -0.486502021551  0.0223705545068  0.553167879581  0.008868326433  0.0392842926085  
3.14930701256  -0.138071060181  -0.471481800079  0.022651784122  0.541567146778  0.0228659026325  0.0383255518973  
3.15742707253  -0.133584156632  -0.455438911915  0.0224856026471  0.525987625122  0.0161787047982  0.0390685759485  
3.16556596756  -0.128458112478  -0.442169964314  0.0228946637362  0.508322894573  0.0  0.0395958796144  
3.17364597321  -0.126208275557  -0.426254928112  0.0223577711731  0.490921795368  0.0161787047982  0.0385173000395  
3.18174600601  -0.119637720287  -0.414392143488  0.0191108435392  0.47874584794  0.00215716054663  0.034634411335  
3.18980407715  -0.119982868433  -0.399346351624  0.0211050193757  0.458636313677  0.0229378081858  0.0335558317602  
3.19790101051  -0.113770246506  -0.387202322483  0.017423465848  0.438358992338  0.00807736814022  0.0322135984898  
3.20599508286  -0.11020373553  -0.369868338108  0.0186506509781  0.422971248627  0.0357129909098  0.0299126263708  
3.21408820152  -0.104924291372  -0.359219968319  0.0169504880905  0.410028278828  -0.00270843482576  0.0334839262068  
3.22217798233  -0.100629143417  -0.344595998526  0.0161067992449  0.393010675907  0.0385892055929  0.0300324689597  
3.23027420044  -0.0962061658502  -0.334497302771  0.0158767011017  0.376424521208  0.00778974639252  0.0277554653585  
3.23833107948  -0.0924223437905  -0.314619451761  0.015863917768  0.364224582911  0.00177366530988  0.0264851376414  
3.24639415741  -0.0890220180154  -0.300749719143  0.0141254067421  0.350993990898  0.0234171766788  0.0244717877358  
3.25459504128  -0.0856089144945  -0.28593403101  0.0160300992429  0.331124156713  -0.00220509758219  0.0220989119262  
3.26255702972  -0.0819273591042  -0.270530313253  0.0132178012282  0.317270368338  0.0273000653833  0.0217633526772  
3.27061700821  -0.070831567049  -0.245347455144  0.0117477364838  0.284122020006  0.0408901758492  0.0248313155025  
3.27865505219  -0.070831567049  -0.245347455144  0.0117477364838  0.284122020006  0.0408901758492  0.0248313155025  
3.28668999672  -0.0635323747993  -0.218144848943  0.00805339962244  0.254185408354  0.0204930249602  0.0191028546542  
3.29474020004  -0.0570385195315  -0.202204242349  0.0102648884058  0.234243676066  0.00604004971683  0.0126074049622  
3.30280208588  -0.0534720160067  -0.187823161483  0.0103799365461  0.221324667335  0.0145248807967  0.0215955749154  
3.31088805199  -0.0487550236285  -0.173493236303  0.00534336641431  0.205241844058  0.0428795590997  0.00925182178617  
3.31897306442  -0.0456487126648  -0.159214422107  0.010648383759  0.190956652164  -0.028834046796  0.028498487547  
3.32708597183  -0.0412896499038  -0.149422511458  0.00774660333991  0.170990929008  0.0259098950773  -0.00321177230217  
3.33514904976  -0.0360229834914  -0.132638201118  0.00300404569134  0.15577095747  -0.0161787047982  0.0364320464432  
3.34323596954  -0.0337731428444  -0.117221698165  0.00236488715746  0.138273999095  -0.00388288893737  0.00937166437507  
3.35131907463  -0.0288771893829  -0.10323690623  0.00502378726378  0.124276414514  0.0407463647425  0.00647148163989  
3.359416008  -0.024927187711  -0.0884851291776  0.00282508134842  0.106036424637  -0.0316862910986  0.0149563131854  
3.36758208275  -0.0190724954009  -0.0744492039084  0.00282508134842  0.0902891531587  0.0323813781142  -0.00266049802303  
3.37562513351  -0.0170655362308  -0.0621773563325  0.00208365730941  0.0731037780643  -0.0296969097108  -0.00675910292193  
3.38368105888  -0.0145983844995  -0.0475150570273  0.00144449865911  0.0517239160836  0.0170655362308  -0.00457797432318  
3.39177298546  -0.00933171622455  -0.0350898094475  0.00139336590655  0.033028524369  0.0499502532184  0.0281629301608  
3.39989805222  -0.00471699098125  -0.0206831749529  0.00139336590655  0.0183838009834  -0.0461632348597  -0.0361444242299  
3.40796303749  -0.00357928848825  -0.00899935420603  0.00139336590655  0.0143810706213  0.0259098950773  0.0343707576394  
3.41605806351  0.000613592332229  0.0155315557495  0.00121440144721  -0.0240403562784  -0.0215955749154  -0.0323813781142  
3.42417597771  0.00764433760196  0.00752928899601  0.00095873803366  -0.0160348936915  0.0215955749154  0.0214757323265  
3.43226313591  0.00357928848825  0.00502378726378  0.000792556733359  -0.0142372595146  -0.00184557074681  -0.00230097118765  
3.44039201736  0.00161067990121  0.00276116537862  0.000677508185618  -0.00539290159941  -0.00656735571101  -0.00862864218652  
3.44844913483  0.00161067990121  0.00720970984548  0.000588025955949  -0.00323574081995  -0.00615989184007  -0.00417051045224  
3.45650601387  -0.0384517870843  -0.00122718466446  -0.000127831735881  0.000647148175631  -0.00349939381704  0.0167539473623  
3.46469306946  -0.0416092313826  -0.00122718466446  -0.00865420885384  0.0185036435723  -0.0368874445558  0.00719053531066  
3.47275209427  -0.0635323747993  -0.00122718466446  -0.0176407787949  0.00565655436367  -0.00814927369356  0.00484162708744  
3.48084211349  -0.0719053521752  -0.00193025916815  -0.0179603584111  0.0306556485593  -0.0323813781142  0.0191028546542  
3.48890113831  -0.0904792994261  -0.00538171594962  -0.0168865714222  0.00937166437507  -0.0477691218257  0.00680703995749  
3.49698805809  -0.108350180089  0.000830906268675  -0.0210027545691  0.0249511580914  -0.0395000055432  0.0387330166996  
3.50509905815  -0.122258268297  -0.00108656974044  -0.0230097118765  0.0395958796144  -0.0564457029104  0.00745418807492  
3.51318216324  -0.13956668973  -0.00579077750444  -0.027266509831  0.0287861097604  -0.0637800469995  0.0336517058313  
3.52127408981  -0.156466037035  0.00129110051785  -0.0311142448336  0.0427117794752  -0.0685257986188  0.0085327681154  
3.52936410904  -0.175551325083  -0.0103799365461  -0.0323669947684  0.0452764034271  -0.0800066888332  0.0328847132623  
3.53745007515  -0.187465235591  -0.00340032414533  -0.0378893278539  0.0471699126065  -0.0876526236534  0.0113370772451  
3.54555702209  -0.203469768167  -0.00340032414533  -0.0415836647153  0.0512924864888  -0.0912478938699  0.0323813781142  
3.5536570549  -0.221123337746  -0.00828349683434  -0.0437823683023  0.0543125085533  -0.103351958096  0.0264372006059  
3.56175303459  -0.237536936998  -0.00515161873773  -0.0471443422139  0.0599690638483  -0.107306756079  0.0323813781142  
3.56985116005  -0.253515899181  -0.00375825306401  -0.0521425642073  0.0667761042714  -0.116103172302  0.0437424220145  
3.57793402672  -0.26881736517  -0.00977912731469  -0.0540600419044  0.0679265931249  -0.119818285108  0.0333640836179  
3.58601617813  -0.289347141981  -0.0105205513537  -0.0597229860723  0.0700597837567  -0.134606823325  0.0401231870055  
3.59410619736  -0.305658459663  -0.0107378661633  -0.0635068044066  0.0779933407903  -0.140527024865  0.0388528592885  
3.6022040844  -0.318863481283  -0.0126169919968  -0.0674440264702  0.0770585685968  -0.144146263599  0.0411777980626  
3.61034798622  -0.332554250956  -0.00802783295512  -0.0702307522297  0.0821638479829  -0.151816174388  0.0446052886546  
3.61843299866  -0.352138072252  -0.0104949856177  -0.0738100409508  0.0879881829023  -0.164783105254  0.0493750087917  
3.62655806541  -0.36671090126  -0.00961294677109  -0.0759064853191  0.0900734364986  -0.162434190512  0.0494948513806  
3.63464903831  -0.381424337626  -0.00778495287523  -0.0795496851206  0.0979830250144  -0.167755186558  0.0497105680406  
3.64275312424  -0.395242929459  -0.0102521050721  -0.0842411145568  0.096784606576  -0.177174791694  0.0512924864888  
3.65085601807  -0.414136469364  -0.00837297830731  -0.086081892252  0.103687517345  -0.188392028213  0.0569730065763  
3.65894913673  -0.428760409355  -0.0136907789856  -0.0901597216725  0.106180235744  -0.196565270424  0.0574044398963  
3.66707801819  -0.445148438215  -0.0149307465181  -0.093687877059  0.114425383508  -0.200879588723  0.056493639946  
3.67516708374  -0.463658481836  -0.0138953095302  -0.0967302769423  0.108936607838  -0.208837106824  0.0591062009335  
3.68328309059  -0.481516569853  -0.013614079915  -0.101702928543  0.121496073902  -0.214206039906  0.0636841729283  
3.69140315056  -0.495437443256  -0.0132561512291  -0.103709883988  0.11871573329  -0.220078319311  0.0618146359921  
3.69959998131  -0.508923709393  -0.0125914262608  -0.106113120914  0.128231212497  -0.231774926186  0.0647627562284  
3.70768809319  -0.525222241879  -0.0110318791121  -0.108631409705  0.126313731074  -0.238342270255  0.0697961300611  
3.71574616432  -0.53924536705  -0.0119906170294  -0.11086846143  0.135110154748  -0.245101377368  0.0712342336774  
3.72382307053  -0.552821099758  -0.00971521157771  -0.113552927971  0.140766710043  -0.255024313927  0.0716177299619  
3.73189020157  -0.574731469154  -0.0117605198175  -0.119279794395  0.136883825064  -0.257996410131  0.0761237964034  
3.74006700516  -0.590058505535  -0.0141254067421  -0.124035134912  0.152607128024  -0.263676941395  0.0788561999798  
3.74816918373  -0.605756223202  -0.0184972528368  -0.126476719975  0.14812502265  -0.274750351906  0.0796231925488  
3.75630497932  -0.623665452003  -0.0163368955255  -0.130362808704  0.153350144625  -0.282084703445  0.0878204032779  
3.7644071579  -0.638161599636  -0.0177558287978  -0.133060052991  0.159917503595  -0.286183297634  0.0813489183784  
3.77248311043  -0.652287006378  -0.0141381900758  -0.136102452874  0.162721812725  -0.292822569609  0.0872211903334  
3.78072810173  -0.667064368725  -0.0161707140505  -0.139132067561  0.169361069798  -0.303392648697  0.0917032957077  
3.78878617287  -0.684372782707  -0.0168737899512  -0.142263934016  0.169528856874  -0.309097141027  0.0909602716565  
3.79686999321  -0.702614367008  -0.0180626250803  -0.145536437631  0.171566173434  -0.320026755333  0.0952266529202  
3.80496811867  -0.716701388359  -0.0201846305281  -0.151161029935  0.176815256476  -0.321608662605  0.095466338098  
3.81306314468  -0.737601876259  -0.0177941769361  -0.154382392764  0.183694213629  -0.333137512207  0.101194798946  
3.82117509842  -0.749055624008  -0.0162601973861  -0.155379474163  0.188392028213  -0.336397200823  0.0966407954693  
3.82930016518  -0.765443623066  -0.0170783195645  -0.157578185201  0.192610472441  -0.349100500345  0.106659606099  
3.83741807938  -0.779338955879  -0.0185483843088  -0.161106333137  0.193617150187  -0.354349583387  0.101865917444  
3.84550714493  -0.798091888428  -0.0214245989919  -0.16610455513  0.200831651688  -0.359766453505  0.104310698807  
3.85361814499  -0.813099324703  -0.0203635953367  -0.169671058655  0.196565270424  -0.36724460125  0.106012456119  
3.86169219017  -0.833373427391  -0.0194176398218  -0.172227695584  0.203180551529  -0.375441819429  0.110758207738  
3.86980700493  -0.842922449112  -0.0171550195664  -0.173761680722  0.206200584769  -0.379252791405  0.108648985624  
3.87788701057  -0.862288951874  -0.0224216859788  -0.176446139812  0.214877158403  -0.385460615158  0.114377446473  
3.88596796989  -0.87523829937  -0.0226773489267  -0.181917339563  0.211138084531  -0.394472748041  0.111645042896  
3.89408016205  -0.895653069019  -0.0216546952724  -0.1867749542  0.224344700575  -0.396941512823  0.120057970285  
3.90216302872  -0.908806920052  -0.0169121380895  -0.190418154001  0.224512472749  -0.407367795706  0.113658390939  
3.91030097008  -0.923865497112  -0.0192642416805  -0.1867749542  0.23549002409  -0.415684849024  0.121951475739  
3.918405056  -0.943193674088  -0.0243263784796  -0.192552939057  0.232086509466  -0.426878094673  0.120944805443  
3.92651605606  -0.963991880417  -0.0259370598942  -0.202715560794  0.2407630831  -0.433517366648  0.124755784869  
3.93464803696  -0.985953390598  -0.0243263784796  -0.20462025702  0.246467575431  -0.442193955183  0.1283031106  
3.94273710251  -0.963991880417  -0.0277267042547  -0.199264109135  0.246659323573  -0.437448203564  0.130508214235  
3.9508190155  -0.955005347729  -0.0267807487398  -0.199455857277  0.234243676066  -0.430521309376  0.119602568448  
3.95891404152  -0.926562786102  -0.0224344693124  -0.195672035217  0.235178440809  -0.42079013586  0.123844988644  
3.96697115898  -0.904000461102  -0.0211945008487  -0.184103265405  0.230097129941  -0.412688791752  0.118260338902  
3.97505307198  -0.892303884029  -0.0245181266218  -0.180076569319  0.226429954171  -0.407128095627  0.117349535227  
3.98313617706  -0.879252254963  -0.0251061525196  -0.182467013597  0.21825671196  -0.398283749819  0.113466642797  
3.99132108688  -0.862365663052  -0.022702915594  -0.184435620904  0.217897191644  -0.390901476145  0.114689037204  
3.99943113327  -0.841324567795  -0.0182543713599  -0.17546184361  0.209340453148  -0.380475193262  0.111645042896  
4.00760006905  -0.834945738316  -0.0213990323246  -0.167127206922  0.210634738207  -0.378126293421  0.111740916967  
4.01571917534  -0.815425872803  -0.0216546952724  -0.167868629098  0.199681162834  -0.365614742041  0.104694195092  
4.02377414703  -0.797785103321  -0.0202741138637  -0.170169606805  0.197140514851  -0.357489436865  0.104622289538  
4.03186011314  -0.776833474636  -0.0198778342456  -0.165516525507  0.19002187252  -0.354301631451  0.106132298708  
4.03994202614  -0.764242053032  -0.0156210381538  -0.155507311225  0.194527953863  -0.341718196869  0.102537035942  
4.04801416397  -0.747841238976  -0.018126539886  -0.153461992741  0.186618357897  -0.33922547102  0.099876537919  
4.05609607697  -0.734035372734  -0.018867963925  -0.154382392764  0.18820028007  -0.332610189915  0.102249413729  
4.06418299675  -0.716330707073  -0.0187656991184  -0.152784496546  0.181177526712  -0.321536779404  0.0951068103313  
4.07226920128  -0.702051877975  -0.0164008121938  -0.14636734128  0.175496995449  -0.318924218416  0.100979082286  
4.0803771019  -0.679732441902  -0.013677995652  -0.138288363814  0.172500938177  -0.312428742647  0.0894742235541  
4.08851313591  -0.671065449715  -0.014253238216  -0.136549860239  0.166341051459  -0.29430860281  0.0918710753322  
4.09655404091  -0.653232932091  -0.0149818789214  -0.137099534273  0.161763072014  -0.296130210161  0.0862145200372  
4.1046500206  -0.637893140316  -0.0187656991184  -0.134632378817  0.160660520196  -0.288771897554  0.0867897570133  
4.11273097992  -0.620495259762  -0.0151352770627  -0.128458112478  0.151959970593  -0.273983359337  0.0839614793658  
4.12081599236  -0.598367571831  -0.0104182865471  -0.124776557088  0.154332861304  -0.273048579693  0.0795752555132  
4.12890005112  -0.587872564793  -0.0145472511649  -0.122117653489  0.151049181819  -0.266049802303  0.0794074758887  
4.13699698448  -0.573312520981  -0.0136268632486  -0.118295490742  0.139927819371  -0.260177522898  0.077801592648  
4.14511919022  -0.558675825596  -0.0186378676444  -0.115726068616  0.143978476524  -0.249727293849  0.0725045651197  
4.1532330513  -0.541955411434  -0.0132689345628  -0.112312965095  0.137938439846  -0.243926927447  0.0744220390916  
4.16131901741  -0.522192656994  -0.0110190957785  -0.109449528158  0.125906273723  -0.238869577646  0.0688134208322  
4.16940617561  -0.50630313158  -0.0084368949756  -0.105844676495  0.133264586329  -0.228778868914  0.0642833858728  
4.17746210098  -0.490848302841  -0.00703074550256  -0.101856328547  0.122622594237  -0.226286143064  0.0649065673351  
4.18562316895  -0.471545696259  -0.0119011346251  -0.0967814102769  0.119171135128  -0.214349851012  0.0629411488771  
4.19367218018  -0.457177430391  -0.0118627846241  -0.093777358532  0.118020653725  -0.211018234491  0.0578119046986  
4.20180010796  -0.443972408772  -0.0130771864206  -0.0922561660409  0.113898076117  -0.199872910976  0.0582433342934  
4.20988106728  -0.427916735411  -0.0114409402013  -0.0877692699432  0.107786126435  -0.194096520543  0.0557506158948  
4.21797299385  -0.410646677017  -0.0113642411307  -0.0844839960337  0.101074956357  -0.185587719083  0.0537852048874  
4.22605514526  -0.398962855339  -0.0103415874764  -0.0833846405149  0.0984863638878  -0.17624001205  0.0510767698288  
4.23415398598  -0.378893256187  -0.00797670055181  -0.0796775221825  0.0970722287893  -0.172165378928  0.0487518273294  
4.24221205711  -0.358900368214  -0.00873090792447  -0.0743980705738  0.0900015309453  -0.169696629047  0.0482964292169  
4.25029706955  -0.341834843159  -0.00611035712063  -0.0701157078147  0.0913677364588  -0.159150511026  0.0469541959465  
4.25836420059  -0.327364295721  -0.00538171594962  -0.0665492042899  0.0800785943866  -0.145272776484  0.0405546203256  
4.26644706726  -0.317035496235  -0.00928058382124  -0.0636474192142  0.0790958851576  -0.148244872689  0.0381577722728  
4.27458119392  -0.302871733904  -0.00447411090136  -0.0613336674869  0.0774180963635  -0.138561621308  0.0380618982017  
4.28266906738  -0.286752134562  -0.0108145652339  -0.0582912713289  0.071497887373  -0.121256396174  0.0388288907707  
4.29076004028  -0.267360061407  -0.00685178115964  -0.0537788122892  0.0708507373929  -0.124228477478  0.0364080779254  
4.29884505272  -0.252467662096  -0.0046019423753  -0.0514267086983  0.0667281672359  -0.107690252364  0.0337475799024  
4.30694198608  -0.237345188856  -0.00972799491137  -0.0476428866386  0.0552233122289  -0.107498504221  0.030368026346  
4.31502509117  -0.220241293311  -0.0062765381299  -0.0437823683023  0.0498064421117  -0.0941241085529  0.0238246396184  
4.32311415672  -0.202971234918  -0.00268446654081  -0.0417881943285  0.0533537715673  -0.0955382436514  0.0254544951022  
4.33121013641  -0.185266539454  -0.00196860870346  -0.0372118167579  0.0482484921813  -0.086454205215  0.0194863509387  
4.33936810493  -0.168009251356  -0.00616148952395  -0.0349491946399  0.0403389036655  -0.0780412778258  0.0273959394544  
4.3475689888  -0.151327207685  0.0  -0.0315105244517  0.0365279205143  -0.0707788318396  0.0143810706213  
4.355656147  -0.134197756648  -0.0062765381299  -0.0283275116235  0.0296489745378  -0.0560622066259  0.0249271895736  
4.36374211311  -0.119267009199  -0.0062765381299  -0.024837706238  0.031063111499  -0.0506453365088  0.0145009122789  
4.37181997299  -0.0753951594234  -0.00268446654081  -0.0226901322603  0.0281629301608  -0.0514123253524  0.00647148163989  
4.37989211082  -0.0903131216764  0.0  -0.0177813936025  0.0174730010331  -0.0423762202263  0.0232014600188  
4.3880200386  -0.0743213742971  -0.00474255718291  -0.0144449863583  0.0203731823713  -0.0304159633815  -0.00256462418474  
4.39615011215  -0.059697419405  -0.00300404569134  -0.0127831734717  0.0176647473127  -0.025358621031  0.0222906600684  
4.40426111221  -0.0412257350981  -0.00182799377944  -0.00951068103313  0.00615989184007  -0.0201334990561  -0.00366717297584  
4.41237998009  -0.0241601970047  0.0  -0.0062765381299  0.0043862266466  -0.0107858031988  0.0183358639479  
4.42047810555  -0.0110702281818  -0.00393721740693  -0.00268446654081  0.00980309676379  -0.00462591089308  -0.0240403562784  
4.4306101799  -0.00467864144593  0.000920388498344  -0.00190469285008  -0.0107858031988  -0.00292415102012  0.00349939381704  
4.43870711327  0.0102904550731  0.000920388498344  0.00425679655746  0.00800546258688  0.0103783393279  -0.00381098361686  
4.44676709175  0.00300404569134  0.0  0.00242880289443  -0.00539290159941  0.00517718540505  -0.00752609362826  
4.45482802391  0.00182799377944  0.0  0.00159789668396  -0.00323574081995  0.00313986698166  -0.00479369005188  
4.46289300919  0.00131666683592  0.0342461206019  -0.0318301022053  -0.00237287674099  0.00225303438492  0.023177491501  
4.47095298767  0.00104822020512  0.0411873832345  -0.0372246019542  -0.0263652950525  -0.000455400557257  0.0117685096338  
4.4790391922  0.00104822020512  0.054469101131  -0.0547247640789  -0.0102824652568  -0.000455400557257  0.0261975172907  
4.48712515831  0.00409061554819  0.0728385224938  -0.0643377155066  -0.0268446654081  -0.00397876277566  0.0117685096338  
4.49523711205  0.00371990352869  0.0872451588511  -0.0750244483352  -0.0161787047982  -0.00397876277566  0.0345864742994  
4.50335812569  0.00461472570896  0.104016683996  -0.0897634476423  -0.0315424799919  -0.00359526765533  0.024304009974  
4.51147413254  0.00674951542169  0.124111831188  -0.101702928543  -0.026748791337  -0.00903610605747  0.0403149351478  
4.5196211338  0.00485760578886  0.140461504459  -0.115342572331  -0.041896853596  -0.0143810706213  0.0289059523493  
4.5276889801  0.00579077750444  0.157463133335  -0.129263445735  -0.0329086817801  -0.00750212511048  0.0441978238523  
4.53575396538  0.00888430513442  0.175870895386  -0.141535297036  -0.0405785888433  -0.00155794934835  0.0342509150505  
4.54383397102  0.00797670055181  0.188743561506  -0.155085459352  -0.0443656034768  -0.0129429632798  0.04050668329  
4.55191397667  0.00862864218652  0.208046153188  -0.166321873665  -0.0503577142954  -0.00503337476403  0.0452764034271  
4.55997419357  0.0117860855535  0.223526567221  -0.179846465588  -0.0563977658749  -0.0262933913618  0.0495907254517  
4.56806111336  0.00897378753871  0.239045351744  -0.194738864899  -0.0520355068147  -0.0107858031988  0.0548158474267  
4.57615804672  0.0107634318992  0.256596654654  -0.207931101322  -0.0598012842238  -0.0172333158553  0.0533058345318  
4.58424115181  0.0134990308434  0.270875453949  -0.219704404473  -0.0676629394293  -0.0161787047982  0.0565415769815  
4.5923640728  0.00934449955821  0.287148416042  -0.23298612237  -0.0709226429462  0.0  0.0646668821573  
4.60046696663  0.0167076084763  0.3042139709  -0.245117351413  -0.0700837522745  -0.0215955749154  0.0674951598048  
4.60854101181  0.0103288041428  0.319042444229  -0.256200373173  -0.079263664782  -0.00759799871594  0.0655297413468  
4.61667108536  0.0153142418712  0.3343950212  -0.269520431757  -0.0780892148614  -0.0239924192429  0.0702275633812  
4.62474513054  0.0131411021575  0.351435005665  -0.282405883074  -0.0811092406511  -0.00807736814022  0.0757642760873  
4.63283014297  0.0125530762598  0.366992115974  -0.293936282396  -0.0905288383365  -0.031973913312  0.0754526853561  
4.64089298248  0.0143938530236  0.385131448507  -0.308112829924  -0.0878204032779  -0.0143810706213  0.0821878165007  
4.64895009995  0.0128598725423  0.397658973932  -0.322839051485  -0.0982706472278  -0.0381098352373  0.0853756219149  
4.65705108643  0.0152247594669  0.415171921253  -0.335085332394  -0.0962093621492  -0.0194623824209  0.0869095996022  
4.66514110565  0.0168354399502  0.428952157497  -0.350668013096  -0.102896556258  -0.0172093473375  0.0956101492047  
4.67322802544  0.0147262159735  0.444598764181  -0.360677242279  -0.10589261353  -0.0185036435723  0.0941241085529  
4.68135213852  0.0188551805913  0.459951370955  -0.376835167408  -0.112244255841  -0.00611195480451  0.105844676495  
4.68946003914  0.0177174787968  0.478921592236  -0.39066657424  -0.112531878054  -0.019342539832  0.0980549305677  
4.69762802124  0.0192898083478  0.493366569281  -0.401877403259  -0.117900811136  -0.0300804059952  0.11020693928  
4.70569014549  0.0179092269391  0.508923709393  -0.415286958218  -0.117804937065  -0.0185036435723  0.110830113292  
4.71377515793  0.0187656991184  0.530271589756  -0.427009135485  -0.124540068209  -0.0394280999899  0.118044622242  
4.72186112404  0.0189702287316  0.543387115002  -0.439280986786  -0.124108634889  -0.0129429632798  0.118308275938  
4.72992420197  0.0201462805271  0.5596601367  -0.452575474977  -0.135565564036  -0.0389247648418  0.126865014434  
4.73803400993  0.0198267027736  0.575383424759  -0.465652674437  -0.136524289846  -0.0133743956685  0.124396257102  
4.74614620209  0.0232142433524  0.590058505535  -0.480493932962  -0.139208763838  -0.0364320464432  0.131970286369  
4.75423312187  0.0206064749509  0.603353023529  -0.495360761881  -0.148244872689  -0.0244717877358  0.129789158702  
4.76236796379  0.02257508412  0.620111763477  -0.507811546326  -0.15028218925  -0.0335078947246  0.134942382574  
4.7704269886  0.020312462002  0.637586355209  -0.517181634903  -0.149083763361  -0.0324772521853  0.139640197158  
4.77851819992  0.024185763672  0.655163228512  -0.526896834373  -0.161091953516  -0.0300564374775  0.142756089568  
4.78661298752  0.0237127877772  0.671666264534  -0.5414057374  -0.160660520196  -0.0291696041822  0.141725450754  
4.79471206665  0.025796443224  0.685574352741  -0.556477129459  -0.165550082922  -0.0268446654081  0.151696324348  
4.80277109146  0.0260904580355  0.701655626297  -0.569145262241  -0.168426305056  -0.0341310724616  0.15308649838  
4.8108651638  0.0261927228421  0.716854810715  -0.584485054016  -0.173339828849  -0.031063111499  0.151169016957  
4.81894898415  0.0266529172659  0.735582172871  -0.596833586693  -0.179787352681  -0.0382776148617  0.155914768577  
4.82705116272  0.024927187711  0.751318216324  -0.609910786152  -0.179499730468  -0.0368155390024  0.1614754498  
4.8351380825  0.0265378691256  0.765967786312  -0.619932770729  -0.184581041336  -0.0341790094972  0.161691173911  
4.84326004982  0.029414081946  0.780348837376  -0.634211599827  -0.188799485564  -0.0301762800664  0.161691173911  
4.8513469696  0.0303856041282  0.794857740402  -0.647621154785  -0.186810106039  -0.0334839262068  0.17149426043  
4.85947299004  0.0271386764944  0.813457250595  -0.657707035542  -0.191459983587  -0.0349939391017  0.174274608493  
4.86757302284  0.0275860875845  0.832619249821  -0.674261271954  -0.193305552006  -0.0394760370255  0.179883226752  
4.87563419342  0.0276627875865  0.8466168046  -0.685497701168  -0.203731834888  -0.0400273129344  0.181728795171  
4.88372206688  0.0304878689349  0.863119900227  -0.698625981808  -0.209340453148  -0.0371750667691  0.181992441416  
4.89180898666  0.0324564762414  0.86924302578  -0.709811270237  -0.214997008443  -0.0345864742994  0.186714231968  
4.89986896515  0.0325715243816  0.834741234779  -0.681573271751  -0.201934203506  -0.0335078947246  0.18323880434  
4.90793609619  0.0265762172639  0.823108553886  -0.661836028099  -0.198962107301  -0.0345385372639  0.182567685843  
4.91599798203  0.0252595506608  0.807334125042  -0.645217895508  -0.192418724298  -0.0367915704846  0.182184189558  
4.92409515381  0.0292990338057  0.787660777569  -0.637765288353  -0.191220298409  -0.0363841094077  0.171662047505  
4.93219017982  0.0283530782908  0.765929400921  -0.625889718533  -0.185443907976  -0.033795516938  0.170247912407  
4.94030117989  0.026320554316  0.747342646122  -0.613669037819  -0.18573153019  -0.0297688152641  0.165717869997  
4.94836711884  0.0254385154694  0.729816913605  -0.600361764431  -0.18098577857  -0.031063111499  0.167108044028  
4.95648217201  0.0286854412407  0.715052366257  -0.589010298252  -0.178253367543  -0.0299845319241  0.166341051459  
4.96457505226  0.0255024302751  0.697846233845  -0.577927291393  -0.17602430284  -0.0332682095468  0.148196935654  
4.97262215614  0.0236744377762  0.685165345669  -0.562804758549  -0.167275816202  -0.0317581966519  0.150210276246  
4.98072218895  0.0221532396972  0.673417568207  -0.544831633568  -0.159917503595  -0.0279472135007  0.147022470832  
4.98880815506  0.0221148896962  0.659598946571  -0.530028700829  -0.15771239996  -0.0258140210062  0.142971813679  
4.99686598778  0.0212584175169  0.64168971777  -0.517577886581  -0.156322240829  -0.0234890822321  0.139927819371  
5.00492215157  0.0224472526461  0.624061763287  -0.506520450115  -0.1492036134  -0.0217393841594  0.138058274984  
5.01303911209  0.0231503266841  0.604068875313  -0.493992954493  -0.149635031819  -0.0259098950773  0.127464219928  
5.02113699913  0.0219359248877  0.590326964855  -0.48090299964  -0.142061010003  -0.0216195434332  0.127080723643  
5.02919411659  0.0168865714222  0.574859321117  -0.469193607569  -0.139927819371  -0.029888657853  0.125115320086  
5.0372800827  0.0194176398218  0.559941351414  -0.454607993364  -0.134798571467  -0.0244717877358  0.120105907321  
5.04533600807  0.0177813936025  0.543387115002  -0.441134542227  -0.133024901152  -0.0295531004667  0.117900811136  
5.0535671711  0.0197500027716  0.529031634331  -0.42579472065  -0.12389292568  -0.0237047970295  0.111189641058  
5.06156611443  0.0208621397614  0.510636627674  -0.415836632252  -0.124875627458  -0.0231535229832  0.114449352026  
5.06962013245  0.0183182880282  0.491653650999  -0.401008158922  -0.11871573329  -0.0151001242921  0.104071013629  
5.07766914368  0.0171933677047  0.478563666344  -0.388621270657  -0.115288250148  -0.0259818006307  0.104166887701  
5.08576798439  0.015774436295  0.465128540993  -0.376771241426  -0.111669011414  -0.0116726355627  0.0973598435521  
5.09387898445  0.0125275095925  0.447219312191  -0.364627242088  -0.104909911752  -0.0259098950773  0.096017614007  
5.10197806358  0.0157105196267  0.431521594524  -0.351153790951  -0.104670226574  -0.00862864218652  0.0925661548972  
5.11006712914  0.0152503261343  0.41604116559  -0.3367215693  -0.0957299917936  -0.0321177244186  0.0869815051556  
5.11815404892  0.0140103586018  0.39703258872  -0.322672873735  -0.093788549304  -0.0143810706213  0.0918950438499  
5.12626409531  0.0175896473229  0.382165759802  -0.310643911362  -0.0942199826241  -0.0288819838315  0.0788801684976  
5.13435196877  0.0114665068686  0.364435493946  -0.298154741526  -0.0860707089305  -0.0210203304887  0.0826911553741  
5.14244604111  0.0132689345628  0.347203761339  -0.284451186657  -0.08714928478  -0.00846086349338  0.0781850889325  
5.15054512024  0.00893543846905  0.33420330286  -0.272256016731  -0.076818883419  -0.0277314968407  0.0709226429462  
5.15861296654  0.00942119862884  0.306029170752  -0.246280625463  -0.0756684020162  -0.0235609877855  0.0697481930256  
5.16672801971  0.00806618202478  0.28693112731  -0.231682240963  -0.0656016469002  -0.00994690693915  0.0618146359921  
5.17477917671  0.0128215234727  0.271501809359  -0.220075115561  -0.0618625730276  -0.00534496456385  0.0625336915255  
5.18283510208  0.00758042186499  0.255867987871  -0.207943886518  -0.0645710080862  -0.0185036435723  0.0585069879889  
5.19089698792  0.00925501808524  0.238367840648  -0.195582553744  -0.0602566860616  -0.00563258584589  0.0526826530695  
5.1989569664  0.00589304277673  0.219768315554  -0.182403102517  -0.0530421808362  -0.0133024901152  0.0484162718058  
5.20704817772  0.0052027516067  0.20780326426  -0.16849501431  -0.0493031032383  -0.00639957655221  0.0457557737827  
5.21513199806  0.00709466123953  0.189075917006  -0.155622348189  -0.049231197685  -0.00225303438492  0.0461152978241  
5.22321915627  0.00571407843381  0.174579799175  -0.141727045178  -0.0446532219648  -0.0110734244809  0.0383734889328  
5.23132705688  0.00469142477959  0.158869281411  -0.127563282847  -0.0392123870552  -0.0117685096338  0.0333401151001  
5.23943018913  0.00396278360859  0.144360378385  -0.114959076047  -0.0312548615038  0.0  0.0286422986537  
5.24758911133  0.00320857646875  0.12636166811  -0.102712802589  -0.0313986688852  -0.00867657922208  0.0240643247962  
5.25565600395  0.00395000074059  0.110676713288  -0.089840143919  -0.0241122618318  -0.00994690693915  0.0253825895488  
5.26371717453  0.00300404569134  0.0933427363634  -0.0767885223031  -0.0260297376662  -0.00270843482576  0.0203492138535  
5.27178096771  0.00182799377944  0.0781563222408  -0.0640053525567  -0.0160828307271  -0.0121999410912  0.0235370192677  
5.27986502647  0.00131666683592  0.0622924044728  -0.049764893949  -0.0193904768676  0.00215716054663  0.0129429632798  
5.2879550457  0.00106100342236  0.0452652163804  -0.0366877093911  -0.00862864218652  -0.00172572850715  0.0113131087273  
5.29601716995  0.00106100342236  0.0293885152787  -0.0216930452734  -0.00532099604607  -0.00172572850715  0.0117685096338  
5.30409812927  0.00106100342236  0.0144577696919  -0.0115176392719  -0.00721450382844  -0.00172572850715  0.00515321688727  
5.31222200394  0.00106100342236  0.00579077750444  -0.00291456351988  -0.00615989184007  -0.00172572850715  0.00515321688727  
5.32031011581  0.00106100342236  -0.00781051907688  0.00795113388449  0.00095873803366  -0.00172572850715  -0.0116966040805  
5.32839918137  0.000907605339307  -0.00985582638532  0.0125658595935  0.00095873803366  -0.00153398083057  -0.00498543772846  
5.33651399612  0.00075420725625  -0.00516440207139  0.00342589057982  0.00095873803366  -0.00129429635126  -0.00498543772846  
5.34458398819  0.000651941867545  -0.00603365805  0.00198139180429  0.00095873803366  -0.0011025487911  -0.00402669981122  
5.35264897346  0.0408805906773  0.0224216859788  -0.00890987180173  0.00095873803366  0.0358807705343  -0.00268446654081  
5.36074614525  0.046019423753  0.0188040491194  -0.0115432059392  -0.0142612280324  0.0118643827736  -0.0218831952661  
5.36884117126  0.0640948340297  0.0302194226533  -0.0178453102708  -0.0129429632798  0.0473137199879  -0.0129429632798  
5.37693119049  0.0799459666014  0.0383878685534  -0.0185995176435  -0.00560861732811  0.0282827727497  -0.0223865322769  
5.38504815102  0.0968197584152  0.0439996831119  -0.0260648913682  -0.0293373838067  0.0445333831012  -0.0185036435723  
5.39313197136  0.111878335476  0.0526027604938  -0.0295035652816  -0.00661529228091  0.0586268305779  -0.0320937559009  
5.40119218826  0.125888690352  0.0602215304971  -0.0309608466923  -0.0324772521853  0.0681423023343  -0.0185036435723  
5.40928506851  0.139605045319  0.0655904635787  -0.0395767055452  -0.0108577078208  0.0723367854953  -0.0455160886049  
5.41740107536  0.153065726161  0.0735927298665  -0.0427213646472  -0.0374866575003  0.0798628777266  -0.0215955749154  
5.4255900383  0.170668154955  0.0800482332706  -0.0488061569631  -0.0371990352869  0.0941960141063  -0.0435986109078  
5.43356108665  0.1857778579  0.0864781662822  -0.0526283271611  -0.0350179076195  0.094819188118  -0.0282588042319  
5.44165110588  0.206064760685  0.0961805954576  -0.0564121454954  -0.0393801629543  0.108553111553  -0.0429274961352  
5.44973516464  0.223360389471  0.104591928422  -0.0593267083168  -0.0371510982513  0.114689037204  -0.0492072291672  
5.45782208443  0.241167351604  0.113680765033  -0.0639030858874  -0.0413695462048  0.129741221666  -0.049662631005  
5.46589112282  0.256417691708  0.125326231122  -0.0688757374883  -0.047217849642  0.129980906844  -0.0536413937807  
5.47398614883  0.273035794497  0.131820082664  -0.0717008188367  -0.0484162718058  0.146231517196  -0.0573804713786  
5.48207116127  0.286343097687  0.136191934347  -0.0766990408301  -0.0491113550961  0.157448753715  -0.0632527396083  
5.49018096924  0.303319126368  0.143401637673  -0.0811859369278  -0.0511486753821  0.157856211066  -0.0634684562683  
5.498306036  0.319719940424  0.151991933584  -0.086081892252  -0.0576920621097  0.167587414384  -0.0679984912276  
5.5063970089  0.33626139164  0.158012807369  -0.0920516327024  -0.0601608119905  0.17969147861  -0.0752849057317  
5.51445198059  0.349530309439  0.166654229164  -0.0966791436076  -0.0615030452609  0.19208316505  -0.0734393298626  
5.52255511284  0.362402975559  0.172457799315  -0.102981247008  -0.0627014636993  0.20004068315  -0.0765552297235  
5.53060913086  0.379148930311  0.182313621044  -0.105077683926  -0.0717375725508  0.20382770896  -0.0871972218156  
5.53867197037  0.395754277706  0.18866686523  -0.111955031753  -0.0695085078478  0.211593478918  -0.0805339962244  
5.54675602913  0.414059787989  0.198791131377  -0.115853898227  -0.070946611464  0.222019761801  -0.0909363031387  
5.55484318733  0.429629683495  0.205962494016  -0.119982868433  -0.0768428519368  0.231774926186  -0.091343767941  
5.56293511391  0.448484867811  0.214003100991  -0.124405846  -0.0760998278856  0.234315574169  -0.0966887325048  
5.57102417946  0.464527755976  0.223910063505  -0.127818956971  -0.0792876332998  0.243591368198  -0.100643523037  
5.57913613319  0.477937281132  0.230889678001  -0.132088527083  -0.0834821164608  0.254640817642  -0.0986301749945  
5.58724308014  0.492522895336  0.237191781402  -0.134939178824  -0.0811332091689  0.256318598986  -0.108001835644  
5.59533619881  0.508514642715  0.241653114557  -0.140372022986  -0.0893304124475  0.272089838982  -0.10697119683  
5.60340809822  0.523279190063  0.249974951148  -0.144820570946  -0.0914875790477  0.28074246645  -0.114904753864  
5.61149907112  0.538989722729  0.256417691708  -0.1519408077  -0.0929496511817  0.287022203207  -0.112603783607  
5.61965918541  0.559800744057  0.26197835803  -0.156977370381  -0.0969284176826  0.298167526722  -0.119554631412  
5.62769699097  0.572916269302  0.272396653891  -0.160914584994  -0.0971920713782  0.305741548538  -0.12303005904  
5.63576102257  0.587604165077  0.279555231333  -0.166053429246  -0.103831328452  0.307227611542  -0.125115320086  
5.64382910728  0.604490697384  0.287480801344  -0.168776243925  -0.100283995271  0.323669970036  -0.127871692181  
5.65192008018  0.619357526302  0.295700371265  -0.174656495452  -0.112843468785  0.334719419479  -0.127464219928  
5.6600151062  0.643530547619  0.300954252481  -0.175244525075  -0.108217552304  0.342341393232  -0.140431150794  
5.66810703278  0.658985376358  0.308777570724  -0.18143157661  -0.119842253625  0.346320152283  -0.138489708304  
5.67619514465  0.675833582878  0.319323688745  -0.186442583799  -0.115959361196  0.353918135166  -0.14251640439  
5.68430304527  0.684832930565  0.328348606825  -0.190328672528  -0.119171135128  0.366477608681  -0.146279454231  
5.6924021244  0.69374281168  0.338063806295  -0.194943398237  -0.120753057301  0.375106245279  -0.146471202374  
5.70058608055  0.712623596191  0.343125939369  -0.197078183293  -0.125187218189  0.378437876701  -0.144961193204  
5.70857810974  0.733766913414  0.351422220469  -0.20289452374  -0.128614708781  0.392890840769  -0.154884129763  
5.71663498878  0.759013712406  0.356433212757  -0.208992108703  -0.12657739222  0.401902973652  -0.154548570514  
5.72473406792  0.77220594883  0.365611553192  -0.212558612227  -0.136044919491  0.409572899342  -0.155962705612  
5.732817173  0.783889770508  0.374035656452  -0.217620745301  -0.136092856526  0.414390534163  -0.161091953516  
5.74089717865  0.776130378246  0.373153626919  -0.214897930622  -0.138273999095  0.418704867363  -0.165310397744  
5.74898409843  0.745604157448  0.355806857347  -0.209209412336  -0.136787950993  0.397948175669  -0.158623203635  
5.75706911087  0.734981358051  0.34570813179  -0.204735308886  -0.13002884388  0.388960033655  -0.149946630001  
5.76518797874  0.725892484188  0.339930146933  -0.202549383044  -0.130316466093  0.383998543024  -0.154956027865  
5.77328014374  0.70340692997  0.33204293251  -0.198407635093  -0.127823755145  0.376520395279  -0.152798876166  
5.78137516975  0.683017730713  0.326610088348  -0.190418154001  -0.12108861655  0.37177464366  -0.144841343164  
5.78946399689  0.660672783852  0.316562503576  -0.185688376427  -0.122622594237  0.360677242279  -0.143978476524  
5.79759216309  0.645588636398  0.307550370693  -0.183617502451  -0.113179028034  0.350993990898  -0.147573754191  
5.8056511879  0.638736844063  0.300302326679  -0.179846465588  -0.116486668587  0.334959089756  -0.136620163918  
5.81374001503  0.620252370834  0.293373823166  -0.172087088227  -0.106683574617  0.327744603157  -0.135613501072  
5.8218460083  0.607673704624  0.290318667889  -0.168290480971  -0.112052507699  0.333664804697  -0.1326174438  
5.8299331665  0.58692663908  0.280015408993  -0.163931414485  -0.0988938286901  0.317965477705  -0.125019446015  
5.83804702759  0.568378269672  0.271962016821  -0.160479962826  -0.108001835644  0.30701187253  -0.127032786608  
5.84613108635  0.556771099567  0.265826106071  -0.154382392764  -0.0992533564568  0.300061047077  -0.115695714951  
5.85421800613  0.543259322643  0.255024313927  -0.1516084373  -0.0984144583344  0.291624128819  -0.118116527796  
5.86233615875  0.525708019733  0.248121395707  -0.145331904292  -0.0867418199778  0.276691794395  -0.109535820782  
5.87040805817  0.510342657566  0.24224114418  -0.139323800802  -0.0946034789085  0.276571959257  -0.10891263932  
5.87854719162  0.488266080618  0.233574151993  -0.13511814177  -0.0872211903334  0.262718200684  -0.103975139558  
5.88658213615  0.471839725971  0.226645663381  -0.129749208689  -0.0855913385749  0.243471518159  -0.100427806377  
5.89468717575  0.444483727217  0.212290167809  -0.122334972024  -0.0743980705738  0.234555259347  -0.0967366695404  
5.90274000168  0.428440839052  0.203265234828  -0.116518624127  -0.0741104483604  0.22988140583  -0.0868616625667  
5.91084504128  0.41331833601  0.195339679718  -0.112197913229  -0.0741104483604  0.224776133895  -0.0898816883564  
5.91890001297  0.39882221818  0.188986435533  -0.109909728169  -0.0677108764648  0.218520373106  -0.0820200368762  
5.92699217796  0.37862482667  0.179718643427  -0.104591928422  -0.0656495839357  0.202725157142  -0.0784966796637  
5.9350771904  0.361751019955  0.17307138443  -0.100514091551  -0.067255474627  0.197667807341  -0.0791198536754  
5.94319105148  0.347088724375  0.163305044174  -0.0969987213612  -0.0605922453105  0.183622300625  -0.0687654837966  
5.95131206512  0.332669317722  0.157220244408  -0.0915019586682  -0.0552472807467  0.175449058414  -0.0695324763656  
5.95946598053  0.316971570253  0.150368466973  -0.0875008255243  -0.0558704584837  0.166916295886  -0.0671596005559  
5.96757316589  0.302424311638  0.137073963881  -0.0826560035348  -0.0543844141066  0.161091953516  -0.0607120841742  
5.97567009926  0.281817853451  0.131027534604  -0.0774788111448  -0.0481286495924  0.151432678103  -0.0559183955193  
5.98375415802  0.264662832022  0.122654549778  -0.073388196528  -0.044125918299  0.138178125024  -0.0521074123681  
5.99184608459  0.246523499489  0.116953253746  -0.071036092937  -0.0436225794256  0.137650817633  -0.047841027379  
5.99993610382  0.230940818787  0.111392572522  -0.0659483894706  -0.0415373258293  0.1261459589  -0.0407943017781  
6.00802111626  0.214220419526  0.104591928422  -0.0612058341503  -0.0353534631431  0.116151109338  -0.0414174832404  
6.01610612869  0.199928835034  0.0753951594234  -0.0560158677399  -0.0327888391912  0.105940550566  -0.0380858667195  
6.02419614792  0.185560539365  0.0907988846302  -0.0530246049166  -0.02701244317  0.103471800685  -0.0399074703455  
6.03228998184  0.172713458538  0.0819912776351  -0.0475406236947  -0.0283307079226  0.0939802974463  -0.0408182702959  
6.0404009819  0.155149370432  0.0745514705777  -0.042273953557  -0.0224105007946  0.0860707089305  -0.0282348357141  
6.04850411415  0.140908926725  0.066485285759  -0.0387585833669  -0.0265810117126  0.0724566280842  -0.0294572263956  
6.0565559864  0.12407348305  0.0571407862008  -0.0331723354757  -0.0196061935276  0.0650024414062  -0.0187672972679  
6.06461811066  0.108235128224  0.0501483902335  -0.0298487097025  -0.023608924821  0.0563737973571  -0.0242800414562  
6.07271099091  0.0925885289907  0.0415325313807  -0.025796443224  -0.0137578910217  0.0439341701567  -0.0118404142559  
6.08077096939  0.0780157074332  0.0328911058605  -0.0226901322603  -0.0171853788197  0.036240298301  -0.0257181469351  
6.08885598183  0.0619344748557  0.0260904580355  -0.0171933677047  -0.0161787047982  0.0271322857589  -0.0149563131854  
6.09695315361  0.0431815609336  0.0198650509119  -0.0122462799773  -0.00539290159941  0.0238965451717  -0.00539290159941  
6.10507512093  0.0262566376477  0.0126297753304  -0.0062765381299  -0.00323574081995  0.0117685096338  -0.0207566786557  
6.11313915253  0.0106611670926  0.00671116588637  -0.00502378726378  -0.00230097118765  0.00726244039834  -0.00620782887563  
6.12123513222  -0.00986860971898  0.00470420764759  0.000805339950603  -0.00141413859092  0.00436225812882  0.0108337393031  
6.12934112549  -0.00792556721717  -0.00115048559383  0.0056757288985  0.00632767099887  -0.020253341645  0.00539290159941  
6.13745903969  -0.00824514683336  -0.00115048559383  0.00407783221453  0.00632767099887  -0.0120800994337  0.0  
6.14559316635  -0.0058035608381  -0.00115048559383  0.00313187739812  0.00402669981122  -0.00496146921068  0.0  
6.15363717079  -0.00288899731822  -0.00115048559383  0.001879126532  0.00268446654081  -0.00306796166115  0.0  
6.16170597076  0.0191108435392  -0.0391548611224  0.0353582575917  0.00201334990561  0.000575242796913  0.0  
6.16979813576  0.0161323640496  -0.0431176424026  0.0453674830496  0.00160588615108  0.0161787047982  -0.000431432126788  
6.17789816856  0.0264356024563  -0.0564249269664  0.0596590712667  0.0137099539861  0.0  -0.0233692396432  
6.18599009514  0.0268063154072  -0.0722249299288  0.0711511448026  0.0117685096338  0.0238965451717  -0.00647148163989  
6.19411301613  0.0351537279785  -0.0901085883379  0.0842411145568  0.0  0.0197979398072  -0.0304878689349  
6.20220899582  0.0375313982368  -0.10668836534  0.0990568101406  0.0238246396184  0.0197020657361  -0.0104981809855  
6.2102971077  0.0463134385645  -0.121593549848  0.116710372269  0.00615989184007  0.0329566188157  -0.0220749434084  
6.21839213371  0.0523726604879  -0.141011193395  0.129263445735  0.0328607447445  0.0217633526772  -0.0129429632798  
6.22648715973  0.0576137639582  -0.159239992499  0.146111667156  0.0107858031988  0.0470980070531  -0.0330045558512  
6.23462414742  0.0652836635709  -0.175973162055  0.160288214684  0.0300804059952  0.0414414517581  -0.0181680861861  
6.24270701408  0.07112557441  -0.192437887192  0.174272999167  0.0143810706213  0.0485840514302  -0.0398355647922  
6.2507879734  0.0755741223693  -0.205451160669  0.188756346703  0.0386131741107  0.0526586845517  -0.0206608045846  
6.25881814957  0.0825792998075  -0.219001322985  0.204824790359  0.0143810706213  0.0580276176333  -0.0415373258293  
6.26690506935  0.0890220180154  -0.241039514542  0.221596315503  0.0356650538743  0.0606641471386  -0.0280430875719  
6.27498698235  0.0942375585437  -0.253746002913  0.235287085176  0.019558256492  0.0646668821573  -0.0419447906315  
6.2830991745  0.10105098784  -0.269814431667  0.251930773258  0.0366717278957  0.0637081414461  -0.0367196649313  
6.29116916656  0.108861505985  -0.28868240118  0.264445513487  0.0271562542766  0.0672794431448  -0.0383015833795  
6.29924511909  0.114371053874  -0.299957156181  0.278545349836  0.04029096663  0.0778974667192  -0.0440300442278  
6.30736017227  0.119701638818  -0.3158210814  0.293169289827  0.0354253686965  0.0764593556523  -0.0457078367472  
6.31554412842  0.125390142202  -0.335072547197  0.309403926134  0.0395000055432  0.0832903683186  -0.0491832606494  
6.323595047  0.131909564137  -0.350143909454  0.326047629118  0.0406265258789  0.0860946774483  -0.0478649958968  
6.3316860199  0.137751474977  -0.369868338108  0.338536769152  0.0392363555729  0.0844408497214  -0.0488477014005  
6.33976817131  0.142903089523  -0.383329033852  0.353237420321  0.0403628721833  0.0934290215373  -0.0537612363696  
6.34784507751  0.14898788929  -0.401327729225  0.368909597397  0.046019423753  0.0958498343825  -0.0606641471386  
6.35589814186  0.15289953351  -0.411746025085  0.385553300381  0.0483203977346  0.103735454381  -0.0564696714282  
6.36400318146  0.162103429437  -0.43113809824  0.400292307138  0.0465946681798  0.101362578571  -0.057116817683  
6.3720870018  0.168290480971  -0.44118565321  0.416820943356  0.0477930903435  0.109703600407  -0.0622940026224  
6.38014411926  0.176471710205  -0.460207015276  0.430780172348  0.051675979048  0.111788854003  -0.0637800469995  
6.38823914528  0.18432058394  -0.476837933064  0.44473940134  0.0554629936814  0.120992742479  -0.0649305358529  
6.39630198479  0.19224613905  -0.493162035942  0.459414482117  0.0551514066756  0.114377446473  -0.0696762874722  
6.40436220169  0.199660390615  -0.514944553375  0.471545696259  0.0536893308163  0.127008825541  -0.0731756836176  
6.41244697571  0.203610390425  -0.529031634331  0.487741976976  0.0565895140171  0.12722453475  -0.0711143910885  
6.42056202888  0.208992108703  -0.544371426105  0.504487931728  0.060951769352  0.135110154748  -0.0749972835183  
6.42859697342  0.214885145426  -0.558215618134  0.518447160721  0.0596574731171  0.136979699135  -0.079263664782  
6.43669819832  0.220139026642  -0.571510136127  0.535372078419  0.0588904842734  0.138058274984  -0.0771784111857  
6.44478011131  0.226185470819  -0.584906876087  0.546557366848  0.0651462525129  0.153278246522  -0.0835779905319  
6.45287299156  0.233689188957  -0.602662742138  0.5596601367  0.0674232542515  0.143786743283  -0.0855194330215  
6.46095919609  0.239837899804  -0.625135540962  0.576393306255  0.0655776783824  0.149083763361  -0.0849441885948  
6.46907401085  0.244388714433  -0.639452695847  0.588051557541  0.0714259818196  0.154884129763  -0.0901693105698  
6.47718214989  0.246587410569  -0.655776798725  0.604669690132  0.0725045651197  0.161020055413  -0.0883956477046  
6.48526597023  0.253004580736  -0.667064368725  0.62030351162  0.0694126337767  0.160157188773  -0.0939563289285  
6.49337220192  0.258616387844  -0.682710945606  0.635080814362  0.0729359984398  0.161691173911  -0.0936447381973  
6.50153017044  0.264534980059  -0.70134884119  0.649858176708  0.0773461908102  0.171733945608  -0.095466338098  
6.5096411705  0.273764431477  -0.719347536564  0.664750576019  0.0764353871346  0.175329223275  -0.095466338098  
6.51771807671  0.281805068254  -0.736374735832  0.677520990372  0.0833622738719  0.174538254738  -0.0990855768323  
6.52584815025  0.284527868032  -0.750960290432  0.695826470852  0.0800785943866  0.182184189558  -0.107498504221  
6.53390598297  0.294115245342  -0.764063060284  0.710245907307  0.0793595388532  0.180602282286  -0.101506389678  
6.54200696945  0.298985660076  -0.779338955879  0.727375328541  0.0894502550364  0.191987290978  -0.111645042896  
6.55013203621  0.307588726282  -0.797222614288  0.736617565155  0.0842491015792  0.195654466748  -0.107786126435  
6.5582420826  0.291775941849  -0.754552364349  0.707804322243  0.0859268978238  0.191891416907  -0.108409300447  
6.56632113457  0.286432564259  -0.741526305676  0.685293138027  0.0777296870947  0.190836802125  -0.0988938286901  
6.57439899445  0.277906179428  -0.727758824825  0.665926635265  0.0728161558509  0.17473000288  -0.102273382246  
6.58258318901  0.268894046545  -0.711217403412  0.653475821018  0.0780652463436  0.174969688058  -0.0903850272298  
6.59061908722  0.25660943985  -0.692758500576  0.643568873405  0.0769387260079  0.166341051459  -0.0965449213982  
6.5987200737  0.247610077262  -0.655470013618  0.610831141472  0.073942668736  0.166101366282  -0.0839375182986  
6.60682106018  0.238521233201  -0.635438799858  0.59610491991  0.0691729485989  0.150785520673  -0.0850160941482  
6.61492800713  0.23165667057  -0.619498133659  0.582593142986  0.0651941895485  0.15339808166  -0.0810613036156  
6.62303304672  0.230544537306  -0.604592978954  0.569439232349  0.0696043819189  0.15577095747  -0.0806538388133  
6.63109207153  0.227233693004  -0.594609320164  0.551977455616  0.0658653005958  0.144961193204  -0.0790000110865  
6.63918018341  0.222145989537  -0.580100417137  0.533953130245  0.062006380409  0.138178125024  -0.0734872668982  
6.64726901054  0.216764271259  -0.564530491829  0.52131062746  0.0622460655868  0.146543115377  -0.0776338130236  
6.65536212921  0.20846799016  -0.551747322083  0.50819504261  0.0609757378697  0.126984849572  -0.0717855095863  
6.66346216202  0.204581901431  -0.529274523258  0.492765784264  0.0563737973571  0.130316466093  -0.0694605708122  
6.67155504227  0.199430286884  -0.511914968491  0.478704273701  0.0563737973571  0.130699962378  -0.0744220390916  
6.67964911461  0.192987576127  -0.499144583941  0.463863015175  0.0580276176333  0.119051292539  -0.0678786560893  
6.68777918816  0.186953917146  -0.483063340187  0.444956690073  0.0544083826244  0.121879570186  -0.064594976604  
6.69583702087  0.179974302649  -0.468452185392  0.430064320564  0.050285808742  0.115767620504  -0.0661529228091  
6.70394206047  0.172623977065  -0.454710274935  0.417677402496  0.0471219755709  0.113682359457  -0.0629411488771  
6.71200108528  0.165222510695  -0.43269765377  0.402797788382  0.0473137199879  0.101314641535  -0.0600889064372  
6.72008514404  0.158485785127  -0.416450232267  0.387291818857  0.0479129329324  0.103903234005  -0.0583152398467  
6.7281961441  0.15021507442  -0.397288262844  0.374176263809  0.0452764034271  0.100715428591  -0.0574284084141  
6.73624897003  0.142545163631  -0.380964130163  0.359411716461  0.0387569852173  0.0960655510426  -0.0555348992348  
6.74434614182  0.136422023177  -0.36671090126  0.346206694841  0.0374387204647  0.0848722830415  -0.051268517971  
6.7524831295  0.132548719645  -0.353684842587  0.329703599215  0.0381817407906  0.0895461291075  -0.0475294366479  
6.76054811478  0.126578986645  -0.339048117399  0.312791466713  0.0388768278062  0.0827390924096  -0.0472657866776  
6.76863718033  0.121478497982  -0.325728058815  0.297336608171  0.0342029780149  0.0797190666199  -0.0423043146729  
6.77669811249  0.115432053804  -0.306591629982  0.283658623695  0.0308473967016  0.0769866630435  -0.0405546203256  
6.78478813171  0.108784809709  -0.29040813446  0.26821655035  0.0285464245826  0.0673513486981  -0.0382536463439  
6.79284906387  0.101958595216  -0.273828357458  0.25388661027  0.0310151744634  0.0627494007349  -0.0380858667195  
6.80093502998  0.0970498546958  -0.255318313837  0.237473011017  0.0283786449581  0.0631328970194  -0.0440300442278  
6.80902600288  0.0911951586604  -0.239275440574  0.22240164876  0.0290497615933  0.0611195489764  -0.0368874445558  
6.81712603569  0.0865420848131  -0.224076241255  0.207624301314  0.0253346525133  0.0539769493043  -0.0301523115486  
6.82522296906  0.0787571296096  -0.209848582745  0.194291457534  0.0250709988177  0.0500940605998  -0.0293373838067  
6.83331799507  0.0742063224316  -0.190303102136  0.178900510073  0.0211881101131  0.0501899346709  -0.0252387784421  
6.84141612053  0.0686328560114  -0.179526895285  0.163215562701  0.0174250639975  0.0421365350485  -0.0217154156417  
6.8495349884  0.0613848008215  -0.164353266358  0.147786274552  0.00963531713933  0.0381577722728  -0.0264372006059  
6.85759401321  0.055951949209  -0.145907148719  0.133711993694  0.0243279766291  0.0312548615038  -0.0191987287253  
6.86568212509  0.0499694235623  -0.129749208689  0.11956102401  0.00807736814022  0.0345385372639  -0.0230816174299  
6.87377715111  0.0427980646491  -0.112249046564  0.106611669064  0.0174969695508  0.0283546764404  -0.0161787047982  
6.88186001778  0.0373907834291  -0.0976634472609  0.0884084254503  0.0107858031988  0.0287142042071  -0.00783768296242  
6.88994312286  0.0317406207323  -0.0808663591743  0.0768396556377  0.00462591089308  0.0200615935028  -0.0214038267732  
6.89803314209  0.0238661840558  -0.0631360933185  0.0612186193466  0.0158431455493  0.0218352582306  -0.00680703995749  
6.90614509583  0.0196221712977  -0.0472082607448  0.0459555089474  0.00467384792864  0.0143810706213  -0.0126793105155  
6.9142780304  0.0112364096567  -0.0291839856654  0.0292734671384  0.00467384792864  0.00517718540505  -0.0117685096338  
6.92240214348  0.00792556721717  -0.0149435298517  0.0138697428629  0.00390685768798  0.0108577078208  -0.0040986048989  
6.93052601814  0.0042312303558  -0.00538171594962  0.00579077750444  0.00263652950525  -0.00225303438492  0.0281629301608  
6.93862700462  -0.00589304277673  0.0136396465823  -0.0140998400748  -0.0024447820615  -0.00994690693915  0.0161787047982  
6.94673013687  -0.0062765381299  0.0100220078602  -0.0157616529614  -0.00879642181098  -0.00445813173428  0.00539290159941  
6.95481204987  -0.00268446654081  0.00418009795249  -0.00538171594962  -0.00431432109326  -0.00287621398456  0.00323574081995  
6.96290206909  0.0  0.0  -0.00246715242974  -0.00280430866405  -0.0021092237439  0.00230097118765  
6.97096514702  0.0377614945173  -0.0376975797117  0.0330956354737  0.0144050391391  0.0265810117126  -0.00047936901683  
6.97905707359  0.0381194241345  -0.040688842535  0.0391804277897  0.00884435791522  0.0133743956685  -0.0117685096338  
6.98714017868  0.0592883601785  -0.0554661899805  0.0548398159444  0.00647148163989  0.00915594864637  -0.00496146921068  
6.99525809288  0.068658426404  -0.0737589076161  0.0668304339051  0.0174250639975  0.0262694228441  -0.0129909003153  
7.00335597992  0.0859668403864  -0.0929081067443  0.0816077813506  0.00618386035785  0.0434308312833  -0.0169217269868  
7.01142406464  0.100923158228  -0.109219431877  0.0961678177118  0.00208525522612  0.0421365350485  -0.00647148163989  
7.01944112778  0.114345483482  -0.125211179256  0.109845809639  0.0230336803943  0.0530182123184  -0.0309912059456  
7.02756500244  0.128726556897  -0.144820570946  0.126476719975  0.00762196723372  0.0512445494533  -0.00807736814022  
7.03566503525  0.144820570946  -0.159853577614  0.141969919205  0.0365039519966  0.0547918789089  -0.0380858667195  
7.04372811317  0.159163296223  -0.173148080707  0.155443385243  0.00925182178617  0.0672794431448  -0.00762196723372  
7.05180716515  0.172483354807  -0.188781902194  0.171371221542  0.0383495204151  0.0738707631826  -0.0398595333099  
7.05987000465  0.186685472727  -0.205451160669  0.184934169054  0.00997087545693  0.074158385396  -0.0107858031988  
7.06792712212  0.199149057269  -0.222452789545  0.200376242399  0.0279711820185  0.08736500144  -0.0345864742994  
7.07601499557  0.213990330696  -0.236322522163  0.214220419526  0.0215955749154  0.088347710669  -0.0193185713142  
7.08412218094  0.22863984108  -0.248671069741  0.22863984108  0.0310870800167  0.0957060232759  -0.0344666317105  
7.09220600128  0.242995351553  -0.272473335266  0.2418448627  0.0175688751042  0.102968461812  -0.0262933913618  
7.10032200813  0.255458950996  -0.283735305071  0.257913321257  0.0303200893104  0.109056450427  -0.0299845319241  
7.10838198662  0.273099720478  -0.300148904324  0.268830150366  0.0215955749154  0.115312218666  -0.037079192698  
7.1165060997  0.285077542067  -0.320448607206  0.283479660749  0.0405306518078  0.118044622242  -0.0323334410787  
7.12456703186  0.298308134079  -0.333845347166  0.295623660088  0.0220749434084  0.125067383051  -0.0424001887441  
7.13265299797  0.316294074059  -0.352470457554  0.312075614929  0.0367436334491  0.135469689965  -0.0404347777367  
7.14073705673  0.330956369638  -0.365483701229  0.327466547489  0.0257660839707  0.135517627001  -0.0366237945855  
7.14881896973  0.348712176085  -0.383929818869  0.342908620834  0.0289059523493  0.146015807986  -0.0392363555729  
7.15691804886  0.360293745995  -0.398310899734  0.356407672167  0.0322855040431  0.157017320395  -0.0423762202263  
7.16498017311  0.377231448889  -0.413407832384  0.368909597397  0.0269165709615  0.154141113162  -0.0482005551457  
7.17307114601  0.392596811056  -0.425475150347  0.383674174547  0.0369353815913  0.160444810987  -0.0480327755213  
7.1811580658  0.404293417931  -0.444956690073  0.39719876647  0.0375825315714  0.168402329087  -0.0457318052649  
7.18925309181  0.417639046907  -0.458890348673  0.413944721222  0.0396438166499  0.174969688058  -0.0462111718953  
7.19736504555  0.431521594524  -0.477719962597  0.427597165108  0.0375585630536  0.180602282286  -0.0500940605998  
