Ethan-CYM/ros_catkin_ws/test/moveJ_正常操作/ur_joint_target_velocity.txt
time  shoulder_pan_joint  shoulder_lift_joint  elbow_joint  wrist_1_joint  wrist_2_joint  wrist_3_joint
0.146203994751  0.0  0.0  0.0  0.0  -0.032  0.0  
0.154299020767  0.0  0.0  0.0  0.0  -0.0235094517149  0.0  
0.162293195724  0.0  0.0  0.0  0.0  -0.00750945171493  0.0  
0.170354127884  0.0  0.0  0.0  0.0  0.0  0.0  
0.178428173065  0.0  0.0  0.0  0.0  0.0  0.0  
0.186532020569  0.0  0.0  0.0  0.0  0.0  0.0  
0.194621086121  0.0  0.0  0.0  0.0  0.0  0.0  
0.202710151672  0.0  0.0  0.0  0.0  0.016  0.0  
0.210776090622  0.0  0.0  0.0  0.0  0.032  0.0  
0.218918085098  0.0  0.0  0.0  0.0  0.0235094517149  0.0  
0.22699713707  0.0  0.0  0.0  0.0  0.00750945171493  0.0  
0.235248088837  0.0  0.0  0.0  0.0  0.0  0.0  
0.243295192719  0.0  0.0  0.0  0.0  0.0  0.0  
0.251352071762  0.0  0.0  0.0  0.0  0.0  0.0  
0.259457111359  0.0  0.0  0.0  0.0  0.0  0.0  
0.26757311821  0.0  0.0  0.0  0.000625014499316  0.0  0.016  
0.275707006454  0.0  0.0  0.0  0.00125002899863  0.0  0.032  
0.283684015274  0.0  0.0  0.0  0.00187504349795  0.0  0.048  
0.291880130768  0.0  0.0  0.0  0.00250005799727  0.0  0.064  
0.299976110458  0.0  0.0  0.0  0.00312507249658  0.0  0.08  
0.308039188385  0.0  0.0  0.0  0.0037500869959  0.0  0.096  
0.31608915329  0.0  0.0  0.0  0.00437510149521  0.0  0.112  
0.324249982834  0.0  0.0  0.0  0.00500011599453  0.0  0.128  
0.332283973694  0.0  0.0  0.0  0.00562513049385  0.0  0.144  
0.340321063995  0.0  0.0  0.0  0.00625014499316  0.0  0.16  
0.348425149918  0.0  0.0  0.0  0.00687515949248  0.0  0.176  
0.356539964676  0.0  0.0  0.0  0.0075001739918  0.0  0.192  
0.364624977112  0.0  0.0  0.0  0.00812518849111  0.0  0.208  
0.372671127319  0.0  0.0  0.0  0.00875020299043  0.0  0.224  
0.380789995193  0.0  0.0  0.0  0.00937521748974  0.0  0.24  
0.388897180557  0.0  0.0  0.0  0.0099874992372  0.0  0.255674049114  
0.396955966949  0.0  0.0  0.0  0.00936248473788  0.0  0.239674049114  
0.405163049698  0.0  0.0  0.0  0.00873747023856  0.0  0.223674049114  
0.413091182709  0.0  0.0  0.0  0.00811245573925  0.0  0.207674049114  
0.421265125275  0.0  0.0  0.0  0.00748744123993  0.0  0.191674049114  
0.429249048233  0.0  0.0  0.0  0.00686242674061  0.0  0.175674049114  
0.437328100204  0.0  0.0  0.0  0.0062374122413  0.0  0.159674049114  
0.44544005394  0.0  0.0  0.0  0.00561239774198  0.0  0.143674049114  
0.453528165817  0.0  0.0  0.0  0.00498738324267  0.0  0.127674049114  
0.461595058441  0.0  0.0  0.0  0.00436236874335  0.0  0.111674049114  
0.469709157944  0.0  0.0  0.0  0.00373735424403  0.0  0.095674049114  
0.477845191956  0.0  0.0  0.0  0.00311233974472  0.0  0.079674049114  
0.485990047455  0.0  0.0  0.0  0.0024873252454  0.0  0.063674049114  
0.494184017181  0.0  0.0  0.0  0.00186231074608  0.0  0.047674049114  
0.502326011658  0.0  0.0  0.0  0.00123729624677  0.0  0.031674049114  
0.510230064392  0.0  0.0  0.0  0.000612281747452  0.0  0.015674049114  
0.518301010132  0.0  0.0  0.0  0.0  0.0  0.0  
0.526465177536  0.0  0.0  0.0  0.0  0.0  0.0  
0.534610033035  0.0  0.0  0.0  0.0  0.0  0.0  
0.54264497757  0.0  0.0  0.0  -0.000500011610836  0.0  -0.016  
0.550772190094  0.0  0.0  0.0  -0.00100002322167  0.0  -0.032  
0.558777093887  0.0  0.0  0.0  -0.00150003483251  0.0  -0.048  
0.566823005676  0.0  0.0  0.0  -0.00200004644335  0.0  -0.064  
0.575065135956  0.0  0.0  0.0  -0.00250005805418  0.0  -0.08  
0.58296918869  0.0  0.0  0.0  -0.00300006966502  0.0  -0.096  
0.591193199158  0.0  0.0  0.0  -0.00350008127586  0.0  -0.112  
0.599251031876  0.0  0.0  0.0  -0.00400009288669  0.0  -0.128  
0.607228040695  0.0  0.0  0.0  -0.00450010449753  0.0  -0.144  
0.615363121033  0.0  0.0  0.0  -0.00500011610836  0.0  -0.16  
0.623428106308  0.0  0.0  0.0  -0.0055001277192  0.0  -0.176  
0.631556034088  0.0  0.0  0.0  -0.00600013933004  0.0  -0.192  
0.639659166336  0.0  0.0  0.0  -0.00650015094087  0.0  -0.208  
0.647739171982  0.0  0.0  0.0  -0.00700016255171  0.0  -0.224  
0.655820131302  0.0  0.0  0.0  -0.00750017416255  0.0  -0.24  
0.663938999176  0.0  0.0  0.0  -0.00800018577338  0.0  -0.256  
0.672034025192  0.0  0.0  0.0  -0.00850019738422  0.0  -0.272  
0.680325031281  0.0  0.0  0.0  -0.00887736150361  0.0  -0.284068971559  
0.688251972198  0.0  0.0  0.0  -0.00837734989277  0.0  -0.268068971559  
0.696300983429  0.0  0.0  0.0  -0.00787733828194  0.0  -0.252068971559  
0.704364061356  0.0  0.0  0.0  -0.0073773266711  0.0  -0.236068971559  
0.712514162064  0.0  0.0  0.0  -0.00687731506026  0.0  -0.220068971559  
0.720653057098  0.0  0.0  0.0  -0.00637730344943  0.0  -0.204068971559  
0.728729009628  0.0  0.0  0.0  -0.00587729183859  0.0  -0.188068971559  
0.736862182617  0.0  0.0  0.0  -0.00537728022775  0.0  -0.172068971559  
0.745108127594  0.0  0.0  0.0  -0.00487726861692  0.0  -0.156068971559  
0.753172159195  0.0  0.0  0.0  -0.00437725700608  0.0  -0.140068971559  
0.761229038239  0.0  0.0  0.0  -0.00387724539524  0.0  -0.124068971559  
0.769307136536  0.0  0.0  0.0  -0.00337723378441  0.0  -0.108068971559  
0.777428150177  0.0  0.0  0.0  -0.00287722217357  0.0  -0.0920689715588  
0.785562992096  0.0  0.0  0.0  -0.00237721056274  0.0  -0.0760689715588  
0.793641090393  0.0  0.0  0.0  -0.0018771989519  0.0  -0.0600689715588  
0.801763057709  0.0  0.0  0.0  -0.00137718734106  0.0  -0.0440689715588  
0.809946060181  0.0  0.0  0.0  -0.000877175730226  0.0  -0.0280689715588  
0.817989110947  0.0  0.0  0.0  -0.00037716411939  0.0  -0.0120689715588  
0.82626414299  0.0  0.0  0.0  0.0  0.0  0.0  
0.834280014038  0.0  0.0  0.0  0.0  0.0  0.0  
0.842305183411  0.0  0.0  0.0  0.0  0.0  0.0  
0.850394964218  0.0  0.0  0.0  0.0  0.0  0.0  
0.85852098465  -9.46114097106e-05  -0.00657130216337  8.19731508996e-05  0.00141179882802  -0.00247060406619  -0.016  
0.866583108902  -0.000189222819421  -0.0131426043267  0.000163946301799  0.00282359765604  -0.00494120813238  -0.032  
0.874696969986  -0.000283834229132  -0.0197139064901  0.000245919452699  0.00423539648406  -0.00741181219857  -0.048  
0.882793188095  -0.000378445638842  -0.0262852086535  0.000327892603598  0.00564719531208  -0.00988241626476  -0.064  
0.890918016434  -0.000473057048553  -0.0328565108169  0.000409865754498  0.0070589941401  -0.012353020331  -0.08  
0.899116039276  -0.000567668458264  -0.0394278129802  0.000491838905397  0.00847079296812  -0.0148236243971  -0.096  
0.907212018967  -0.000662279867974  -0.0459991151436  0.000573812056297  0.00988259179614  -0.0172942284633  -0.112  
0.915343999863  -0.000756891277685  -0.052570417307  0.000655785207196  0.0112943906242  -0.0197648325295  -0.128  
0.923331022263  -0.000851502687396  -0.0591417194704  0.000737758358096  0.0127061894522  -0.0222354365957  -0.144  
0.931452989578  -0.000946114097106  -0.0657130216337  0.000819731508996  0.0141179882802  -0.0247060406619  -0.16  
0.939602136612  -0.00104072550682  -0.0722843237971  0.000901704659895  0.0155297871082  -0.0271766447281  -0.176  
0.947664022446  -0.00113533691653  -0.0788556259605  0.000983677810795  0.0169415859362  -0.0296472487943  -0.192  
0.955770015717  -0.00122994832624  -0.0854269281238  0.00106565096169  0.0183533847643  -0.0321178528605  -0.208  
0.963893175125  -0.00132455973595  -0.0919982302872  0.00114762411259  0.0197651835923  -0.0345884569267  -0.224  
0.971939086914  -0.00141917114566  -0.0985695324506  0.00122959726349  0.0211769824203  -0.0370590609929  -0.24  
0.980018138885  -0.00151378255537  -0.105140834614  0.00131157041439  0.0225887812483  -0.0395296650591  -0.256  
0.98817896843  -0.00160839396508  -0.111712136777  0.00139354356529  0.0240005800763  -0.0420002691252  -0.272  
0.996249198914  -0.00170300537479  -0.118283438941  0.00147551671619  0.0254123789044  -0.0444708731914  -0.288  
1.00437402725  -0.0017976167845  -0.124854741104  0.00155748986709  0.0268241777324  -0.0469414772576  -0.304  
1.01246118546  -0.00189222819421  -0.131426043267  0.00163946301799  0.0282359765604  -0.0494120813238  -0.32  
1.02057909966  -0.00198683960392  -0.137997345431  0.00172143616889  0.0296477753884  -0.05188268539  -0.336  
1.02868199348  -0.00208145101363  -0.144568647594  0.00180340931979  0.0310595742164  -0.0543532894562  -0.352  
1.03682303429  -0.00217606242334  -0.151139949758  0.00188538247069  0.0324713730444  -0.0568238935224  -0.368  
1.04485106468  -0.00227067383305  -0.157711251921  0.00196735562159  0.0338831718725  -0.0592944975886  -0.384  
1.05299496651  -0.00236528524277  -0.164282554084  0.00204932877249  0.0352949707005  -0.0617651016548  -0.4  
1.0610640049  -0.00245989665248  -0.170853856248  0.00213130192339  0.0367067695285  -0.064235705721  -0.416  
1.06925606728  -0.00237667567642  -0.165073684684  0.00205919766398  0.035464939639  -0.062062542014  -0.401926268079  
1.07732319832  -0.00228206426671  -0.158502382521  0.00197722451308  0.034053140811  -0.0595919379478  -0.385926268079  
1.08532619476  -0.00218745285699  -0.151931080357  0.00189525136218  0.032641341983  -0.0571213338816  -0.369926268079  
1.09346818924  -0.00209284144728  -0.145359778194  0.00181327821128  0.0312295431549  -0.0546507298154  -0.353926268079  
1.10150003433  -0.00199823003757  -0.13878847603  0.00173130506038  0.0298177443269  -0.0521801257493  -0.337926268079  
1.10959506035  -0.00190361862786  -0.132217173867  0.00164933190948  0.0284059454989  -0.0497095216831  -0.321926268079  
1.11770200729  -0.00180900721815  -0.125645871704  0.00156735875858  0.0269941466709  -0.0472389176169  -0.305926268079  
1.12579011917  -0.00171439580844  -0.11907456954  0.00148538560769  0.0255823478429  -0.0447683135507  -0.289926268079  
1.13391804695  -0.00161978439873  -0.112503267377  0.00140341245679  0.0241705490148  -0.0422977094845  -0.273926268079  
1.14217400551  -0.00152517298902  -0.105931965214  0.00132143930589  0.0227587501868  -0.0398271054183  -0.257926268079  
1.15029001236  -0.00143056157931  -0.0993606630502  0.00123946615499  0.0213469513588  -0.0373565013521  -0.241926268079  
1.15826296806  -0.0013359501696  -0.0927893608868  0.00115749300409  0.0199351525308  -0.0348858972859  -0.225926268079  
1.16635918617  -0.00124133875989  -0.0862180587234  0.00107551985319  0.0185233537028  -0.0324152932197  -0.209926268079  
1.17445015907  -0.00114672735018  -0.07964675656  0.000993546702288  0.0171115548747  -0.0299446891535  -0.193926268079  
1.1825401783  -0.00105211594047  -0.0730754543967  0.000911573551388  0.0156997560467  -0.0274740850873  -0.177926268079  
1.19071316719  -0.000862893121046  -0.0599328500699  0.000747627249589  0.0128761583907  -0.022532876955  -0.145926268079  
1.1987760067  -0.000768281711336  -0.0533615479065  0.00066565409869  0.0114643595627  -0.0200622728888  -0.129926268079  
1.20687913895  -0.000673670301625  -0.0467902457432  0.00058368094779  0.0100525607346  -0.0175916688226  -0.113926268079  
1.21490216255  -0.000579058891914  -0.0402189435798  0.000501707796891  0.00864076190662  -0.0151210647564  -0.0979262680787  
1.22297716141  -0.000484447482204  -0.0336476414164  0.000419734645991  0.0072289630786  -0.0126504606902  -0.0819262680787  
1.23107600212  -0.000389836072493  -0.0270763392531  0.000337761495091  0.00581716425058  -0.010179856624  -0.0659262680787  
1.23921108246  -0.000295224662783  -0.0205050370897  0.000255788344192  0.00440536542256  -0.00770925255782  -0.0499262680787  
1.24727416039  -0.000200613253072  -0.0139337349263  0.000173815193292  0.00299356659454  -0.00523864849163  -0.0339262680787  
1.25536513329  -0.000106001843361  -0.00736243276294  9.18420423928e-05  0.00158176776652  -0.00276804442544  -0.0179262680787  
1.26348805428  -1.13904336506e-05  -0.000791130599566  9.86889149322e-06  0.000169968938501  -0.000297440359244  -0.00192626807874  
1.27158904076  0.0  0.0  0.0  0.0  0.0  0.0  
1.2798140049  0.0  0.0  0.0  0.0  0.0  0.0  
1.28785920143  0.0  0.0  0.0  0.0  0.0  0.0  
1.29599618912  0.0  0.0  0.0  0.0  0.0  0.0  
1.30413103104  -0.000601227079412  -0.0143778986265  -0.00513253852053  0.016  0.000598131492714  0.0  
1.31209015846  -0.00120245415882  -0.028755797253  -0.0102650770411  0.032  0.00119626298543  0.0  
1.32018303871  -0.00180368123823  -0.0431336958795  -0.0153976155616  0.048  0.00179439447814  0.0  
1.3282930851  -0.00240490831765  -0.057511594506  -0.0205301540821  0.064  0.00239252597086  0.0  
1.33644104004  -0.00300613539706  -0.0718894931325  -0.0256626926027  0.08  0.00299065746357  0.0  
1.34443306923  -0.00360736247647  -0.086267391759  -0.0307952311232  0.096  0.00358878895629  0.0  
1.35254907608  -0.00420858955588  -0.100645290386  -0.0359277696437  0.112  0.004186920449  0.0  
1.36060714722  -0.00480981663529  -0.115023189012  -0.0410603081643  0.128  0.00478505194171  0.0  
1.36869311333  -0.0054110437147  -0.129401087639  -0.0461928466848  0.144  0.00538318343443  0.0  
1.37679100037  -0.00601227079412  -0.143778986265  -0.0513253852053  0.16  0.00598131492714  0.0  
1.38494110107  -0.00661349787353  -0.158156884892  -0.0564579237259  0.176  0.00657944641986  0.0  
1.39307403564  -0.00721472495294  -0.172534783518  -0.0615904622464  0.192  0.00717757791257  0.0  
1.40105414391  -0.00781595203235  -0.186912682145  -0.0667230007669  0.208  0.00777570940528  0.0  
1.40921711922  -0.00841717911176  -0.201290580771  -0.0718555392875  0.224  0.008373840898  0.0  
1.41721200943  -0.00901840619117  -0.215668479398  -0.076988077808  0.24  0.00897197239071  0.0  
1.4253680706  -0.00961963327058  -0.230046378024  -0.0821206163285  0.256  0.00957010388343  0.0  
1.43343520164  -0.01022086035  -0.244424276651  -0.0872531548491  0.272  0.0101682353761  0.0  
1.4415140152  -0.0108220874294  -0.258802175277  -0.0923856933696  0.288  0.0107663668689  0.0  
1.44960713387  -0.0114233145088  -0.273180073904  -0.0975182318901  0.304  0.0113644983616  0.0  
1.45766615868  -0.0120245415882  -0.28755797253  -0.102650770411  0.32  0.0119626298543  0.0  
1.465747118  -0.0126257686676  -0.301935871157  -0.107783308931  0.336  0.012560761347  0.0  
1.47385811806  -0.0132269957471  -0.316313769783  -0.112915847452  0.352  0.0131588928397  0.0  
1.48198699951  -0.0138282228265  -0.33069166841  -0.118048385972  0.368  0.0137570243324  0.0  
1.4901471138  -0.0144294499059  -0.345069567036  -0.123180924493  0.384  0.0143551558251  0.0  
1.49818396568  -0.0150306769853  -0.359447465663  -0.128313463013  0.4  0.0149532873179  0.0  
1.50630402565  -0.0156319040647  -0.373825364289  -0.133446001534  0.416  0.0155514188106  0.0  
1.51426815987  -0.0162331311441  -0.388203262916  -0.138578540054  0.432  0.0161495503033  0.0  
1.52236604691  -0.0168343582235  -0.402581161542  -0.143711078575  0.448  0.016747681796  0.0  
1.53044605255  -0.0174355853029  -0.416959060169  -0.148843617095  0.464  0.0173458132887  0.0  
1.53856015205  -0.0180368123823  -0.431336958795  -0.153976155616  0.48  0.0179439447814  0.0  
1.54669117928  -0.0186380394618  -0.445714857422  -0.159108694137  0.496  0.0185420762741  0.0  
1.5547990799  -0.0192392665412  -0.460092756048  -0.164241232657  0.512  0.0191402077669  0.0  
1.56289815903  -0.0194677452461  -0.465556654416  -0.166191703277  0.518080330384  0.0193675100849  0.0  
1.57100510597  -0.0188665181667  -0.451178755789  -0.161059164756  0.502080330384  0.0187693785922  0.0  
1.57921910286  -0.0182652910873  -0.436800857163  -0.155926626236  0.486080330384  0.0181712470995  0.0  
1.58720707893  -0.0176640640079  -0.422422958536  -0.150794087715  0.470080330384  0.0175731156068  0.0  
1.59525299072  -0.0170628369285  -0.40804505991  -0.145661549195  0.454080330384  0.0169749841141  0.0  
1.60341906548  -0.016461609849  -0.393667161283  -0.140529010674  0.438080330384  0.0163768526213  0.0  
1.61151504517  -0.0158603827696  -0.379289262657  -0.135396472154  0.422080330384  0.0157787211286  0.0  
1.61957406998  -0.0152591556902  -0.36491136403  -0.130263933633  0.406080330384  0.0151805896359  0.0  
1.6276781559  -0.0146579286108  -0.350533465404  -0.125131395113  0.390080330384  0.0145824581432  0.0  
1.63576602936  -0.0140567015314  -0.336155566777  -0.119998856592  0.374080330384  0.0139843266505  0.0  
1.64385509491  -0.013455474452  -0.321777668151  -0.114866318071  0.358080330384  0.0133861951578  0.0  
1.65199613571  -0.0128542473726  -0.307399769524  -0.109733779551  0.342080330384  0.0127880636651  0.0  
1.66016697884  -0.0122530202932  -0.293021870898  -0.10460124103  0.326080330384  0.0121899321723  0.0  
1.66829514503  -0.0116517932137  -0.278643972271  -0.0994687025098  0.310080330384  0.0115918006796  0.0  
1.67629599571  -0.0110505661343  -0.264266073645  -0.0943361639893  0.294080330384  0.0109936691869  0.0  
1.68439912796  -0.0104493390549  -0.249888175018  -0.0892036254688  0.278080330384  0.0103955376942  0.0  
1.6924841404  -0.00984811197552  -0.235510276392  -0.0840710869482  0.262080330384  0.00979740620149  0.0  
1.70053601265  -0.0092468848961  -0.221132377765  -0.0789385484277  0.246080330384  0.00919927470878  0.0  
1.70869112015  -0.00864565781669  -0.206754479139  -0.0738060099072  0.230080330384  0.00860114321606  0.0  
1.71671915054  -0.00804443073728  -0.192376580512  -0.0686734713867  0.214080330384  0.00800301172335  0.0  
1.72481107712  -0.00744320365787  -0.177998681886  -0.0635409328661  0.198080330384  0.00740488023064  0.0  
1.73288416862  -0.00684197657846  -0.163620783259  -0.0584083943456  0.182080330384  0.00680674873792  0.0  
1.74106001854  -0.00624074949905  -0.149242884633  -0.0532758558251  0.166080330384  0.00620861724521  0.0  
1.74931001663  -0.00563952241963  -0.134864986006  -0.0481433173045  0.150080330384  0.00561048575249  0.0  
1.75730800629  -0.00503829534022  -0.12048708738  -0.043010778784  0.134080330384  0.00501235425978  0.0  
1.76533603668  -0.00443706826081  -0.106109188753  -0.0378782402635  0.118080330384  0.00441422276706  0.0  
1.77340197563  -0.0038358411814  -0.0917312901267  -0.0327457017429  0.102080330384  0.00381609127435  0.0  
1.78150200844  -0.00323461410199  -0.0773533915002  -0.0276131632224  0.0860803303844  0.00321795978164  0.0  
1.78958296776  -0.00263338702258  -0.0629754928737  -0.0224806247019  0.0700803303844  0.00261982828892  0.0  
1.79774403572  -0.00203215994316  -0.0485975942472  -0.0173480861813  0.0540803303844  0.00202169679621  0.0  
1.80584597588  -0.00143093286375  -0.0342196956207  -0.0122155476608  0.0380803303844  0.00142356530349  0.0  
1.81388306618  -0.000829705784342  -0.0198417969942  -0.00708300914026  0.0220803303844  0.000825433810779  0.0  
1.82202911377  -0.00022847870493  -0.00546389836768  -0.00195047061973  0.00608033038442  0.000227302318064  0.0  
1.83010315895  0.0  0.0  0.0  0.0  0.0  0.0  
1.83819007874  0.0  0.0  0.0  0.0  0.0  0.0  
1.84632515907  0.0  0.0  0.0  0.0  0.0  0.0  
1.85442614555  0.0  0.0  0.0  0.0  0.0  0.0  
1.86251115799  0.00100613601048  -0.0132511592304  -0.00428841193826  0.016  0.00246445939998  0.00194123501574  
1.87055110931  0.00201227202096  -0.0265023184609  -0.00857682387652  0.032  0.00492891879995  0.00388247003148  
1.87867712975  0.00301840803144  -0.0397534776913  -0.0128652358148  0.048  0.00739337819993  0.00582370504723  
1.88689303398  0.0050306800524  -0.0662557961522  -0.0214420596913  0.08  0.0123222969999  0.00970617507871  
1.89490103722  0.00603681606288  -0.0795069553827  -0.0257304716296  0.096  0.0147867563999  0.0116474100945  
1.90296816826  0.00704295207336  -0.0927581146131  -0.0300188835678  0.112  0.0172512157998  0.0135886451102  
1.91103100777  0.00804908808384  -0.106009273844  -0.0343072955061  0.128  0.0197156751998  0.0155298801259  
1.91926598549  0.00905522409432  -0.119260433074  -0.0385957074444  0.144  0.0221801345998  0.0174711151417  
1.92733597755  0.0100613601048  -0.132511592304  -0.0428841193826  0.16  0.0246445939998  0.0194123501574  
1.93530607224  0.0110674961153  -0.145762751535  -0.0471725313209  0.176  0.0271090533997  0.0213535851732  
1.94335818291  0.0120736321258  -0.159013910765  -0.0514609432591  0.192  0.0295735127997  0.0232948201889  
1.95148301125  0.0130797681362  -0.172265069996  -0.0557493551974  0.208  0.0320379721997  0.0252360552046  
1.95959210396  0.0140859041467  -0.185516229226  -0.0600377671357  0.224  0.0345024315997  0.0271772902204  
1.96766996384  0.0150920401572  -0.198767388457  -0.0643261790739  0.24  0.0369668909996  0.0291185252361  
1.9758169651  0.0160981761677  -0.212018547687  -0.0686145910122  0.256  0.0394313503996  0.0310597602519  
1.98393702507  0.0171043121782  -0.225269706918  -0.0729030029504  0.272  0.0418958097996  0.0330009952676  
1.99196815491  0.0181104481886  -0.238520866148  -0.0771914148887  0.288  0.0443602691996  0.0349422302834  
2.00006508827  0.0191165841991  -0.251772025378  -0.081479826827  0.304  0.0468247285995  0.0368834652991  
2.00811314583  0.0201227202096  -0.265023184609  -0.0857682387652  0.32  0.0492891879995  0.0388247003148  
2.0162551403  0.0211288562201  -0.278274343839  -0.0900566507035  0.336  0.0517536473995  0.0407659353306  
2.02433919907  0.0221349922305  -0.29152550307  -0.0943450626418  0.352  0.0542181067995  0.0427071703463  
2.03237509727  0.023141128241  -0.3047766623  -0.09863347458  0.368  0.0566825661994  0.0446484053621  
2.04045414925  0.0241472642515  -0.318027821531  -0.102921886518  0.384  0.0591470255994  0.0465896403778  
2.04863905907  0.025153400262  -0.331278980761  -0.107210298457  0.4  0.0616114849994  0.0485308753936  
2.05668997765  0.0261595362725  -0.344530139992  -0.111498710395  0.416  0.0640759443994  0.0504721104093  
2.06474113464  0.0271656722829  -0.357781299222  -0.115787122333  0.432  0.0665404037993  0.052413345425  
2.07279109955  0.0281718082934  -0.371032458452  -0.120075534271  0.448  0.0690048631993  0.0543545804408  
2.0808570385  0.0291779443039  -0.384283617683  -0.12436394621  0.464  0.0714693225993  0.0562958154565  
2.08895397186  0.0301840803144  -0.397534776913  -0.128652358148  0.48  0.0739337819993  0.0582370504723  
2.09706115723  0.0311902163249  -0.410785936144  -0.132940770086  0.496  0.0763982413992  0.060178285488  
2.10515499115  0.0321963523353  -0.424037095374  -0.137229182024  0.512  0.0788627007992  0.0621195205038  
2.1132080555  0.0332024883458  -0.437288254605  -0.141517593963  0.528  0.0813271601992  0.0640607555195  
2.12134313583  0.0342086243563  -0.450539413835  -0.145806005901  0.544  0.0837916195992  0.0660019905352  
2.12949204445  0.0352147603668  -0.463790573066  -0.150094417839  0.56  0.0862560789991  0.067943225551  
2.13775515556  0.0362208963773  -0.477041732296  -0.154382829777  0.576  0.0887205383991  0.0698844605667  
2.14577817917  0.0372270323877  -0.490292891526  -0.158671241716  0.592  0.0911849977991  0.0718256955825  
2.15374803543  0.0382331683982  -0.503544050757  -0.162959653654  0.608  0.0936494571991  0.0737669305982  
2.16184210777  0.0392393044087  -0.516795209987  -0.167248065592  0.624  0.096113916599  0.0757081656139  
2.16999602318  0.0402454404192  -0.530046369218  -0.17153647753  0.64  0.098578375999  0.0776494006297  
2.17810606956  0.0412515764297  -0.543297528448  -0.175824889469  0.656  0.101042835399  0.0795906356454  
2.18645811081  0.0422577124401  -0.556548687679  -0.180113301407  0.672  0.103507294799  0.0815318706612  
2.1943821907  0.0432638484506  -0.569799846909  -0.184401713345  0.688  0.105971754199  0.0834731056769  
2.2025141716  0.0442699844611  -0.58305100614  -0.188690125284  0.704  0.108436213599  0.0854143406927  
2.2107219696  0.0452761204716  -0.59630216537  -0.192978537222  0.72  0.110900672999  0.0873555757084  
2.21876502037  0.0460920115149  -0.607047732586  -0.196456075898  0.73297464414  0.112899140731  0.0889297528035  
2.22680497169  0.0450858755044  -0.593796573356  -0.19216766396  0.71697464414  0.110434681331  0.0869885177878  
2.23487710953  0.0440797394939  -0.580545414125  -0.187879252022  0.70097464414  0.107970221931  0.085047282772  
2.2429151535  0.0430736034834  -0.567294254895  -0.183590840084  0.68497464414  0.105505762531  0.0831060477563  
2.25104618073  0.0420674674729  -0.554043095665  -0.179302428145  0.66897464414  0.103041303131  0.0811648127405  
2.25908207893  0.0410613314625  -0.540791936434  -0.175014016207  0.65297464414  0.100576843731  0.0792235777248  
2.26722216606  0.040055195452  -0.527540777204  -0.170725604269  0.63697464414  0.0981123843311  0.0772823427091  
2.27536296844  0.0390490594415  -0.514289617973  -0.166437192331  0.62097464414  0.0956479249311  0.0753411076933  
2.28348517418  0.038042923431  -0.501038458743  -0.162148780392  0.60497464414  0.0931834655311  0.0733998726776  
2.29166913033  0.0370367874206  -0.487787299512  -0.157860368454  0.58897464414  0.0907190061312  0.0714586376618  
2.29977798462  0.0360306514101  -0.474536140282  -0.153571956516  0.57297464414  0.0882545467312  0.0695174026461  
2.3077340126  0.0350245153996  -0.461284981051  -0.149283544578  0.55697464414  0.0857900873312  0.0675761676303  
2.31588411331  0.0340183793891  -0.448033821821  -0.144995132639  0.54097464414  0.0833256279312  0.0656349326146  
2.32386517525  0.0330122433786  -0.434782662591  -0.140706720701  0.52497464414  0.0808611685313  0.0636936975989  
2.33196210861  0.0320061073682  -0.42153150336  -0.136418308763  0.50897464414  0.0783967091313  0.0617524625831  
2.3401081562  0.0309999713577  -0.40828034413  -0.132129896824  0.49297464414  0.0759322497313  0.0598112275674  
2.34814810753  0.0299938353472  -0.395029184899  -0.127841484886  0.47697464414  0.0734677903313  0.0578699925516  
2.35620212555  0.0289876993367  -0.381778025669  -0.123553072948  0.46097464414  0.0710033309314  0.0559287575359  
2.36431407928  0.0279815633262  -0.368526866438  -0.11926466101  0.44497464414  0.0685388715314  0.0539875225202  
2.37235307693  0.0269754273158  -0.355275707208  -0.114976249071  0.42897464414  0.0660744121314  0.0520462875044  
2.38057112694  0.0259692913053  -0.342024547977  -0.110687837133  0.41297464414  0.0636099527314  0.0501050524887  
2.38872599602  0.0249631552948  -0.328773388747  -0.106399425195  0.39697464414  0.0611454933315  0.0481638174729  
2.39685201645  0.0239570192843  -0.315522229517  -0.102111013257  0.38097464414  0.0586810339315  0.0462225824572  
2.40483117104  0.0229508832738  -0.302271070286  -0.0978226013184  0.36497464414  0.0562165745315  0.0442813474414  
2.4129691124  0.0219447472634  -0.289019911056  -0.0935341893801  0.34897464414  0.0537521151315  0.0423401124257  
2.4211370945  0.0209386112529  -0.275768751825  -0.0892457774418  0.33297464414  0.0512876557316  0.04039887741  
2.42913818359  0.0199324752424  -0.262517592595  -0.0849573655036  0.31697464414  0.0488231963316  0.0384576423942  
2.43726301193  0.0189263392319  -0.249266433364  -0.0806689535653  0.30097464414  0.0463587369316  0.0365164073785  
2.44531607628  0.0179202032214  -0.236015274134  -0.0763805416271  0.28497464414  0.0438942775316  0.0345751723627  
2.45360708237  0.016914067211  -0.222764114903  -0.0720921296888  0.26897464414  0.0414298181317  0.032633937347  
2.46179914474  0.0159079312005  -0.209512955673  -0.0678037177505  0.25297464414  0.0389653587317  0.0306927023312  
2.46975803375  0.01490179519  -0.196261796443  -0.0635153058123  0.23697464414  0.0365008993317  0.0287514673155  
2.47778606415  0.0138956591795  -0.183010637212  -0.059226893874  0.22097464414  0.0340364399317  0.0268102322998  
2.48581504822  0.012889523169  -0.169759477982  -0.0549384819357  0.20497464414  0.0315719805318  0.024868997284  
2.4940071106  0.0118833871586  -0.156508318751  -0.0506500699975  0.18897464414  0.0291075211318  0.0229277622683  
2.50200104713  0.0108772511481  -0.143257159521  -0.0463616580592  0.17297464414  0.0266430617318  0.0209865272525  
2.51013016701  0.00987111513761  -0.13000600029  -0.042073246121  0.15697464414  0.0241786023318  0.0190452922368  
2.51823616028  0.00886497912713  -0.11675484106  -0.0377848341827  0.14097464414  0.0217141429319  0.0171040572211  
2.52632713318  0.00785884311665  -0.103503681829  -0.0334964222444  0.12497464414  0.0192496835319  0.0151628222053  
2.53446316719  0.00685270710617  -0.090252522599  -0.0292080103062  0.10897464414  0.0167852241319  0.0132215871896  
2.54252004623  0.00584657109569  -0.0770013633685  -0.0249195983679  0.0929746441402  0.0143207647319  0.0112803521738  
2.55079817772  0.00383429907473  -0.0504990449076  -0.0163427744914  0.0609746441402  0.00939184593197  0.00739788214234  
2.55872917175  0.00282816306425  -0.0372478856772  -0.0120543625531  0.0449746441402  0.006927386532  0.0054566471266  
2.56682300568  0.00182202705377  -0.0239967264467  -0.00776595061487  0.0289746441402  0.00446292713202  0.00351541211086  
2.57490611076  0.000815891043291  -0.0107455672163  -0.00347753867661  0.0129746441402  0.00199846773205  0.00157417709511  
2.58300709724  0.0  0.0  0.0  0.0  0.0  0.0  
2.59119796753  0.0  0.0  0.0  0.0  0.0  0.0  
2.59920096397  0.0  0.0  0.0  0.0  0.0  0.0  
2.6073551178  0.0  0.0  0.0  0.0  0.0  0.0  
2.61557006836  -0.00405902644408  -0.0140336754759  0.000682728052511  0.016  0.000412696650585  0.00121904897235  
2.62349510193  -0.00811805288816  -0.0280673509519  0.00136545610502  0.032  0.000825393301169  0.0024380979447  
2.63173508644  -0.0121770793322  -0.0421010264278  0.00204818415753  0.048  0.00123808995175  0.00365714691705  
2.63985109329  -0.0162361057763  -0.0561347019037  0.00273091221004  0.064  0.00165078660234  0.0048761958894  
2.6478331089  -0.0202951322204  -0.0701683773797  0.00341364026255  0.08  0.00206348325292  0.00609524486176  
2.65595912933  -0.0243541586645  -0.0842020528556  0.00409636831506  0.096  0.00247617990351  0.00731429383411  
2.66395998001  -0.0284131851085  -0.0982357283315  0.00477909636757  0.112  0.00288887655409  0.00853334280646  
2.67205119133  -0.0324722115526  -0.112269403807  0.00546182442009  0.128  0.00330157320468  0.00975239177881  
2.68011498451  -0.0365312379967  -0.126303079283  0.0061445524726  0.144  0.00371426985526  0.0109714407512  
2.68823313713  -0.0405902644408  -0.140336754759  0.00682728052511  0.16  0.00412696650585  0.0121904897235  
2.69634819031  -0.0446492908849  -0.154370430235  0.00751000857762  0.176  0.00453966315643  0.0134095386959  
2.70442509651  -0.0487083173289  -0.168404105711  0.00819273663013  0.192  0.00495235980701  0.0146285876682  
2.71255207062  -0.052767343773  -0.182437781187  0.00887546468264  0.208  0.0053650564576  0.0158476366406  
2.72070813179  -0.0568263702171  -0.196471456663  0.00955819273515  0.224  0.00577775310818  0.0170666856129  
2.72873902321  -0.0608853966612  -0.210505132139  0.0102409207877  0.24  0.00619044975877  0.0182857345853  
2.73682713509  -0.0649444231052  -0.224538807615  0.0109236488402  0.256  0.00660314640935  0.0195047835576  
2.7449259758  -0.0690034495493  -0.238572483091  0.0116063768927  0.272  0.00701584305994  0.02072383253  
2.75299215317  -0.0730624759934  -0.252606158567  0.0122891049452  0.288  0.00742853971052  0.0219428815023  
2.76102805138  -0.0771215024375  -0.266639834043  0.0129718329977  0.304  0.00784123636111  0.0231619304747  
2.76917910576  -0.0811805288816  -0.280673509519  0.0136545610502  0.32  0.00825393301169  0.024380979447  
2.77722215652  -0.0852395553256  -0.294707184995  0.0143372891027  0.336  0.00866662966228  0.0256000284194  
2.785364151  -0.0892985817697  -0.308740860471  0.0150200171552  0.352  0.00907932631286  0.0268190773917  
2.79344797134  -0.0933576082138  -0.322774535946  0.0157027452077  0.368  0.00949202296344  0.0280381263641  
2.80163216591  -0.0974166346579  -0.336808211422  0.0163854732603  0.384  0.00990471961403  0.0292571753364  
2.80965018272  -0.101475661102  -0.350841886898  0.0170682013128  0.4  0.0103174162646  0.0304762243088  
2.81773900986  -0.105534687546  -0.364875562374  0.0177509293653  0.416  0.0107301129152  0.0316952732811  
2.82580804825  -0.10959371399  -0.37890923785  0.0184336574178  0.432  0.0111428095658  0.0329143222535  
2.83390402794  -0.113652740434  -0.392942913326  0.0191163854703  0.448  0.0115555062164  0.0341333712258  
2.84198117256  -0.117711766878  -0.406976588802  0.0197991135228  0.464  0.011968202867  0.0353524201982  
2.85005712509  -0.121770793322  -0.421010264278  0.0204818415753  0.48  0.0123808995175  0.0365714691705  
2.85811901093  -0.125829819766  -0.435043939754  0.0211645696278  0.496  0.0127935961681  0.0377905181429  
2.86624097824  -0.12988884621  -0.44907761523  0.0218472976803  0.512  0.0132062928187  0.0390095671152  
2.87432217598  -0.133947872655  -0.463111290706  0.0225300257329  0.528  0.0136189894693  0.0402286160876  
2.88250803947  -0.138006899099  -0.477144966182  0.0232127537854  0.544  0.0140316861199  0.0414476650599  
2.89061617851  -0.142065925543  -0.491178641658  0.0238954818379  0.56  0.0144443827705  0.0426667140323  
2.89868712425  -0.146124951987  -0.505212317134  0.0245782098904  0.576  0.014857079421  0.0438857630046  
2.90674519539  -0.150183978431  -0.519245992609  0.0252609379429  0.592  0.0152697760716  0.045104811977  
2.91485905647  -0.154243004875  -0.533279668085  0.0259436659954  0.608  0.0156824727222  0.0463238609493  
2.92292404175  -0.158302031319  -0.547313343561  0.0266263940479  0.624  0.0160951693728  0.0475429099217  
2.93101501465  -0.162361057763  -0.561347019037  0.0273091221004  0.64  0.0165078660234  0.048761958894  
2.93911314011  -0.166420084207  -0.575380694513  0.0279918501529  0.656  0.016920562674  0.0499810078664  
2.94721508026  -0.170479110651  -0.589414369989  0.0286745782054  0.672  0.0173332593246  0.0512000568387  
2.9553091526  -0.174538137095  -0.603448045465  0.029357306258  0.688  0.0177459559751  0.0524191058111  
2.96336817741  -0.178597163539  -0.617481720941  0.0300400343105  0.704  0.0181586526257  0.0536381547834  
2.97150206566  -0.182656189984  -0.631515396417  0.030722762363  0.72  0.0185713492763  0.0548572037558  
2.97972917557  -0.186715216428  -0.645549071893  0.0314054904155  0.736  0.0189840459269  0.0560762527281  
2.98770308495  -0.190774242872  -0.659582747369  0.032088218468  0.752  0.0193967425775  0.0572953017005  
2.9957780838  -0.194833269316  -0.673616422845  0.0327709465205  0.768  0.0198094392281  0.0585143506729  
3.00384902954  -0.19889229576  -0.687650098321  0.033453674573  0.784  0.0202221358786  0.0597333996452  
3.01199007034  -0.202951322204  -0.701683773797  0.0341364026255  0.8  0.0206348325292  0.0609524486176  
3.02006602287  -0.200252984347  -0.692354542185  0.0336825423278  0.789363605704  0.0203604822605  0.0601420557715  
3.02806210518  -0.196193957902  -0.678320866709  0.0329998142753  0.773363605704  0.0199477856099  0.0589230067992  
3.03619217873  -0.192134931458  -0.664287191233  0.0323170862228  0.757363605704  0.0195350889593  0.0577039578268  
3.04425597191  -0.188075905014  -0.650253515757  0.0316343581703  0.741363605704  0.0191223923087  0.0564849088545  
3.05234718323  -0.18401687857  -0.636219840281  0.0309516301178  0.725363605704  0.0187096956581  0.0552658598821  
3.06046915054  -0.179957852126  -0.622186164805  0.0302689020653  0.709363605704  0.0182969990075  0.0540468109098  
3.06867814064  -0.175898825682  -0.608152489329  0.0295861740128  0.693363605704  0.017884302357  0.0528277619374  
3.07660102844  -0.171839799238  -0.594118813853  0.0289034459602  0.677363605704  0.0174716057064  0.0516087129651  
3.08465099335  -0.167780772794  -0.580085138378  0.0282207179077  0.661363605704  0.0170589090558  0.0503896639927  
3.09279799461  -0.16372174635  -0.566051462902  0.0275379898552  0.645363605704  0.0166462124052  0.0491706150204  
3.10083913803  -0.159662719906  -0.552017787426  0.0268552618027  0.629363605704  0.0162335157546  0.047951566048  
3.1088950634  -0.155603693462  -0.53798411195  0.0261725337502  0.613363605704  0.015820819104  0.0467325170757  
3.11696815491  -0.151544667018  -0.523950436474  0.0254898056977  0.597363605704  0.0154081224534  0.0455134681033  
3.12505698204  -0.147485640574  -0.509916760998  0.0248070776452  0.581363605704  0.0149954258029  0.044294419131  
3.13311100006  -0.143426614129  -0.495883085522  0.0241243495927  0.565363605704  0.0145827291523  0.0430753701586  
3.14126706123  -0.139367587685  -0.481849410046  0.0234416215402  0.549363605704  0.0141700325017  0.0418563211863  
3.14937901497  -0.135308561241  -0.46781573457  0.0227588934876  0.533363605704  0.0137573358511  0.0406372722139  
3.15763902664  -0.131249534797  -0.453782059094  0.0220761654351  0.517363605704  0.0133446392005  0.0394182232416  
3.16570615768  -0.127190508353  -0.439748383618  0.0213934373826  0.501363605704  0.0129319425499  0.0381991742692  
3.17375016212  -0.123131481909  -0.425714708142  0.0207107093301  0.485363605704  0.0125192458994  0.0369801252969  
3.18182706833  -0.119072455465  -0.411681032666  0.0200279812776  0.469363605704  0.0121065492488  0.0357610763245  
3.18984007835  -0.115013429021  -0.39764735719  0.0193452532251  0.453363605704  0.0116938525982  0.0345420273522  
3.19794297218  -0.110954402577  -0.383613681714  0.0186625251726  0.437363605704  0.0112811559476  0.0333229783798  
3.2060341835  -0.106895376133  -0.369580006239  0.0179797971201  0.421363605704  0.010868459297  0.0321039294075  
3.21417999268  -0.102836349689  -0.355546330763  0.0172970690676  0.405363605704  0.0104557626464  0.0308848804351  
3.22224211693  -0.0987773232446  -0.341512655287  0.016614341015  0.389363605704  0.0100430659958  0.0296658314628  
3.23031616211  -0.0947182968005  -0.327478979811  0.0159316129625  0.373363605704  0.00963036934526  0.0284467824904  
3.23850011826  -0.0906592703564  -0.313445304335  0.01524888491  0.357363605704  0.00921767269468  0.0272277335181  
3.24645113945  -0.0866002439124  -0.299411628859  0.0145661568575  0.341363605704  0.00880497604409  0.0260086845457  
3.25472998619  -0.0784821910242  -0.271344277907  0.0132007007525  0.309363605704  0.00797958274292  0.023570586601  
3.2627081871  -0.0744231645801  -0.257310602431  0.0125179727  0.293363605704  0.00756688609234  0.0223515376287  
3.27076411247  -0.0703641381361  -0.243276926955  0.0118352446475  0.277363605704  0.00715418944175  0.0211324886563  
3.27878904343  -0.066305111692  -0.229243251479  0.011152516595  0.261363605704  0.00674149279117  0.019913439684  
3.28678798676  -0.0622460852479  -0.215209576003  0.0104697885425  0.245363605704  0.00632879614058  0.0186943907116  
3.29483819008  -0.0581870588038  -0.201175900527  0.00978706048994  0.229363605704  0.00591609949  0.0174753417393  
3.30284810066  -0.0541280323597  -0.187142225051  0.00910433243743  0.213363605704  0.00550340283941  0.0162562927669  
3.31096601486  -0.0500690059157  -0.173108549576  0.00842160438492  0.197363605704  0.00509070618883  0.0150372437946  
3.31903219223  -0.0460099794716  -0.1590748741  0.00773887633241  0.181363605704  0.00467800953825  0.0138181948222  
3.32715702057  -0.0419509530275  -0.145041198624  0.0070561482799  0.165363605704  0.00426531288766  0.0125991458498  
3.33521604538  -0.0378919265834  -0.131007523148  0.00637342022739  0.149363605704  0.00385261623708  0.0113800968775  
3.34332704544  -0.0338329001394  -0.116973847672  0.00569069217488  0.133363605704  0.00343991958649  0.0101610479051  
3.35135412216  -0.0297738736953  -0.102940172196  0.00500796412237  0.117363605704  0.00302722293591  0.0089419989328  
3.35945105553  -0.0257148472512  -0.0889064967199  0.00432523606985  0.101363605704  0.00261452628532  0.00772294996044  
3.36765503883  -0.0216558208071  -0.074872821244  0.00364250801734  0.0853636057039  0.00220182963474  0.00650390098809  
3.37570810318  -0.017596794363  -0.060839145768  0.00295977996483  0.0693636057039  0.00178913298415  0.00528485201574  
3.38377308846  -0.013537767919  -0.0468054702921  0.00227705191232  0.0533636057039  0.00137643633357  0.00406580304339  
3.39185619354  -0.00947874147488  -0.0327717948162  0.00159432385981  0.0373636057039  0.000963739682984  0.00284675407104  
3.39999318123  -0.00541971503081  -0.0187381193402  0.000911595807301  0.0213636057039  0.0005510430324  0.00162770509869  
3.40805697441  -0.00136068858673  -0.00470444386432  0.00022886775479  0.00536360570388  0.000138346381815  0.000408656126338  
3.41613698006  0.0  0.0  0.0  0.0  0.0  0.0  
3.42421102524  0.0  0.0  0.0  0.0  0.0  0.0  
3.43233108521  0.0  0.0  0.0  0.0  0.0  0.0  
3.44052910805  0.0  0.0  0.0  0.0  0.0  0.0  
3.44861602783  -0.016  -0.000390547368578  -0.00332331779723  0.0040006528636  -0.0072139403245  0.00211098222237  
3.45673418045  -0.032  -0.000781094737155  -0.00664663559446  0.00800130572719  -0.014427880649  0.00422196444473  
3.4647371769  -0.048  -0.00117164210573  -0.00996995339169  0.0120019585908  -0.0216418209735  0.0063329466671  
3.47282600403  -0.064  -0.00156218947431  -0.0132932711889  0.0160026114544  -0.028855761298  0.00844392888946  
3.48093914986  -0.08  -0.00195273684289  -0.0166165889862  0.020003264318  -0.0360697016225  0.0105549111118  
3.48894119263  -0.096  -0.00234328421147  -0.0199399067834  0.0240039171816  -0.043283641947  0.0126658933342  
3.49704408646  -0.112  -0.00273383158004  -0.0232632245806  0.0280045700452  -0.0504975822715  0.0147768755566  
3.50514006615  -0.128  -0.00312437894862  -0.0265865423778  0.0320052229088  -0.057711522596  0.0168878577789  
3.51323509216  -0.144  -0.0035149263172  -0.0299098601751  0.0360058757724  -0.0649254629205  0.0189988400013  
3.52135896683  -0.16  -0.00390547368578  -0.0332331779723  0.040006528636  -0.072139403245  0.0211098222237  
3.52940416336  -0.176  -0.00429602105435  -0.0365564957695  0.0440071814996  -0.0793533435695  0.023220804446  
3.53764915466  -0.192  -0.00468656842293  -0.0398798135668  0.0480078343631  -0.086567283894  0.0253317866684  
3.54567408562  -0.208  -0.00507711579151  -0.043203131364  0.0520084872267  -0.0937812242185  0.0274427688908  
3.55371618271  -0.224  -0.00546766316009  -0.0465264491612  0.0560091400903  -0.100995164543  0.0295537511131  
3.56181812286  -0.24  -0.00585821052867  -0.0498497669585  0.0600097929539  -0.108209104867  0.0316647333355  
3.56989312172  -0.256  -0.00624875789724  -0.0531730847557  0.0640104458175  -0.115423045192  0.0337757155578  
3.57806611061  -0.272  -0.00663930526582  -0.0564964025529  0.0680110986811  -0.122636985516  0.0358866977802  
3.58612513542  -0.288  -0.0070298526344  -0.0598197203501  0.0720117515447  -0.129850925841  0.0379976800026  
3.59418916702  -0.304  -0.00742040000298  -0.0631430381474  0.0760124044083  -0.137064866165  0.0401086622249  
3.60224604607  -0.32  -0.00781094737155  -0.0664663559446  0.0800130572719  -0.14427880649  0.0422196444473  
3.6104080677  -0.336  -0.00820149474013  -0.0697896737418  0.0840137101355  -0.151492746814  0.0443306266697  
3.61859202385  -0.352  -0.00859204210871  -0.0731129915391  0.0880143629991  -0.158706687139  0.046441608892  
3.62675309181  -0.368  -0.00898258947729  -0.0764363093363  0.0920150158627  -0.165920627463  0.0485525911144  
3.63469719887  -0.384  -0.00937313684587  -0.0797596271335  0.0960156687263  -0.173134567788  0.0506635733368  
3.64278697968  -0.4  -0.00976368421444  -0.0830829449308  0.10001632159  -0.180348508112  0.0527745555591  
3.65095806122  -0.416  -0.010154231583  -0.086406262728  0.104016974453  -0.187562448437  0.0548855377815  
3.65899205208  -0.432  -0.0105447789516  -0.0897295805252  0.108017627317  -0.194776388761  0.0569965200039  
3.66711497307  -0.448  -0.0109353263202  -0.0930528983224  0.112018280181  -0.201990329086  0.0591075022262  
3.67524409294  -0.464  -0.0113258736888  -0.0963762161197  0.116018933044  -0.20920426941  0.0612184844486  
3.68340396881  -0.48  -0.0117164210573  -0.0996995339169  0.120019585908  -0.216418209735  0.063329466671  
3.6916410923  -0.496  -0.0121069684259  -0.103022851714  0.124020238771  -0.223632150059  0.0654404488933  
3.69971609116  -0.512  -0.0124975157945  -0.106346169511  0.128020891635  -0.230846090384  0.0675514311157  
3.70777606964  -0.528  -0.0128880631631  -0.109669487309  0.132021544499  -0.238060030708  0.0696624133381  
3.71584796906  -0.544  -0.0132786105316  -0.112992805106  0.136022197362  -0.245273971033  0.0717733955604  
3.7238740921  -0.56  -0.0136691579002  -0.116316122903  0.140022850226  -0.252487911357  0.0738843777828  
3.73195099831  -0.576  -0.0140597052688  -0.1196394407  0.144023503089  -0.259701851682  0.0759953600052  
3.74018907547  -0.592  -0.0144502526374  -0.122962758498  0.148024155953  -0.266915792006  0.0781063422275  
3.74821209908  -0.608  -0.014840800006  -0.126286076295  0.152024808817  -0.274129732331  0.0802173244499  
3.75636816025  -0.624  -0.0152313473745  -0.129609394092  0.15602546168  -0.281343672655  0.0823283066723  
3.76458406448  -0.64  -0.0156218947431  -0.132932711889  0.160026114544  -0.28855761298  0.0844392888946  
3.77267599106  -0.656  -0.0160124421117  -0.136256029686  0.164026767407  -0.295771553304  0.086550271117  
3.78079199791  -0.672  -0.0164029894803  -0.139579347484  0.168027420271  -0.302985493629  0.0886612533394  
3.78882598877  -0.688  -0.0167935368488  -0.142902665281  0.172028073135  -0.310199433953  0.0907722355617  
3.79693508148  -0.704  -0.0171840842174  -0.146225983078  0.176028725998  -0.317413374278  0.0928832177841  
3.80500817299  -0.72  -0.017574631586  -0.149549300875  0.180029378862  -0.324627314602  0.0949942000064  
3.8132250309  -0.736  -0.0179651789546  -0.152872618673  0.184030031725  -0.331841254927  0.0971051822288  
3.82123398781  -0.752  -0.0183557263232  -0.15619593647  0.188030684589  -0.339055195251  0.0992161644512  
3.8293390274  -0.768  -0.0187462736917  -0.159519254267  0.192031337453  -0.346269135576  0.101327146674  
3.83745908737  -0.784  -0.0191368210603  -0.162842572064  0.196031990316  -0.3534830759  0.103438128896  
3.84570598602  -0.8  -0.0195273684289  -0.166165889862  0.20003264318  -0.360697016225  0.105549111118  
3.85366797447  -0.816  -0.0199179157975  -0.169489207659  0.204033296043  -0.367910956549  0.107660093341  
3.86183619499  -0.832  -0.020308463166  -0.172812525456  0.208033948907  -0.375124896874  0.109771075563  
3.86990714073  -0.848  -0.0206990105346  -0.176135843253  0.212034601771  -0.382338837198  0.111882057785  
3.8779489994  -0.864  -0.0210895579032  -0.17945916105  0.216035254634  -0.389552777523  0.113993040008  
3.88600802422  -0.88  -0.0214801052718  -0.182782478848  0.220035907498  -0.396766717847  0.11610402223  
3.89414000511  -0.896  -0.0218706526404  -0.186105796645  0.224036560361  -0.403980658172  0.118215004452  
3.90224099159  -0.912  -0.0222612000089  -0.189429114442  0.228037213225  -0.411194598496  0.120325986675  
3.91036009789  -0.928  -0.0226517473775  -0.192752432239  0.232037866089  -0.418408538821  0.122436968897  
3.91849112511  -0.944  -0.0230422947461  -0.196075750037  0.236038518952  -0.425622479145  0.12454795112  
3.92678618431  -0.976  -0.0238233894832  -0.202722385631  0.244039824679  -0.440050359794  0.128769915564  
3.93481516838  -0.968793052916  -0.0236474735945  -0.201225449662  0.242237793836  -0.436800954408  0.127819056991  
3.9428191185  -0.952793052916  -0.023256926226  -0.197902131864  0.238237140973  -0.429587014083  0.125708074769  
3.95086717606  -0.936793052916  -0.0228663788574  -0.194578814067  0.234236488109  -0.422373073759  0.123597092546  
3.95906615257  -0.920793052916  -0.0224758314888  -0.19125549627  0.230235835245  -0.415159133434  0.121486110324  
3.96705317497  -0.904793052916  -0.0220852841202  -0.187932178473  0.226235182382  -0.40794519311  0.119375128102  
3.97509503365  -0.888793052916  -0.0216947367516  -0.184608860676  0.222234529518  -0.400731252785  0.117264145879  
3.98318600655  -0.872793052916  -0.0213041893831  -0.181285542878  0.218233876655  -0.393517312461  0.115153163657  
3.99137115479  -0.856793052916  -0.0209136420145  -0.177962225081  0.214233223791  -0.386303372136  0.113042181434  
3.99958610535  -0.840793052916  -0.0205230946459  -0.174638907284  0.210232570927  -0.379089431812  0.110931199212  
4.00770115852  -0.824793052916  -0.0201325472773  -0.171315589487  0.206231918064  -0.371875491487  0.10882021699  
4.01584005356  -0.808793052916  -0.0197419999088  -0.167992271689  0.2022312652  -0.364661551163  0.106709234767  
4.02387714386  -0.792793052916  -0.0193514525402  -0.164668953892  0.198230612337  -0.357447610838  0.104598252545  
4.03191900253  -0.776793052916  -0.0189609051716  -0.161345636095  0.194229959473  -0.350233670514  0.102487270323  
4.04005217552  -0.760793052916  -0.018570357803  -0.158022318298  0.190229306609  -0.343019730189  0.1003762881  
4.0480670929  -0.744793052916  -0.0181798104344  -0.154699000501  0.186228653746  -0.335805789865  0.0982653058779  
4.05613803864  -0.728793052916  -0.0177892630659  -0.151375682703  0.182228000882  -0.32859184954  0.0961543236555  
4.06424307823  -0.712793052916  -0.0173987156973  -0.148052364906  0.178227348019  -0.321377909216  0.0940433414332  
4.07230997086  -0.696793052916  -0.0170081683287  -0.144729047109  0.174226695155  -0.314163968891  0.0919323592108  
4.08041119576  -0.680793052916  -0.0166176209601  -0.141405729312  0.170226042291  -0.306950028567  0.0898213769884  
4.08869814873  -0.664793052916  -0.0162270735916  -0.138082411514  0.166225389428  -0.299736088242  0.0877103947661  
4.09660816193  -0.648793052916  -0.015836526223  -0.134759093717  0.162224736564  -0.292522147918  0.0855994125437  
4.10468506813  -0.632793052916  -0.0154459788544  -0.13143577592  0.158224083701  -0.285308207593  0.0834884303213  
4.11281204224  -0.616793052916  -0.0150554314858  -0.128112458123  0.154223430837  -0.278094267269  0.081377448099  
4.12086009979  -0.600793052916  -0.0146648841172  -0.124789140325  0.150222777973  -0.270880326944  0.0792664658766  
4.12899112701  -0.584793052916  -0.0142743367487  -0.121465822528  0.14622212511  -0.26366638662  0.0771554836542  
4.1370651722  -0.568793052916  -0.0138837893801  -0.118142504731  0.142221472246  -0.256452446295  0.0750445014319  
4.14515805244  -0.552793052916  -0.0134932420115  -0.114819186934  0.138220819383  -0.249238505971  0.0729335192095  
4.15332818031  -0.536793052916  -0.0131026946429  -0.111495869137  0.134220166519  -0.242024565646  0.0708225369871  
4.16137814522  -0.520793052916  -0.0127121472744  -0.108172551339  0.130219513655  -0.234810625322  0.0687115547648  
4.1695291996  -0.504793052916  -0.0123215999058  -0.104849233542  0.126218860792  -0.227596684997  0.0666005725424  
4.17749714851  -0.488793052916  -0.0119310525372  -0.101525915745  0.122218207928  -0.220382744673  0.06448959032  
4.18575310707  -0.472793052916  -0.0115405051686  -0.0982025979476  0.118217555065  -0.213168804348  0.0623786080977  
4.19372010231  -0.456793052916  -0.0111499578  -0.0948792801504  0.114216902201  -0.205954864024  0.0602676258753  
4.20190310478  -0.440793052916  -0.0107594104315  -0.0915559623531  0.110216249338  -0.198740923699  0.0581566436529  
4.20994520187  -0.424793052916  -0.0103688630629  -0.0882326445559  0.106215596474  -0.191526983375  0.0560456614306  
4.21802616119  -0.408793052916  -0.00997831569432  -0.0849093267587  0.10221494361  -0.18431304305  0.0539346792082  
4.22611808777  -0.392793052916  -0.00958776832574  -0.0815860089614  0.0982142907467  -0.177099102726  0.0518236969859  
4.23424911499  -0.376793052916  -0.00919722095716  -0.0782626911642  0.0942136378831  -0.169885162401  0.0497127147635  
4.24225401878  -0.360793052916  -0.00880667358858  -0.074939373367  0.0902129850195  -0.162671222077  0.0476017325411  
4.25034213066  -0.344793052916  -0.00841612622001  -0.0716160555697  0.0862123321559  -0.155457281752  0.0454907503188  
4.25841116905  -0.328793052916  -0.00802557885143  -0.0682927377725  0.0822116792923  -0.148243341428  0.0433797680964  
4.2666862011  -0.312793052916  -0.00763503148285  -0.0649694199753  0.0782110264287  -0.141029401103  0.041268785874  
4.27462911606  -0.296793052916  -0.00724448411427  -0.0616461021781  0.0742103735651  -0.133815460779  0.0391578036517  
4.28272509575  -0.280793052916  -0.00685393674569  -0.0583227843808  0.0702097207015  -0.126601520454  0.0370468214293  
4.29091119766  -0.264793052916  -0.00646338937712  -0.0549994665836  0.066209067838  -0.11938758013  0.0349358392069  
4.29888606071  -0.248793052916  -0.00607284200854  -0.0516761487864  0.0622084149744  -0.112173639805  0.0328248569846  
4.3069870472  -0.232793052916  -0.00568229463996  -0.0483528309891  0.0582077621108  -0.104959699481  0.0307138747622  
4.31508398056  -0.216793052916  -0.00529174727138  -0.0450295131919  0.0542071092472  -0.0977457591562  0.0286028925398  
4.32316112518  -0.200793052916  -0.00490119990281  -0.0417061953947  0.0502064563836  -0.0905318188317  0.0264919103175  
4.33125019073  -0.184793052916  -0.00451065253423  -0.0383828775974  0.04620580352  -0.0833178785072  0.0243809280951  
4.33941602707  -0.168793052916  -0.00412010516565  -0.0350595598002  0.0422051506564  -0.0761039381827  0.0222699458727  
4.34769415855  -0.152793052916  -0.00372955779707  -0.031736242003  0.0382044977928  -0.0688899978582  0.0201589636504  
4.35571217537  -0.136793052916  -0.0033390104285  -0.0284129242058  0.0342038449292  -0.0616760575337  0.018047981428  
4.36390018463  -0.120793052916  -0.00294846305992  -0.0250896064085  0.0302031920656  -0.0544621172092  0.0159369992056  
4.37185811996  -0.104793052916  -0.00255791569134  -0.0217662886113  0.026202539202  -0.0472481768847  0.0138260169833  
4.37997198105  -0.0887930529157  -0.00216736832276  -0.0184429708141  0.0222018863384  -0.0400342365602  0.0117150347609  
4.38807201385  -0.0727930529157  -0.00177682095418  -0.0151196530168  0.0182012334748  -0.0328202962357  0.00960405253854  
4.39622807503  -0.0567930529157  -0.00138627358561  -0.0117963352196  0.0142005806112  -0.0256063559112  0.00749307031618  
4.40431499481  -0.0407930529157  -0.000995726217029  -0.00847301742237  0.0101999277476  -0.0183924155867  0.00538208809381  
4.41254401207  -0.0247930529157  -0.000605178848451  -0.00514969962514  0.00619927488402  -0.0111784752622  0.00327110587144  
4.42071509361  -0.00879305291566  -0.000214631479873  -0.00182638182791  0.00219862202042  -0.00396453493773  0.00116012364908  
4.43082213402  0.0  0.0  0.0  0.0  0.0  0.0  
4.43885016441  0.0  0.0  0.0  0.0  0.0  0.0  
4.44680309296  0.0  0.0  0.0  0.0  0.0  0.0  
4.45486402512  0.000575075889611  0.016  -0.0129928861906  -0.00385077800477  -0.000687634898833  0.00347669552524  
4.46299409866  0.00115015177922  0.032  -0.0259857723812  -0.00770155600955  -0.00137526979767  0.00695339105048  
4.47104501724  0.00172522766883  0.048  -0.0389786585718  -0.0115523340143  -0.0020629046965  0.0104300865757  
4.47907519341  0.00230030355844  0.064  -0.0519715447624  -0.0154031120191  -0.00275053959533  0.013906782101  
4.48720407486  0.00287537944805  0.08  -0.064964430953  -0.0192538900239  -0.00343817449417  0.0173834776262  
4.49527812004  0.00345045533767  0.096  -0.0779573171435  -0.0231046680286  -0.004125809393  0.0208601731514  
4.50350904465  0.00402553122728  0.112  -0.0909502033341  -0.0269554460334  -0.00481344429183  0.0243368686767  
4.51177597046  0.00460060711689  0.128  -0.103943089525  -0.0308062240382  -0.00550107919066  0.0278135642019  
4.51975512505  0.0051756830065  0.144  -0.116935975715  -0.034657002043  -0.0061887140895  0.0312902597271  
4.52778410912  0.00575075889611  0.16  -0.129928861906  -0.0385077800477  -0.00687634898833  0.0347669552524  
4.53585720062  0.00632583478572  0.176  -0.142921748097  -0.0423585580525  -0.00756398388716  0.0382436507776  
4.54397702217  0.00690091067533  0.192  -0.155914634287  -0.0462093360573  -0.008251618786  0.0417203463029  
4.55199599266  0.00747598656494  0.208  -0.168907520478  -0.0500601140621  -0.00893925368483  0.0451970418281  
4.56003308296  0.00805106245455  0.224  -0.181900406668  -0.0539108920668  -0.00962688858366  0.0486737373533  
4.56809711456  0.00862613834416  0.24  -0.194893292859  -0.0577616700716  -0.0103145234825  0.0521504328786  
4.57622408867  0.00920121423377  0.256  -0.207886179049  -0.0616124480764  -0.0110021583813  0.0556271284038  
4.58430600166  0.00977629012339  0.272  -0.22087906524  -0.0654632260811  -0.0116897932802  0.059103823929  
4.5924050808  0.010351366013  0.288  -0.233871951431  -0.0693140040859  -0.012377428179  0.0625805194543  
4.60056900978  0.0109264419026  0.304  -0.246864837621  -0.0731647820907  -0.0130650630778  0.0660572149795  
4.60864210129  0.0115015177922  0.32  -0.259857723812  -0.0770155600955  -0.0137526979767  0.0695339105048  
4.61671113968  0.0120765936818  0.336  -0.272850610002  -0.0808663381002  -0.0144403328755  0.07301060603  
4.62478017807  0.0126516695714  0.352  -0.285843496193  -0.084717116105  -0.0151279677743  0.0764873015552  
4.63289117813  0.0132267454611  0.368  -0.298836382384  -0.0885678941098  -0.0158156026732  0.0799639970805  
4.64096212387  0.0138018213507  0.384  -0.311829268574  -0.0924186721146  -0.016503237572  0.0834406926057  
4.64899015427  0.0143768972403  0.4  -0.324822154765  -0.0962694501193  -0.0171908724708  0.086917388131  
4.6571199894  0.0149519731299  0.416  -0.337815040955  -0.100120228124  -0.0178785073697  0.0903940836562  
4.66520404816  0.0155270490195  0.432  -0.350807927146  -0.103971006129  -0.0185661422685  0.0938707791814  
4.67326402664  0.0161021249091  0.448  -0.363800813337  -0.107821784134  -0.0192537771673  0.0973474747067  
4.681401968  0.0166772007987  0.464  -0.376793699527  -0.111672562138  -0.0199414120662  0.100824170232  
4.68966603279  0.0172522766883  0.48  -0.389786585718  -0.115523340143  -0.020629046965  0.104300865757  
4.69774699211  0.0178273525779  0.496  -0.402779471908  -0.119374118148  -0.0213166818638  0.107777561282  
4.70579004288  0.0184024284675  0.512  -0.415772358099  -0.123224896153  -0.0220043167627  0.111254256808  
4.71382808685  0.0189775043572  0.528  -0.42876524429  -0.127075674158  -0.0226919516615  0.114730952333  
4.7219209671  0.0195525802468  0.544  -0.44175813048  -0.130926452162  -0.0233795865603  0.118207647858  
4.73001098633  0.0201276561364  0.56  -0.454751016671  -0.134777230167  -0.0240672214592  0.121684343383  
4.7381401062  0.020702732026  0.576  -0.467743902861  -0.138628008172  -0.024754856358  0.125161038909  
4.74618411064  0.0212778079156  0.592  -0.480736789052  -0.142478786177  -0.0254424912568  0.128637734434  
4.75428915024  0.0218528838052  0.608  -0.493729675242  -0.146329564181  -0.0261301261557  0.132114429959  
4.76260018349  0.0224279596948  0.624  -0.506722561433  -0.150180342186  -0.0268177610545  0.135591125484  
4.77060103416  0.0230030355844  0.64  -0.519715447624  -0.154031120191  -0.0275053959533  0.13906782101  
4.77858614922  0.023578111474  0.656  -0.532708333814  -0.157881898196  -0.0281930308522  0.142544516535  
4.78670096397  0.0241531873637  0.672  -0.545701220005  -0.1617326762  -0.028880665751  0.14602121206  
4.79481005669  0.0247282632533  0.688  -0.558694106195  -0.165583454205  -0.0295683006498  0.149497907585  
4.80284714699  0.0253033391429  0.704  -0.571686992386  -0.16943423221  -0.0302559355487  0.15297460311  
4.8109061718  0.0258784150325  0.72  -0.584679878577  -0.173285010215  -0.0309435704475  0.156451298636  
4.81901597977  0.0264534909221  0.736  -0.597672764767  -0.17713578822  -0.0316312053463  0.159927994161  
4.82721018791  0.0270285668117  0.752  -0.610665650958  -0.180986566224  -0.0323188402452  0.163404689686  
4.83519697189  0.0276036427013  0.768  -0.623658537148  -0.184837344229  -0.033006475144  0.166881385211  
4.8433110714  0.0281787185909  0.784  -0.636651423339  -0.188688122234  -0.0336941100428  0.170358080737  
4.85138297081  0.0287537944805  0.8  -0.64964430953  -0.192538900239  -0.0343817449417  0.173834776262  
4.85965013504  0.0293288703702  0.816  -0.66263719572  -0.196389678243  -0.0350693798405  0.177311471787  
4.86762809753  0.0299039462598  0.832  -0.675630081911  -0.200240456248  -0.0357570147393  0.180788167312  
4.87568712234  0.0304790221494  0.848  -0.688622968101  -0.204091234253  -0.0364446496382  0.184264862838  
4.8838121891  0.0309346958639  0.860677943144  -0.698918160127  -0.207142480791  -0.0369895118976  0.1870196971  
4.89187312126  0.0303596199743  0.844677943144  -0.685925273936  -0.203291702786  -0.0363018769988  0.183543001575  
4.8999080658  0.0297845440847  0.828677943144  -0.672932387745  -0.199440924781  -0.0356142421  0.18006630605  
4.90808200836  0.0292094681951  0.812677943144  -0.659939501555  -0.195590146777  -0.0349266072011  0.176589610524  
4.91606402397  0.0286343923054  0.796677943144  -0.646946615364  -0.191739368772  -0.0342389723023  0.173112914999  
4.92413020134  0.0280593164158  0.780677943144  -0.633953729174  -0.187888590767  -0.0335513374035  0.169636219474  
4.93224811554  0.0274842405262  0.764677943144  -0.620960842983  -0.184037812762  -0.0328637025046  0.166159523949  
4.94044017792  0.0269091646366  0.748677943144  -0.607967956792  -0.180187034757  -0.0321760676058  0.162682828423  
4.94843912125  0.026334088747  0.732677943144  -0.594975070602  -0.176336256753  -0.031488432707  0.159206132898  
4.95654702187  0.0257590128574  0.716677943144  -0.581982184411  -0.172485478748  -0.0308007978081  0.155729437373  
4.96462106705  0.0251839369678  0.700677943144  -0.568989298221  -0.168634700743  -0.0301131629093  0.152252741848  
4.97266411781  0.0246088610782  0.684677943144  -0.55599641203  -0.164783922738  -0.0294255280105  0.148776046322  
4.98079419136  0.0240337851886  0.668677943144  -0.54300352584  -0.160933144734  -0.0287378931116  0.145299350797  
4.98892712593  0.0234587092989  0.652677943144  -0.530010639649  -0.157082366729  -0.0280502582128  0.141822655272  
4.99695301056  0.0228836334093  0.636677943144  -0.517017753458  -0.153231588724  -0.027362623314  0.138345959747  
5.004956007  0.0223085575197  0.620677943144  -0.504024867268  -0.149380810719  -0.0266749884151  0.134869264221  
5.01307415962  0.0217334816301  0.604677943144  -0.491031981077  -0.145530032714  -0.0259873535163  0.131392568696  
5.0212199688  0.0211584057405  0.588677943144  -0.478039094887  -0.14167925471  -0.0252997186175  0.127915873171  
5.0292301178  0.0205833298509  0.572677943144  -0.465046208696  -0.137828476705  -0.0246120837186  0.124439177646  
5.0373210907  0.0200082539613  0.556677943144  -0.452053322505  -0.1339776987  -0.0239244488198  0.120962482121  
5.04542207718  0.0194331780717  0.540677943144  -0.439060436315  -0.130126920695  -0.023236813921  0.117485786595  
5.05367898941  0.0188581021821  0.524677943144  -0.426067550124  -0.126276142691  -0.0225491790221  0.11400909107  
5.0616941452  0.0182830262924  0.508677943144  -0.413074663934  -0.122425364686  -0.0218615441233  0.110532395545  
5.06970405579  0.0177079504028  0.492677943144  -0.400081777743  -0.118574586681  -0.0211739092245  0.10705570002  
5.07771110535  0.0171328745132  0.476677943144  -0.387088891552  -0.114723808676  -0.0204862743256  0.103579004494  
5.08589220047  0.0165577986236  0.460677943144  -0.374096005362  -0.110873030672  -0.0197986394268  0.100102308969  
5.09391999245  0.015982722734  0.444677943144  -0.361103119171  -0.107022252667  -0.019111004528  0.0966256134439  
5.10205316544  0.0154076468444  0.428677943144  -0.348110232981  -0.103171474662  -0.0184233696291  0.0931489179186  
5.11011099815  0.0148325709548  0.412677943144  -0.33511734679  -0.0993206966572  -0.0177357347303  0.0896722223934  
5.11821699142  0.0142574950652  0.396677943144  -0.322124460599  -0.0954699186524  -0.0170480998315  0.0861955268681  
5.1264090538  0.0136824191756  0.380677943144  -0.309131574409  -0.0916191406476  -0.0163604649326  0.0827188313429  
5.1344640255  0.0131073432859  0.364677943144  -0.296138688218  -0.0877683626429  -0.0156728300338  0.0792421358177  
5.14260697365  0.0125322673963  0.348677943144  -0.283145802028  -0.0839175846381  -0.014985195135  0.0757654402924  
5.15072512627  0.0113821156171  0.316677943144  -0.257160029647  -0.0762160286286  -0.0136099253373  0.068812049242  
5.15877819061  0.0108070397275  0.300677943144  -0.244167143456  -0.0723652506238  -0.0129222904385  0.0653353537167  
5.16680216789  0.0102319638379  0.284677943144  -0.231174257265  -0.068514472619  -0.0122346555396  0.0618586581915  
5.17486214638  0.00965688794828  0.268677943144  -0.218181371075  -0.0646636946142  -0.0115470206408  0.0583819626662  
5.18295502663  0.00908181205867  0.252677943144  -0.205188484884  -0.0608129166095  -0.010859385742  0.054905267141  
5.19098901749  0.00850673616906  0.236677943144  -0.192195598694  -0.0569621386047  -0.0101717508431  0.0514285716158  
5.19903612137  0.00793166027945  0.220677943144  -0.179202712503  -0.0531113605999  -0.00948411594429  0.0479518760905  
5.20714497566  0.00735658438984  0.204677943144  -0.166209826312  -0.0492605825951  -0.00879648104546  0.0444751805653  
5.21522116661  0.00678150850023  0.188677943144  -0.153216940122  -0.0454098045904  -0.00810884614663  0.0409984850401  
5.22331500053  0.00620643261062  0.172677943144  -0.140224053931  -0.0415590265856  -0.00742121124779  0.0375217895148  
5.23142504692  0.00563135672101  0.156677943144  -0.127231167741  -0.0377082485808  -0.00673357634896  0.0340450939896  
5.23965001106  0.0050562808314  0.140677943144  -0.11423828155  -0.033857470576  -0.00604594145013  0.0305683984643  
5.24772620201  0.00448120494178  0.124677943144  -0.101245395359  -0.0300066925713  -0.0053583065513  0.0270917029391  
5.25576114655  0.00390612905217  0.108677943144  -0.0882525091688  -0.0261559145665  -0.00467067165246  0.0236150074139  
5.26384711266  0.00333105316256  0.0926779431443  -0.0752596229782  -0.0223051365617  -0.00398303675363  0.0201383118886  
5.2719271183  0.00275597727295  0.0766779431443  -0.0622667367876  -0.018454358557  -0.0032954018548  0.0166616163634  
5.27994799614  0.00218090138334  0.0606779431443  -0.049273850597  -0.0146035805522  -0.00260776695596  0.0131849208381  
5.28803896904  0.00160582549373  0.0446779431443  -0.0362809644065  -0.0107528025474  -0.00192013205713  0.00970822531291  
5.2961499691  0.00103074960412  0.0286779431443  -0.0232880782159  -0.00690202454263  -0.0012324971583  0.00623152978767  
5.3041779995  0.000455673714508  0.0126779431443  -0.0102951920253  -0.00305124653786  -0.000544862259464  0.00275483426243  
5.31232118607  0.0  0.0  0.0  0.0  0.0  0.0  
5.32035517693  0.0  0.0  0.0  0.0  0.0  0.0  
5.32845807076  0.0  0.0  0.0  0.0  0.0  0.0  
5.33665299416  0.0  0.0  0.0  0.0  0.0  0.0  
5.34465312958  0.016  0.00761645823425  -0.00444333148159  -0.00282319535084  0.00853682558512  -0.00338783444059  
5.35268998146  0.032  0.0152329164685  -0.00888666296317  -0.00564639070168  0.0170736511702  -0.00677566888119  
5.36080408096  0.048  0.0228493747027  -0.0133299944448  -0.00846958605251  0.0256104767554  -0.0101635033218  
5.36891913414  0.064  0.030465832937  -0.0177733259263  -0.0112927814034  0.0341473023405  -0.0135513377624  
5.3770711422  0.08  0.0380822911712  -0.0222166574079  -0.0141159767542  0.0426841279256  -0.016939172203  
5.38508200645  0.096  0.0456987494055  -0.0266599888895  -0.016939172105  0.0512209535107  -0.0203270066436  
5.39316606522  0.112  0.0533152076397  -0.0311033203711  -0.0197623674559  0.0597577790959  -0.0237148410842  
5.40122699738  0.128  0.060931665874  -0.0355466518527  -0.0225855628067  0.068294604681  -0.0271026755248  
5.40932202339  0.144  0.0685481241082  -0.0399899833343  -0.0254087581575  0.0768314302661  -0.0304905099653  
5.41749119759  0.16  0.0761645823425  -0.0444333148159  -0.0282319535084  0.0853682558512  -0.0338783444059  
5.4256901741  0.176  0.0837810405767  -0.0488766462975  -0.0310551488592  0.0939050814363  -0.0372661788465  
5.43361997604  0.192  0.091397498811  -0.053319977779  -0.0338783442101  0.102441907021  -0.0406540132871  
5.44173312187  0.208  0.0990139570452  -0.0577633092606  -0.0367015395609  0.110978732607  -0.0440418477277  
5.44979000092  0.224  0.106630415279  -0.0622066407422  -0.0395247349117  0.119515558192  -0.0474296821683  
5.45796918869  0.24  0.114246873514  -0.0666499722238  -0.0423479302626  0.128052383777  -0.0508175166089  
5.46595096588  0.256  0.121863331748  -0.0710933037054  -0.0451711256134  0.136589209362  -0.0542053510495  
5.4740459919  0.272  0.129479789982  -0.075536635187  -0.0479943209642  0.145126034947  -0.0575931854901  
5.48215413094  0.288  0.137096248216  -0.0799799666686  -0.0508175163151  0.153662860532  -0.0609810199307  
5.49021816254  0.304  0.144712706451  -0.0844232981502  -0.0536407116659  0.162199686117  -0.0643688543713  
5.49839115143  0.32  0.152329164685  -0.0888666296317  -0.0564639070168  0.170736511702  -0.0677566888119  
5.50655317307  0.336  0.159945622919  -0.0933099611133  -0.0592871023676  0.179273337288  -0.0711445232525  
5.51462316513  0.352  0.167562081153  -0.0977532925949  -0.0621102977184  0.187810162873  -0.0745323576931  
5.52261400223  0.368  0.175178539388  -0.102196624077  -0.0649334930693  0.196346988458  -0.0779201921337  
5.53069901466  0.384  0.182794997622  -0.106639955558  -0.0677566884201  0.204883814043  -0.0813080265743  
5.53872203827  0.4  0.190411455856  -0.11108328704  -0.0705798837709  0.213420639628  -0.0846958610148  
5.54683113098  0.416  0.19802791409  -0.115526618521  -0.0734030791218  0.221957465213  -0.0880836954554  
5.5549249649  0.432  0.205644372325  -0.119969950003  -0.0762262744726  0.230494290798  -0.091471529896  
5.56309103966  0.448  0.213260830559  -0.124413281484  -0.0790494698235  0.239031116383  -0.0948593643366  
5.57111597061  0.464  0.220877288793  -0.128856612966  -0.0818726651743  0.247567941969  -0.0982471987772  
5.57921409607  0.48  0.228493747027  -0.133299944448  -0.0846958605251  0.256104767554  -0.101635033218  
5.58732509613  0.496  0.236110205262  -0.137743275929  -0.087519055876  0.264641593139  -0.105022867658  
5.59539008141  0.512  0.243726663496  -0.142186607411  -0.0903422512268  0.273178418724  -0.108410702099  
5.60354208946  0.528  0.25134312173  -0.146629938892  -0.0931654465777  0.281715244309  -0.11179853654  
5.61169719696  0.544  0.258959579964  -0.151073270374  -0.0959886419285  0.290252069894  -0.11518637098  
5.61973118782  0.56  0.266576038199  -0.155516601856  -0.0988118372793  0.298788895479  -0.118574205421  
5.62779712677  0.576  0.274192496433  -0.159959933337  -0.10163503263  0.307325721064  -0.121962039861  
5.6358101368  0.592  0.281808954667  -0.164403264819  -0.104458227981  0.31586254665  -0.125349874302  
5.64386510849  0.608  0.289425412901  -0.1688465963  -0.107281423332  0.324399372235  -0.128737708743  
5.65198516846  0.624  0.297041871136  -0.173289927782  -0.110104618683  0.33293619782  -0.132125543183  
5.66014909744  0.64  0.30465832937  -0.177733259263  -0.112927814034  0.341473023405  -0.135513377624  
5.66815710068  0.656  0.312274787604  -0.182176590745  -0.115751009384  0.35000984899  -0.138901212064  
5.67627596855  0.672  0.319891245838  -0.186619922227  -0.118574204735  0.358546674575  -0.142289046505  
5.6844291687  0.688  0.327507704073  -0.191063253708  -0.121397400086  0.36708350016  -0.145676880946  
5.69261407852  0.704  0.335124162307  -0.19550658519  -0.124220595437  0.375620325745  -0.149064715386  
5.70070409775  0.72  0.342740620541  -0.199949916671  -0.127043790788  0.38415715133  -0.152452549827  
5.70862603188  0.736  0.350357078775  -0.204393248153  -0.129866986139  0.392693976916  -0.155840384267  
5.71672010422  0.752  0.35797353701  -0.208836579635  -0.132690181489  0.401230802501  -0.159228218708  
5.72479009628  0.768  0.365589995244  -0.213279911116  -0.13551337684  0.409767628086  -0.162616053149  
5.73286509514  0.776223561431  0.369504646005  -0.215563661704  -0.136964421865  0.414155322438  -0.164357307189  
5.74095106125  0.760223561431  0.361888187771  -0.211120330222  -0.134141226514  0.405618496852  -0.160969472748  
5.74903297424  0.744223561431  0.354271729537  -0.20667699874  -0.131318031164  0.397081671267  -0.157581638307  
5.75713801384  0.728223561431  0.346655271302  -0.202233667259  -0.128494835813  0.388544845682  -0.154193803867  
5.7652451992  0.712223561431  0.339038813068  -0.197790335777  -0.125671640462  0.380008020097  -0.150805969426  
5.77337002754  0.696223561431  0.331422354834  -0.193347004296  -0.122848445111  0.371471194512  -0.147418134986  
5.78141999245  0.680223561431  0.3238058966  -0.188903672814  -0.12002524976  0.362934368927  -0.144030300545  
5.78962612152  0.664223561431  0.316189438365  -0.184460341332  -0.117202054409  0.354397543342  -0.140642466104  
5.79763007164  0.648223561431  0.308572980131  -0.180017009851  -0.114378859059  0.345860717757  -0.137254631664  
5.80572605133  0.632223561431  0.300956521897  -0.175573678369  -0.111555663708  0.337323892171  -0.133866797223  
5.81381011009  0.616223561431  0.293340063663  -0.171130346888  -0.108732468357  0.328787066586  -0.130478962783  
5.82197618484  0.600223561431  0.285723605428  -0.166687015406  -0.105909273006  0.320250241001  -0.127091128342  
5.82997512817  0.584223561431  0.278107147194  -0.162243683925  -0.103086077655  0.311713415416  -0.123703293901  
5.83808612823  0.568223561431  0.27049068896  -0.157800352443  -0.100262882304  0.303176589831  -0.120315459461  
5.84620308876  0.552223561431  0.262874230726  -0.153357020961  -0.0974396869535  0.294639764246  -0.11692762502  
5.8542599678  0.536223561431  0.255257772491  -0.14891368948  -0.0946164916027  0.286102938661  -0.11353979058  
5.86251401901  0.520223561431  0.247641314257  -0.144470357998  -0.0917932962518  0.277566113076  -0.110151956139  
5.87056112289  0.504223561431  0.240024856023  -0.140027026517  -0.088970100901  0.269029287491  -0.106764121698  
5.87864398956  0.488223561431  0.232408397789  -0.135583695035  -0.0861469055502  0.260492461905  -0.103376287258  
5.88663196564  0.472223561431  0.224791939554  -0.131140363553  -0.0833237101993  0.25195563632  -0.0999884528173  
5.89481210709  0.440223561431  0.209559023086  -0.12225370059  -0.0776773194976  0.23488198515  -0.0932127839361  
5.90281105042  0.424223561431  0.201942564852  -0.117810369109  -0.0748541241468  0.226345159565  -0.0898249494955  
5.91091704369  0.408223561431  0.194326106617  -0.113367037627  -0.072030928796  0.21780833398  -0.0864371150549  
5.91894006729  0.392223561431  0.186709648383  -0.108923706146  -0.0692077334451  0.209271508395  -0.0830492806143  
5.92703318596  0.376223561431  0.179093190149  -0.104480374664  -0.0663845380943  0.20073468281  -0.0796614461737  
5.93512701988  0.360223561431  0.171476731915  -0.100037043182  -0.0635613427435  0.192197857224  -0.0762736117332  
5.94329404831  0.344223561431  0.16386027368  -0.0955937117008  -0.0607381473926  0.183661031639  -0.0728857772926  
5.95139312744  0.328223561431  0.156243815446  -0.0911503802192  -0.0579149520418  0.175124206054  -0.069497942852  
5.95970702171  0.312223561431  0.148627357212  -0.0867070487376  -0.0550917566909  0.166587380469  -0.0661101084114  
5.96767807007  0.296223561431  0.141010898978  -0.082263717256  -0.0522685613401  0.158050554884  -0.0627222739708  
5.97580814362  0.280223561431  0.133394440743  -0.0778203857744  -0.0494453659893  0.149513729299  -0.0593344395302  
5.98385500908  0.264223561431  0.125777982509  -0.0733770542928  -0.0466221706384  0.140976903714  -0.0559466050896  
5.99188303947  0.248223561431  0.118161524275  -0.0689337228112  -0.0437989752876  0.132440078129  -0.052558770649  
6.00003814697  0.232223561431  0.110545066041  -0.0644903913296  -0.0409757799367  0.123903252543  -0.0491709362084  
6.00810217857  0.216223561431  0.102928607806  -0.0600470598481  -0.0381525845859  0.115366426958  -0.0457831017678  
6.01620912552  0.200223561431  0.0953121495722  -0.0556037283665  -0.0353293892351  0.106829601373  -0.0423952673272  
6.02432107925  0.184223561431  0.0876956913379  -0.0511603968849  -0.0325061938842  0.0982927757881  -0.0390074328866  
6.03238296509  0.168223561431  0.0800792331037  -0.0467170654033  -0.0296829985334  0.089755950203  -0.035619598446  
6.04061198235  0.152223561431  0.0724627748694  -0.0422737339217  -0.0268598031826  0.0812191246178  -0.0322317640054  
6.0487241745  0.136223561431  0.0648463166352  -0.0378304024401  -0.0240366078317  0.0726822990327  -0.0288439295648  
6.05671715736  0.120223561431  0.0572298584009  -0.0333870709585  -0.0212134124809  0.0641454734476  -0.0254560951242  
6.06478500366  0.104223561431  0.0496134001667  -0.0289437394769  -0.01839021713  0.0556086478625  -0.0220682606837  
6.07279205322  0.0882235614313  0.0419969419324  -0.0245004079954  -0.0155670217792  0.0470718222774  -0.0186804262431  
6.08083605766  0.0722235614313  0.0343804836982  -0.0200570765138  -0.0127438264284  0.0385349966922  -0.0152925918025  
6.08889198303  0.0562235614313  0.0267640254639  -0.0156137450322  -0.00992063107753  0.0299981711071  -0.0119047573619  
6.09702706337  0.0402235614313  0.0191475672297  -0.0111704135506  -0.00709743572669  0.021461345522  -0.00851692292128  
6.10515999794  0.0242235614313  0.0115311089954  -0.006727082069  -0.00427424037586  0.0129245199369  -0.00512908848068  
6.11320209503  0.00822356143134  0.00391465076116  -0.00228375058742  -0.00145104502502  0.00438769435174  -0.00174125404009  
6.12130904198  0.0  0.0  0.0  0.0  0.0  0.0  
6.12949514389  0.0  0.0  0.0  0.0  0.0  0.0  
6.13764619827  0.0  0.0  0.0  0.0  0.0  0.0  
6.14568018913  0.0  0.0  0.0  0.0  0.0  0.0  
6.15377807617  0.00610691172171  -0.016  0.0148384894001  0.00173201912225  0.00389705544915  -0.00218502185283  
6.16182613373  0.0122138234434  -0.032  0.0296769788002  0.00346403824449  0.00779411089831  -0.00437004370566  
6.16987609863  0.0183207351651  -0.048  0.0445154682003  0.00519605736674  0.0116911663475  -0.00655506555849  
6.17798399925  0.0244276468869  -0.064  0.0593539576004  0.00692807648898  0.0155882217966  -0.00874008741132  
6.18605399132  0.0305345586086  -0.08  0.0741924470005  0.00866009561123  0.0194852772458  -0.0109251092641  
6.19418501854  0.0366414703303  -0.096  0.0890309364006  0.0103921147335  0.0233823326949  -0.013110131117  
6.20230603218  0.042748382052  -0.112  0.103869425801  0.0121241338557  0.0272793881441  -0.0152951529698  
6.21034407616  0.0488552937737  -0.128  0.118707915201  0.013856152978  0.0311764435932  -0.0174801748226  
6.21849012375  0.0549622054954  -0.144  0.133546404601  0.0155881721002  0.0350734990424  -0.0196651966755  
6.22661304474  0.0610691172171  -0.16  0.148384894001  0.0173201912225  0.0389705544915  -0.0218502185283  
6.23476099968  0.0671760289388  -0.176  0.163223383401  0.0190522103447  0.0428676099407  -0.0240352403811  
6.24280714989  0.0732829406606  -0.192  0.178061872801  0.0207842294669  0.0467646653898  -0.026220262234  
6.25085997581  0.0793898523823  -0.208  0.192900362201  0.0225162485892  0.050661720839  -0.0284052840868  
6.25889110565  0.085496764104  -0.224  0.207738851601  0.0242482677114  0.0545587762881  -0.0305903059396  
6.26696515083  0.0916036758257  -0.24  0.222577341002  0.0259802868337  0.0584558317373  -0.0327753277924  
6.27505016327  0.0977105875474  -0.256  0.237415830402  0.0277123059559  0.0623528871864  -0.0349603496453  
6.28322005272  0.103817499269  -0.272  0.252254319802  0.0294443250782  0.0662499426356  -0.0371453714981  
6.29122614861  0.109924410991  -0.288  0.267092809202  0.0311763442004  0.0701469980847  -0.0393303933509  
6.29933714867  0.116031322713  -0.304  0.281931298602  0.0329083633227  0.0740440535339  -0.0415154152038  
6.30750608444  0.122138234434  -0.32  0.296769788002  0.0346403824449  0.0779411089831  -0.0437004370566  
6.31562805176  0.128245146156  -0.336  0.311608277402  0.0363724015671  0.0818381644322  -0.0458854589094  
6.32364916801  0.134352057878  -0.352  0.326446766802  0.0381044206894  0.0857352198814  -0.0480704807622  
6.33183717728  0.140458969599  -0.368  0.341285256202  0.0398364398116  0.0896322753305  -0.0502555026151  
6.33983016014  0.146565881321  -0.384  0.356123745603  0.0415684589339  0.0935293307797  -0.0524405244679  
6.34788298607  0.152672793043  -0.4  0.370962235003  0.0433004780561  0.0974263862288  -0.0546255463207  
6.35593318939  0.158779704765  -0.416  0.385800724403  0.0450324971784  0.101323441678  -0.0568105681736  
6.36410808563  0.164886616486  -0.432  0.400639213803  0.0467645163006  0.105220497127  -0.0589955900264  
6.3721780777  0.170993528208  -0.448  0.415477703203  0.0484965354229  0.109117552576  -0.0611806118792  
6.38018608093  0.17710043993  -0.464  0.430316192603  0.0502285545451  0.113014608025  -0.0633656337321  
6.38829708099  0.183207351651  -0.48  0.445154682003  0.0519605736674  0.116911663475  -0.0655506555849  
6.39633798599  0.189314263373  -0.496  0.459993171403  0.0536925927896  0.120808718924  -0.0677356774377  
6.4045779705  0.195421175095  -0.512  0.474831660803  0.0554246119118  0.124705774373  -0.0699206992905  
6.41259217262  0.201528086817  -0.528  0.489670150204  0.0571566310341  0.128602829822  -0.0721057211434  
6.42072916031  0.207634998538  -0.544  0.504508639604  0.0588886501563  0.132499885271  -0.0742907429962  
6.42866802216  0.21374191026  -0.56  0.519347129004  0.0606206692786  0.13639694072  -0.076475764849  
6.43685698509  0.219848821982  -0.576  0.534185618404  0.0623526884008  0.140293996169  -0.0786607867019  
6.44482016563  0.225955733703  -0.592  0.549024107804  0.0640847075231  0.144191051619  -0.0808458085547  
6.45293807983  0.232062645425  -0.608  0.563862597204  0.0658167266453  0.148088107068  -0.0830308304075  
6.46099615097  0.238169557147  -0.624  0.578701086604  0.0675487457676  0.151985162517  -0.0852158522604  
6.4691400528  0.244276468869  -0.64  0.593539576004  0.0692807648898  0.155882217966  -0.0874008741132  
6.47725605965  0.25038338059  -0.656  0.608378065404  0.071012784012  0.159779273415  -0.089585895966  
6.48536705971  0.256490292312  -0.672  0.623216554804  0.0727448031343  0.163676328864  -0.0917709178188  
6.49360609055  0.262597204034  -0.688  0.638055044205  0.0744768222565  0.167573384314  -0.0939559396717  
6.5016310215  0.268704115755  -0.704  0.652893533605  0.0762088413788  0.171470439763  -0.0961409615245  
6.50972700119  0.274811027477  -0.72  0.667732023005  0.077940860501  0.175367495212  -0.0983259833773  
6.51781201363  0.280917939199  -0.736  0.682570512405  0.0796728796233  0.179264550661  -0.10051100523  
6.52594399452  0.28702485092  -0.752  0.697409001805  0.0814048987455  0.18316160611  -0.102696027083  
6.53397107124  0.293131762642  -0.768  0.712247491205  0.0831369178678  0.187058661559  -0.104881048936  
6.54205513  0.298958282085  -0.783265377221  0.726404687335  0.0847894131962  0.190776787902  -0.106965747862  
6.55016803741  0.292851370363  -0.767265377221  0.711566197935  0.0830573940739  0.186879732453  -0.104780726009  
6.55831718445  0.286744458642  -0.751265377221  0.696727708535  0.0813253749517  0.182982677004  -0.102595704156  
6.56635499001  0.28063754692  -0.735265377221  0.681889219135  0.0795933558294  0.179085621554  -0.100410682303  
6.57459211349  0.274530635198  -0.719265377221  0.667050729734  0.0778613367072  0.175188566105  -0.0982256604507  
6.5827460289  0.262316811755  -0.687265377221  0.637373750934  0.0743972984627  0.167394455207  -0.093855616745  
6.59085297585  0.256209900033  -0.671265377221  0.622535261534  0.0726652793404  0.163497399758  -0.0916705948922  
6.59880805016  0.250102988311  -0.655265377221  0.607696772134  0.0709332602182  0.159600344309  -0.0894855730393  
6.60688209534  0.24399607659  -0.639265377221  0.592858282734  0.0692012410959  0.155703288859  -0.0873005511865  
6.61502099037  0.237889164868  -0.623265377221  0.578019793334  0.0674692219737  0.15180623341  -0.0851155293337  
6.62311911583  0.231782253146  -0.607265377221  0.563181303934  0.0657372028515  0.147909177961  -0.0829305074809  
6.63123011589  0.225675341424  -0.591265377221  0.548342814534  0.0640051837292  0.144012122512  -0.080745485628  
6.63927006721  0.219568429703  -0.575265377221  0.533504325133  0.062273164607  0.140115067063  -0.0785604637752  
6.64736413956  0.213461517981  -0.559265377221  0.518665835733  0.0605411454847  0.136218011614  -0.0763754419224  
6.65541815758  0.207354606259  -0.543265377221  0.503827346333  0.0588091263625  0.132320956165  -0.0741904200695  
6.66363406181  0.201247694538  -0.527265377221  0.488988856933  0.0570771072402  0.128423900715  -0.0720053982167  
6.67168712616  0.195140782816  -0.511265377221  0.474150367533  0.055345088118  0.124526845266  -0.0698203763639  
6.679708004  0.189033871094  -0.495265377221  0.459311878133  0.0536130689957  0.120629789817  -0.067635354511  
6.68789315224  0.182926959372  -0.479265377221  0.444473388733  0.0518810498735  0.116732734368  -0.0654503326582  
6.69593596458  0.176820047651  -0.463265377221  0.429634899333  0.0501490307513  0.112835678919  -0.0632653108054  
6.70402312279  0.170713135929  -0.447265377221  0.414796409933  0.048417011629  0.10893862347  -0.0610802889526  
6.71211218834  0.164606224207  -0.431265377221  0.399957920532  0.0466849925068  0.105041568021  -0.0588952670997  
6.72021317482  0.158499312486  -0.415265377221  0.385119431132  0.0449529733845  0.101144512571  -0.0567102452469  
6.72831511497  0.152392400764  -0.399265377221  0.370280941732  0.0432209542623  0.0972474571222  -0.0545252233941  
6.73639917374  0.146285489042  -0.383265377221  0.355442452332  0.04148893514  0.0933504016731  -0.0523402015412  
6.74443507195  0.14017857732  -0.367265377221  0.340603962932  0.0397569160178  0.0894533462239  -0.0501551796884  
6.75262308121  0.134071665599  -0.351265377221  0.325765473532  0.0380248968955  0.0855562907747  -0.0479701578356  
6.76059412956  0.127964753877  -0.335265377221  0.310926984132  0.0362928777733  0.0816592353256  -0.0457851359828  
6.76868009567  0.121857842155  -0.319265377221  0.296088494732  0.034560858651  0.0777621798764  -0.0436001141299  
6.77674412727  0.115750930434  -0.303265377221  0.281250005332  0.0328288395288  0.0738651244273  -0.0414150922771  
6.78494405746  0.109644018712  -0.287265377221  0.266411515932  0.0310968204066  0.0699680689781  -0.0392300704243  
6.79292297363  0.10353710699  -0.271265377221  0.251573026531  0.0293648012843  0.066071013529  -0.0370450485714  
6.80097818375  0.0974301952685  -0.255265377221  0.236734537131  0.0276327821621  0.0621739580798  -0.0348600267186  
6.80906701088  0.0913232835468  -0.239265377221  0.221896047731  0.0259007630398  0.0582769026307  -0.0326750048658  
6.81721496582  0.085216371825  -0.223265377221  0.207057558331  0.0241687439176  0.0543798471815  -0.0304899830129  
6.82527208328  0.0791094601033  -0.207265377221  0.192219068931  0.0224367247953  0.0504827917324  -0.0283049611601  
6.83343315125  0.0730025483816  -0.191265377221  0.177380579531  0.0207047056731  0.0465857362832  -0.0261199393073  
6.84165501595  0.0668956366599  -0.175265377221  0.162542090131  0.0189726865508  0.0426886808341  -0.0239349174545  
6.84964203835  0.0607887249382  -0.159265377221  0.147703600731  0.0172406674286  0.0387916253849  -0.0217498956016  
6.85766100883  0.0546818132165  -0.143265377221  0.132865111331  0.0155086483064  0.0348945699358  -0.0195648737488  
6.86580014229  0.0485749014948  -0.127265377221  0.11802662193  0.0137766291841  0.0309975144866  -0.017379851896  
6.87385106087  0.0424679897731  -0.111265377221  0.10318813253  0.0120446100619  0.0271004590375  -0.0151948300431  
6.88190102577  0.0363610780513  -0.0952653772206  0.0883496431303  0.0103125909396  0.0232034035883  -0.0130098081903  
6.89004015923  0.0302541663296  -0.0792653772206  0.0735111537302  0.00858057181737  0.0193063481392  -0.0108247863375  
6.89809703827  0.0241472546079  -0.0632653772206  0.0586726643301  0.00684855269513  0.01540929269  -0.00863976448465  
6.90622115135  0.0180403428862  -0.0472653772206  0.0438341749299  0.00511653357288  0.0115122372408  -0.00645474263182  
6.91437911987  0.0119334311645  -0.0312653772206  0.0289956855298  0.00338451445064  0.0076151817917  -0.00426972077899  
6.92260503769  0.00582651944278  -0.0152653772206  0.0141571961297  0.00165249532839  0.00371812634254  -0.00208469892616  
6.93072199821  0.0  0.0  0.0  0.0  0.0  0.0  
6.9388229847  0.0  0.0  0.0  0.0  0.0  0.0  
6.94677615166  0.0  0.0  0.0  0.0  0.0  0.0  
6.95491218567  0.0  0.0  0.0  0.0  0.0  0.0  
6.96295714378  0.0145060758739  -0.016  0.014292915511  0.00124407692396  0.00611059706961  -0.00169779250286  
6.97102808952  0.0290121517478  -0.032  0.028585831022  0.00248815384793  0.0122211941392  -0.00339558500572  
6.97910618782  0.0435182276217  -0.048  0.042878746533  0.00373223077189  0.0183317912088  -0.00509337750858  
6.98718810081  0.0580243034956  -0.064  0.057171662044  0.00497630769585  0.0244423882784  -0.00679117001144  
6.9953250885  0.0725303793695  -0.08  0.071464577555  0.00622038461981  0.030552985348  -0.0084889625143  
7.00360608101  0.0870364552433  -0.096  0.085757493066  0.00746446154378  0.0366635824176  -0.0101867550172  
7.01149606705  0.101542531117  -0.112  0.100050408577  0.00870853846774  0.0427741794873  -0.01188454752  
7.01952314377  0.116048606991  -0.128  0.114343324088  0.0099526153917  0.0488847765569  -0.0135823400229  
7.0277261734  0.130554682865  -0.144  0.128636239599  0.0111966923157  0.0549953736265  -0.0152801325257  
7.03574800491  0.145060758739  -0.16  0.14292915511  0.0124407692396  0.0611059706961  -0.0169779250286  
7.04382300377  0.159566834613  -0.176  0.157222070621  0.0136848461636  0.0672165677657  -0.0186757175315  
7.05186510086  0.174072910487  -0.192  0.171514986132  0.0149289230876  0.0733271648353  -0.0203735100343  
7.05990505219  0.188578986361  -0.208  0.185807901643  0.0161730000115  0.0794377619049  -0.0220713025372  
7.06803417206  0.203085062234  -0.224  0.200100817154  0.0174170769355  0.0855483589745  -0.0237690950401  
7.07605814934  0.217591138108  -0.24  0.214393732665  0.0186611538594  0.0916589560441  -0.0254668875429  
7.08416199684  0.232097213982  -0.256  0.228686648176  0.0199052307834  0.0977695531137  -0.0271646800458  
7.09224820137  0.246603289856  -0.272  0.242979563687  0.0211493077074  0.103880150183  -0.0288624725486  
7.10036897659  0.26110936573  -0.288  0.257272479198  0.0223933846313  0.109990747253  -0.0305602650515  
7.10845208168  0.275615441604  -0.304  0.271565394709  0.0236374615553  0.116101344323  -0.0322580575544  
7.11669802666  0.290121517478  -0.32  0.28585831022  0.0248815384793  0.122211941392  -0.0339558500572  
7.12469911575  0.304627593352  -0.336  0.300151225731  0.0261256154032  0.128322538462  -0.0356536425601  
7.13273215294  0.319133669226  -0.352  0.314444141242  0.0273696923272  0.134433135531  -0.0373514350629  
7.14077615738  0.333639745099  -0.368  0.328737056753  0.0286137692511  0.140543732601  -0.0390492275658  
7.14887309074  0.348145820973  -0.384  0.343029972264  0.0298578461751  0.146654329671  -0.0407470200687  
7.15703701973  0.362651896847  -0.4  0.357322887775  0.0311019230991  0.15276492674  -0.0424448125715  
7.16502904892  0.377157972721  -0.416  0.371615803286  0.032346000023  0.15887552381  -0.0441426050744  
7.17310714722  0.391664048595  -0.432  0.385908718797  0.033590076947  0.164986120879  -0.0458403975772  
7.18126296997  0.406170124469  -0.448  0.400201634308  0.034834153871  0.171096717949  -0.0475381900801  
7.18930315971  0.420676200343  -0.464  0.414494549819  0.0360782307949  0.177207315019  -0.049235982583  
7.197453022  0.435182276217  -0.48  0.42878746533  0.0373223077189  0.183317912088  -0.0509337750858  
7.20567917824  0.449688352091  -0.496  0.443080380841  0.0385663846428  0.189428509158  -0.0526315675887  
7.21365499496  0.464194427965  -0.512  0.457373296352  0.0398104615668  0.195539106227  -0.0543293600915  
7.22177910805  0.478700503838  -0.528  0.471666211863  0.0410545384908  0.201649703297  -0.0560271525944  
7.22983598709  0.493206579712  -0.544  0.485959127374  0.0422986154147  0.207760300367  -0.0577249450973  
7.2380001545  0.507712655586  -0.56  0.500252042885  0.0435426923387  0.213870897436  -0.0594227376001  
7.24605917931  0.52221873146  -0.576  0.514544958396  0.0447867692627  0.219981494506  -0.061120530103  
7.2541000843  0.536724807334  -0.592  0.528837873907  0.0460308461866  0.226092091575  -0.0628183226059  
7.26217699051  0.551230883208  -0.608  0.543130789418  0.0472749231106  0.232202688645  -0.0645161151087  
7.2702729702  0.565736959082  -0.624  0.557423704929  0.0485190000345  0.238313285715  -0.0662139076116  
7.27834510803  0.580243034956  -0.64  0.57171662044  0.0497630769585  0.244423882784  -0.0679117001144  
7.28656697273  0.59474911083  -0.656  0.586009535951  0.0510071538825  0.250534479854  -0.0696094926173  
7.29465913773  0.623761262577  -0.688  0.614595366973  0.0534953077304  0.262755673993  -0.073005077623  
7.30268907547  0.638267338451  -0.704  0.628888282484  0.0547393846544  0.268866271063  -0.0747028701259  
7.31083917618  0.652773414325  -0.72  0.643181197995  0.0559834615783  0.274976868132  -0.0764006626287  
7.31891012192  0.667279490199  -0.736  0.657474113506  0.0572275385023  0.281087465202  -0.0780984551316  
7.32697415352  0.673917188128  -0.743321288526  0.664014273402  0.0577968038841  0.283883555465  -0.0788753319298  
7.33500504494  0.659411112254  -0.727321288526  0.649721357891  0.0565527269602  0.277772958396  -0.077177539427  
7.34311819077  0.64490503638  -0.711321288526  0.63542844238  0.0553086500362  0.271662361326  -0.0754797469241  
7.35120105743  0.630398960506  -0.695321288526  0.621135526869  0.0540645731122  0.265551764257  -0.0737819544212  
7.35931015015  0.615892884632  -0.679321288526  0.606842611358  0.0528204961883  0.259441167187  -0.0720841619184  
7.36735606194  0.601386808758  -0.663321288526  0.592549695847  0.0515764192643  0.253330570117  -0.0703863694155  
7.3755710125  0.586880732884  -0.647321288526  0.578256780336  0.0503323423403  0.247219973048  -0.0686885769127  
7.38361215591  0.57237465701  -0.631321288526  0.563963864825  0.0490882654164  0.241109375978  -0.0669907844098  
7.39166808128  0.557868581137  -0.615321288526  0.549670949314  0.0478441884924  0.234998778909  -0.0652929919069  
7.39976501465  0.543362505263  -0.599321288526  0.535378033803  0.0466001115685  0.228888181839  -0.0635951994041  
7.40790915489  0.528856429389  -0.583321288526  0.521085118292  0.0453560346445  0.222777584769  -0.0618974069012  
7.41598320007  0.514350353515  -0.567321288526  0.506792202781  0.0441119577205  0.2166669877  -0.0601996143983  
7.42392897606  0.499844277641  -0.551321288526  0.49249928727  0.0428678807966  0.21055639063  -0.0585018218955  
7.43198513985  0.485338201767  -0.535321288526  0.478206371759  0.0416238038726  0.204445793561  -0.0568040293926  
7.44012117386  0.470832125893  -0.519321288526  0.463913456248  0.0403797269486  0.198335196491  -0.0551062368898  
7.44815015793  0.456326050019  -0.503321288526  0.449620540737  0.0391356500247  0.192224599421  -0.0534084443869  
7.45628404617  0.441819974145  -0.487321288526  0.435327625226  0.0378915731007  0.186114002352  -0.051710651884  
7.46435499191  0.427313898272  -0.471321288526  0.421034709715  0.0366474961768  0.180003405282  -0.0500128593812  
7.47263908386  0.412807822398  -0.455321288526  0.406741794204  0.0354034192528  0.173892808212  -0.0483150668783  
7.48072910309  0.398301746524  -0.439321288526  0.392448878693  0.0341593423288  0.167782211143  -0.0466172743755  
7.4886879921  0.38379567065  -0.423321288526  0.378155963182  0.0329152654049  0.161671614073  -0.0449194818726  
7.49676609039  0.369289594776  -0.407321288526  0.363863047671  0.0316711884809  0.155561017004  -0.0432216893697  
7.50479006767  0.354783518902  -0.391321288526  0.34957013216  0.0304271115569  0.149450419934  -0.0415238968669  
7.51289606094  0.340277443028  -0.375321288526  0.335277216649  0.029183034633  0.143339822864  -0.039826104364  
7.52097916603  0.325771367154  -0.359321288526  0.320984301138  0.027938957709  0.137229225795  -0.0381283118612  
7.52915215492  0.31126529128  -0.343321288526  0.306691385627  0.0266948807851  0.131118628725  -0.0364305193583  
7.5372171402  0.296759215407  -0.327321288526  0.292398470116  0.0254508038611  0.125008031656  -0.0347327268554  
7.54531598091  0.282253139533  -0.311321288526  0.278105554605  0.0242067269371  0.118897434586  -0.0330349343526  
7.55338215828  0.267747063659  -0.295321288526  0.263812639094  0.0229626500132  0.112786837516  -0.0313371418497  
7.56147313118  0.253240987785  -0.279321288526  0.249519723583  0.0217185730892  0.106676240447  -0.0296393493469  
7.5697081089  0.238734911911  -0.263321288526  0.235226808072  0.0204744961652  0.100565643377  -0.027941556844  
7.57769608498  0.224228836037  -0.247321288526  0.220933892561  0.0192304192413  0.0944550463076  -0.0262437643411  
7.58574819565  0.209722760163  -0.231321288526  0.20664097705  0.0179863423173  0.088344449238  -0.0245459718383  
7.59393215179  0.195216684289  -0.215321288526  0.192348061539  0.0167422653934  0.0822338521684  -0.0228481793354  
7.60191512108  0.180710608415  -0.199321288526  0.178055146028  0.0154981884694  0.0761232550988  -0.0211503868325  
7.61001420021  0.166204532542  -0.183321288526  0.163762230517  0.0142541115454  0.0700126580292  -0.0194525943297  
7.61812710762  0.151698456668  -0.167321288526  0.149469315006  0.0130100346215  0.0639020609595  -0.0177548018268  
7.62625312805  0.137192380794  -0.151321288526  0.135176399495  0.0117659576975  0.0577914638899  -0.016057009324  
7.63434815407  0.12268630492  -0.135321288526  0.120883483984  0.0105218807735  0.0516808668203  -0.0143592168211  
7.6424510479  0.108180229046  -0.119321288526  0.106590568473  0.00927780384958  0.0455702697507  -0.0126614243182  
7.65067410469  0.0936741531721  -0.103321288526  0.0922976529622  0.00803372692562  0.0394596726811  -0.0109636318154  
7.65871119499  0.0791680772982  -0.0873212885265  0.0780047374512  0.00678965000165  0.0333490756115  -0.00926583931252  
7.66666102409  0.0646620014243  -0.0713212885265  0.0637118219403  0.00554557307769  0.0272384785419  -0.00756804680966  
7.67474412918  0.0501559255504  -0.0553212885265  0.0494189064293  0.00430149615373  0.0211278814723  -0.0058702543068  
7.68280100822  0.0356498496765  -0.0393212885265  0.0351259909183  0.00305741922976  0.0150172844027  -0.00417246180394  
7.6909070015  0.0211437738026  -0.0233212885265  0.0208330754073  0.0018133423058  0.00890668733308  -0.00247466930108  
7.69896912575  0.00663769792871  -0.00732128852645  0.00654015989626  0.000569265381839  0.00279609026347  -0.000776876798218  
7.70809912682  0.0  0.0  0.0  0.0  0.0  0.0  
7.71603298187  0.0  0.0  0.0  0.0  0.0  0.0  
7.72424912453  0.0  0.0  0.0  0.0  0.0  0.0  
7.73229598999  0.0  0.0  0.0  0.0  0.0  0.0  
7.74028015137  0.016  0.00633737874725  -0.00485820234983  -0.00376352005202  0.00730566142905  -0.004383394793  
7.7483921051  0.032  0.0126747574945  -0.00971640469966  -0.00752704010405  0.0146113228581  -0.00876678958601  
7.75654101372  0.048  0.0190121362418  -0.0145746070495  -0.0112905601561  0.0219169842871  -0.013150184379  
7.7645740509  0.064  0.025349514989  -0.0194328093993  -0.0150540802081  0.0292226457162  -0.017533579172  
7.77265715599  0.08  0.0316868937363  -0.0242910117492  -0.0188176002601  0.0365283071452  -0.021916973965  
7.78077101707  0.096  0.0380242724835  -0.029149214099  -0.0225811203121  0.0438339685743  -0.026300368758  
7.78884100914  0.112  0.0443616512308  -0.0340074164488  -0.0263446403642  0.0511396300033  -0.030683763551  
7.79690217972  0.128  0.050699029978  -0.0388656187987  -0.0301081604162  0.0584452914324  -0.035067158344  
7.80502820015  0.144  0.0570364087253  -0.0437238211485  -0.0338716804682  0.0657509528614  -0.039450553137  
