Ethan-CYM/ros_catkin_ws/test/moveJ_正常操作/ur_joint_actual_degree.txt
time  shoulder_pan_joint  shoulder_lift_joint  elbow_joint  wrist_1_joint  wrist_2_joint  wrist_3_joint
0.146002054214  1.57003688812  -1.22108680407  2.09331321716  -3.15242845217  -1.57080489794  -0.0846813360797  
0.154096126556  1.57002484798  -1.221098725  2.09333705902  -3.15240461031  -1.57099658648  -0.0846932570087  
0.162184000015  1.57000088692  -1.221098725  2.09331321716  -3.15240461031  -1.57116395632  -0.0846813360797  
0.170269966125  1.57000088692  -1.22113448778  2.09334897995  -3.15241653124  -1.57108050982  -0.0847175757038  
0.178356170654  1.57003688812  -1.221098725  2.09338521957  -3.15241653124  -1.57109243075  -0.0846813360797  
0.186439037323  1.57001292706  -1.22108680407  2.0933971405  -3.15240461031  -1.57096082369  -0.0846932570087  
0.194532155991  1.56998896599  -1.22112256685  2.09336090088  -3.15240461031  -1.57093650499  -0.0846694151508  
0.202617168427  1.57003688812  -1.22107488314  2.09331321716  -3.15238076845  -1.57094842592  -0.0846694151508  
0.210703134537  1.57003688812  -1.22111064592  2.09336090088  -3.15244084993  -1.57090074221  -0.0846813360797  
0.218820095062  1.57002484798  -1.221098725  2.09334897995  -3.15241653124  -1.57066089312  -0.0846694151508  
0.226919174194  1.57003688812  -1.22107488314  2.09334897995  -3.15239268938  -1.57052928606  -0.0846694151508  
0.234991073608  1.57001292706  -1.22108680407  2.09334897995  -3.15238076845  -1.57056504885  -0.0846813360797  
0.2431640625  1.57004880905  -1.22107488314  2.0933971405  -3.15240461031  -1.57062513033  -0.0846932570087  
0.251245975494  1.57000088692  -1.22108680407  2.09334897995  -3.15240461031  -1.57067281405  -0.0846455732929  
0.259366989136  1.57003688812  -1.22108680407  2.09334897995  -3.15239268938  -1.57069713274  -0.0846694151508  
0.267454147339  1.57001292706  -1.22108680407  2.09333705902  -3.15239268938  -1.57070905367  -0.0846694151508  
0.275537967682  1.57003688812  -1.22111064592  2.09337282181  -3.15238076845  -1.57068473497  -0.0844538847553  
0.28359913826  1.57002484798  -1.221098725  2.09334897995  -3.15230876604  -1.5707209746  -0.0841539541828  
0.291728019714  1.57000088692  -1.22111064592  2.09337282181  -3.15220100084  -1.57073289553  -0.0836866537677  
0.299849033356  1.57000088692  -1.221098725  2.0933971405  -3.15230876604  -1.57074481646  -0.0831468741046  
0.307912111282  1.57000088692  -1.22108680407  2.09334897995  -3.15227300326  -1.57074481646  -0.0824874083148  
0.316001176834  1.57000088692  -1.22112256685  2.09333705902  -3.15212899843  -1.57070905367  -0.0816476980792  
0.324109077454  1.57003688812  -1.221098725  2.09333705902  -3.15223676363  -1.5707209746  -0.0807603041278  
0.332154035568  1.56998896599  -1.221098725  2.09338521957  -3.15206891695  -1.57075673739  -0.0797169844257  
0.340240001678  1.57004880905  -1.22108680407  2.09331321716  -3.15215284029  -1.5707209746  -0.0785663763629  
0.348301172256  1.57004880905  -1.22107488314  2.09338521957  -3.15208131472  -1.5707209746  -0.0773189703571  
0.356387138367  1.56997692585  -1.22108680407  2.09336090088  -3.15192538897  -1.5707209746  -0.0758083502399  
0.364474058151  1.57001292706  -1.22111064592  2.09331321716  -3.15200931231  -1.5707209746  -0.0742610136615  
0.372558116913  1.57003688812  -1.22107488314  2.09334897995  -3.15192538897  -1.57070905367  -0.0724986235248  
0.38067817688  1.57003688812  -1.22112256685  2.09338521957  -3.15176946322  -1.57076865831  -0.0706041494953  
0.388789176941  1.57002484798  -1.22108680407  2.09333705902  -3.15170938173  -1.57075673739  -0.0685771147357  
0.396851062775  1.57001292706  -1.22108680407  2.09334897995  -3.15160161654  -1.5707209746  -0.0664790312396  
0.404944181442  1.57000088692  -1.22108680407  2.09336090088  -3.15158969561  -1.57074481646  -0.0645125547992  
0.413009166718  1.57001292706  -1.22107488314  2.09334897995  -3.15148193041  -1.57075673739  -0.0626776854144  
0.421109199524  1.57000088692  -1.22111064592  2.09333705902  -3.15154201189  -1.57073289553  -0.0609748999225  
0.429172992706  1.57003688812  -1.22107488314  2.09334897995  -3.151409928  -1.57076865831  -0.0594280401813  
0.437257051468  1.57001292706  -1.22108680407  2.09336090088  -3.15142184893  -1.57073289553  -0.0580127874957  
0.445352077484  1.57004880905  -1.22107488314  2.09334897995  -3.15129024187  -1.57074481646  -0.056729618703  
0.453449010849  1.57000088692  -1.22108680407  2.09338521957  -3.15132600466  -1.57074481646  -0.0555909315692  
0.461534976959  1.57003688812  -1.22108680407  2.09331321716  -3.15114671389  -1.57074481646  -0.0546553770648  
0.469629049301  1.56997692585  -1.22112256685  2.09331321716  -3.15129024187  -1.57076865831  -0.0538161436664  
0.477748155594  1.57007277012  -1.22111064592  2.09334897995  -3.15107471148  -1.57075673739  -0.0531085173236  
0.485886096954  1.57001292706  -1.221098725  2.09336090088  -3.15133792559  -1.57074481646  -0.0524852911579  
0.49401807785  1.57000088692  -1.22114688555  2.09333705902  -3.15103894869  -1.57076865831  -0.0520418326007  
0.502084970474  1.57001292706  -1.22112256685  2.09337282181  -3.15120679537  -1.57073289553  -0.0517776648151  
0.510147094727  1.57001292706  -1.22107488314  2.09338521957  -3.15107471148  -1.57075673739  -0.0516098181354  
0.518231153488  1.57001292706  -1.22106296221  2.09334897995  -3.15109903017  -1.57073289553  -0.0516217390644  
0.526342153549  1.57001292706  -1.221098725  2.0933971405  -3.15106279055  -1.57075673739  -0.0516579786884  
0.534442186356  1.56995296478  -1.22107488314  2.09330129623  -3.15114671389  -1.57074481646  -0.051837746297  
0.542504072189  1.57003688812  -1.22107488314  2.09332513809  -3.1511109511  -1.57073289553  -0.051837746297  
0.550602197647  1.57003688812  -1.22107488314  2.0933971405  -3.15109903017  -1.57075673739  -0.0520299116718  
0.558688163757  1.57004880905  -1.221098725  2.09332513809  -3.1511109511  -1.5707209746  -0.0522936026203  
0.566750049591  1.57002484798  -1.22108680407  2.09337282181  -3.15114671389  -1.57073289553  -0.0527370611774  
0.574810028076  1.57001292706  -1.22107488314  2.09333705902  -3.15113479296  -1.57074481646  -0.0532649199115  
0.582895040512  1.57000088692  -1.22111064592  2.09334897995  -3.15117055575  -1.57070905367  -0.0539239088642  
0.590986013412  1.57001292706  -1.221098725  2.09337282181  -3.15117055575  -1.57078105608  -0.0547035376178  
0.599094152451  1.57001292706  -1.22107488314  2.09332513809  -3.15118247667  -1.57073289553  -0.0555666128742  
0.607159137726  1.57000088692  -1.221098725  2.09333705902  -3.15124255816  -1.5707209746  -0.0566580931293  
0.615270137787  1.57001292706  -1.22106296221  2.0933971405  -3.15123063723  -1.57075673739  -0.0578330198871  
0.623358011246  1.57003688812  -1.221098725  2.09336090088  -3.15126640001  -1.57073289553  -0.0591638723957  
0.631478071213  1.56996500492  -1.22107488314  2.09332513809  -3.15132600466  -1.5707209746  -0.060663048421  
0.639568090439  1.57000088692  -1.22107488314  2.09336090088  -3.15123063723  -1.57073289553  -0.0622819105731  
0.647655010223  1.57000088692  -1.22108680407  2.09328889847  -3.15145808855  -1.57073289553  -0.064056698476  
0.655714988708  1.57004880905  -1.22108680407  2.09333705902  -3.15135032335  -1.57075673739  -0.0659630934345  
0.663844108582  1.57000088692  -1.22107488314  2.09332513809  -3.15139800707  -1.57073289553  -0.0680497328388  
0.671929121017  1.57001292706  -1.22108680407  2.09334897995  -3.15148193041  -1.57074481646  -0.0702441374408  
0.680016994476  1.57004880905  -1.22111064592  2.09336090088  -3.15142184893  -1.57078105608  -0.0724986235248  
0.688107013702  1.57004880905  -1.22106296221  2.09331321716  -3.15166169802  -1.5707209746  -0.0747888723957  
0.696216106415  1.57002484798  -1.22108680407  2.09331321716  -3.15149385134  -1.57073289553  -0.0768874327289  
0.704302072525  1.57001292706  -1.221098725  2.09338521957  -3.15176946322  -1.57074481646  -0.0788543860065  
0.712422132492  1.57002484798  -1.22106296221  2.0933971405  -3.15164977709  -1.5707209746  -0.0806043783771  
0.720544099808  1.57003688812  -1.22106296221  2.09338521957  -3.15175754229  -1.5707209746  -0.0822232405292  
0.728662967682  1.57003688812  -1.22107488314  2.09333705902  -3.15173370043  -1.57073289553  -0.0838783423053  
0.73676109314  1.57002484798  -1.22111064592  2.09332513809  -3.15176946322  -1.57074481646  -0.0853408018695  
0.744891166687  1.57003688812  -1.22112256685  2.09337282181  -3.15179330507  -1.57073289553  -0.0866478125202  
0.752989053726  1.57000088692  -1.22106296221  2.09336090088  -3.15185338656  -1.5707209746  -0.087955300008  
0.76113319397  1.57002484798  -1.22107488314  2.0933971405  -3.15187722841  -1.57073289553  -0.088974301015  
0.769230127335  1.57007277012  -1.22103912035  2.09333705902  -3.15184146563  -1.57075673739  -0.0900300184833  
0.77735209465  1.57001292706  -1.22111064592  2.09331321716  -3.15194923082  -1.57074481646  -0.0907490889179  
0.78547501564  1.57000088692  -1.22108680407  2.09333705902  -3.15181762377  -1.57073289553  -0.0914686361896  
0.793572187424  1.57006084919  -1.22106296221  2.09333705902  -3.15206891695  -1.57076865831  -0.0920441786395  
0.801675081253  1.57003688812  -1.22108680407  2.09332513809  -3.1518295447  -1.5707209746  -0.0924881140338  
0.809787034988  1.57002484798  -1.22106296221  2.09334897995  -3.15208131472  -1.57075673739  -0.0927637259113  
0.817923069  1.57003688812  -1.22112256685  2.09336090088  -3.15187722841  -1.57074481646  -0.092955891286  
0.826019048691  1.57000088692  -1.22106296221  2.09337282181  -3.15206891695  -1.57075673739  -0.0929320494281  
0.834107160568  1.57003688812  -1.22108680407  2.09337282181  -3.15184146563  -1.57075673739  -0.092883412038  
0.842233181  1.57003688812  -1.22105056444  2.09331321716  -3.15190154711  -1.57070905367  -0.0927756468402  
0.850322008133  1.57000088692  -1.22108680407  2.09331321716  -3.15191346804  -1.57075673739  -0.0927637259113  
0.858412981033  1.57001292706  -1.22107488314  2.09337282181  -3.15190154711  -1.57073289553  -0.0927637259113  
0.866502046585  1.57001292706  -1.22107488314  2.09333705902  -3.15191346804  -1.57080489794  -0.0929797331439  
0.874590158463  1.57000088692  -1.22121841112  2.09336090088  -3.15187722841  -1.57088882128  -0.0932553450214  
0.882703065872  1.57003688812  -1.22137386004  2.09337282181  -3.15190154711  -1.57088882128  -0.0937350432025  
0.890830039978  1.56998896599  -1.22163707415  2.09337282181  -3.15191346804  -1.57096082369  -0.0942390600788  
0.8989610672  1.57001292706  -1.22188884417  2.09337282181  -3.15181762377  -1.57109243075  -0.0949462095844  
0.907034158707  1.57003688812  -1.22222358385  2.09336090088  -3.15173370043  -1.57110435167  -0.095737759267  
0.91513800621  1.57000088692  -1.22265464464  2.09336090088  -3.1517217795  -1.57127172152  -0.0967090765582  
0.923258066177  1.57003688812  -1.22304994265  2.09336090088  -3.15163785616  -1.57128364245  -0.0978000799762  
0.931342124939  1.56998896599  -1.22355252901  2.09334897995  -3.15164977709  -1.57152349154  -0.0990112463581  
0.939450025558  1.56997692585  -1.224091355  2.09337282181  -3.15157777468  -1.57160741488  -0.100438419973  
0.947560071945  1.56995296478  -1.22468978563  2.09337282181  -3.151409928  -1.57189447085  -0.101901356374  
0.955671072006  1.56995296478  -1.22534782091  2.09343338013  -3.151409928  -1.5720503966  -0.103544060384  
0.963759183884  1.56996500492  -1.22605449358  2.09344530106  -3.1512187163  -1.57236177126  -0.105234924947  
0.971857070923  1.56991708279  -1.2267964522  2.09343338013  -3.15123063723  -1.57264930407  -0.107033554708  
0.97995018959  1.56996500492  -1.22758657137  2.0934214592  -3.15097886721  -1.57297259966  -0.108916107808  
0.988044023514  1.56990504265  -1.22849637667  2.09340953827  -3.1509068648  -1.5732720534  -0.110990826284  
0.996152162552  1.56994104385  -1.22933465639  2.09349298477  -3.15059549013  -1.5736673514  -0.113137070333  
1.00425696373  1.56992900372  -1.23032790819  2.09348106384  -3.15051156679  -1.5740626494  -0.115451161061  
1.0123860836  1.56989300251  -1.23135739962  2.09345722198  -3.15014011065  -1.57443410555  -0.117909733449  
1.02050209045  1.56994104385  -1.2324107329  2.09350538254  -3.14996034304  -1.57485324541  -0.120511833821  
1.02858805656  1.56989300251  -1.23352367083  2.09351730347  -3.14967328707  -1.57529575029  -0.123281780873  
1.03669810295  1.56986904144  -1.23469716707  2.0935292244  -3.14942151705  -1.57573920885  -0.126207653676  
1.04478502274  1.56983280182  -1.23595458666  2.09351730347  -3.14919358889  -1.57623035112  -0.129325215017  
1.05288004875  1.56983280182  -1.2372229735  2.09355306625  -3.14890605608  -1.57675725618  -0.132623020803  
1.0609459877  1.56983280182  -1.23851567904  2.0935292244  -3.14857036272  -1.57723647753  -0.13590890566  
1.06902909279  1.56979680061  -1.23995238939  2.09361314774  -3.14825946489  -1.57784730593  -0.139218155538  
1.07714605331  1.56978487968  -1.24132854143  2.09364891052  -3.14796001116  -1.57832652727  -0.142299954091  
1.08525204659  1.56974887848  -1.24271709124  2.09362506866  -3.14772016207  -1.57876950899  -0.145273987447  
1.09331512451  1.56971287727  -1.2440217177  2.09362506866  -3.14750463167  -1.57929689089  -0.148200337087  
1.10140013695  1.56972491741  -1.24513513247  2.09366083145  -3.14719325701  -1.57973987261  -0.151006523763  
1.10949802399  1.56967699528  -1.2462237517  2.09361314774  -3.14688188234  -1.58012324968  -0.153644386922  
1.11760997772  1.56968891621  -1.24721795717  2.09370851517  -3.14660627047  -1.58054238955  -0.156246964131  
1.12570619583  1.56967699528  -1.24817544619  2.09370851517  -3.14639026323  -1.58091336886  -0.158692661916  
1.13383412361  1.56960511208  -1.24909717241  2.09368467331  -3.1461985747  -1.5813091437  -0.161103073751  
1.14195799828  1.56960511208  -1.24999505678  2.09370851517  -3.14605504671  -1.58163196245  -0.163321797048  
1.15013599396  1.56958115101  -1.2508447806  2.0937204361  -3.14583951632  -1.58195573488  -0.165419880544  
1.15819811821  1.56960511208  -1.25159913698  2.0937204361  -3.14571983019  -1.58223086992  -0.167326752339  
1.16629099846  1.56962907314  -1.25235301653  2.09373235703  -3.14550382296  -1.58251840273  -0.169089142476  
1.17438006401  1.56962907314  -1.25302344957  2.09373235703  -3.14542037645  -1.58279449144  -0.170648399984  
1.18248009682  1.56959307194  -1.25370532671  2.09369659424  -3.14524060885  -1.58299762407  -0.172123257314  
1.19055509567  1.56956911087  -1.25423270861  2.09370851517  -3.14513236681  -1.58320123354  -0.173454109822  
1.19864106178  1.5695451498  -1.25517779986  2.0937204361  -3.14485675493  -1.58354837099  -0.17567283312  
1.20672702789  1.56955707073  -1.25557262102  2.09373235703  -3.14485675493  -1.58369189898  -0.176668469106  
1.21481800079  1.56955707073  -1.25591975847  2.09375667572  -3.14470130602  -1.58384782473  -0.177471939717  
1.2229039669  1.56952118874  -1.25626689592  2.09376859665  -3.14472514788  -1.58397943178  -0.178203407918  
1.23096704483  1.56948518753  -1.25647050539  2.09368467331  -3.14470130602  -1.58409959475  -0.178790871297  
1.23910212517  1.56948518753  -1.25666219393  2.09376859665  -3.14459306399  -1.58420735994  -0.179258648549  
1.24720716476  1.56944930553  -1.25678188006  2.09376859665  -3.14465314547  -1.58421928087  -0.179606262838  
1.25529503822  1.56952118874  -1.25688964525  2.09373235703  -3.14464122454  -1.58420735994  -0.179786030446  
1.26341605186  1.56946122646  -1.25692588488  2.09378051758  -3.14450961748  -1.58415919939  -0.179846111928  
1.27152705193  1.56949722767  -1.25687772432  2.09374475479  -3.14476091066  -1.5841234366  -0.179690186177  
1.27962303162  1.56952118874  -1.25684196154  2.09373235703  -3.14456922213  -1.58406335512  -0.179666344319  
1.28770899773  1.56949722767  -1.25680619875  2.09378051758  -3.1446650664  -1.58408767382  -0.179666344319  
1.29584813118  1.5694732666  -1.25679427782  2.09379243851  -3.14462930361  -1.58409959475  -0.179642025624  
1.30391907692  1.56949722767  -1.25683004061  2.09376859665  -3.14461738268  -1.58407527605  -0.179666344319  
1.31201505661  1.56948518753  -1.25681811968  2.09378051758  -3.14442569414  -1.58411151568  -0.179642025624  
1.32009506226  1.5694732666  -1.25706893602  2.0937204361  -3.14410239855  -1.58408767382  -0.179630104695  
1.32816100121  1.5694372654  -1.25742847124  2.09354114532  -3.14364701906  -1.58409959475  -0.179678265248  
1.3362801075  1.5694372654  -1.25793105761  2.09334897995  -3.14306050936  -1.58409959475  -0.179630104695  
1.34437012672  1.56936502457  -1.25855380694  2.0931930542  -3.14242536226  -1.58405143419  -0.179678265248  
1.35248017311  1.5693769455  -1.25930768648  2.09298944473  -3.14164668718  -1.58408767382  -0.179666344319  
1.36054110527  1.56932902336  -1.26013356844  2.09271335602  -3.14073592821  -1.58395558992  -0.179654423391  
1.36862611771  1.56930506229  -1.26110297838  2.09236574173  -3.13969356218  -1.58396751085  -0.179666344319  
1.37671899796  1.56920957565  -1.26215631167  2.0920548439  -3.13848334948  -1.58396751085  -0.179642025624  
1.38480901718  1.56914961338  -1.26331741015  2.09158706665  -3.13715392748  -1.5838359038  -0.179654423391  
1.39294815063  1.56911373138  -1.26463395754  2.09115505219  -3.13564426104  -1.58393174807  -0.179642025624  
1.4009680748  1.56901788712  -1.26607019106  2.09064006805  -3.13411075274  -1.5837281386  -0.179630104695  
1.40903401375  1.56894552708  -1.26762611071  2.09004020691  -3.13241035143  -1.58378774325  -0.179630104695  
1.41713905334  1.56886172295  -1.26924258867  2.0894651413  -3.13048106829  -1.58361989657  -0.179642025624  
1.4252281189  1.56877779961  -1.27099019686  2.08881759644  -3.12856418291  -1.58363181749  -0.179666344319  
1.43332219124  1.5687059164  -1.27291757265  2.08808660507  -3.12646800676  -1.58359605471  -0.179618183767  
1.441437006  1.56858563423  -1.2749636809  2.08742713928  -3.12416774431  -1.58339292208  -0.179690186177  
1.44951915741  1.56847774982  -1.27708274523  2.08659982681  -3.12180740038  -1.58346444765  -0.179630104695  
1.45757913589  1.56835794449  -1.27930909792  2.08585643768  -3.119495217  -1.58324939409  -0.179702107106  
1.46567201614  1.56831002235  -1.2816789786  2.0849814415  -3.1168478171  -1.58338052431  -0.179654423391  
1.47379207611  1.56821382046  -1.28413278261  2.08410644531  -3.11412841478  -1.58310538927  -0.179630104695  
1.48187708855  1.56808197498  -1.28673011461  2.08313512802  -3.11121732393  -1.58318931261  -0.179666344319  
1.48993706703  1.56801009178  -1.28935128847  2.0821762085  -3.10819846789  -1.58298570315  -0.179690186177  
1.49802613258  1.56786620617  -1.29211599032  2.08120536804  -3.10507184664  -1.58293754259  -0.179654423391  
1.50614118576  1.567710042  -1.29495317141  2.08017444611  -3.10184938112  -1.58288985888  -0.179666344319  
1.51420307159  1.56760215759  -1.29794532457  2.07908344269  -3.09842330614  -1.58279449144  -0.179654423391  
1.52229714394  1.56748235226  -1.30109292666  2.07793235779  -3.09490091005  -1.58268624941  -0.179678265248  
1.53037905693  1.56732654572  -1.30442077318  2.07672166824  -3.09113961855  -1.58257848421  -0.179654423391  
1.53848910332  1.56719470024  -1.30779582659  2.07547473907  -3.08744985262  -1.58242255846  -0.179654423391  
1.5466029644  1.56708693504  -1.31141072909  2.07419204712  -3.08349639574  -1.58225518862  -0.179642025624  
1.55471301079  1.56695473194  -1.3150733153  2.07294559479  -3.07937556902  -1.58207542101  -0.179654423391  
1.5628221035  1.56678688526  -1.31884366671  2.07155513763  -3.0752304236  -1.58190805117  -0.179654423391  
1.57094097137  1.5666667223  -1.32263738314  2.0702123642  -3.07102567354  -1.58175212542  -0.179666344319  
1.5790450573  1.56649887562  -1.32634765307  2.06878566742  -3.06697684923  -1.58154851595  -0.179642025624  
1.58709406853  1.56635510921  -1.32987815539  2.06747865677  -3.06313115755  -1.58148891131  -0.179630104695  
1.59518504143  1.56627082825  -1.33327800432  2.06636333466  -3.05938178698  -1.58135682741  -0.179642025624  
1.60327100754  1.5660790205  -1.33652097384  2.06523704529  -3.05578786532  -1.58120090166  -0.179654423391  
1.61138415337  1.56594729424  -1.33962136904  2.06413412094  -3.05227786699  -1.58105737368  -0.179630104695  
1.61950707436  1.56582701206  -1.34258920351  2.06299543381  -3.04891139666  -1.58094960848  -0.179630104695  
1.62759613991  1.56568324566  -1.34541351  2.06204795837  -3.04564124743  -1.58081800142  -0.179678265248  
1.63568496704  1.56559932232  -1.34814292589  2.06106519699  -3.04257470766  -1.58065015474  -0.179630104695  
1.64376211166  1.56547915936  -1.35076362291  2.06016588211  -3.03967601458  -1.58049422899  -0.179654423391  
1.65185308456  1.56538319588  -1.35332471529  2.05923128128  -3.03677684466  -1.58032685915  -0.179654423391  
1.65994119644  1.56529974937  -1.35569459597  2.05837965012  -3.03420144716  -1.58030254046  -0.179666344319  
1.6680970192  1.56520390511  -1.35805207888  2.05756473541  -3.03151780764  -1.5800631682  -0.179654423391  
1.67619013786  1.56514358521  -1.36021882692  2.05682134628  -3.02907449404  -1.58005124727  -0.179654423391  
1.68428015709  1.56499969959  -1.36231309572  2.0560297966  -3.02675038973  -1.57993156115  -0.179642025624  
1.69236803055  1.56492781639  -1.36425191561  2.05543041229  -3.02467805544  -1.57991964022  -0.179678265248  
1.7004699707  1.56484401226  -1.36611920992  2.0547709465  -3.02261764208  -1.57976371447  -0.179630104695  
1.70856618881  1.56479597092  -1.36790210405  2.05413532257  -3.02067691485  -1.57976371447  -0.179642025624  
1.71665120125  1.56474769115  -1.36950618425  2.05354833603  -3.01889163653  -1.5796678702  -0.179666344319  
1.72471213341  1.56466376781  -1.37109738985  2.05299663544  -3.01717931429  -1.57967979113  -0.179642025624  
1.73280715942  1.56463980675  -1.37249786059  2.05251741409  -3.01564580599  -1.57947618166  -0.179642025624  
1.74094605446  1.56461584568  -1.37374240557  2.05205011368  -3.01430398623  -1.57963210741  -0.179666344319  
1.74904513359  1.56456792355  -1.37484342257  2.051653862  -3.01301032702  -1.57941610018  -0.179678265248  
1.75713300705  1.56454396248  -1.37589675585  2.05128192902  -3.01187259356  -1.57944041887  -0.179654423391  
1.76522517204  1.56449604034  -1.37679416338  2.05098295212  -3.01082975069  -1.5794523398  -0.179642025624  
1.77331519127  1.56452000141  -1.37760812441  2.0507068634  -3.00997955004  -1.57926065127  -0.179654423391  
1.78143405914  1.56452000141  -1.37830192247  2.05043125153  -3.00922471682  -1.57946426073  -0.179618183767  
1.78952002525  1.56448400021  -1.37888890902  2.05027532578  -3.00862580935  -1.57928496996  -0.179642025624  
1.7976360321  1.56448400021  -1.37935525576  2.0501074791  -3.00812274614  -1.57930881182  -0.179642025624  
1.80572915077  1.56443607807  -1.37970239321  2.04998731613  -3.00776368776  -1.5793688933  -0.179678265248  
1.81381511688  1.564412117  -1.37990600268  2.04991579056  -3.00754815737  -1.57918912569  -0.179630104695  
1.82192397118  1.56442415714  -1.38000184694  2.04986763  -3.00747615496  -1.57934457461  -0.179642025624  
1.83002519608  1.56444811821  -1.37991840044  2.04995155334  -3.00753623644  -1.57924873034  -0.179630104695  
1.83811497688  1.56443607807  -1.37988216082  2.04998731613  -3.00760776201  -1.57944041887  -0.179654423391  
1.84620118141  1.564412117  -1.37978631655  2.05004787445  -3.00758392016  -1.57932073275  -0.179654423391  
1.85428905487  1.56443607807  -1.37970239321  2.05009555817  -3.00757199923  -1.57934457461  -0.179630104695  
1.86237502098  1.56442415714  -1.37961894671  2.05002355576  -3.00758392016  -1.57940417925  -0.179690186177  
1.87046003342  1.56440019608  -1.37970239321  2.05007171631  -3.00743991533  -1.57934457461  -0.179630104695  
1.87855410576  1.564412117  -1.37996608416  2.04993963242  -3.00721246401  -1.57923680941  -0.179570500051  
1.88664913177  1.56446003914  -1.38027698198  2.04978370667  -3.00676900545  -1.57915288607  -0.17949849764  
1.8947429657  1.56450808048  -1.38132983843  2.04943609238  -3.00554734865  -1.57888919512  -0.179378811513  
1.90282797813  1.56459188461  -1.38202411333  2.04919672012  -3.00476867357  -1.57872182528  -0.17933065096  
1.91094708443  1.56461584568  -1.38275462786  2.04895687103  -3.00384599367  -1.5785539786  -0.179222885762  
1.91902208328  1.56463980675  -1.38366395632  2.04860877991  -3.00281602541  -1.57838613192  -0.179102722798  
1.92708516121  1.56469976902  -1.38469344774  2.04829692841  -3.00159389177  -1.57824260393  -0.179030720388  
1.93517613411  1.56479597092  -1.38572246233  2.04794979095  -3.00025254885  -1.57795507113  -0.178886715566  
1.94326210022  1.56489193439  -1.38688308397  2.04749393463  -2.99877912203  -1.57785922686  -0.178695027028  
1.95135617256  1.56502366066  -1.38819963137  2.04712247849  -2.99722177187  -1.57759553591  -0.178514782582  
1.95944714546  1.56511962414  -1.38962394396  2.046667099  -2.9954846541  -1.57738048235  -0.178275410329  
1.96756005287  1.5651679039  -1.39116794268  2.04615163803  -2.99371225039  -1.57703286806  -0.178107563649  
1.9756770134  1.56525182724  -1.39275962511  2.04564762115  -2.99175960222  -1.57673341433  -0.177855316793  
1.98378801346  1.56540715694  -1.39454299608  2.04508447647  -2.98960334459  -1.57636195818  -0.177651707326  
1.99185299873  1.56552708149  -1.39638549486  2.04448509216  -2.98737508455  -1.57602674166  -0.177340332662  
1.99993896484  1.56567120552  -1.39834815661  2.0438375473  -2.98493129412  -1.57563144365  -0.177052323018  
2.00800013542  1.56577908993  -1.40041906038  2.04319000244  -2.98241597811  -1.57523614565  -0.17678863207  
2.01612496376  1.56594729424  -1.40260869661  2.04243516922  -2.97991258303  -1.57479316393  -0.176452461873  
2.02420902252  1.56609106064  -1.40491897265  2.04172754288  -2.97710973421  -1.57443410555  -0.17612916628  
2.03226900101  1.56625878811  -1.40728789965  2.04090023041  -2.97430640856  -1.57399064699  -0.175792519246  
2.04032802582  1.56646299362  -1.40978938738  2.04010915756  -2.97125178972  -1.57349998156  -0.175432984029  
2.04842615128  1.5666667223  -1.41236240069  2.03930616379  -2.96808940569  -1.57299691836  -0.175025288259  
2.05652999878  1.56688272953  -1.41498309771  2.03839445114  -2.96484357515  -1.57248193422  -0.174629513417  
2.06462717056  1.56705057621  -1.41772395769  2.03748321533  -2.96151334444  -1.57195455233  -0.174209419881  
2.07268810272  1.56731462479  -1.42064363161  2.03652477264  -2.95799190203  -1.57137948671  -0.173814121877  
2.08078312874  1.5674943924  -1.42358762423  2.03556537628  -2.95425397555  -1.57085258165  -0.173346344625  
2.08887600899  1.56777000427  -1.42666274706  2.03454637527  -2.95049268404  -1.57030183474  -0.172878567372  
2.09697008133  1.56799805164  -1.42991859118  2.03351545334  -2.94655210177  -1.56976300875  -0.172447029744  
2.10505700111  1.56827402115  -1.43328124682  2.03246068954  -2.94250327746  -1.5691040198  -0.171919647847  
2.11314105988  1.5685737133  -1.43679935137  2.03140497208  -2.93833476702  -1.56845742861  -0.171403710042  
2.12127017975  1.56876575947  -1.44035369555  2.03021860123  -2.9340227286  -1.56779843966  -0.170888249074  
2.12937617302  1.56905376911  -1.44402772585  2.02906751633  -2.92971021334  -1.5671637694  -0.170372311269  
2.13747501373  1.5694013834  -1.44779712359  2.02777290344  -2.92520648638  -1.56646901766  -0.169796768819  
2.14558696747  1.56970095634  -1.45160276095  2.0265378952  -2.92049819628  -1.56571466128  -0.169197384511  
2.15367412567  1.56997692585  -1.45549184481  2.0252790451  -2.91579133669  -1.56494790712  -0.168646160756  
2.16176819801  1.5703009367  -1.45954829851  2.02390050888  -2.91080791155  -1.56419355074  -0.167998615895  
2.16990303993  1.57058846951  -1.46372491518  2.02262973785  -2.9056575934  -1.56342679659  -0.167374912892  
2.17803001404  1.57092440128  -1.46802074114  2.02121496201  -2.90050679842  -1.56261235872  -0.166726891194  
2.18617510796  1.57126033306  -1.47244865099  2.01978778839  -2.89521247545  -1.56179839769  -0.166103665029  
2.19431519508  1.57163190842  -1.47696000734  2.01836204529  -2.88969022432  -1.56091195742  -0.165431801473  
2.20243000984  1.57199180126  -1.48150760332  2.01686286926  -2.88428813616  -1.56010944048  -0.164664570485  
2.21051907539  1.57237565517  -1.48618632952  2.01535224915  -2.87853891054  -1.5592230002  -0.164005104695  
2.21863603592  1.57273554802  -1.49098474184  2.01381778717  -2.87265760103  -1.55837279955  -0.163261715566  
2.22672104836  1.57308351994  -1.49592668215  2.01219940186  -2.86693221727  -1.55736619631  -0.162530247365  
2.23478198051  1.57340705395  -1.50088054339  2.01061677933  -2.86102706591  -1.55654031435  -0.161858860646  
2.24284219742  1.57381486893  -1.50564319292  2.00911808014  -2.85549337069  -1.55559426943  -0.161175076162  
2.2509560585  1.57419872284  -1.51026183764  2.00759553909  -2.8501628081  -1.55475551287  -0.160503212606  
2.25901412964  1.57454669476  -1.51470119158  2.00616884232  -2.84478456179  -1.55392963091  -0.159843746816  
2.26714015007  1.5748462677  -1.51893741289  2.00474214554  -2.83941871325  -1.55316287676  -0.159172360097  
2.27526903152  1.57517027855  -1.52298194567  2.00343561172  -2.8343761603  -1.55233651796  -0.158536736165  
2.28337216377  1.5755058527  -1.52702647844  2.00220060349  -2.8292854468  -1.55161792437  -0.157949272786  
2.29147815704  1.57576978207  -1.53096276919  2.00091791153  -2.82444650332  -1.55089933077  -0.157397572194  
2.29957818985  1.57604587078  -1.53478032747  1.99962282181  -2.81979924837  -1.55018073717  -0.15683442751  
2.30766701698  1.57640576363  -1.53858501116  1.99844789505  -2.8153312842  -1.54956990877  -0.156282726918  
2.31573009491  1.5766453743  -1.54231864611  1.99721288681  -2.81088811556  -1.54885131518  -0.155754868184  
2.32379698753  1.57688546181  -1.54587251345  1.99606180191  -2.80664760271  -1.54819232622  -0.155251328145  
2.33189415932  1.57718503475  -1.54925853411  1.99498271942  -2.80255109469  -1.54759341875  -0.154771629964  
2.33997607231  1.57748472691  -1.55260879198  1.99392747879  -2.79846650759  -1.54691106478  -0.154268089925  
2.34807109833  1.57768881321  -1.55581599871  1.99289703369  -2.79452640215  -1.54635984102  -0.153764549886  
2.35613512993  1.57791650295  -1.55893880526  1.99187803268  -2.79082519213  -1.54578525225  -0.153332535421  
2.36422419548  1.57812058926  -1.56196624437  1.99094247818  -2.78720790545  -1.54523402849  -0.152877155934  
2.37228298187  1.5783842802  -1.56493360201  1.98999500275  -2.78368646303  -1.54471904436  -0.152468983327  
2.38042211533  1.57861232758  -1.56776935259  1.98906040192  -2.7803328673  -1.54418021837  -0.152085606252  
2.38858699799  1.57876813412  -1.57047349611  1.98818492889  -2.77714664141  -1.54361707369  -0.151713673268  
2.39665102959  1.57899618149  -1.57303411165  1.98730993271  -2.774020497  -1.54317409197  -0.15128213564  
2.40474700928  1.57917630672  -1.57546312014  1.98657798767  -2.77103835741  -1.54270726839  -0.150922600423  
2.41286897659  1.57941567898  -1.57776004473  1.98579931259  -2.76805621782  -1.54226380983  -0.150586430226  
2.42096114159  1.57954752445  -1.58002168337  1.98510360718  -2.76530105272  -1.54183274904  -0.150262657796  
2.42904901505  1.57970368862  -1.5822113196  1.98438453674  -2.76270181337  -1.54138976732  -0.149950806295  
2.43715715408  1.57984745502  -1.58431703249  1.98372507095  -2.76030666033  -1.54100639025  -0.14967471758  
2.44524407387  1.58006358147  -1.58635169664  1.98305368423  -2.75795871416  -1.54058725039  -0.14935094515  
2.45334410667  1.58020734787  -1.58834964434  1.98239421844  -2.75582725206  -1.54021579424  -0.149075333272  
2.46146416664  1.58035159111  -1.59004861513  1.98187828064  -2.75365907351  -1.5399406592  -0.148835484182  
2.46956110001  1.58042347431  -1.59168798128  1.98132705688  -2.75168306032  -1.53965312639  -0.148643318807  
2.47762513161  1.58056724072  -1.59315950075  1.9808473587  -2.74983817736  -1.53934175173  -0.148403946553  
2.48571896553  1.58065116405  -1.59454757372  1.98043966293  -2.74810201326  -1.53911382357  -0.148212258016  
2.49380397797  1.58074736595  -1.59586364428  1.98000812531  -2.74649697939  -1.53886253039  -0.147960011159  
2.5019261837  1.58084332943  -1.59710771242  1.97957658768  -2.7451432387  -1.53859883944  -0.147816483174  
2.51006197929  1.58096313477  -1.59817296663  1.97928857803  -2.74384957949  -1.5384071509  -0.147636715566  
2.51814818382  1.5810110569  -1.59920198122  1.97889328003  -2.74265224138  -1.53823978106  -0.147528473531  
2.52626419067  1.58109533787  -1.60002738634  1.97860574722  -2.7415860335  -1.53809625307  -0.147420231496  
2.53439617157  1.5811072588  -1.60084087053  1.97834157944  -2.74069959322  -1.53792840639  -0.147300545369  
2.54242515564  1.58117926121  -1.60158282915  1.97816181183  -2.7398613135  -1.53785640398  -0.147180859243  
2.55061006546  1.58120322227  -1.60207349459  1.97798204422  -2.73920232454  -1.53765279451  -0.147168938314  
2.55867004395  1.58120322227  -1.60294706026  1.97768211365  -2.73822051684  -1.53756887117  -0.147073094045  
2.56673407555  1.58120322227  -1.60320979754  1.97764635086  -2.73794490496  -1.53754502932  -0.147024933492  
2.574832201  1.5812151432  -1.60338956514  1.97761011124  -2.73777705828  -1.53760463396  -0.146989170705  
2.58292818069  1.58116722107  -1.60338956514  1.97762203217  -2.73781282107  -1.53748542467  -0.147036854421  
2.59104609489  1.58113121986  -1.60336572329  1.97767019272  -2.73781282107  -1.53765279451  -0.146941010152  
2.599132061  1.58122718334  -1.60318595568  1.97767019272  -2.73795682589  -1.53767663637  -0.147216622029  
2.60726308823  1.58116722107  -1.6031144301  1.97771835327  -2.73793298403  -1.53767663637  -0.147108856832  
2.61535716057  1.58116722107  -1.60305434862  1.97775411606  -2.73793298403  -1.53770047823  -0.147180859243  
2.62342619896  1.58116722107  -1.60316211382  1.9777302742  -2.73774129549  -1.53767663637  -0.147144619619  
2.63154816628  1.58107101917  -1.60342580477  1.97778987885  -2.73746568361  -1.5376885573  -0.14704877535  
2.63964319229  1.58097505569  -1.60377246538  1.97776603699  -2.73710662523  -1.53767663637  -0.14704877535  
2.64770913124  1.58085525036  -1.60426313082  1.97774219513  -2.73654348055  -1.53761655489  -0.146989170705  
2.65577697754  1.58071148396  -1.60484916369  1.97775411606  -2.73587304751  -1.53753263155  -0.146856609975  
2.6638610363  1.58051931858  -1.60555535952  1.97782611847  -2.73504621187  -1.5375807921  -0.146929089223  
2.67195415497  1.58035159111  -1.60636884371  1.97785043716  -2.73408824602  -1.53755695025  -0.146725002919  
2.6800391674  1.58012342453  -1.60730201403  1.97791004181  -2.73299819628  -1.53740150133  -0.146748844777  
2.68812704086  1.57982349396  -1.60836726824  1.97794628143  -2.73186046282  -1.53748542467  -0.146592919027  
2.69622302055  1.57952356339  -1.60956317583  1.97799396515  -2.73054296175  -1.53741342226  -0.146508995687  
2.70434904099  1.57922422886  -1.61083203951  1.97807788849  -2.72928554216  -1.53732997576  -0.146449391042  
2.71240711212  1.57879245281  -1.61218339602  1.9781498909  -2.72759658495  -1.53737765947  -0.146281544362  
2.72054600716  1.57844460011  -1.61372739473  1.97822189331  -2.72599155108  -1.53716212908  -0.146257702504  
2.72863602638  1.57800042629  -1.61535436312  1.97829389572  -2.72405130068  -1.53728181521  -0.146005455648  
2.73669719696  1.57748472691  -1.61707717577  1.97837781906  -2.72211105028  -1.53709012667  -0.145921532308  
2.74479413033  1.57698130608  -1.61894351641  1.97847366333  -2.71995526949  -1.53715020815  -0.145645443593  
2.75288105011  1.57638144493  -1.6209414641  1.97852182388  -2.7176917235  -1.5369942824  -0.145537678395  
2.76091313362  1.57579374313  -1.62302381197  1.97865343094  -2.71530801455  -1.53700620333  -0.145345989858  
2.76903319359  1.57518219948  -1.62520152727  1.97870159149  -2.71281701723  -1.53689843813  -0.145201985036  
2.77712011337  1.57449877262  -1.62754661242  1.97882127762  -2.71030122439  -1.53683835665  -0.144985977803  
2.78522896767  1.57376694679  -1.62997514406  1.97892904282  -2.70753509203  -1.53686267534  -0.144758526479  
2.79331803322  1.5730355978  -1.63245183626  1.97904920578  -2.70464879671  -1.53667050997  -0.14457875887  
2.80143809319  1.57227981091  -1.63507205645  1.97914505005  -2.70161849657  -1.53679067293  -0.144290749227  
2.80952310562  1.57147610188  -1.63775235811  1.97931289673  -2.69848043123  -1.53655130068  -0.144038979207  
2.81762003899  1.57064878941  -1.64057571093  1.97945690155  -2.69524652163  -1.53661138216  -0.143787209188  
2.8257060051  1.56980884075  -1.6435306708  1.97958898544  -2.69188100496  -1.5364912192  -0.143499199544  
2.8337700367  1.56883764267  -1.6465938727  1.97974443436  -2.68838340441  -1.53639537493  -0.143223587667  
2.84186005592  1.56790220737  -1.64980060259  1.97987651825  -2.68465882937  -1.53644353548  -0.142983738576  
2.84994411469  1.56689476967  -1.65315038363  1.98002004623  -2.68092185656  -1.53621560732  -0.142708126699  
2.85800719261  1.5659109354  -1.6566084067  1.98017644882  -2.67708951632  -1.53631145159  -0.142420117055  
2.86612200737  1.56486797333  -1.66017371813  1.98036813736  -2.67306548754  -1.53607207934  -0.142132584249  
2.87420916557  1.56377625465  -1.66383487383  1.98048782349  -2.66883737246  -1.53605968157  -0.141772572194  
2.88231897354  1.56273281574  -1.66754323641  1.98065567017  -2.66464502016  -1.53595239321  -0.141460720693  
2.89043712616  1.56156921387  -1.67141992251  1.98085927963  -2.66038161913  -1.53584462801  -0.141113106404  
2.89857697487  1.5604300499  -1.67533237139  1.98106336594  -2.65577060381  -1.53570062319  -0.140765492116  
2.90663814545  1.55923080444  -1.67945987383  1.9812912941  -2.65099174181  -1.53560477892  -0.140405480062  
2.91472506523  1.55798339844  -1.68365937868  1.98150682449  -2.64627296129  -1.53540116945  -0.140106026326  
2.92281007767  1.55672430992  -1.68805009524  1.98173522949  -2.64126664797  -1.53528148333  -0.13968593279  
2.93089604378  1.55547714233  -1.6925128142  1.98195028305  -2.63618880907  -1.53512603441  -0.13927823702  
2.93898415565  1.55420565605  -1.69699937502  1.9821062088  -2.63103849093  -1.53501826922  -0.13885862032  
2.94707012177  1.55288636684  -1.70160514513  1.98234605789  -2.62578088442  -1.53480226198  -0.138486687337  
2.95518612862  1.55151939392  -1.70637876192  1.98259782791  -2.62031966845  -1.53473025957  -0.138067070638  
2.96328306198  1.55015170574  -1.71122390429  1.98283815384  -2.61484605471  -1.53451520601  -0.13763553301  
2.97137999535  1.54874873161  -1.71624881426  1.98310184479  -2.60907346407  -1.53437120119  -0.137179676686  
2.97947597504  1.54730951786  -1.72133332888  1.98335313797  -2.60331279436  -1.53421527544  -0.136748139058  
2.98757719994  1.54585826397  -1.72653752962  1.9835691452  -2.59746820131  -1.53401166597  -0.136268440877  
2.99564814568  1.54434716702  -1.73184949556  1.98380851746  -2.59136039415  -1.53388005892  -0.135801140462  
3.00373506546  1.54280006886  -1.73731691042  1.98413276672  -2.58510858217  -1.53371268908  -0.135309044515  
3.0118060112  1.54110884666  -1.74284392992  1.98442029953  -2.57874900499  -1.5335205237  -0.134865585958  
3.01989102364  1.53947782516  -1.74852687517  1.9847202301  -2.57230550448  -1.53331691424  -0.134385887777  
3.02798914909  1.53783488274  -1.75419742266  1.98499536514  -2.56608993212  -1.53324491182  -0.133834187184  
3.03610014915  1.53621590137  -1.7597006003  1.98518753052  -2.55989820162  -1.53304225603  -0.133354489003  
3.04418802261  1.53465676308  -1.76504832903  1.98536729813  -2.55386192003  -1.53295833269  -0.132911030446  
3.05227303505  1.53319323063  -1.77026397387  1.98560762405  -2.54788571993  -1.53275472323  -0.132431332265  
3.06037211418  1.53165817261  -1.77527696291  1.98594284058  -2.54202920595  -1.53269464174  -0.131975952779  
3.06845617294  1.53014743328  -1.78018170992  1.98620700836  -2.53641254107  -1.53246719042  -0.131543938314  
3.07651805878  1.52870810032  -1.78490716616  1.98643445969  -2.53093940416  -1.53235942522  -0.131160084401  
3.08457899094  1.52732884884  -1.78954869906  1.98668622971  -2.52550203005  -1.53216773668  -0.130728069936  
3.09265899658  1.52596151829  -1.794154946  1.98693799973  -2.52025682131  -1.53207189242  -0.130320851003  
3.10074520111  1.52470242977  -1.79864055315  1.98716592789  -2.51499873797  -1.53191596666  -0.129925076162  
3.10882997513  1.52345526218  -1.80304319063  1.98728609085  -2.50994521776  -1.53177243868  -0.129516903554  
3.11689019203  1.52218389511  -1.8073738257  1.98756170273  -2.50511867205  -1.53164083162  -0.129229370748  
3.12495398521  1.521068573  -1.81162101427  1.98771762848  -2.50036412874  -1.53152066866  -0.128869358693  
3.13304209709  1.51995325089  -1.81566411654  1.98789739609  -2.49571735064  -1.53140098253  -0.128497902547  
3.14115905762  1.51886165142  -1.81962424914  1.98812484741  -2.49131042162  -1.53125745455  -0.128125969564  
3.14927506447  1.51773428917  -1.82334453264  1.98834085464  -2.4869149367  -1.5311978499  -0.127814594899  
3.15739202499  1.51664304733  -1.82700473467  1.98844909668  -2.48267585436  -1.53104192415  -0.127490822469  
3.16552996635  1.51570749283  -1.83055764834  1.98866462708  -2.47866374651  -1.5310180823  -0.127167050038  
3.17361903191  1.51468849182  -1.83399135271  1.98888015747  -2.474735562  -1.53081399599  -0.126831356679  
3.1817150116  1.51368069649  -1.83740073839  1.98902463913  -2.47085506121  -1.5307782332  -0.126567665731  
3.18977499008  1.51279342175  -1.84064227739  1.98919248581  -2.46711856524  -1.5305984656  -0.126291577016  
3.19786810875  1.51178610325  -1.84377652804  1.98932409286  -2.4635737578  -1.5305984656  -0.126063648854  
3.20596313477  1.51093447208  -1.84677964846  1.98946809769  -2.46014863649  -1.5304907004  -0.125775639211  
3.21405696869  1.51005876064  -1.84975845018  1.98967170715  -2.4567711989  -1.53043109575  -0.125523869191  
3.22214508057  1.50929141045  -1.85259324709  1.98975563049  -2.45357400576  -1.53034717241  -0.125248257314  
3.23024201393  1.50849974155  -1.85529691378  1.98985147476  -2.45046025911  -1.53021556536  -0.125032250081  
3.23830318451  1.50770878792  -1.85786849657  1.98995923996  -2.44758636156  -1.53025132815  -0.124804798757  
3.24636602402  1.50695300102  -1.86029750506  1.99012756348  -2.44472343126  -1.53005963961  -0.124588791524  
3.25447702408  1.50634109974  -1.86264163653  1.99022340775  -2.44217330614  -1.53015548388  -0.124444786702  
3.26249909401  1.50562167168  -1.86480695406  1.99037885666  -2.43953782717  -1.52995187441  -0.124253098165  
3.27056312561  1.50498616695  -1.86696035067  1.99049901962  -2.43716699282  -1.53007156054  -0.124061409627  
3.27862501144  1.50443410873  -1.86898214022  1.99054670334  -2.43484336535  -1.52990371386  -0.123905483876  
3.2866590023  1.50384688377  -1.87092048327  1.99067926407  -2.43265182177  -1.52993995348  -0.123749081288  
3.29471111298  1.50277912617  -1.87442523638  1.99082231522  -2.42874795595  -1.52983171145  -0.123377625142  
3.30277204514  1.50231182575  -1.87598020235  1.99087047577  -2.42696315447  -1.52973634401  -0.123197857534  
3.31085515022  1.5019159317  -1.87740356127  1.99093055725  -2.42525083223  -1.52972442309  -0.123173538839  
3.31894302368  1.50152003765  -1.87877923647  1.99100208282  -2.42376596132  -1.5296886603  -0.123018089925  
3.32705616951  1.5010882616  -1.8799756209  1.99107408524  -2.42241269747  -1.52958041826  -0.122946087514  
3.33511805534  1.500908494  -1.88114816347  1.99108600616  -2.42103511492  -1.5296886603  -0.122838322316  
3.34320402145  1.50052499771  -1.88208133379  1.99113416672  -2.41996986071  -1.52948457399  -0.122718159352  
3.35129117966  1.50029695034  -1.8829425017  1.99117040634  -2.41891605059  -1.52958041826  -0.122802082692  
3.35938715935  1.50009286404  -1.88370830217  1.99121856689  -2.41799337069  -1.52959233919  -0.122694317495  
3.3675301075  1.49988913536  -1.8843181769  1.99117040634  -2.41732246081  -1.52942496935  -0.122646156942  
3.37559199333  1.49974524975  -1.88489228884  1.9911942482  -2.41667634646  -1.52961665789  -0.122658554708  
3.38365411758  1.49963736534  -1.88535911242  1.99120616913  -2.41625720659  -1.52940065065  -0.12258607546  
3.39174318314  1.49949324131  -1.88564569155  1.99120616913  -2.41590959231  -1.52946073214  -0.122609917318  
3.3998670578  1.49949324131  -1.88586122194  1.99120616913  -2.41565829912  -1.52947265307  -0.122609917318  
3.40793013573  1.49948120117  -1.88594514528  1.99129009247  -2.41563445727  -1.52931672732  -0.122538391744  
3.41602516174  1.49954116344  -1.88596898714  1.99120616913  -2.41567022005  -1.52950889269  -0.122634236013  
3.42414402962  1.49955320358  -1.88586122194  1.99120616913  -2.41577798525  -1.52932912508  -0.122490231191  
3.43223118782  1.49963736534  -1.8858016173  1.99121856689  -2.41586190859  -1.52936488787  -0.122609917318  
3.4403450489  1.49956512451  -1.8856938521  1.99125432968  -2.41579038302  -1.52936488787  -0.122621838246  
3.44840502739  1.49954116344  -1.88565808931  1.99121856689  -2.41582566897  -1.5293768088  -0.122621838246  
3.45646715164  1.49948120117  -1.88564569155  1.99125432968  -2.41576606432  -1.52935296694  -0.122525993978  
3.46466207504  1.4991812706  -1.88572961489  1.99118232727  -2.41567022005  -1.52954465548  -0.122466389333  
3.47272515297  1.49873781204  -1.88575393358  1.99101400375  -2.41570645968  -1.52960473696  -0.122466389333  
3.48081302643  1.49823415279  -1.88581353823  1.99091815948  -2.41544276873  -1.52981979052  -0.122298542653  
3.48887300491  1.49758625031  -1.88583785692  1.99082231522  -2.41538268725  -1.53001147905  -0.1222503821  
3.49695706367  1.49673497677  -1.8858016173  1.9906668663  -2.41507131258  -1.53033525149  -0.122022453939  
3.50506806374  1.49582338333  -1.88582545916  1.99048709869  -2.41494018236  -1.53068238894  -0.121998612081  
3.51315498352  1.49474406242  -1.88581353823  1.99027109146  -2.41462833086  -1.53113776842  -0.121770683919  
3.52124404907  1.49358093739  -1.88575393358  1.99005556107  -2.41435271898  -1.53161698977  -0.121627155934  
3.52933812141  1.49218964577  -1.88584977785  1.98988723755  -2.41404182116  -1.53220349947  -0.121423069631  
3.53741812706  1.49076235294  -1.88583785692  1.98956394196  -2.41366988817  -1.5328262488  -0.121302906667  
3.5455121994  1.48922765255  -1.88587314287  1.98925209045  -2.41333514849  -1.53355676333  -0.120979611074  
3.55362701416  1.48754870892  -1.88592130343  1.98890447617  -2.412879769  -1.53432351748  -0.120871369039  
3.56172013283  1.48573756218  -1.88592130343  1.98854494095  -2.41244870821  -1.53520995775  -0.120559517537  
3.56981801987  1.48374664783  -1.88594514528  1.98813676834  -2.41194564501  -1.53610784212  -0.120295826589  
3.5779030323  1.48174417019  -1.885992829  1.98772954941  -2.41144258181  -1.53700620333  -0.119983975087  
3.58598899841  1.47952568531  -1.88612443606  1.98724985123  -2.41089183489  -1.53806001345  -0.11970836321  
3.59407401085  1.47709095478  -1.88619643847  1.98672199249  -2.41028100649  -1.53918582598  -0.119396511708  
3.60217308998  1.47465670109  -1.8862918059  1.98623085022  -2.40962249437  -1.54033548037  -0.119096581136  
3.61031603813  1.47204220295  -1.88635188738  1.98569154739  -2.4090235869  -1.54160482088  -0.118748966848  
3.61840200424  1.46922409534  -1.88638765017  1.98507976532  -2.40825730959  -1.54281503359  -0.118329350148  
3.62652015686  1.46631002426  -1.88650781313  1.98449277878  -2.40757447878  -1.54414445559  -0.117957417165  
3.63461709023  1.46333575249  -1.88654262224  1.98385667801  -2.40679628054  -1.54552203814  -0.117573563253  
3.64272713661  1.46018195152  -1.88656694094  1.98322153091  -2.4059937636  -1.54695874849  -0.117190186177  
3.65082216263  1.45697999001  -1.88669854799  1.9825258255  -2.40519124666  -1.54838401476  -0.116722408925  
3.65891718864  1.45369398594  -1.88675862948  1.98183107376  -2.40435296694  -1.54990512529  -0.116230789815  
3.66704297066  1.45027625561  -1.8868783156  1.98113489151  -2.40343124071  -1.55147391955  -0.115786854421  
3.67513513565  1.44667840004  -1.88702136675  1.9803442955  -2.40249711672  -1.55309087435  -0.115295712148  
3.68323612213  1.44288909435  -1.88712913195  1.97952890396  -2.40156251589  -1.55481559435  -0.114767853414  
3.69136118889  1.43887138367  -1.88726121584  1.97865343094  -2.40056878725  -1.55657607714  -0.114300552999  
3.69955611229  1.4346985817  -1.88729650179  1.97786235809  -2.39956266085  -1.55838472048  -0.113772694265  
3.7076420784  1.43045318127  -1.88745242754  1.97697496414  -2.39850885073  -1.56021720568  -0.113281075154  
3.71571397781  1.42623174191  -1.88750011126  1.97605133057  -2.39746696154  -1.56214601198  -0.11275321642  
3.72377705574  1.42196273804  -1.88753587404  1.97518873215  -2.39631730715  -1.5642173926  -0.112118069326  
3.7318611145  1.41760993004  -1.88765603701  1.974193573  -2.39520341555  -1.5663617293  -0.111554447805  
3.7400290966  1.41302895546  -1.88775140444  1.97322225571  -2.39404231707  -1.56837398211  -0.110966984426  
3.74814009666  1.40816032887  -1.88790733019  1.97225093842  -2.39291650454  -1.57055312792  -0.110307518636  
3.75626802444  1.40308797359  -1.8880742232  1.97122001648  -2.39167100588  -1.57281715075  -0.109683338796  
3.76437497139  1.39796733856  -1.88818198839  1.97010469437  -2.39035350481  -1.5750930945  -0.109048191701  
3.77245306969  1.3928591013  -1.88831407229  1.96902561188  -2.38904792467  -1.57739192644  -0.10840064684  
3.78069519997  1.38773846626  -1.88842136065  1.96795892715  -2.38768273989  -1.5797756354  -0.107621018087  
3.78875613213  1.38243842125  -1.88857680956  1.96681976318  -2.38629371325  -1.58217126528  -0.106901947652  
3.79684305191  1.37674260139  -1.88868457476  1.96570491791  -2.3849161307  -1.58466226259  -0.106158558522  
3.8049390316  1.37096273899  -1.88882810274  1.96446990967  -2.38357526461  -1.58727342287  -0.105439011251  
3.81303119659  1.36509871483  -1.88901883761  1.96325922012  -2.38219815889  -1.58992034594  -0.104659382497  
3.82114911079  1.35928308964  -1.88910276095  1.96201181412  -2.38074905077  -1.5925915877  -0.103832070027  
3.82927012444  1.35334742069  -1.88921100298  1.96076536179  -2.37925178209  -1.59533387819  -0.103016678487  
3.83738303185  1.34718418121  -1.88936645189  1.9594707489  -2.37767154375  -1.59813672701  -0.10210496584  
3.84547519684  1.34068500996  -1.88956958452  1.95818710327  -2.37607843081  -1.6009276549  -0.101301495229  
3.85356402397  1.33410227299  -1.88972551027  1.95683240891  -2.37453395525  -1.60399419466  -0.100426499044  
3.86166000366  1.32765066624  -1.88988095919  1.95545387268  -2.37286883989  -1.60695249239  -0.0995267073261  
3.86976313591  1.32110393047  -1.8900364081  1.95406293869  -2.37114459673  -1.61001855532  -0.0986397902118  
3.87785506248  1.31418561935  -1.89019185701  1.9526720047  -2.36946756044  -1.61312085787  -0.0977399984943  
3.88594198227  1.30701494217  -1.89041930834  1.95125722885  -2.36767179171  -1.61623460451  -0.096804920827  
3.89405012131  1.29988098145  -1.89059859911  1.94972276688  -2.3658750693  -1.61954051653  -0.0958693663227  
3.90213608742  1.29293835163  -1.89068204561  1.94821214676  -2.36401921908  -1.62261897722  -0.0949342886554  
3.91026902199  1.28581631184  -1.89079028765  1.94673728943  -2.36216241518  -1.62591296831  -0.0939391295062  
3.91837716103  1.27811837196  -1.89102918306  1.94520282745  -2.36022216478  -1.62926704088  -0.092955891286  
3.92648005486  1.27037286758  -1.89123231569  1.94354820251  -2.35828239122  -1.6326807181  -0.0919483343707  
3.93460702896  1.26281905174  -1.89146024386  1.9419054985  -2.35640222231  -1.63622600237  -0.0909288565265  
3.94270610809  1.24710023403  -1.89180690447  1.9386677742  -2.35247451464  -1.64323312441  -0.0888307730304  
3.9507920742  1.23870754242  -1.89204579989  1.93707370758  -2.3506658713  -1.64673072497  -0.0878832975971  
3.95888018608  1.23144173622  -1.89223748842  1.93543052673  -2.34882194201  -1.65013248125  -0.0868399778949  
3.96694302559  1.22434401512  -1.89238101641  1.93396806717  -2.34695369402  -1.65339023272  -0.0859044233905  
3.97502803802  1.21701824665  -1.89255983034  1.93260145187  -2.34508544603  -1.65660030047  -0.0849455038654  
3.98311209679  1.20966899395  -1.89277583758  1.93112659454  -2.34332496325  -1.65985852877  -0.084009949361  
3.99129009247  1.20285892487  -1.89299089113  1.92956781387  -2.34168416659  -1.66300899187  -0.0830867926227  
3.99940299988  1.19628894329  -1.89312249819  1.92821264267  -2.33992416063  -1.66612273852  -0.0822590033161  
4.00755906105  1.18959879875  -1.89330178896  1.92691802979  -2.33813935915  -1.66915351549  -0.0813477675067  
4.01568412781  1.18271720409  -1.89346963564  1.92556333542  -2.33649856249  -1.67214805285  -0.0805686155902  
4.02374601364  1.17617118359  -1.89363652865  1.92416000366  -2.33500177065  -1.6750591437  -0.0797050634967  
4.03183102608  1.1700450182  -1.8937924544  1.92282915115  -2.33342105547  -1.67788535753  -0.0789259115802  
4.03991603851  1.16405069828  -1.89390021959  1.92161846161  -2.33184081713  -1.68071252504  -0.0781586805927  
4.04798316956  1.15792405605  -1.89405566851  1.92040729523  -2.3302953879  -1.68340760866  -0.0773552099811  
4.0560669899  1.15188217163  -1.89423543612  1.91912460327  -2.32884627977  -1.68601924578  -0.0766118208515  
4.0641541481  1.14603161812  -1.89439040819  1.91781759262  -2.32742149035  -1.68854648272  -0.0758803526508  
4.07223916054  1.14052903652  -1.89448625246  1.91667842865  -2.32590037981  -1.69114572207  -0.0750649611103  
4.0803501606  1.13509821892  -1.89460593859  1.91562318802  -2.32447559038  -1.69356567064  -0.0743215719806  
4.08845996857  1.12978732586  -1.89473754564  1.91450834274  -2.32312232653  -1.6959250609  -0.0736501852619  
4.09652304649  1.1243929863  -1.8948691527  1.91334533691  -2.32185250918  -1.69832116762  -0.0728943983661  
4.10461902618  1.11901021004  -1.89502460161  1.91224241257  -2.320667092  -1.70063239733  -0.0722468535053  
4.11270308495  1.11393892765  -1.89513236681  1.91118717194  -2.31936151186  -1.7028725783  -0.0715754667865  
4.12078905106  1.10920369625  -1.89524013201  1.91021585464  -2.31818849245  -1.70507699648  -0.0709155241596  
4.12887215614  1.10466015339  -1.89528781572  1.90923261642  -2.31700259844  -1.70718509356  -0.0702560583698  
4.13696599007  1.10009264946  -1.89544326464  1.90828561783  -2.31591302553  -1.7092812697  -0.0696085135089  
4.14509010315  1.0955375433  -1.89558679262  1.90731430054  -2.31476337114  -1.71132976214  -0.0690091292011  
4.15320301056  1.09101843834  -1.89573032061  1.90643882751  -2.31363755861  -1.71335393587  -0.0684812704669  
4.16129016876  1.08661866188  -1.89580232302  1.90551519394  -2.31257135073  -1.71527034441  -0.0678818861591  
4.1693751812  1.0823751688  -1.89581424395  1.90467643738  -2.31160194079  -1.71710378328  -0.067330185567  
4.17743515968  1.0785150528  -1.89587384859  1.90381288528  -2.31054765383  -1.71892434755  -0.066826645528  
4.18558311462  1.07473933697  -1.89599401156  1.90305805206  -2.30959016482  -1.72062474886  -0.06631118456  
4.19364619255  1.07113063335  -1.89611274401  1.90230226517  -2.30869180361  -1.72229034105  -0.0657952467548  
4.20176815987  1.06760644913  -1.89623290697  1.90154695511  -2.30776912371  -1.72387153307  -0.0653279463397  
4.20985412598  1.06410634518  -1.89632875124  1.90082740784  -2.30691939989  -1.72548801104  -0.0648840109455  
4.2179441452  1.06062972546  -1.89637643496  1.90012025833  -2.30604488054  -1.72700959841  -0.0643923918353  
4.22602796555  1.05728507042  -1.89648372332  1.89941263199  -2.30525476137  -1.72851926485  -0.0639846960651  
4.23412108421  1.05416846275  -1.8965194861  1.89881277084  -2.30446416536  -1.72996884981  -0.0636246840106  
4.24218201637  1.05121958256  -1.89663964907  1.89814186096  -2.30370980898  -1.73127442995  -0.0632413069354  
4.25026798248  1.04854667187  -1.89666349093  1.89759016037  -2.30303937594  -1.73253184954  -0.0628574530231  
4.25833010674  1.04594540596  -1.89669925371  1.89705085754  -2.30235654513  -1.73375446001  -0.0624855200397  
4.26641702652  1.04341590405  -1.89677077929  1.89655923843  -2.3017337958  -1.73492795626  -0.0621379057514  
4.27454710007  1.04098272324  -1.89683086077  1.89600753784  -2.3011229674  -1.73604184786  -0.0618260542499  
4.28263902664  1.0386095047  -1.89689094225  1.89551591873  -2.30056029955  -1.73713237444  -0.0615742842304  
4.29072904587  1.03643965721  -1.89696246782  1.89510822296  -2.29996139208  -1.73804265658  -0.0612142721759  
4.2988140583  1.03434205055  -1.89701015154  1.89468860626  -2.29944640795  -1.73900062243  -0.0609148184406  
4.30691099167  1.03232824802  -1.89705831209  1.8942565918  -2.29897958437  -1.73981553713  -0.0606754461872  
4.31499505043  1.03044641018  -1.89709407488  1.89394521713  -2.29852468172  -1.74066621462  -0.0604351202594  
4.32308316231  1.02869594097  -1.89708215395  1.89360952377  -2.29811746279  -1.74138433138  -0.0602553526508  
4.33117818832  1.02711367607  -1.89709407488  1.89324951172  -2.29772216478  -1.74209100405  -0.0600755850421  
4.33933210373  1.0256870985  -1.89716560045  1.8929977417  -2.29739886919  -1.74276191393  -0.0598476568805  
4.3475291729  1.02440488338  -1.8971303145  1.89270973206  -2.29702741305  -1.74334937731  -0.0597155729877  
4.35562419891  1.0232899189  -1.89716560045  1.8924703598  -2.29681188265  -1.74384051958  -0.059535805379  
4.36371016502  1.02230727673  -1.89723760286  1.8922662735  -2.29650050799  -1.74430734316  -0.0594762007343  
4.37177419662  1.02137207985  -1.89721376101  1.89207458496  -2.2962492148  -1.74475080172  -0.0593679586994  
4.37986016273  1.02060508728  -1.89722568194  1.89190673828  -2.29608184496  -1.74509793917  -0.0591881910907  
4.38799118996  1.01992166042  -1.89724952379  1.89181089401  -2.295961682  -1.74544555346  -0.0592239538776  
4.39611816406  1.01939427853  -1.89727336565  1.89169073105  -2.29579383532  -1.74567300478  -0.0591042677509  
4.40423202515  1.01901078224  -1.89727336565  1.8916311264  -2.29578191439  -1.74580461184  -0.0591400305377  
4.41235113144  1.01878273487  -1.89728576342  1.89157104492  -2.29567462603  -1.74593669573  -0.0590561071979  
4.42044997215  1.01867485046  -1.89730960528  1.89160680771  -2.29560262362  -1.74593669573  -0.0590441862689  
4.43057012558  1.01867485046  -1.89726144472  1.89160680771  -2.29572230974  -1.74596053759  -0.0590441862689  
4.43867707253  1.0187227726  -1.89729768435  1.89164304733  -2.29567462603  -1.74586469332  -0.059020344411  
4.44673800468  1.01884269714  -1.89728576342  1.89172697067  -2.29578191439  -1.74579269091  -0.0591400305377  
4.4547970295  1.01881873608  -1.89727336565  1.89167881012  -2.29576999346  -1.74580461184  -0.0591519514667  
4.4628610611  1.01883065701  -1.89726144472  1.89159488678  -2.29578191439  -1.74580461184  -0.0590441862689  
4.4709250927  1.01881873608  -1.89696246782  1.89130687714  -2.29590207735  -1.74582893053  -0.059020344411  
4.47901010513  1.01886665821  -1.89660340944  1.89087533951  -2.29604560534  -1.74590093294  -0.0589245001422  
4.48709416389  1.01889061928  -1.89618474642  1.89039564133  -2.29614144961  -1.74591285387  -0.0587442556964  
4.49520802498  1.01890254021  -1.89552671114  1.88986825943  -2.29633313814  -1.74596053759  -0.0586603323566  
4.50333213806  1.01893854141  -1.89474946657  1.88916110992  -2.2964404265  -1.74596053759  -0.0583847204791  
4.51144313812  1.01896250248  -1.89390021959  1.88840532303  -2.29673988024  -1.74602061907  -0.0582287947284  
4.51956915855  1.01903474331  -1.89284783999  1.88757801056  -2.29694396654  -1.74610454241  -0.0579651037799  
4.52766013145  1.01907074451  -1.89165097872  1.88654708862  -2.29717094103  -1.74611646334  -0.0576174894916  
4.53572416306  1.01913070679  -1.89032346407  1.88541984558  -2.29748279253  -1.74615222612  -0.0573890844928  
4.54378700256  1.01920258999  -1.88888818422  1.88426876068  -2.29780608812  -1.74630767504  -0.0570295492755  
4.55188202858  1.01926243305  -1.88729650179  1.88300991058  -2.29814130465  -1.74633199373  -0.0566819349872  
4.55994415283  1.01928639412  -1.88557416597  1.88154697418  -2.2985962073  -1.74649936358  -0.0563462416278  
4.56803011894  1.01943027973  -1.88373214403  1.88002443314  -2.2990749518  -1.74654752413  -0.0558546225177  
4.57612514496  1.0194542408  -1.88178188006  1.87835741043  -2.2994945685  -1.74657136599  -0.0554469267475  
4.58421397209  1.01962161064  -1.87968856493  1.87664270401  -2.30003339449  -1.7467396895  -0.0550153891193  
4.59233498573  1.01968193054  -1.87745172182  1.87484407425  -2.30064422289  -1.74670344988  -0.054559532796  
4.60043597221  1.01977777481  -1.87507135073  1.87286567688  -2.30123073259  -1.74687129656  -0.053995911275  
4.60850405693  1.01986169815  -1.87260705629  1.87089920044  -2.30180579821  -1.74690705935  -0.0534446875202  
4.61663198471  1.01995754242  -1.86996299425  1.86874103546  -2.30248815218  -1.74705058733  -0.0528691450702  
4.62471604347  1.02005338669  -1.86716396013  1.86648654938  -2.30311090151  -1.74713451067  -0.0522812048541  
4.63280200958  1.02014935017  -1.86424523989  1.86420822144  -2.30376941362  -1.74723035494  -0.0516698996173  
4.64086413383  1.02024555206  -1.86124211947  1.86183404922  -2.30446416536  -1.74733859697  -0.0510461966144  
4.64892411232  1.0203653574  -1.85814410845  1.85926818848  -2.30523091951  -1.74744636217  -0.0503509680377  
4.65702009201  1.02049720287  -1.85486632982  1.85670232773  -2.30604488054  -1.74763757387  -0.0497034231769  
4.66511106491  1.02065265179  -1.851480786  1.85386037827  -2.30684739748  -1.74768573443  -0.0489957968341  
4.67319607735  1.02077245712  -1.84799987475  1.85099458694  -2.30773383776  -1.74790126482  -0.0482047239887  
4.68131899834  1.02090466022  -1.84442264238  1.84805679321  -2.30858356157  -1.74793750445  -0.0474246183978  
4.68942403793  1.02104854584  -1.84063035647  1.84499931335  -2.30960208574  -1.74816495577  -0.0466097036945  
4.69756817818  1.02114439011  -1.83674270311  1.84179735184  -2.31048757235  -1.7482846419  -0.045794312154  
4.70565915108  1.02128815651  -1.83271152178  1.83858394623  -2.31145793596  -1.7485721747  -0.0449307600604  
4.71374797821  1.02148032188  -1.82852441469  1.83519029617  -2.31243974367  -1.7486799399  -0.0440195242511  
4.72183299065  1.02158784866  -1.82426578203  1.8317732811  -2.31347018877  -1.74887162844  -0.0430720488178  
4.72989416122  1.0217795372  -1.81991082827  1.82822370529  -2.31451160112  -1.74905091921  -0.0421369711505  
4.73800706863  1.02189934254  -1.81546050707  1.82448244095  -2.31555396715  -1.74920684496  -0.0411174933063  
4.7461180687  1.02211511135  -1.81081897417  1.82063341141  -2.31672698656  -1.74947053591  -0.0400260130512  
4.75420403481  1.02224731445  -1.8060224692  1.81667613983  -2.31788856188  -1.74965030352  -0.039030853902  
4.76233410835  1.02246296406  -1.80105764071  1.81259918213  -2.31908589998  -1.74991351763  -0.0378916899311  
4.77039718628  1.02259480953  -1.79596120516  1.80854606628  -2.32020026842  -1.75014144579  -0.036776367818  
4.77848815918  1.02273821831  -1.7907927672  1.80436134338  -2.32139760653  -1.75040513674  -0.0356252829181  
4.78658103943  1.02300226688  -1.78554088274  1.80009222031  -2.32273894945  -1.75064450899  -0.0344384352313  
4.79467797279  1.02319407463  -1.78009778658  1.79569101334  -2.32400828997  -1.75086051622  -0.0332396666156  
4.80274009705  1.023422122  -1.77457076708  1.79125452042  -2.32521802584  -1.75107604662  -0.0320404211627  
4.81083512306  1.02361392975  -1.76890021959  1.7865896225  -2.32671481768  -1.75135118166  -0.0307810942279  
4.8189201355  1.02381718159  -1.76309806505  1.78181743622  -2.32815200487  -1.75163871447  -0.0295460859882  
4.82701897621  1.0239969492  -1.75718814531  1.77697277069  -2.32957727114  -1.75192624727  -0.0282266775714  
4.83510899544  1.02420115471  -1.75106317202  1.7720079422  -2.33110982576  -1.75218993822  -0.0269077459918  
4.84323215485  1.02448868752  -1.74491340319  1.76688766479  -2.33267862002  -1.75246507326  -0.0255768934833  
4.85131907463  1.02474033833  -1.73859674135  1.76180267334  -2.33418780962  -1.75271684328  -0.0242217222797  
4.85943412781  1.024944067  -1.7321489493  1.75658655167  -2.33563691774  -1.75298053423  -0.0228188673603  
4.8675391674  1.02512383461  -1.72558099428  1.75122594833  -2.337205712  -1.75327998797  -0.0213678518878  
4.87560510635  1.02537596226  -1.71891671816  1.74578142166  -2.3388097922  -1.75359136263  -0.0198691526996  
4.88369202614  1.02556765079  -1.71210939089  1.74031305313  -2.34045106569  -1.75392657915  -0.0184305349933  
4.89175319672  1.02586686611  -1.70506269137  1.73471307755  -2.34217530886  -1.75416642824  -0.0170033613788  
4.89984202385  1.02614295483  -1.6981475989  1.72910070419  -2.34388763109  -1.75443011919  -0.0155285040485  
4.9079041481  1.02632272243  -1.69144803682  1.72376394272  -2.34532481829  -1.75472957293  -0.014137570058  
4.9159681797  1.02649044991  -1.68483144442  1.71861934662  -2.34677392641  -1.75501710573  -0.0127943197833  
4.92406415939  1.02675414085  -1.67841893831  1.71343898773  -2.34829503695  -1.75529224077  -0.0114272276508  
4.93215918541  1.02699375153  -1.67220956484  1.70833015442  -2.3498395125  -1.75555593172  -0.0100482145893  
4.94027209282  1.02718555927  -1.66617948214  1.70347356796  -2.35132486025  -1.75581962267  -0.00875312486757  
4.94833707809  1.02743756771  -1.66036492983  1.69861602783  -2.35273772875  -1.75607139269  -0.00737458864321  
4.9564511776  1.02770090103  -1.654610459  1.69390296936  -2.35416299502  -1.75632268587  -0.00609141985048  
4.96453714371  1.02786898613  -1.64895087877  1.68921422958  -2.35554010073  -1.75658637682  -0.00486833253969  
4.97259712219  1.02812063694  -1.64339954058  1.68462085724  -2.35691720644  -1.75681382815  -0.0036452452289  
4.98069000244  1.02825248241  -1.63791972796  1.68015956879  -2.35825854937  -1.75707751909  -0.00238639513125  
4.98877811432  1.02844429016  -1.63257152239  1.67591428757  -2.35950404802  -1.75728112856  -0.00123483339419  
4.99683904648  1.02857649326  -1.62731916109  1.67174053192  -2.36078578631  -1.75752050081  -0.000107590352194  
5.00489902496  1.02879178524  -1.62222224871  1.66766309738  -2.36199504534  -1.75765258471  0.0010070494609  
5.01301312447  1.02901947498  -1.61729270617  1.66370534897  -2.36320430437  -1.7578681151  0.00211034715176  
5.02110600471  1.02921164036  -1.61251861254  1.65971183777  -2.36438972155  -1.7580836455  0.00310541247018  
5.02916717529  1.02934348583  -1.60787612597  1.656042099  -2.36550408999  -1.75825101534  0.00417238287628  
5.0372531414  1.0295112133  -1.60335380236  1.65233612061  -2.36660558382  -1.75851470629  0.0051678228192  
5.04530596733  1.02960705757  -1.59901076952  1.64873790741  -2.36762363115  -1.7586944739  0.0060793729499  
5.05342912674  1.02981078625  -1.59475070635  1.64565610886  -2.36867696444  -1.75892192522  0.00700253248215  
5.0615260601  1.02999055386  -1.59062272707  1.64206981659  -2.36973125139  -1.7591140906  0.00790172442794  
5.06958699226  1.0301463604  -1.58655482927  1.63884449005  -2.37066489855  -1.75922185579  0.00881327409297  
5.07764601707  1.03024232388  -1.58259421984  1.63572597504  -2.37161142031  -1.75947314898  0.00961659196764  
5.08573698997  1.03041040897  -1.5787413756  1.63269138336  -2.3725455443  -1.75953323046  0.0104562360793  
5.09385204315  1.03051829338  -1.57505637804  1.62977695465  -2.37338382403  -1.75973683992  0.0111636798829  
5.10194516182  1.03060221672  -1.5715859572  1.62683916092  -2.37422210375  -1.75980884234  0.0119430292398  
5.11003899574  1.0307456255  -1.5682480971  1.62412834167  -2.37504846254  -1.75997668902  0.0126384887844  
5.11812400818  1.0308893919  -1.56495696703  1.62151384354  -2.37580281893  -1.76010781923  0.0133096054196  
5.12623715401  1.03104555607  -1.56189424196  1.61893510818  -2.3765094916  -1.7602279822  0.0139691121876  
5.13432502747  1.03114151955  -1.55889112154  1.61652421951  -2.37727576891  -1.76043159166  0.0146046513692  
5.14241719246  1.03127324581  -1.55605489412  1.61419820786  -2.37794667879  -1.76050359408  0.0152401896194  
5.15051603317  1.03130924702  -1.55332690874  1.61199092865  -2.37860519091  -1.76069528261  0.0158038232476  
5.15857815742  1.03136920929  -1.550658528  1.60989236832  -2.37917977968  -1.76071912447  0.0163554716855  
5.16665196419  1.03157293797  -1.54577666918  1.60600662231  -2.38030606905  -1.7609465758  0.0173628944904  
5.17471313477  1.03168070316  -1.54355127016  1.60420703888  -2.38080865542  -1.76103049914  0.017842264846  
5.18280410767  1.0317646265  -1.54143363634  1.60252857208  -2.38133556048  -1.76117402712  0.0183579605073  
5.1908659935  1.03181254864  -1.53949481646  1.60089731216  -2.38180286089  -1.76119834581  0.0187777820975  
5.19892907143  1.03186047077  -1.53766423861  1.59936189651  -2.38222200075  -1.76129419008  0.0191736370325  
5.20701813698  1.03193247318  -1.53602487246  1.59794712067  -2.3825934569  -1.76136619249  0.0195571314543  
5.21510410309  1.03199231625  -1.53439742724  1.59663963318  -2.38301211992  -1.76139003435  0.0198810808361  
5.22318816185  1.03204023838  -1.53294974962  1.59544038773  -2.3833711783  -1.76147348086  0.0202286224812  
5.23130106926  1.03207623959  -1.53156119982  1.59436130524  -2.38369495073  -1.76154548327  0.0205286033452  
5.23940110207  1.03212416172  -1.53040057818  1.59341335297  -2.38397056261  -1.76152116457  0.020768288523  
5.24746799469  1.03214812279  -1.52926427523  1.59252548218  -2.38428193728  -1.76162940661  0.0209720190614  
5.25562310219  1.03216016293  -1.5282591025  1.59178209305  -2.38447362581  -1.76162940661  0.0211881101131  
5.26368808746  1.03213620186  -1.52739745775  1.59112262726  -2.38466531435  -1.76166516939  0.0213678739965  
5.2717499733  1.03216016293  -1.52671558062  1.59055900574  -2.38485652605  -1.7617371718  0.0214997008443  
5.27983617783  1.03216016293  -1.52614099184  1.59015083313  -2.38496429125  -1.76166516939  0.0216558687389  
5.28792500496  1.03219604492  -1.52570993105  1.58977937698  -2.38504821459  -1.76171332995  0.0217397585511  
5.29598617554  1.03218412399  -1.52538711229  1.5895152092  -2.38507205645  -1.76177293459  0.0218715853989  
5.30407118797  1.03220808506  -1.52521926561  1.58943128586  -2.38510781923  -1.76177293459  0.0218116641045  
5.31219315529  1.03220808506  -1.52518350283  1.58938360214  -2.38509589831  -1.76174909273  0.0217757113278  
5.32028102875  1.03218412399  -1.52529126803  1.58943128586  -2.38511974016  -1.76176101366  0.0216678529978  
5.32836818695  1.03223240376  -1.52542335192  1.58947944641  -2.38506013552  -1.76178485552  0.0216918215156  
5.33647298813  1.03222036362  -1.52554256121  1.5895152092  -2.38510781923  -1.76178485552  0.02164388448  
5.3445391655  1.03222036362  -1.52559072176  1.58950328827  -2.38510781923  -1.76179725329  0.0216678529978  
5.35262012482  1.03225636482  -1.52559072176  1.58949136734  -2.38515597979  -1.76170093218  0.02164388448  
5.36071515083  1.03259193897  -1.52544719378  1.58938360214  -2.38523990313  -1.76155740419  0.0215236693621  
5.3688120842  1.03309524059  -1.5251715819  1.5892996788  -2.38532382647  -1.76136619249  0.0214397795498  
5.37689805031  1.03368282318  -1.52492076555  1.58911991119  -2.3853357474  -1.76116210619  0.0213798582554  
5.38502216339  1.03441393375  -1.5245736281  1.58896398544  -2.38553888003  -1.7608388106  0.0211521573365  
5.39310598373  1.03534901142  -1.52416640917  1.58875989914  -2.38555080095  -1.76046735445  0.021092236042  
5.40116620064  1.0362957716  -1.5236638228  1.58850812912  -2.38576680819  -1.76000053087  0.0208282098174  
5.40925312042  1.03733885288  -1.52320892016  1.58819627762  -2.38591033617  -1.75943738619  0.0206484459341  
5.4173719883  1.03851366043  -1.52270681063  1.58787250519  -2.38622171084  -1.75883800188  0.0204566977918  
5.42545819283  1.03977239132  -1.52210837999  1.58745241165  -2.38643724123  -1.75815517107  0.0201687011868  
5.43352103233  1.04122245312  -1.52142650286  1.58706855774  -2.38678485552  -1.75742465654  0.0199649706483  
5.44162416458  1.04278111458  -1.52075654665  1.58663749695  -2.38703567186  -1.75661021868  0.0196290370077  
5.44970917702  1.04447090626  -1.51988250414  1.58619356155  -2.3873594443  -1.75563985506  0.0192695111036  
5.45779418945  1.04631686211  -1.5190094153  1.58566522598  -2.38765889803  -1.75465757052  0.0189096089453  
5.46585917473  1.04819881916  -1.51799232164  1.58513784409  -2.38797027269  -1.75362760225  0.0184778030962  
5.47395706177  1.05029678345  -1.51697475115  1.58454990387  -2.38840133349  -1.7525489966  0.0180104188621  
5.48204112053  1.05244231224  -1.51592237154  1.58391475677  -2.38880902926  -1.75127917925  0.0175786111504  
5.49015116692  1.05480396748  -1.51480943361  1.58332681656  -2.38917953173  -1.75003320376  0.0170629154891  
5.49827218056  1.05736935139  -1.51361257235  1.58266735077  -2.38961106936  -1.74861985842  0.0165352355689  
5.50636005402  1.05999457836  -1.51241618792  1.5819234848  -2.39011413256  -1.74726659456  0.0159596167505  
5.51442098618  1.06281161308  -1.51109964052  1.58114385605  -2.39062911669  -1.74584085146  0.0154562797397  
5.52251911163  1.06571221352  -1.50977164904  1.58031654358  -2.39111978212  -1.74421149889  0.0148207414895  
5.53058004379  1.06874501705  -1.50835925737  1.57951259613  -2.39175492922  -1.74257070223  0.0141732189804  
5.53864216805  1.07177805901  -1.50694781939  1.57863759995  -2.39228183428  -1.74076158205  0.0135732581839  
5.54672598839  1.07495462894  -1.50536805788  1.5777258873  -2.39284450213  -1.73902494112  0.0128901582211  
5.55481505394  1.07817912102  -1.50377685228  1.57673025131  -2.39340716997  -1.7372639815  0.0121467616409  
5.56290316582  1.08163177967  -1.50204116503  1.57575893402  -2.39403039614  -1.73535901705  0.0113913808018  
5.57099509239  1.08528804779  -1.50029451052  1.57477521896  -2.3946650664  -1.73345452944  0.0106240157038  
5.57910704613  1.08917212486  -1.49843961397  1.57371997833  -2.39537126223  -1.73147803942  0.00980833917856  
5.58721613884  1.09322392941  -1.49652511278  1.57266426086  -2.39603025118  -1.72930986086  0.00895708519965  
5.5953040123  1.09731161594  -1.49462205568  1.57157325745  -2.39667684237  -1.72715360323  0.0081297988072  
5.60337519646  1.10145962238  -1.4925883452  1.57039737701  -2.39740735689  -1.72492534319  0.00720626441762  
5.61147117615  1.10563123226  -1.49050599733  1.56923389435  -2.39817363421  -1.72262603441  0.0062950886786  
5.61961102486  1.10989916325  -1.48839980761  1.56797504425  -2.39894038836  -1.72032577196  0.00537155428901  
5.62767100334  1.11425089836  -1.48631793657  1.56669139862  -2.39977866808  -1.71792966524  0.00437648920342  
5.63573312759  1.11886632442  -1.48409206072  1.56537246704  -2.40058070818  -1.71547443071  0.00338104949333  
5.64380216599  1.1237694025  -1.48180610338  1.56410074234  -2.4014189879  -1.71294671694  0.00236239051446  
5.6518881321  1.12876868248  -1.47952062288  1.5626616478  -2.40228110949  -1.71029931704  0.00131901376881  
5.65998196602  1.13394737244  -1.47716313997  1.5612821579  -2.40315562883  -1.70753223101  0.000215716048842  
5.66807603836  1.1390901804  -1.47479421297  1.55987930298  -2.40410167376  -1.70475322405  -0.000899140034811  
5.67616415024  1.14428150654  -1.47229320208  1.55835580826  -2.40510732332  -1.70189029375  -0.00206262270083  
5.68426012993  1.1495923996  -1.46974450747  1.55685663223  -2.40613776842  -1.6990998427  -0.00326139131655  
5.6923661232  1.15511906147  -1.46699172655  1.55530929565  -2.40704757372  -1.69612867037  -0.00432855287661  
5.70047402382  1.1608017683  -1.46426326433  1.55377388  -2.4080174605  -1.69314605394  -0.00563556352724  
5.70854020119  1.16666436195  -1.46140319506  1.55214309692  -2.40903550783  -1.69004375139  -0.00700265565981  
5.71660113335  1.17261040211  -1.45855552355  1.55053567886  -2.41005355517  -1.68688136736  -0.00820190111269  
5.72469902039  1.17864108086  -1.45564729372  1.54880857468  -2.41110736529  -1.68369514147  -0.00949651399721  
5.73278617859  1.18489909172  -1.45267993609  1.54711771011  -2.41211349169  -1.68032962481  -0.010731522237  
5.74086713791  1.19132566452  -1.44967586199  1.54546260834  -2.41326314608  -1.67698747316  -0.0120146910297  
5.74895119667  1.19746375084  -1.44673186937  1.5437951088  -2.41422158877  -1.67363340059  -0.0132377783405  
5.75703597069  1.20323085785  -1.44402772585  1.54216432571  -2.41529876391  -1.67050677935  -0.0145209471332  
5.76515698433  1.20902144909  -1.44125110308  1.54047298431  -2.41634112993  -1.66738063494  -0.0156243483173  
5.77324509621  1.21483635902  -1.43859416643  1.53890180588  -2.41737062136  -1.66425449053  -0.0168235937702  
5.78134298325  1.22045922279  -1.4359257857  1.53739023209  -2.41832906405  -1.66124803225  -0.0179746786701  
5.78943109512  1.22586643696  -1.43328124682  1.5358672142  -2.4192870299  -1.6584332625  -0.019113842641  
5.79754900932  1.2310218811  -1.43080407778  1.53436756134  -2.42022115389  -1.65561849276  -0.0202172438251  
5.80561208725  1.23606979847  -1.42832690874  1.53289270401  -2.42114288012  -1.65289956728  -0.0213559309589  
5.81370902061  1.24103355408  -1.42594510714  1.53152513504  -2.42207748095  -1.65025216738  -0.0224707762348  
5.82181406021  1.24599730968  -1.42364722887  1.53021812439  -2.4229276816  -1.64766484896  -0.023502175008  
5.82990407944  1.25081717968  -1.42132598559  1.52885055542  -2.42378980318  -1.64508945147  -0.0245698134052  
5.83801817894  1.25552928448  -1.41918403307  1.52754354477  -2.42465192476  -1.64262229601  -0.0255406538593  
5.84610104561  1.26009714603  -1.41708976427  1.52629613876  -2.42541820208  -1.64020234743  -0.0265005270587  
5.85418701172  1.26447355747  -1.41503125826  1.52506065369  -2.42623311678  -1.63789111773  -0.0274112860309  
5.86230707169  1.26866996288  -1.41305667559  1.52387332916  -2.4269750754  -1.63569909731  -0.0282991568195  
5.87037611008  1.27272284031  -1.41108161608  1.52272176743  -2.42774182955  -1.63342315355  -0.0292223135578  
5.87843799591  1.27665555477  -1.40927440325  1.52157020569  -2.42844850222  -1.63133889834  -0.0300615469562  
5.88655209541  1.28060019016  -1.4074195067  1.52050256729  -2.42916661898  -1.62929088274  -0.0308893362628  
5.89464712143  1.28438949585  -1.40556461016  1.51949548721  -2.42978984514  -1.62731439272  -0.0316684881793  
5.90271115303  1.29157137871  -1.40208226839  1.51760005951  -2.43098718325  -1.62356502215  -0.0331671873676  
5.91081404686  1.2948089838  -1.40046722094  1.51667690277  -2.43162185351  -1.62181646029  -0.0338748137103  
5.91887497902  1.29795002937  -1.39892322222  1.51578903198  -2.43212491671  -1.62009126345  -0.0346067587482  
5.9269630909  1.30097186565  -1.39740306536  1.5148897171  -2.43271142641  -1.61842662493  -0.0352419058429  
5.93504905701  1.30383729935  -1.39600259462  1.51411008835  -2.43323880831  -1.61684543291  -0.0358889738666  
5.94316101074  1.30670297146  -1.39465076128  1.51330661774  -2.43375379244  -1.61530048052  -0.0365245977985  
5.95128417015  1.3094727993  -1.39335757891  1.51261091232  -2.43423301378  -1.61387521425  -0.0370762983905  
5.95942115784  1.31224274635  -1.39213735262  1.51186704636  -2.43469983736  -1.61243802706  -0.0376518408405  
5.96754097939  1.31482076645  -1.39102393786  1.5111951828  -2.43516666094  -1.61116820971  -0.0381911436664  
5.97563815117  1.31726706028  -1.38997108141  1.5105714798  -2.43555051485  -1.60994655291  -0.0386469999896  
5.98372197151  1.31944930553  -1.38898975054  1.50998401642  -2.43587333361  -1.60876065889  -0.0391147772418  
5.99181509018  1.32146382332  -1.38805610338  1.50934791565  -2.43630487124  -1.60769492785  -0.0395348707782  
5.99990415573  1.32333445549  -1.38719445864  1.50884437561  -2.43665153185  -1.60665303866  -0.0398944059955  
6.00799107552  1.32509696484  -1.38629657427  1.50830459595  -2.4369152228  -1.60568267504  -0.0402181784259  
6.01607608795  1.3267275095  -1.38550693194  1.50783729553  -2.43722659746  -1.60483247439  -0.0405657927143  
6.0241651535  1.32829856873  -1.38472921053  1.50740528107  -2.43746644655  -1.60394603411  -0.0408895651447  
6.03225898743  1.32965350151  -1.38403541247  1.50700902939  -2.43767005602  -1.60322744051  -0.0412133375751  
6.04037308693  1.3310444355  -1.38341266314  1.50667333603  -2.43788558642  -1.60244876543  -0.0415013472186  
6.04846405983  1.33219528198  -1.3828142325  1.50633764267  -2.43811303774  -1.60183793703  -0.041752640401  
6.05652618408  1.33322668076  -1.38237172762  1.50604963303  -2.43823272387  -1.60128719011  -0.0419324080097  
6.06458806992  1.33410227299  -1.38194114367  1.50583362579  -2.43840057055  -1.60078365008  -0.0421126524555  
6.07268118858  1.3349416256  -1.38159400622  1.50558185577  -2.43855601946  -1.60036451021  -0.0422204176532  
6.08074116707  1.33562469482  -1.3813422362  1.50536584854  -2.43871194521  -1.59998160997  -0.0424364248859  
6.0888261795  1.33617627621  -1.38106662432  1.50523424149  -2.4388311545  -1.59971791903  -0.0424960295307  
6.0969209671  1.33660817146  -1.38089925448  1.50510168076  -2.43878347078  -1.59948999086  -0.0425322691547  
6.10504508018  1.33688414097  -1.38076812426  1.50499391556  -2.43886739412  -1.5993827025  -0.0426281134235  
6.11310815811  1.33701562881  -1.38067180315  1.50503015518  -2.4388554732  -1.59931070009  -0.0426405111896  
6.12120199203  1.33694374561  -1.38060027758  1.50506591797  -2.43878347078  -1.59931070009  -0.0425084272968  
6.12931203842  1.33690810204  -1.3807199637  1.50513792038  -2.43873531023  -1.59944230715  -0.0425561110126  
6.1374270916  1.33680021763  -1.38069612185  1.50508975983  -2.43871194521  -1.59953815142  -0.0425561110126  
6.14554715157  1.33676433563  -1.3807199637  1.50515031815  -2.43874723116  -1.59950238863  -0.0425203482257  
6.1536090374  1.3367279768  -1.38078004519  1.50510168076  -2.43874723116  -1.59951430956  -0.0425561110126  
6.16167116165  1.33681225777  -1.38083964983  1.50516223907  -2.43874723116  -1.59946614901  -0.0425322691547  
6.16976618767  1.33693170547  -1.38111478487  1.50550985336  -2.4387233893  -1.59935886065  -0.0426042715656  
6.17786407471  1.33712339401  -1.38141376177  1.50597763062  -2.4386399428  -1.59933454195  -0.0427482763873  
6.18595719337  1.33731555939  -1.38188106218  1.50649356842  -2.4385321776  -1.59910709063  -0.0427964369403  
6.19408202171  1.33757925034  -1.38249093691  1.50710535049  -2.43852025667  -1.5990951697  -0.0429518858539  
6.20217609406  1.33784329891  -1.38331681887  1.50784921646  -2.43836480776  -1.59881955782  -0.0430000464069  
6.21026396751  1.33814322948  -1.38422614733  1.508664608  -2.43837672869  -1.59868795076  -0.0431197325336  
6.21835899353  1.33855032921  -1.38530379931  1.50963592529  -2.43831664721  -1.59842425982  -0.0432999769794  
6.22645115852  1.33899450302  -1.38648826281  1.51075172424  -2.43820888201  -1.59820872942  -0.0433839003192  
6.23457312584  1.33953416348  -1.38784104982  1.51199865341  -2.43816119829  -1.59794551531  -0.0436356703388  
6.24267601967  1.3401093483  -1.3893125693  1.51339054108  -2.43789750734  -1.59751397768  -0.0438035170185  
6.2507610321  1.34064900875  -1.39085704485  1.51481723785  -2.43784982363  -1.59711867968  -0.0440314451801  
6.25878715515  1.34130859375  -1.39259177843  1.51640129089  -2.43762189547  -1.59668714205  -0.0441992918598  
6.26687312126  1.34201598167  -1.3943751494  1.51811599731  -2.43750220934  -1.5962322394  -0.0444629828082  
6.27496004105  1.34280729294  -1.39634973208  1.51991462708  -2.43725043932  -1.59569341341  -0.0447867552387  
6.28307008743  1.34359908104  -1.39855224291  1.52185821533  -2.4371193091  -1.59517842928  -0.0450509230243  
6.29113006592  1.34445035458  -1.40080148378  1.52396917343  -2.43681937853  -1.5946152846  -0.0453742186176  
6.2992169857  1.34537351131  -1.40320712725  1.5261516571  -2.43659192721  -1.59406453768  -0.045661751424  
6.30732703209  1.34634494781  -1.40567237536  1.52845478058  -2.43631679216  -1.59346563021  -0.0459979216205  
6.31550598145  1.34735202789  -1.40834075609  1.53088998795  -2.43599349657  -1.59283095995  -0.0463693777667  
6.32356715202  1.34840738773  -1.41110545794  1.53345632553  -2.43564635912  -1.59217244784  -0.046777073537  
6.33165502548  1.34947431087  -1.41393024126  1.53610706329  -2.43540651003  -1.59144145647  -0.0471370855915  
6.33974218369  1.35058927536  -1.41699392  1.5388417244  -2.43507081667  -1.5907591025  -0.0475085417377  
6.34780812263  1.35171687603  -1.42003375689  1.54174423218  -2.43471175829  -1.59001619021  -0.0479763189899  
6.35587000847  1.35296392441  -1.42322856585  1.54470729828  -2.43430453936  -1.58923751513  -0.0484440962421  
6.36397004128  1.35422301292  -1.42656737963  1.5478014946  -2.43390971819  -1.58838731447  -0.0488398710834  
6.37205719948  1.35550618172  -1.43005019823  1.55111169815  -2.43352586428  -1.58759671846  -0.0492833296405  
6.38011598587  1.35688507557  -1.43367606798  1.5545296669  -2.4331668059  -1.58669835726  -0.0498111883747  
6.38821005821  1.35831189156  -1.4375298659  1.5580201149  -2.43271142641  -1.58571607271  -0.0503028074848  
6.39627218246  1.35979878902  -1.44144279162  1.56162977219  -2.43224507967  -1.58477002779  -0.0508425871478  
6.40433096886  1.36134576797  -1.4454758803  1.56529998779  -2.43182593981  -1.5838359038  -0.0514300505268  
6.41241812706  1.36291646957  -1.44965202013  1.56919813156  -2.43139440218  -1.58279449144  -0.0519698301898  
6.42050409317  1.36455905437  -1.45393592516  1.57313203812  -2.43095142046  -1.58172828356  -0.0525692144977  
6.4285671711  1.36625003815  -1.45829230944  1.57726955414  -2.43041259447  -1.58066207567  -0.0531929175006  
6.43666696548  1.36794090271  -1.46281558672  1.5815038681  -2.42995721499  -1.57946426073  -0.0538399855243  
6.44475197792  1.36977565289  -1.46754199663  1.58590555191  -2.42945462862  -1.57832652727  -0.0544274489032  
6.45284199715  1.37163388729  -1.4722331206  1.59040307999  -2.42890340487  -1.57714063326  -0.055135075246  
6.46092700958  1.3735408783  -1.47713977495  1.59496021271  -2.42838842074  -1.57595473925  -0.0558064619647  
6.46904301643  1.37553143501  -1.4821656386  1.59961414337  -2.42782575289  -1.57473355929  -0.0565021673786  
6.47715115547  1.37752187252  -1.48728686968  1.6043753624  -2.42725068728  -1.57351190249  -0.0572217146503  
6.48523616791  1.37954831123  -1.49267179171  1.60928058624  -2.42661649386  -1.57220632235  -0.0579407850849  
6.49333906174  1.38162279129  -1.49808055559  1.61431789398  -2.42610103289  -1.57085258165  -0.0586603323566  
6.50150108337  1.38372147083  -1.50366908709  1.61941480637  -2.42551404635  -1.56952315966  -0.0594161192523  
6.50959014893  1.38586783409  -1.50934058825  1.62466812134  -2.42485553423  -1.56812221209  -0.060207668935  
6.51768517494  1.38805043697  -1.51514465014  1.63007688522  -2.42423326174  -1.56675655047  -0.0610106627094  
6.52581596375  1.39034056664  -1.52106792132  1.63555812836  -2.42356235186  -1.56527167956  -0.0618498961078  
6.53387713432  1.39257109165  -1.52712232271  1.6411948204  -2.42293960253  -1.56377441088  -0.0626538435565  
6.54197406769  1.39492154121  -1.53337985674  1.64693927765  -2.42222100893  -1.5623014609  -0.0635407606708  
6.55010199547  1.39733183384  -1.53968602816  1.652780056  -2.42151433626  -1.56074458758  -0.0644167105304  
6.55821013451  1.39977812767  -1.54598027865  1.658680439  -2.42080814043  -1.55929500261  -0.0652917067157  
6.56629514694  1.4021525383  -1.55203468004  1.66417312622  -2.42019683519  -1.55778581301  -0.0661791006671  
6.57436609268  1.40445494652  -1.55793363253  1.66948604584  -2.41965800921  -1.55634862581  -0.0669706503498  
6.58246302605  1.40667319298  -1.56374866167  1.67475032806  -2.41909534136  -1.55492335955  -0.0677979628192  
6.59058403969  1.40881979465  -1.56933671633  1.67997980118  -2.41843682924  -1.55354625383  -0.0685771147357  
6.59868907928  1.41298103333  -1.58003408114  1.69013738632  -2.4172390143  -1.55093557039  -0.0700643698322  
6.60678696632  1.41483962536  -1.58521491686  1.69493436813  -2.4166281859  -1.54965383211  -0.0707958380329  
6.61489796638  1.41671073437  -1.59026414553  1.69968366623  -2.41611320177  -1.54842025438  -0.0714314619647  
6.62300109863  1.41854500771  -1.59518176714  1.70424079895  -2.41558629671  -1.54729396502  -0.0720909277545  
6.63106513023  1.42036771774  -1.59996730486  1.70868968964  -2.41504747072  -1.5460489432  -0.0727623144733  
6.63915205002  1.42201066017  -1.60463363329  1.71303129196  -2.41461640993  -1.54489881197  -0.0733860174762  
6.6472389698  1.42373752594  -1.60918075243  1.71724033356  -2.41413766543  -1.54382068316  -0.0739496389972  
6.6553311348  1.42541646957  -1.61361962954  1.72135400772  -2.41369420687  -1.54276687304  -0.0745490233051  
6.6634311676  1.42702353001  -1.61798650423  1.72534704208  -2.41319114367  -1.54167682329  -0.0751126448261  
6.67151904106  1.42864251137  -1.62216216723  1.72929239273  -2.41277248064  -1.54061109224  -0.0756524244892  
6.67961716652  1.43022549152  -1.62620622316  1.73304653168  -2.4122932593  -1.53960496584  -0.0761922041522  
6.68774700165  1.43178427219  -1.63020307222  1.7366437912  -2.41190988222  -1.53864699999  -0.0766952673541  
6.6958091259  1.43322348595  -1.63404304186  1.74008512497  -2.41150266329  -1.53774863878  -0.0772231260883  
6.70390915871  1.43471062183  -1.63772803942  1.74343156815  -2.411155049  -1.53685027758  -0.0777028242694  
6.71197104454  1.43608951569  -1.6412580649  1.74672889709  -2.41073638598  -1.53602391878  -0.0782187620746  
6.72005414963  1.43748044968  -1.64464408556  1.7498831749  -2.41034108797  -1.53518563906  -0.0786264578449  
6.72815608978  1.43873953819  -1.64787418047  1.75294065475  -2.40994578997  -1.53439504305  -0.079081837331  
6.73622012138  1.43991482258  -1.65096122423  1.75581884384  -2.40957433382  -1.53359252611  -0.0794895331012  
6.7443151474  1.44103038311  -1.65397578875  1.75860118866  -2.40935880343  -1.53289825121  -0.0798972288715  
6.7524471283  1.4421813488  -1.6568830649  1.76135921478  -2.40900022188  -1.5322154204  -0.0802806059467  
6.76052212715  1.44324862957  -1.65968305269  1.76387739182  -2.40871221224  -1.53150874773  -0.080676380788  
6.76860809326  1.44422006607  -1.66232711474  1.76629972458  -2.40840131441  -1.5308859984  -0.0809763113605  
6.77666807175  1.44517958164  -1.66487533251  1.76858997345  -2.40819722811  -1.53027517  -0.0813000837909  
6.78475618362  1.44604325294  -1.66730434099  1.77088069916  -2.40789777437  -1.52970058123  -0.0816114584552  
6.79281997681  1.44688248634  -1.6694577376  1.77296733856  -2.40762263933  -1.52918512026  -0.0819357077228  
6.80090618134  1.44771015644  -1.67156392733  1.7749581337  -2.4074309508  -1.52871829668  -0.0822470823871  
6.80899906158  1.44838130474  -1.67354995409  1.77681684494  -2.4071911017  -1.52821571032  -0.0825589338886  
6.81709313393  1.4491250515  -1.67535621325  1.77854347229  -2.40696412722  -1.52779609362  -0.0828350226032  
6.82519197464  1.44976055622  -1.67711478869  1.78016233444  -2.40672427813  -1.52738887468  -0.0830867926227  
6.83328700066  1.45034813881  -1.67874223391  1.7816491127  -2.40661651293  -1.52699357668  -0.0832665602313  
6.84138202667  1.45097136497  -1.68023759524  1.78300380707  -2.40643674532  -1.52662212053  -0.0835064093219  
6.84949707985  1.45147538185  -1.68168527285  1.78423976898  -2.4063890616  -1.5263226668  -0.0837224165546  
6.8575630188  1.45191919804  -1.68291742006  1.78535461426  -2.40622169176  -1.52604753176  -0.0838421026813  
6.86565208435  1.45237505436  -1.68406612078  1.78636217117  -2.40613776842  -1.52574807802  -0.0840337912189  
6.8737449646  1.45272254944  -1.68503505388  1.78722572327  -2.40608960787  -1.52550870577  -0.0842021147357  
6.88182997704  1.45298624039  -1.68592054049  1.7879691124  -2.40592176119  -1.52531701723  -0.0842621962177  
6.88991498947  1.45328617096  -1.68662625948  1.78868818283  -2.40589791933  -1.52513724962  -0.0844300428974  
6.89800310135  1.45355021954  -1.68720037142  1.78922796249  -2.40583783785  -1.52493411699  -0.0844057242023  
6.90611410141  1.45372998714  -1.68764335314  1.78959989548  -2.40576631228  -1.5248020331  -0.0844896475421  
6.91424417496  1.45376586914  -1.68794233004  1.78992366791  -2.40580207506  -1.52479011217  -0.0845134894  
6.9223690033  1.45384979248  -1.68808585802  1.79011535645  -2.40579015413  -1.52471810976  -0.0844658056842  
6.93049311638  1.45389807224  -1.68809777895  1.7901391983  -2.40581399599  -1.52476627031  -0.0845378080951  
6.93859505653  1.45384979248  -1.68808585802  1.79010343552  -2.4058859984  -1.5248020331  -0.0843218008624  
6.94669818878  1.45382583141  -1.68795425097  1.78997135162  -2.40595800081  -1.52477819124  -0.0844300428974  
6.95478415489  1.45380187035  -1.68788272539  1.78991127014  -2.40592176119  -1.5248263518  -0.0843699614154  
6.96287107468  1.45380187035  -1.68789464632  1.78995943069  -2.40593368212  -1.5248263518  -0.0844057242023  
6.97093605995  1.45381391048  -1.68793040911  1.79003143311  -2.40586215654  -1.52474242846  -0.0844057242023  
6.9790251255  1.4541374445  -1.68816930452  1.79031896591  -2.40581399599  -1.52457458178  -0.0845015684711  
6.98711109161  1.45449733734  -1.68851644198  1.7906908989  -2.40581399599  -1.52451450029  -0.0845015684711  
6.99523019791  1.45495307446  -1.6890428702  1.79123067856  -2.40574199358  -1.52420360247  -0.0845854918109  
7.00332403183  1.45560097694  -1.68972522417  1.79175806046  -2.40563422838  -1.52407151857  -0.0847056547748  
7.0113940239  1.45638036728  -1.69057447115  1.79252529144  -2.40563422838  -1.52366429964  -0.0847175757038  
7.01941299438  1.45721960068  -1.69150764147  1.79325723648  -2.40550262133  -1.52328092257  -0.0849335829364  
7.02753305435  1.45816707611  -1.69257241884  1.79421663284  -2.40547877947  -1.52287370363  -0.0849812666522  
7.03563308716  1.45927047729  -1.69380456606  1.7952837944  -2.40539485613  -1.52245456377  -0.085185352956  
7.04369807243  1.46046960354  -1.6951807181  1.79650688171  -2.40523940722  -1.5219634215  -0.0852449576007  
7.05175900459  1.46182489395  -1.69660455385  1.79782533646  -2.40513116518  -1.52138883272  -0.0854008833515  
7.05983996391  1.46322786808  -1.6981232802  1.79926490784  -2.40497571627  -1.52078992525  -0.0855210463153  
7.06790113449  1.46479892731  -1.69981033007  1.80081176758  -2.40492803255  -1.52015477816  -0.0857489744769  
7.0759871006  1.4664298296  -1.70165330568  1.80251455307  -2.40465289751  -1.51943618456  -0.0859406630145  
7.08409500122  1.46822857857  -1.70360309282  1.80426502228  -2.40456897417  -1.5187180678  -0.0861685911762  
7.09217810631  1.47009968758  -1.70569688479  1.80614805222  -2.40432912508  -1.51786786715  -0.0863602797138  
7.10029006004  1.47222197056  -1.70793420473  1.80825805664  -2.40424520174  -1.51708919207  -0.0866239706623  
7.10835409164  1.47435665131  -1.71024305025  1.81030845642  -2.40394622484  -1.51609498659  -0.0868399778949  
7.1164419651  1.47655165195  -1.71276742617  1.81250333786  -2.40383798281  -1.51519710222  -0.0871756712543  
7.12453508377  1.47888970375  -1.71539956728  1.81487751007  -2.40352660814  -1.51419097582  -0.0874994436847  
7.13262414932  1.48133635521  -1.71813947359  1.81726360321  -2.40329915682  -1.5131371657  -0.0877993742572  
7.14071106911  1.48390293121  -1.72104627291  1.81984186172  -2.40314323107  -1.51208287874  -0.0881112257587  
7.14879202843  1.48662519455  -1.72404891649  1.82253980637  -2.40284425417  -1.5109093825  -0.088410679494  
7.15688800812  1.48937141895  -1.72712356249  1.82545423508  -2.40262872378  -1.5096877257  -0.0887349287616  
7.16495013237  1.4923094511  -1.73039037386  1.82831954956  -2.40237743059  -1.50848991076  -0.0890825430499  
7.17304110527  1.49543988705  -1.73391944567  1.8313293457  -2.40212566057  -1.50716048876  -0.0894301573383  
7.18112802505  1.49864196777  -1.73736459414  1.83451890945  -2.40182620684  -1.50581914583  -0.0898016134845  
7.18922114372  1.50199985504  -1.74100190798  1.83774471283  -2.40143090883  -1.50453788439  -0.0901973883258  
7.19733309746  1.50544190407  -1.74478227297  1.8411026001  -2.40111953417  -1.50304061571  -0.0905454794513  
7.20544910431  1.50905179977  -1.74871808687  1.84454345703  -2.40085632006  -1.50150758425  -0.0909770170795  
7.21357107162  1.51258969307  -1.75280982653  1.84814071655  -2.40053254763  -1.49997502962  -0.0914328734027  
7.22167205811  1.51627147198  -1.75702125231  1.85180997849  -2.40026933352  -1.4984181563  -0.0918763319599  
7.22976398468  1.5200971365  -1.76130372683  1.85559940338  -2.39999372164  -1.49682504336  -0.0923202673541  
7.23784708977  1.52399456501  -1.76568204561  1.85958003998  -2.39959890047  -1.49514896074  -0.0927875677692  
7.24593305588  1.5281444788  -1.7701681296  1.86362075806  -2.39925128618  -1.49343568483  -0.0933273474323  
7.25401616096  1.5325101614  -1.77481013933  1.86782979965  -2.39890462557  -1.49162751833  -0.0938552061664  
7.2621011734  1.53693532944  -1.7795475165  1.87221813202  -2.39846116701  -1.4897831122  -0.0943105856525  
7.27018809319  1.54137289524  -1.78439265886  1.87669086456  -2.39804202715  -1.48792678515  -0.0948742071735  
7.27824997902  1.54582238197  -1.78948909441  1.88113927841  -2.39765865008  -1.48608285586  -0.0953896681415  
7.28633308411  1.55040371418  -1.79468089739  1.88563585281  -2.39737111727  -1.48409444491  -0.0959294478046  
7.29442214966  1.55511724949  -1.80006486574  1.89040756226  -2.39695197741  -1.48205835024  -0.0964930693256  
7.30257105827  1.56013035774  -1.80551988283  1.89526414871  -2.39654523531  -1.48002225557  -0.0971048513996  
7.31071996689  1.57049262524  -1.81677657763  1.90544366837  -2.39556247393  -1.47554380098  -0.0983637014972  
7.31880617142  1.575745821  -1.82254249254  1.91061115265  -2.39520341555  -1.47341186205  -0.0989392439472  
7.32687306404  1.58109533787  -1.82844049135  1.91598320007  -2.39473706881  -1.47110063234  -0.099598709737  
7.3349339962  1.58639609814  -1.83444577852  1.92131853104  -2.39423352877  -1.46883660952  -0.100318733846  
7.34301710129  1.59180510044  -1.84043914477  1.92666625977  -2.39373046557  -1.46659738222  -0.100941960012  
7.35110402107  1.59713053703  -1.84613401095  1.93161821365  -2.39338332811  -1.4644296805  -0.101529423391  
7.35919308662  1.60216808319  -1.85181600252  1.93642616272  -2.3930237929  -1.46238214174  -0.102116886769  
7.3672811985  1.60703742504  -1.85727054278  1.9411854744  -2.39260512987  -1.46015435854  -0.102692429219  
7.37536907196  1.61172699928  -1.86249858538  1.94592189789  -2.39213782946  -1.45813066164  -0.103196446096  
7.38347196579  1.61627280712  -1.8675587813  1.95059776306  -2.39170676867  -1.45605880419  -0.103771988546  
7.39156413078  1.62079453468  -1.87255889574  1.95513010025  -2.39121562639  -1.4541905562  -0.104287449514  
7.39965200424  1.62528038025  -1.87739164034  1.95949459076  -2.3908088843  -1.45233422915  -0.10479146639  
7.40771508217  1.62979018688  -1.88214093844  1.96372699738  -2.39041358629  -1.45048982302  -0.105318848287  
7.415776968  1.63407194614  -1.88674670855  1.96783876419  -2.39004213015  -1.44874126116  -0.105738464986  
7.4238409996  1.63807809353  -1.89119655291  1.97187948227  -2.3896949927  -1.44699317614  -0.106230084096  
