Ethan-CYM/ros_catkin_ws/test/moveJ_正常操作/ur_joint_target_current.txt
time  shoulder_pan_joint  shoulder_lift_joint  elbow_joint  wrist_1_joint  wrist_2_joint  wrist_3_joint
0.146218061447  -0.0031070290538  -2.16634634135  -1.01610230663  -0.161164683817  -0.223770996327  0.0  
0.154344081879  0.00164895960435  -2.16634440644  -1.0161019265  -0.161164149981  -0.144268396864  0.0  
0.162316083908  0.00310710488716  -2.16634273965  -1.01610159914  -0.161163690234  -0.0749781532116  0.0  
0.170372009277  0.00145828204337  -2.16634350778  -1.0161017494  -0.161163901307  0.0235752829061  0.0  
0.178440093994  4.19587306983e-17  -2.16634429427  -1.01610190339  -0.161164117604  -1.80859113897e-05  0.0  
0.186555147171  4.19587306983e-17  -2.16634429427  -1.01610190339  -0.161164117604  -1.80859113897e-05  0.0  
0.19463300705  4.19587306983e-17  -2.16634429427  -1.01610190339  -0.161164117604  -1.80859113897e-05  0.0  
0.20272397995  0.00310717152812  -2.16634316833  -1.01610168351  -0.16116380871  0.228947952429  0.0  
0.210810184479  0.00310742759199  -2.16634481721  -1.01610200767  -0.161164263929  0.23366032924  0.0  
0.218949079514  -0.00164879955666  -2.1663452168  -1.01610208673  -0.161164374911  0.154223184603  0.0  
0.22708106041  -0.00310735135714  -2.16634426635  -1.01610190068  -0.161164113583  0.0825032236473  0.0  
0.235267162323  -0.00145841536469  -2.16634422619  -1.0161018928  -0.161164102523  -0.0235917254496  0.0  
0.243342161179  4.26555890296e-17  -2.16634429765  -1.0161019068  -0.161164122177  1.64336784558e-06  0.0  
0.251368045807  4.26555890296e-17  -2.16634429765  -1.0161019068  -0.161164122177  1.64336784558e-06  0.0  
0.259471178055  4.26555890296e-17  -2.16634429765  -1.0161019068  -0.161164122177  1.64336784558e-06  0.0  
0.267604112625  -5.39996095532e-05  -2.16582073179  -1.01591264624  -0.147317681368  1.64175831111e-06  0.237121674622  
0.275761127472  -5.39972740014e-05  -2.16582119545  -1.01591310601  -0.135574090599  1.64176889862e-06  0.241369518575  
0.283729076385  -5.39933813814e-05  -2.16582196821  -1.01591387228  -0.123825182743  1.64178654426e-06  0.24563499371  
0.291910171509  -5.39879316424e-05  -2.16582305005  -1.01591494503  -0.112070957771  1.64181124773e-06  0.249918100028  
0.300085067749  -5.39809247139e-05  -2.16582444092  -1.01591632422  -0.10031141564  1.64184300859e-06  0.254218837528  
0.308175086975  -5.39723605043e-05  -2.1658261408  -1.01591800982  -0.088546556296  1.6418818263e-06  0.258537206209  
0.316106081009  -5.39622389025e-05  -2.16582814963  -1.01592000178  -0.0767763796718  1.64192770016e-06  0.262873206074  
0.324289083481  -5.39505597768e-05  -2.16583046736  -1.01592230003  -0.0650008856892  1.64198062939e-06  0.26722683712  
0.332349061966  -5.3937322976e-05  -2.16583309392  -1.01592490451  -0.0532200742576  1.64204061305e-06  0.271598099349  
0.340373039246  -5.39225283272e-05  -2.16583602924  -1.01592781515  -0.0414339452741  1.64210765009e-06  0.275986992759  
0.348462104797  -5.39061756387e-05  -2.16583927324  -1.01593103186  -0.0296424986239  1.64218173936e-06  0.280393517352  
0.356570005417  -5.38882646984e-05  -2.16584282581  -1.01593455454  -0.0178457341801  1.64226287954e-06  0.284817673128  
0.364660024643  -5.3868795273e-05  -2.16584668686  -1.0159383831  -0.00604365180354  1.64235106923e-06  0.289259460085  
0.372714042664  -5.38477671106e-05  -2.16585085629  -1.01594251741  0.00576374865684  1.64244630688e-06  0.293718878225  
0.380815982819  -5.38251799379e-05  -2.16585533396  -1.01594695736  0.0175764673643  1.64254859083e-06  0.298195927547  
0.388931035995  -5.27026332046e-05  -2.1658707906  -1.01595556823  0.029110611249  1.64269077728e-06  0.301570873456  
0.396979093552  5.40424104676e-05  -2.16691251874  -1.0163359897  0.013106317264  1.64599298129e-06  0.197182018594  
0.405197143555  5.4019860574e-05  -2.1669170327  -1.01634060058  0.00128156690099  1.64609487277e-06  0.192705328453  
0.413177967072  5.39988667628e-05  -2.16692123434  -1.01634489245  -0.0105370267989  1.64618971962e-06  0.188246269494  
0.421290159225  5.39794293071e-05  -2.16692512379  -1.01634886544  -0.0223494639986  1.6462775235e-06  0.183804841718  
0.429301977158  5.39615484593e-05  -2.16692870115  -1.01635251965  -0.0341557448492  1.64635828594e-06  0.179381045124  
0.437345981598  5.39452244515e-05  -2.16693196654  -1.0163558552  -0.0459558694893  1.64643200837e-06  0.174974879712  
0.445459127426  5.3930457496e-05  -2.16693492005  -1.01635887217  -0.0577498380457  1.64649869208e-06  0.170586345482  
0.453566074371  5.39172477843e-05  -2.16693756176  -1.01636157066  -0.0695376506331  1.64655833823e-06  0.166215442435  
0.461639165878  5.39055954879e-05  -2.16693989176  -1.01636395073  -0.081319307354  1.64661094788e-06  0.16186217057  
0.469743967056  5.3895500758e-05  -2.1669419101  -1.01636601246  -0.0930948082989  1.64665652194e-06  0.157526529887  
0.477859020233  5.38869637254e-05  -2.16694361686  -1.0163677559  -0.104864153546  1.64669506122e-06  0.153208520386  
0.48606801033  5.38799845009e-05  -2.16694501207  -1.01636918111  -0.116627343162  1.64672656638e-06  0.148908142068  
0.494214057922  5.38745631754e-05  -2.16694609579  -1.01637028812  -0.128384377201  1.64675103799e-06  0.144625394932  
0.502372980118  5.38706998186e-05  -2.16694686804  -1.01637107697  -0.140135255704  1.64676847647e-06  0.140360278978  
0.510257005692  5.38683944809e-05  -2.16694732884  -1.01637154768  -0.151879978703  1.64677888214e-06  0.136112794206  
0.518316030502  5.27702589173e-05  -2.1669368064  -1.01636783086  -0.163336522923  1.6467493954e-06  -0.0494332700967  
0.526509046555  6.06684444004e-17  -2.16642362677  -1.0161817593  -0.161271303247  1.64516919295e-06  0.0  
0.534653186798  6.06684444004e-17  -2.16642362677  -1.0161817593  -0.161271303247  1.64516919295e-06  0.0  
0.542724132538  4.30946170551e-05  -2.16684258353  -1.01633358537  -0.172320988019  1.64645683027e-06  -0.231733816215  
0.550790071487  4.30961127866e-05  -2.16684221018  -1.01633320511  -0.181687077197  1.6464483893e-06  -0.236144078149  
0.558796167374  4.30986056553e-05  -2.16684158793  -1.01633257132  -0.191056104494  1.64643432089e-06  -0.24057351745  
0.566840171814  4.31020956352e-05  -2.16684071675  -1.016331684  -0.200428069893  1.64641462483e-06  -0.245022134116  
0.575128078461  4.31065826901e-05  -2.16683959663  -1.01633054312  -0.209802973365  1.64638930085e-06  -0.249489928149  
0.583034992218  4.31120667736e-05  -2.16683822754  -1.01632914866  -0.219180814876  1.6463583486e-06  -0.253976899549  
0.591217041016  4.31185478286e-05  -2.16683660945  -1.01632750059  -0.228561594384  1.64632176764e-06  -0.258483048314  
0.59926700592  4.31260257881e-05  -2.16683474232  -1.01632559887  -0.237945311837  1.64627955746e-06  -0.263008374446  
0.607242107391  4.31345005742e-05  -2.1668326261  -1.01632344345  -0.247331967178  1.64623171747e-06  -0.267552877944  
0.615377187729  4.3143972099e-05  -2.16683026076  -1.01632103429  -0.256721560341  1.64617824699e-06  -0.272116558808  
0.623443126678  4.31544402642e-05  -2.16682764622  -1.01631837133  -0.266114091253  1.64611914528e-06  -0.276699417038  
0.631592988968  4.31659049613e-05  -2.16682478244  -1.01631545452  -0.275509559832  1.6460544115e-06  -0.281301452635  
0.63968205452  4.31783660709e-05  -2.16682166935  -1.01631228378  -0.284907965989  1.64598404475e-06  -0.285922665598  
0.647763967514  4.31918234636e-05  -2.16681830687  -1.01630885904  -0.294309309628  1.64590804404e-06  -0.290563055927  
0.65583896637  4.32062769996e-05  -2.16681469492  -1.01630518022  -0.303713590644  1.64582640831e-06  -0.295222623623  
0.663957118988  4.32217265286e-05  -2.16681083342  -1.01630124724  -0.313120808925  1.64573913641e-06  -0.299901368684  
0.672199010849  4.32381718901e-05  -2.16680672228  -1.01629706002  -0.322530964351  1.64564622711e-06  -0.304599291112  
0.680377006531  3.26517001484e-05  -2.16669941732  -1.01625535317  -0.329215257563  1.6452306927e-06  -0.295757881672  
0.688289165497  -4.3060415644e-05  -2.16596004552  -1.01598491253  -0.316832609425  1.64286949935e-06  -0.202520758027  
0.696319103241  -4.30766204344e-05  -2.16595602602  -1.01598091476  -0.30741227327  1.64277779237e-06  -0.197827547273  
0.7043800354  -4.30918274421e-05  -2.16595225334  -1.01597716249  -0.297995545025  1.64269172107e-06  -0.193153513884  
0.712531089783  -4.31060368246e-05  -2.1659487276  -1.01597365579  -0.28858242481  1.64261128667e-06  -0.188498657862  
0.720690011978  -4.31192487295e-05  -2.16594544885  -1.01597039475  -0.279172912733  1.64253649028e-06  -0.183862979206  
0.728738069534  -4.31314632942e-05  -2.16594241718  -1.01596737945  -0.269767008898  1.64246733296e-06  -0.179246477917  
0.736884117126  -4.31426806454e-05  -2.16593963266  -1.01596460995  -0.260364713399  1.64240381566e-06  -0.174649153993  
0.745143175125  -4.31529008999e-05  -2.16593709535  -1.01596208633  -0.250966026324  1.64234593929e-06  -0.170071007436  
0.753192186356  -4.31621241635e-05  -2.16593480531  -1.01595980864  -0.241570947752  1.64229370464e-06  -0.165512038245  
0.761245965958  -4.31703505325e-05  -2.16593276259  -1.01595777693  -0.232179477754  1.64224711245e-06  -0.16097224642  
0.769339084625  -4.31775800922e-05  -2.16593096724  -1.01595599125  -0.222791616394  1.64220616337e-06  -0.156451631962  
0.777445077896  -4.31838129177e-05  -2.16592941929  -1.01595445165  -0.213407363729  1.64217085798e-06  -0.15195019487  
0.785585165024  -4.31890490742e-05  -2.16592811879  -1.01595315815  -0.204026719807  1.64214119675e-06  -0.147467935144  
0.793673992157  -4.31932886159e-05  -2.16592706576  -1.0159521108  -0.194649684669  1.64211718012e-06  -0.143004852784  
0.801774978638  -4.31965315869e-05  -2.16592626023  -1.01595130961  -0.185276258346  1.64209880841e-06  -0.138560947791  
0.809988021851  -4.31987780209e-05  -2.16592570222  -1.0159507546  -0.175906440866  1.64208608189e-06  -0.134136220163  
0.818003177643  -4.32000279414e-05  -2.16592539173  -1.01595044578  -0.166540232244  1.64207900072e-06  -0.129730669903  
0.826286077499  -3.2586458129e-05  -2.1660282593  -1.01598760529  -0.159891951704  1.64239444459e-06  0.0380634720814  
0.834329128265  4.26555890296e-17  -2.16634429765  -1.0161019068  -0.161164122177  1.64336784558e-06  0.0  
0.842339992523  4.26555890296e-17  -2.16634429765  -1.0161019068  -0.161164122177  1.64336784558e-06  0.0  
0.850425004959  4.26555890296e-17  -2.16634429765  -1.0161019068  -0.161164122177  1.64336784558e-06  0.0  
0.85854101181  0.00916785269565  -2.72926933641  -1.03011478665  -0.137272361142  -0.0489366630855  -0.231733816215  
0.866604089737  0.00442082965355  -2.90677201447  -1.02547495036  -0.110714866995  -0.0901371402012  -0.236144078149  
0.874726057053  -0.000324217121046  -2.91218056806  -1.02088261536  -0.084124848228  -0.131386295309  -0.24057351745  
0.882815122604  -0.00506728940217  -2.91748070125  -1.01633776192  -0.0575023026457  -0.172684128107  -0.245022134116  
0.890933036804  -0.00980838967444  -2.92267235313  -1.01184036238  -0.0308472271734  -0.175361362206  -0.249489928149  
0.899146080017  -0.014547521134  -2.92775544537  -1.00739038121  -0.00415961785841  -0.176108494538  -0.253976899549  
0.907227993011  -0.0192846876899  -2.93272988228  -1.00298777492  0.0225605301297  -0.176856750973  -0.258483048314  
0.915359973907  -0.0240198939653  -2.93759555085  -0.998632492135  0.0251922473008  -0.17760613073  -0.263008374446  
0.923397064209  -0.0287531452997  -2.94235232077  -0.994324473488  0.0256406761354  -0.178356632904  -0.267552877944  
0.93147611618  -0.0334844477506  -2.94700004443  -0.990063651677  0.026092514467  -0.179108256472  -0.272116558808  
0.939645051956  -0.038213808096  -2.95153855703  -0.985849951408  0.0265477706329  -0.179861000284  -0.276699417038  
0.947700977325  -0.0429412338371  -2.95596767656  -0.981683289392  0.0270064538458  -0.180614863072  -0.281301452635  
0.955809116364  -0.0476667332011  -2.9602872039  -0.977563574309  0.0274685741929  -0.181369843443  -0.285922665598  
0.963920116425  -0.0523903151443  -2.96449692282  -0.973490706794  0.0279341426356  -0.182125939879  -0.290563055927  
0.971955060959  -0.0571119893556  -2.96859660011  -0.969464579403  0.0284031710082  -0.18288315074  -0.295222623623  
0.98005604744  -0.06183176626  -2.97258598558  -0.965485076587  0.0288756720171  -0.18364147426  -0.299901368684  
0.988212108612  -0.066549657023  -2.97646481217  -0.961552074659  0.0293516592402  -0.184400908547  -0.304599291112  
0.996263027191  -0.0712656735542  -2.98023279599  -0.957665441762  0.0298311471255  -0.185161451582  -0.309316390906  
1.00441098213  -0.0759798285123  -2.98388963644  -0.953825037833  0.0303141509902  -0.185923101221  -0.314052668067  
1.01252102852  -0.0806921353095  -2.98743501628  -0.950030714564  0.0308006870191  -0.186685855187  -0.318808122594  
1.02059412003  -0.0854026081167  -2.99086860169  -0.946282315363  0.0312907722642  -0.187449711079  -0.323582754487  
1.02869701385  -0.0901112618684  -2.9941900424  -0.942579675312  0.0317844246426  -0.188214666363  -0.328376563746  
1.03684210777  -0.0948181122689  -2.99739897179  -0.938922621127  0.0322816629354  -0.188980718374  -0.333189550371  
1.04486703873  -0.0995231757971  -3.00049500695  -0.935310971104  0.0327825067862  -0.189747864314  -0.338021714363  
1.05301213264  -0.104226469713  -3.00347774885  -0.93174453508  0.0332869766995  -0.190516101253  -0.342873055721  
1.06117916107  -0.108928012065  -3.00634678243  -0.928223114376  0.0337950940394  -0.191285426126  -0.347743574445  
1.06928014755  -0.131483966739  -2.56590019025  -0.898658014044  0.0384750009906  -0.175983223773  -0.248611003776  
1.07734799385  -0.128494147012  -2.5295165224  -0.902525001734  0.0384603374548  -0.174305485359  -0.23768223356  
1.08536410332  -0.123790154799  -2.52094380622  -0.908585313962  0.0381246355664  -0.173566350217  -0.232847760771  
1.0934920311  -0.119084089508  -2.51249061809  -0.914587109171  0.0377855142248  -0.17282711438  -0.228032465349  
1.1015150547  -0.114375967257  -2.50415734583  -0.920530567039  0.0374429558598  -0.17208778096  -0.223236347293  
1.10960698128  -0.109665803496  -2.49594435935  -0.926415859645  0.0370969436879  -0.171348352939  -0.218459406603  
1.11772108078  -0.104953613001  -2.48785201076  -0.932243151423  0.0367474617111  -0.170608833168  -0.21370164328  
1.12582206726  -0.100239409864  -2.47988063447  -0.938012599114  0.0363944947155  -0.169869224365  -0.208963057323  
1.13393712044  -0.0955232074951  -2.47203054724  -0.943724351729  0.0360380282702  -0.169129529114  -0.204243648732  
1.14220309258  -0.09080501861  -2.46430204833  -0.949378550501  0.0356780487259  -0.168389749867  -0.199543417507  
1.15030217171  -0.0860848552299  -2.45669541954  -0.954975328856  0.0353145432142  -0.167649888939  -0.194862363649  
1.15830516815  -0.0813627286752  -2.44921092533  -0.960514812368  0.0349474996462  -0.166909948511  -0.190200487156  
1.16637611389  -0.0766386495612  -2.44184881285  -0.965997118733  0.0345769067117  -0.166169930627  -0.18555778803  
1.17446208  -0.0719126277948  -2.43460931205  -0.971422357732  0.0342027538784  -0.165429837193  -0.180934266271  
1.18255019188  -0.0671846725701  -2.42749263572  -0.976790631204  0.0338250313904  -0.164689669981  -0.176329921877  
1.1907479763  -0.0577229949409  -2.41362852224  -0.987356649056  0.0330588423078  -0.163209120604  -0.167178765189  
1.19880008698  -0.0529892873331  -2.40688142544  -0.992554557172  0.0326703600791  -0.162468741286  -0.162631952894  
1.20692706108  -0.0482536758554  -2.40025783393  -0.99769582719  0.0322782769266  -0.161728293881  -0.158104317966  
1.21492314339  -0.0435161660938  -2.39375787556  -1.00278052088  0.00657955329036  -0.160987779462  -0.153595860404  
1.22300219536  -0.0387767629058  -2.38738166135  -1.00780869193  -0.0200726255844  -0.160247198964  -0.149106580208  
1.23111200333  -0.0340354704181  -2.38112928546  -1.01278038595  -0.0466992717812  -0.15950655318  -0.144636477378  
1.23922896385  -0.0292922920253  -2.37500082529  -1.01769564045  -0.0733003888648  -0.121161388757  -0.140185551914  
1.24730801582  -0.0245472303885  -2.36899634145  -1.02255448483  -0.099875979628  -0.07990949078  -0.135753803817  
1.25538611412  -0.0198002874347  -2.23073912779  -1.02735694039  -0.126426046092  -0.0387050810174  -0.131341233086  
1.26351213455  -0.0150514643558  -1.89734038073  -1.03267020367  -0.152950589507  0.00245184030226  0.015907180034  
1.27161097527  -0.00174322667455  -2.05972962528  -1.04912857421  -0.158466756925  0.000537088357624  0.00607512006135  
1.27986001968  -1.42819309025e-16  -2.08741988025  -1.05138117191  -0.158784917817  -0.000402728169246  0.0  
1.28787899017  -1.42819309025e-16  -2.08741988025  -1.05138117191  -0.158784917817  -0.000402728169246  0.0  
1.29612803459  -1.42819309025e-16  -2.08741988025  -1.05138117191  -0.158784917817  -0.000402728169246  0.0  
1.30418515205  -0.0158929577949  -3.10747631899  -1.54700670304  0.0671239668578  0.0118384235168  0.0  
1.31210207939  -0.0460879607931  -3.11967547901  -1.84444616334  0.0719003882245  0.0223962207318  0.0  
1.32022619247  -0.076289798588  -3.13172286839  -1.85016401502  0.0766904014941  0.0329578820173  0.0  
1.32830810547  -0.10649847457  -3.14361821693  -1.85603435461  0.0814940141769  0.043523407596  0.0  
1.33648109436  -0.136713993525  -3.1553611464  -1.86205692528  0.0863112368001  0.0540927977797  0.0  
1.34444904327  -0.166936361675  -3.16695117054  -1.8682313965  0.0911420829203  0.0646660529694  0.0  
1.35256314278  -0.197165586728  -3.17838769517  -1.8745573637  0.0959865691403  0.0752431736552  0.0  
1.36062502861  -0.227401677941  -3.18967001818  -1.881034348  0.100844715129  0.0858241604165  0.0  
1.36872911453  -0.257644646195  -3.20079732966  -1.88766179579  0.105716543643  0.096409013922  0.0  
1.37681007385  -0.287894504077  -3.21176871195  -1.89443907829  0.110602080558  0.10699773493  0.0  
1.3850171566  -0.318151265986  -3.22258313974  -1.90136549106  0.115501354896  0.117590324287  0.0  
1.39320206642  -0.348414948231  -3.23323948018  -1.90844025341  0.120414398861  0.12818678293  0.0  
1.40115809441  -0.378685569162  -3.24373649303  -1.91566250781  0.125341247874  0.138787111886  0.0  
1.40927410126  -0.408963149298  -3.25407283075  -1.92303131919  0.130281940621  0.14939131227  0.0  
1.41725111008  -0.439247711474  -3.2642470387  -1.93054567423  0.13523651909  0.159999385287  0.0  
1.42541599274  -0.469539281  -3.27425755531  -1.93820448056  0.140205028624  0.170611332233  0.0  
1.4334590435  -0.488779221753  -3.28410271224  -1.94600656592  0.145187517974  0.178290944052  0.0  
1.44152617455  -0.488965623593  -3.29378073461  -1.95395067729  0.150184039348  0.178469099046  0.0  
1.44962716103  -0.489136714199  -3.30328974124  -1.9620354799  0.155194648477  0.178647447404  0.0  
1.4576830864  -0.489292530615  -3.31262774487  -1.97025955628  0.160219404669  0.178825990778  0.0  
1.4657599926  -0.489433113342  -3.32179265249  -1.97862140517  0.165258370883  0.179004730912  0.0  
1.4738919735  -0.489558506578  -3.33078226556  -1.98711944047  0.170311613791  0.179183669636  0.0  
1.48200917244  -0.489668758465  -3.33959428044  -1.99575199007  0.175379203849  0.179362808872  0.0  
1.49016618729  -0.489763921356  -3.34822628864  -2.00451729464  0.180461215378  0.179542150631  0.0  
1.49825716019  -0.489844052096  -3.35667577727  -2.01341350647  0.185557726636  0.179721697011  0.0  
1.5063560009  -0.489909212311  -3.36494012945  -2.0224386881  0.190668819902  0.1799014502  0.0  
1.51428413391  -0.489959468724  -3.37301662472  -2.03159081107  0.195794581557  0.180081412474  0.0  
1.52240800858  -0.489994893472  -3.38090243956  -2.04086775454  0.200935102176  0.180261586195  0.0  
1.53046107292  -0.490015564453  -3.38859464791  -2.05026730388  0.206090476611  0.180441973814  0.0  
1.53857302666  -0.490021565678  -3.3960902217  -2.05978714927  0.211260804089  0.18062257787  0.0  
1.54671001434  -0.490012987641  -3.40338603148  -2.06942488421  0.216446188305  0.180803400985  0.0  
1.55481410027  -0.489989927714  -3.41047884708  -2.079178004  0.218401424649  0.180984445869  0.0  
1.56291604042  -0.500491085087  -3.09006664037  -1.96963885394  0.197128584619  0.180006960386  0.0  
1.57102108002  -0.524155629041  -2.35917066808  -1.71023971979  0.148261916719  0.177499121439  0.0  
1.57925605774  -0.524176919187  -2.3377415995  -1.70961026802  0.143802631712  0.177327888003  0.0  
1.58722114563  -0.524182081368  -2.3165712909  -1.70880708096  0.138786585208  0.177156494377  0.0  
1.59526610374  -0.524171156207  -2.29566302222  -1.70783217524  0.133778537809  0.176984944498  0.0  
1.60347104073  -0.524144186289  -2.27501995682  -1.70668751527  0.128778555804  0.176813242179  0.0  
1.61154198647  -0.52410121584  -2.25464514203  -1.7053750116  0.123786704142  0.176641391101  0.0  
1.61959314346  -0.524042290415  -2.23454150977  -1.7038965193  0.118803046328  0.176469394816  0.0  
1.62770414352  -0.523967456599  -2.21471187709  -1.70225383648  0.113827644326  0.176297256745  0.0  
1.63578510284  -0.523876761704  -2.19515894676  -1.70044870285  0.108860558458  0.17612498018  0.0  
1.64388418198  -0.523770253488  -2.17588530784  -1.69848279836  0.103901847319  0.175952568281  0.0  
1.6521229744  -0.523647979874  -2.15689343623  -1.69635774186  0.098951567682  0.175780024076  0.0  
1.660187006  -0.523509988684  -2.13818569525  -1.69407508991  0.0940097744226  0.175607350463  0.0  
1.66832113266  -0.523356327377  -2.11976433611  -1.69163633558  0.0890765204341  0.175434550206  0.0  
1.67635011673  -0.523187042804  -2.10163149852  -1.68904290732  0.0841518565545  0.175261625938  0.0  
1.68443107605  -0.523002180965  -2.08378921112  -1.68629616798  0.0792358314946  0.17508858016  0.0  
1.69251704216  -0.515198380318  -2.06623939205  -1.68339741374  0.0743284917702  0.17137993449  0.0  
1.7005469799  -0.484899533914  -2.04898384936  -1.68034787324  0.0694298816391  0.160771078214  0.0  
1.70871520042  -0.454607652056  -2.03202428152  -1.67714870667  0.0645400430402  0.150165792123  0.0  
1.71673703194  -0.424322775175  -2.01536227782  -1.67380100501  0.0596590155382  0.139564078185  0.0  
1.72483515739  -0.39404494182  -1.9989993188  -1.6703057892  0.0547868362707  0.128965938238  0.0  
1.73290014267  -0.363774188489  -1.98293677665  -1.66666400951  0.0499235398992  0.118371373989  0.0  
1.74108505249  -0.333510549462  -1.96717591557  -1.66287654482  0.0450691585648  0.10778038701  0.0  
1.74932098389  -0.303254056659  -1.95171789211  -1.65894420211  0.0402237218457  0.0971929787404  0.0  
1.75734519958  -0.2730047395  -1.93656375551  -1.65486771583  0.0353872567202  0.0866091504881  0.0  
1.7653491497  -0.242762624779  -1.92171444796  -1.65064774748  0.0305597875317  0.0760289034282  0.0  
1.773416996  -0.212527736554  -1.90717080489  -1.64628488515  0.0257413359584  0.0654522386034  0.0  
1.78153705597  -0.182300096044  -1.8929335552  -1.6417796431  0.0209319209856  0.0548791569238  0.0  
1.78959918022  -0.152079721545  -1.87900332144  -1.63713246146  0.0161315588824  0.0443096591673  0.0  
1.79778003693  -0.121866628353  -1.86538062006  -1.63234370596  0.011340263181  0.0337437459792  0.0  
1.80588197708  -0.091660828703  -1.85206586146  -1.62741366764  0.00655804466017  0.0231814178729  0.0  
1.81391215324  -0.0614623317165  -1.83905935021  -1.44715709286  0.00178491133184  0.0126226752291  0.0  
1.82204198837  -0.0312711433678  -1.59900710501  -1.13566081041  -0.0758727508329  0.00206751829659  0.0  
1.83014011383  -0.0075243273438  -1.64425222501  -1.13587454931  -0.169078483707  -0.000888197179762  0.0  
1.83836507797  -5.88765371969e-17  -1.84155800504  -1.20818522177  -0.156063643928  -0.000241820691288  0.0  
1.84634518623  -5.88765371969e-17  -1.84155800504  -1.20818522177  -0.156063643928  -0.000241820691288  0.0  
1.85445904732  -5.88765371969e-17  -1.84155800504  -1.20818522177  -0.156063643928  -0.000241820691288  0.0  
1.86253404617  0.116523175779  -2.83267757586  -1.62895098052  0.0700515012671  0.0512386777464  0.041987868891  
1.87057614326  0.166711175527  -2.84385515886  -1.89026881269  0.0748280351624  0.0948110799996  0.0778829383674  
1.87869811058  0.26731962129  -2.86565939358  -1.98543277002  0.0844221102101  0.182146635451  0.149761648739  
1.88693404198  0.317740032958  -2.87628552959  -1.99039667332  0.0892396685784  0.185352998249  0.185745289634  
1.89492511749  0.368237871352  -2.88672719117  -1.99547228285  0.0940709237907  0.186079454226  0.191630214787  
1.90299606323  0.418813104927  -2.89698390597  -2.00065922178  0.0989158916773  0.18680693502  0.192144072023  
1.91105413437  0.46946569636  -2.90705511604  -2.0059570443  0.10377459098  0.18753544046  0.192658188794  
1.91930818558  0.520195602532  -2.91694017796  -2.01136523536  0.10864704337  0.188264970351  0.193172565102  
1.92754197121  0.567955791752  -2.92663836299  -2.01688321044  0.113533273466  0.188995524465  0.193687200946  
1.9353621006  0.568841803496  -2.93614885727  -2.02251031518  0.118433308858  0.189727102545  0.194202096326  
1.94339203835  0.569736573699  -2.94547076199  -2.02824582508  0.123347180129  0.190459704298  0.194717251242  
1.95150518417  0.570640035791  -2.95460309366  -2.0340889451  0.128274920885  0.1911933294  0.195232665694  
1.95962500572  0.571552117255  -2.96354478432  -2.04003880927  0.133216567782  0.191927977488  0.195748339682  
1.967689991  0.572472739599  -2.97229468183  -2.04609448024  0.138172160559  0.192663648162  0.196264273206  
1.97583699226  0.573401818311  -2.98085155019  -2.05225494877  0.143141742072  0.193400340979  0.196780466266  
1.98397016525  0.574339262822  -2.98921406984  -2.05851913325  0.148125358332  0.194138055455  0.197296918862  
1.99198698997  0.575284976461  -2.99738083803  -2.06488587918  0.15312305854  0.19487679106  0.197813630994  
2.00010108948  0.576238856412  -3.00535036918  -2.07135395853  0.158134895131  0.195616547214  0.198330602663  
2.00812911987  0.577200793665  -3.0131210953  -2.07792206919  0.163160923821  0.196357323286  0.198847833867  
2.01628899574  0.578170672975  -3.02069136647  -2.08458883434  0.168201203644  0.19709911859  0.199365324607  
2.02437615395  0.579148372805  -3.02805945121  -2.09135280174  0.173255797008  0.197841932382  0.199883074884  
2.03239417076  0.580133765285  -3.0352235371  -2.09821244309  0.178324769741  0.198585763855  0.200401084696  
2.04055118561  0.581126716158  -3.04218173121  -2.10516615331  0.183408191144  0.199330612138  0.200919354045  
2.04866814613  0.58212708473  -3.04893206072  -2.11221224978  0.188506134044  0.200076476288  0.20143788293  
2.05670905113  0.583134723822  -3.05547247353  -2.11934897159  0.193618674854  0.20082335529  0.20195667135  
2.06475901604  0.584149479717  -3.06180083885  -2.12657447875  0.198745893623  0.20157124805  0.202475719307  
2.07281804085  0.585171192113  -3.06791494794  -2.13388685137  0.203887874105  0.202320153388  0.2029950268  
2.08089709282  0.586199694077  -3.07381251475  -2.14128408886  0.209044703813  0.20307007004  0.203514593829  
2.08896613121  0.58723481199  -3.07949117674  -2.14876410906  0.214216474086  0.203820996645  0.204034420394  
2.09707403183  0.58827636551  -3.08494849564  -2.15632474738  0.219403280153  0.204572931745  0.204554506495  
2.10517406464  0.589324167522  -3.09018195829  -2.1639637559  0.221359908324  0.205325873777  0.205074852132  
2.11322212219  0.590378024099  -3.09518897756  -2.17167880251  0.222240688091  0.206079821065  0.205595457305  
2.12137699127  0.591437734462  -3.09996689324  -2.17946746998  0.223121164809  0.206834771821  0.206116322014  
2.12951302528  0.592503090946  -3.10451297303  -2.18732725503  0.224001449938  0.207590724128  0.20663744626  
2.13778018951  0.593573878961  -3.10882441358  -2.19525556741  0.224881659173  0.208347675943  0.207158830041  
2.14579415321  0.594649876971  -3.11289834159  -2.20324972896  0.225761912514  0.209105625085  0.207680473358  
2.15377807617  0.595730856464  -3.11496660087  -2.21130697267  0.226642334339  0.209864569226  0.208202376212  
2.16189217567  0.596816581931  -3.11194557445  -2.21942444171  0.22752305348  0.210624505888  0.208724538601  
2.17001414299  0.597906810853  -3.10865350084  -2.22759918852  0.228404203294  0.211385432433  0.209246960527  
2.17811918259  0.599001293691  -3.10508723876  -2.23582817383  0.22928592174  0.212147346053  0.209769641988  
2.18648719788  0.600099773878  -3.10124358322  -2.24410826569  0.230168351456  0.212910243763  0.210292582986  
2.19439911842  0.601201987825  -3.09711926695  -2.25243623857  0.231051639832  0.213674122395  0.210815783519  
2.20253300667  0.602307664928  -3.09271096189  -2.26080877241  0.231935939085  0.214438978582  0.211339243589  
2.21074509621  0.603416527583  -3.08801528078  -2.26922245168  0.23282140634  0.215204808756  0.211862963195  
2.21880197525  0.59121966204  -2.98934095086  -2.24563383763  0.226954156144  0.214313635956  0.211130208077  
2.22682905197  0.464448443397  -2.08511391498  -1.94606415711  0.163066357163  0.199056897192  0.19951926947  
2.23489308357  0.463277151566  -2.06663645595  -1.94617503396  0.162318643225  0.19834097633  0.198995598938  
2.24294614792  0.462118245242  -2.04839558145  -1.94613975387  0.161565003674  0.197624919672  0.198472187943  
2.25105810165  0.46097147387  -2.03039488951  -1.94596112189  0.160805553022  0.19690872984  0.197949036483  
2.25909900665  0.459836591091  -2.01263787531  -1.94564189609  0.16004040464  0.196192409297  0.19742614456  
2.26723408699  0.458713354915  -1.99512793233  -1.94518478615  0.159269670638  0.195475960357  0.196903512173  
2.27538204193  0.457601527879  -1.97786835349  -1.94459245192  0.158493461755  0.194759385187  0.196381139322  
2.28350806236  0.456500877197  -1.96086233223  -1.94386750205  0.157711887243  0.194042685816  0.195859026006  
2.29169106483  0.455411174896  -1.93804899197  -1.94301249272  0.156925054767  0.193325864136  0.195337172227  
2.29982805252  0.454332197948  -1.91500188586  -1.94202992635  0.1561330703  0.192608921914  0.194815577984  
2.30777406693  0.453263728391  -1.89224183905  -1.94092225045  0.155336038027  0.191891860791  0.194294243277  
2.31594419479  0.452205553435  -1.86977165862  -1.93969185646  0.154534060249  0.191174682292  0.193773168106  
2.32391810417  0.451157465571  -1.84759405787  -1.93834107869  0.153727237294  0.190457387829  0.193252352472  
2.33197903633  0.450119262663  -1.82571165742  -1.93687219323  0.152915667431  0.189739978707  0.192731796373  
2.3401350975  0.449090748037  -1.80412698628  -1.93528741702  0.150208779845  0.189022456131  0.19221149981  
2.3481771946  0.448071730562  -1.78284248295  -1.93358890689  0.145085858816  0.18830482121  0.191691462783  
2.35621905327  0.447062024724  -1.76186049644  -1.93177875865  0.139974121036  0.187587074961  0.191171685293  
2.36433315277  0.446061450696  -1.74118328736  -1.92985900622  0.134873655732  0.186869218315  0.190652167338  
2.37236618996  0.445069834397  -1.72081302889  -1.92783162088  0.129784549688  0.186151252122  0.19013290892  
2.38063907623  0.444087007553  -1.70075180782  -1.92569851045  0.124706887179  0.185433177156  0.189613910037  
2.38876104355  0.443112807748  -1.6810016255  -1.92346151856  0.119640749906  0.184714994122  0.189095170691  
2.39688515663  0.44214707847  -1.6615643988  -1.921122424  0.114586216935  0.183996703654  0.18857669088  
2.40486598015  0.441189669156  -1.64244196103  -1.91868294  0.109543364641  0.183278306327  0.188058470606  
2.41298913956  0.440240435229  -1.62363606287  -1.91614471367  0.10451226665  0.182559802656  0.187540509868  
2.42117714882  0.439299238134  -1.60514837321  -1.91350932539  0.0994929937922  0.181841193104  0.187022808666  
2.42916107178  0.438365945371  -1.58698048  -1.91077828825  0.094485614047  0.181122478082  0.186505366999  
2.437292099  0.437440430523  -1.56913389108  -1.90795304756  0.0894901924995  0.180403657957  0.185988184869  
2.44533109665  0.436522573277  -1.55161003495  -1.90503498031  0.0845067912957  0.179684733052  0.185471262275  
2.45363712311  0.435612259455  -1.53441026152  -1.90202539478  0.0795354696008  0.178965703654  0.184954599217  
2.46185016632  0.434709381026  -1.51753584282  -1.89892553007  0.0745762835602  0.178246570013  0.184438195696  
2.46984410286  0.433813836129  -1.50098797372  -1.89573655569  0.0696292862632  0.177527332346  0.18392205171  
2.47783112526  0.432925529088  -1.48476777253  -1.89245957123  0.0646945277084  0.176807990845  0.18340616726  
2.48583817482  0.432044370425  -1.46887628163  -1.889095606  0.0597720547723  0.176088545672  0.182890542346  
2.49408102036  0.431170276871  -1.45331446806  -1.88564561867  0.0548619111793  0.175368996967  0.182375176968  
2.50202703476  0.430303171381  -1.43808322405  -1.88211049704  0.0499641374747  0.174649344851  0.181860071127  
2.51014208794  0.423043725339  -1.42318336752  -1.87849105773  0.0450787709996  0.173929589424  0.181345224821  
2.51825404167  0.372273342277  -1.40861564253  -1.87478804595  0.0402058458676  0.173209730772  0.180830638052  
2.52636003494  0.321578145438  -1.39438071972  -1.87100213528  0.0353453929448  0.172489768966  0.180316310818  
2.53448414803  0.270958082741  -1.38047919669  -1.86713392747  0.0304974398302  0.171769704065  0.179802243121  
2.54254817963  0.220413108362  -1.36691159835  -1.86318395226  0.0256620108401  0.171049536115  0.17928843496  
2.550812006  0.119548272566  -1.34077991361  -1.85504045762  0.016028805996  0.158997215659  0.130716363904  
2.55875015259  0.0692283508158  -1.32821651606  -1.85084763637  0.0112310622376  0.115313404035  0.0947678293159  
2.56686902046  0.0189833967211  -1.31598842128  -1.71233194333  0.00644590677558  0.0716920479211  0.0588488185345  
2.5749399662  -0.0311866042115  -1.30409579441  -1.45161789357  0.00167334733259  0.0281331473286  0.0229593315594  
2.58301901817  -0.058236037474  -0.889479602856  -1.27351146354  -0.181257959768  -0.00561316354016  -0.00496468531883  
2.59122800827  -3.81606028298e-17  -1.29277210034  -1.41112545378  -0.153580137397  0.000950197780407  0.0  
2.59921813011  -3.81606028298e-17  -1.29277210034  -1.41112545378  -0.153580137397  0.000950197780407  0.0  
2.60738611221  -3.81606028298e-17  -1.29277210034  -1.41112545378  -0.153580137397  0.000950197780407  0.0  
2.61560797691  -0.273415255393  -2.29125608913  -1.40654742706  0.0742637468627  0.00868270815559  0.0263639246438  
2.62364697456  -0.478709291544  -2.30293716479  -1.36728824597  0.0790413295469  0.015966656806  0.048894820155  
2.63177800179  -0.575869539918  -2.31431952648  -1.32801440548  0.0838332790967  0.0232528165601  0.0714373584926  
2.63989400864  -0.578906779215  -2.32540306791  -1.28872579219  0.0886396041417  0.0305411879582  0.0939915396565  
2.64786314964  -0.581929069642  -2.3361876405  -1.24942224732  0.0934603167608  0.0378317717566  0.116557363647  
2.65600514412  -0.584936485326  -2.34667305356  -1.21010356664  0.0982954324799  0.045124568926  0.139134830463  
2.66397619247  -0.587929117083  -2.3568590746  -1.17076950048  0.103144970269  0.052419580651  0.161723940106  
2.67207503319  -0.590907072541  -2.36674542962  -1.13141975361  0.108008952538  0.0597168083286  0.184324692575  
2.68013119698  -0.593870476294  -2.37633180354  -1.09205398526  0.112887405132  0.0670162535673  0.18917369107  
2.68825411797  -0.596819470075  -2.38561784064  -1.05267180899  0.117780357327  0.0743179181849  0.189496294004  
2.69636416435  -0.599754212949  -2.39460314505  -1.01327279264  0.122687841824  0.081621804207  0.189818999287  
2.70443797112  -0.602674881533  -2.40328728138  -0.973856458214  0.12760989474  0.088927913865  0.19014180692  
2.71257400513  -0.605581670232  -2.41166977529  -0.93442228183  0.1325465556  0.0962362495936  0.190464716901  
2.72073197365  -0.608474791501  -2.41975011425  -0.894969693571  0.137497867334  0.103546814028  0.190787729231  
2.72878098488  -0.611354476129  -2.42752774825  -0.869309058458  0.14246387626  0.110859610003  0.191110843911  
2.73685407639  -0.614220973531  -2.43500209068  -0.868986905063  0.147444632079  0.118174640547  0.191434060939  
2.74495601654  -0.617074552079  -2.44217251913  -0.868690490486  0.152440187857  0.125491908881  0.191757380317  
2.75301504135  -0.619915499435  -2.44903837644  -0.868419059537  0.157450600023  0.132811418415  0.192080802043  
2.7610681057  -0.622744122916  -2.45559897161  -0.868171810369  0.162475928344  0.140133172744  0.192404326119  
2.76921415329  -0.625560749864  -2.46185358096  -0.867947894322  0.167516235916  0.147457175644  0.192727952543  
2.77725696564  -0.628365728044  -2.46780144918  -0.867746415769  0.172571589148  0.154783431067  0.193051681317  
2.78539609909  -0.631159426056  -2.47344179063  -0.86756643195  0.177642057743  0.16211194314  0.19337551244  
2.7934820652  -0.633942233755  -2.47877379052  -0.867406952804  0.18272771468  0.169442716155  0.193699445912  
2.80167007446  -0.636714562699  -2.48379660627  -0.867266940791  0.187828636193  0.176775754571  0.194023481732  
2.80966997147  -0.639476846597  -2.48850936893  -0.867145310712  0.192944901749  0.178570956051  0.194347619902  
2.81776309013  -0.642229541784  -2.49291118458  -0.867040929521  0.198076594026  0.178703879638  0.194671860421  
2.82582616806  -0.644973127692  -2.49700113593  -0.866952616138  0.20322379889  0.178837328621  0.194996203289  
2.83393716812  -0.64770810735  -2.50077828386  -0.866879141248  0.208386605362  0.178971308059  0.195320648506  
2.84200310707  -0.650435007873  -2.50424166908  -0.86681922711  0.213565105597  0.179105823142  0.195645196072  
2.85009217262  -0.653154380979  -2.5073903139  -0.866771547345  0.218759394846  0.179240879194  0.195969845987  
2.85815000534  -0.655866803501  -2.51022322396  -0.86673472674  0.223969571433  0.179376481657  0.196294598251  
2.86627006531  -0.658572877906  -2.51273939016  -0.866707341038  0.225950423838  0.179512636091  0.196619452864  
2.87436699867  -0.661273232822  -2.51493779053  -0.866687916726  0.226856282696  0.179649348166  0.196944409826  
2.88254499435  -0.663968523569  -2.51681739227  -0.866674930829  0.22776269337  0.179786623649  0.197269469138  
2.89064216614  -0.666659432679  -2.51837715381  -0.866666810696  0.228669766087  0.179924468403  0.197594630798  
2.89871096611  -0.669346670436  -2.51701985923  -0.866661933794  0.229577613944  0.180062888378  0.197919894807  
2.90677714348  -0.672030975391  -2.51093132306  -0.86665862749  0.230486352865  0.180201889597  0.198245261165  
2.91489696503  -0.674713114894  -2.50449230475  -0.866655168851  0.231396101552  0.180341478155  0.198570729873  
2.92295408249  -0.677393885601  -2.49770174972  -0.866649784428  0.232306981432  0.180481660207  0.198896300929  
2.93103504181  -0.680074113989  -2.49055860603  -0.866640650059  0.233219116602  0.180622441957  0.199221974335  
2.93914008141  -0.68275465685  -2.48306182684  -0.866625890662  0.234132633774  0.180763829652  0.199547750089  
2.94724202156  -0.68543640178  -2.47521037303  -0.86660358004  0.235047662211  0.18090582957  0.199873628193  
2.95534205437  -0.688120267646  -2.46700321581  -0.866571740688  0.235964333665  0.181048448012  0.200199608645  
2.96340918541  -0.690807205042  -2.45843933943  -0.866528343605  0.236882782307  0.18119169129  0.200525691447  
2.97152709961  -0.693498196727  -2.44951774398  -0.866471308114  0.23780314466  0.181335565717  0.200851876597  
2.97976517677  -0.696194258036  -2.44023744826  -0.866398501685  0.238725559521  0.181480077597  0.201178164097  
2.98773503304  -0.698896437266  -2.4305974927  -0.866307739775  0.239650167884  0.181625233213  0.201504553946  
2.99581503868  -0.701605816045  -2.42059694237  -0.866196785664  0.240577112858  0.181771038816  0.201831046144  
3.003895998  -0.704323509657  -2.41023489011  -0.866063350311  0.241506539582  0.181917500613  0.20215764069  
3.01202201843  -0.707050667347  -2.39951045963  -0.865905092218  0.242438595132  0.182064624755  0.202484337586  
3.02011299133  -0.60191223094  -1.57114559573  -0.814746575  0.178200944785  0.181060733383  0.19586663398  
3.0281059742  -0.578696438239  -1.3860907531  -0.807574451433  0.164325062695  0.180742091912  0.194251173595  
3.03621411324  -0.576233922931  -1.36394635764  -0.811214226526  0.163245875491  0.180609899953  0.193924647087  
3.04427504539  -0.573743983426  -1.3421222765  -0.814760408162  0.162167688481  0.180477824249  0.193598222928  
3.05236005783  -0.571227403797  -1.32061986975  -0.818215107721  0.161090645731  0.180345874137  0.193271901119  
3.0604891777  -0.56868496635  -1.29944042159  -0.821580396125  0.160014887571  0.180214058602  0.192945681658  
3.06873106956  -0.566117450392  -1.27858514338  -0.82485830341  0.158940550616  0.180082386282  0.192619564547  
3.07663416862  -0.563525631041  -1.25805517659  -0.828050818333  0.157867767794  0.179950865479  0.192293549784  
3.08468818665  -0.560910278098  -1.23785159568  -0.831159887992  0.156796668366  0.17981950417  0.191967637371  
3.09282612801  -0.558272154962  -1.21797541096  -0.834187417475  0.155727377956  0.179688310014  0.191641827306  
3.10085511208  -0.555612017603  -1.19842757129  -0.837135269518  0.15466001858  0.179557290361  0.191316119591  
3.10891008377  -0.552930613569  -1.17920896686  -0.840005264192  0.153594708675  0.17942645226  0.190990514224  
3.11698698997  -0.550228681056  -1.16032043176  -0.842799178604  0.152531563129  0.17929580247  0.190665011207  
3.12509298325  -0.547506948015  -1.14176274661  -0.845518746616  0.151470693314  0.179165347467  0.190339610539  
3.13312315941  -0.544766131298  -1.1214909606  -0.848165658576  0.15041220712  0.179035093448  0.190014312219  
3.14129519463  -0.542006935861  -1.09663740585  -0.850741561079  0.149356208982  0.178905046349  0.189689116249  
3.14940404892  -0.539230053992  -1.07214423289  -0.853248056725  0.148302799921  0.178775211841  0.189364022628  
3.15766811371  -0.536436164594  -1.04801203271  -0.855686703903  0.147252077575  0.178645595349  0.189039031356  
3.16573500633  -0.533625932492  -1.02424135471  -0.858059016588  0.146204136233  0.17851620205  0.188714142433  
3.17377996445  -0.53080000779  -1.00083270883  -0.860366464148  0.141219962271  0.178387036886  0.188389355859  
3.18184709549  -0.527959025257  -0.977786567674  -0.862610471164  0.135883152933  0.17825810457  0.188064671633  
3.18986201286  -0.525103603746  -0.95510336856  -0.864792417263  0.130565036253  0.178129409591  0.187740089757  
3.19795918465  -0.522234345652  -0.932783515496  -0.866913636965  0.12526569347  0.178000956224  0.187415610231  
3.20607304573  -0.519351836399  -0.910827381089  -0.868975419534  0.119985202648  0.177872748534  0.187091233053  
3.21420407295  -0.516456643952  -0.889235308394  -0.870979008844  0.114723638707  0.177744790382  0.186766958224  
3.22227096558  -0.51354931837  -0.868007612687  -0.872925603253  0.10948107346  0.177617085435  0.186442785744  
3.23035502434  -0.510630391376  -0.847144583184  -0.874816355491  0.104257575642  0.171039500716  0.186118715613  
3.23855400085  -0.507700375961  -0.826646484678  -0.876652372547  0.0990532109444  0.163712327609  0.185794747831  
3.24647498131  -0.50475976601  -0.806513559121  -0.878434715569  0.0938680420457  0.156387171884  0.185470882399  
3.25475811958  -0.498848640436  -0.767344089462  -0.881842394373  0.0835555274801  0.14174292415  0.18482345858  
3.26273417473  -0.495879014032  -0.748307928326  -0.883469622468  0.0784282923793  0.134423837511  0.184499900195  
3.27078318596  -0.492900570943  -0.72963770876  -0.885046961004  0.0733204742667  0.127106779  0.184176444158  
3.27882099152  -0.489913704748  -0.711333579846  -0.886575240693  0.0682321212006  0.119791750904  0.183853090471  
3.28680419922  -0.486918788162  -0.69339567589  -0.888055245956  0.063163278397  0.11247875536  0.183529839132  
3.2948641777  -0.483916172807  -0.675824117538  -0.901689863224  0.0581139882542  0.105167794355  0.183206690143  
3.30288600922  -0.480906189015  -0.658619012816  -0.942167831573  0.0530842903765  0.0978588697364  0.182883643502  
3.31098914146  -0.477889145632  -0.641780458116  -0.982553462782  0.0480742215963  0.0905519832079  0.182560699211  
3.31904911995  -0.474865329851  -0.625308539099  -1.0228473556  0.043083815995  0.0832471363383  0.182237857269  
3.3271780014  -0.471835007051  -0.609203331552  -1.06305006226  0.0381131049227  0.0759443305626  0.181915117675  
3.33523797989  -0.468798420659  -0.59346490216  -1.10316208844  0.0331621170162  0.0686435671846  0.181592480431  
3.34335207939  -0.46575579202  -0.578093309221  -1.14318389324  0.0282308782163  0.0613448473798  0.181269945536  
3.35137009621  -0.46270732028  -0.5630886033  -1.18311588913  0.0233194117823  0.0540481721976  0.161609644194  
3.35959410667  -0.45965318229  -0.548450827803  -1.22295844197  0.0184277383068  0.0467535425636  0.13901663158  
3.3676981926  -0.456593532515  -0.534180019496  -1.26271187097  0.0135558757273  0.0394609592812  0.116435261793  
3.37573409081  -0.453528502954  -0.520276208958  -1.30237644865  0.0087038393375  0.0321704230333  0.0938655348323  
3.38380503654  -0.450458203083  -0.506739420958  -1.34195240086  0.00387164179638  0.0248819343839  0.0713074506978  
3.39187216759  -0.421294857397  -0.493569674781  -1.38143990675  -0.000940706864017  0.0175954937789  0.0487610093897  
3.40002918243  -0.215645085508  -0.480766984475  -1.42083909877  -0.00573319923249  0.0103111015471  0.0262262109079  
3.40807700157  -0.0110156609428  -0.203056370712  -1.46015006266  -0.0967039930048  0.00302875790129  0.00370305525237  
3.41616415977  0.0192282248654  -0.28607924839  -1.49344791402  -0.171636131782  0.001027932111  -0.00128883152803  
3.42424917221  -5.35514718685e-17  -0.447995366411  -1.5036036716  -0.158530509073  0.00124978127688  0.0  
3.43234610558  -5.35514718685e-17  -0.447995366411  -1.5036036716  -0.158530509073  0.00124978127688  0.0  
3.44067907333  -5.35514718685e-17  -0.447995366411  -1.5036036716  -0.158530509073  0.00124978127688  0.0  
3.44870114326  -0.931601636581  -0.434977417963  -1.79918183257  -0.0714128124969  -0.144672456193  0.045660813333  
3.45681118965  -0.94381527537  -0.454706525323  -2.00111355294  0.00405505575024  -0.192575125617  0.0846988626353  
3.46475696564  -0.956085768406  -0.474457588888  -2.20409995501  0.0424390026197  -0.194753877797  0.123771824785  
3.47285509109  -0.968413110892  -0.494230606047  -2.20938697988  0.043624279126  -0.196938738719  0.162879699781  
3.48096299171  -0.980797296114  -0.514025573133  -2.21287204973  0.0448084356771  -0.19912970872  0.191876491158  
3.48895907402  -0.993238315438  -0.53384248543  -2.21636378344  0.0459914739811  -0.201326788231  0.192435135062  
3.49705600739  -1.00573615831  -0.553681337157  -2.21986217707  0.0471733961252  -0.203529977779  0.192994085875  
3.50515317917  -1.01829081227  -0.57354212147  -2.22336722596  0.0483542045761  -0.205739277988  0.193553343598  
3.51327204704  -1.03090226292  -0.593424830446  -2.22687892475  0.04953390218  -0.20795468957  0.19411290823  
3.52137207985  -1.04357049395  -0.61332945508  -2.23039726736  0.0507124921621  -0.210176213334  0.194672779772  
3.52942013741  -1.05629548715  -0.63325598527  -2.23392224699  0.051889978127  -0.212403850176  0.195232958224  
3.5376701355  -1.06907722238  -0.653204409805  -2.23745385613  0.0530663640585  -0.214637601085  0.195793443586  
3.54573702812  -1.08191567758  -0.673174716354  -2.24099208658  0.054241654319  -0.216877467137  0.196354235857  
3.55372905731  -1.09481082879  -0.69316689145  -2.24453692939  0.0554158536503  -0.219123449494  0.196915335038  
3.56183719635  -1.10776265011  -0.713180920474  -2.24808837495  0.0565889671727  -0.221375549404  0.197476741129  
3.56993198395  -1.12077111374  -0.733216787635  -2.25164641289  0.057761000385  -0.223633768199  0.198038454129  
3.57814598083  -1.13383618998  -0.753274475956  -2.25521103218  0.0589319591649  -0.225898107291  0.198600474039  
3.58614301682  -1.14695784719  -0.773353967251  -2.25878222106  0.060101849768  -0.228168568171  0.199162800859  
3.59423613548  -1.16013605185  -0.793455242101  -2.26235996706  0.0612706788283  -0.230445152409  0.199725434588  
3.60227918625  -1.17337076849  -0.813578279838  -2.26594425702  0.0624384533575  -0.232727861647  0.200288375228  
3.61043310165  -1.18666195977  -0.833723058514  -2.26953507708  0.0636051807453  -0.2350166976  0.200851622777  
3.61864209175  -1.20000958641  -0.853889554877  -2.27313241266  0.0647708687585  -0.237311662054  0.201415177235  
3.62679815292  -1.21341360726  -0.874077744346  -2.2767362485  0.0659355255415  -0.239612756859  0.201979038604  
3.6347091198  -1.22687397922  -0.894287600978  -2.28034656862  0.0670991596152  -0.24191998393  0.202543206882  
3.64280414581  -1.24039065733  -0.914519097444  -2.28396335636  0.0682617798775  -0.244233345242  0.203107682069  
3.65099000931  -1.25396359471  -0.927016081507  -2.28758659433  0.0694233956024  -0.246552842829  0.203672464167  
3.65900707245  -1.26759274258  -0.927642995647  -2.29121626448  0.0705840164398  -0.248878478777  0.204237553174  
3.66714501381  -1.28127805026  -0.928280547772  -2.29485234803  0.0717436524152  -0.251210255223  0.204802949091  
3.67528605461  -1.2950194652  -0.928928704657  -2.29849482552  0.0729023139295  -0.253548174353  0.205368651917  
3.68343806267  -1.30881693294  -0.929587431515  -2.30214367677  0.0740600117578  -0.255892238394  0.205934661653  
3.69169998169  -1.32267039713  -0.930256691951  -2.30579888091  0.0752167570499  -0.258242449612  0.206500978299  
3.69974207878  -1.33187636583  -0.93093644793  -2.30946041637  0.0763725613292  -0.260598810309  0.207067601855  
3.70782613754  -1.33952068818  -0.931626659722  -2.31312826088  0.0775274364922  -0.26296132282  0.20763453232  
3.71586298943  -1.34716352752  -0.932327285869  -2.31680239145  0.0786813948082  -0.265329989504  0.208201769696  
3.72388696671  -1.35480482002  -0.93303828313  -2.3204827844  0.0798344489185  -0.267704812744  0.20876931398  
3.73197007179  -1.36244449996  -0.933759606435  -2.32416941532  0.0809866118358  -0.270085794939  0.209337165175  
3.74020600319  -1.37008249977  -0.934491208835  -2.32786225911  0.0821378969435  -0.272472938503  0.209905323279  
3.74825501442  -1.37771875002  -0.935233041453  -2.33156128993  0.083288317995  -0.274866245857  0.210473788293  
3.75638699532  -1.38535317944  -0.935985053423  -2.33526648123  0.084437889113  -0.277265719425  0.211042560216  
3.76463699341  -1.39298571492  -0.936747191841  -2.33897780574  0.0855866247887  -0.279671361631  0.21161163905  
3.77273797989  -1.4006162815  -0.937519401703  -2.34269523544  0.0867345398807  -0.282083174889  0.212181024793  
3.78081512451  -1.40824480241  -0.938301625847  -2.3464187416  0.0878816496144  -0.284501161601  0.212750717446  
3.78884410858  -1.41587119906  -0.93909380489  -2.35014829473  0.089027969581  -0.286925324152  0.213320717008  
3.79695701599  -1.42349539104  -0.939895877163  -2.35388386458  0.0901735157365  -0.289355664902  0.21389102348  
3.80502605438  -1.43111729616  -0.94070777865  -2.35762542015  0.0913183044005  -0.291792186182  0.214461636862  
3.81327009201  -1.4387368304  -0.941529442912  -2.36137292968  0.0924623522553  -0.294234890285  0.215032557153  
3.82126903534  -1.446353908  -0.942360801024  -2.36512636061  0.0936056763448  -0.296683779466  0.215603784355  
3.82935619354  -1.45396844141  -0.943201781495  -2.36888567961  0.094748294073  -0.299138855927  0.216175318466  
3.83747220039  -1.46158034133  -0.944052310201  -2.37265085254  0.095890223203  -0.301600121819  0.216747159486  
3.84572815895  -1.4691895167  -0.944912310301  -2.37642184445  0.0970314818559  -0.304067579232  0.217319307417  
3.85368704796  -1.47679587475  -0.945781702159  -2.38019861955  0.0981720885089  -0.306541230186  0.217891762257  
3.86184716225  -1.48439932098  -0.946660403265  -2.38398114122  0.0993120619942  -0.309021076627  0.218464524006  
3.86994504929  -1.49199975918  -0.947548328147  -2.38776937199  0.100451421498  -0.311507120421  0.219037592666  
3.8779630661  -1.49959709146  -0.948445388285  -2.39156327347  0.101590186557  -0.313999363344  0.219610968235  
3.88602113724  -1.50719121825  -0.949351492019  -2.39536280643  0.102728377061  -0.316497807077  0.220184650714  
3.89415812492  -1.51478203835  -0.950266544463  -2.3991679307  0.103866013245  -0.319002453198  0.220758640102  
3.90226411819  -1.52236944889  -0.951190447403  -2.40297860515  0.105003115694  -0.321513303173  0.221332936401  
3.9103770256  -1.52995334541  -0.952123099204  -2.40679478774  0.106139705337  -0.324030358351  0.221907539609  
3.91850304604  -1.53753362183  -0.953064394706  -2.4106164354  0.107275803447  -0.326553619954  0.222482449726  
3.92679810524  -1.55268288223  -0.954972477939  -2.41827594869  0.10954661186  -0.331618766652  0.223633190691  
3.93484210968  -0.938061695964  -1.00021396375  -2.28078675412  0.0920634810639  -0.293481803385  0.213717394856  
3.94283509254  -0.698878215315  -1.01592573645  -2.22579488766  0.0844941605163  -0.277085417466  0.209483177594  
3.95087909698  -0.691253995409  -1.01412413016  -2.22232243918  0.083349349  -0.274767061177  0.208908098809  
3.95910310745  -0.683631165445  -1.01234005113  -2.21884227037  0.0822039879295  -0.272451264366  0.208333326934  
3.96707606316  -0.67600961302  -1.01057388926  -2.21535479205  0.0810580668014  -0.270138029774  0.207758861969  
3.97511100769  -0.668389227765  -1.00882602633  -2.2118604081  0.0799115753035  -0.26782736014  0.207184703913  
3.98320412636  -0.660769901343  -1.00709683608  -2.20835951541  0.0787645033145  -0.265519258192  0.206610852767  
3.99141407013  -0.653151527451  -1.00538668425  -2.20485250385  0.0776168409039  -0.263213726654  0.206037308531  
3.99961900711  -0.645534001822  -1.00369592866  -2.20133975628  0.076468578331  -0.260910768238  0.205464071204  
4.0077791214  -0.637917222226  -1.00202491924  -2.19782164853  0.0753197060451  -0.258610385641  0.204891140788  
4.01586914062  -0.63030108847  -1.00037399812  -2.19429854936  0.0741702146848  -0.256312581547  0.204318517281  
4.02389597893  -0.622685502394  -0.99874349965  -2.19077082046  0.0730200950777  -0.254017358624  0.203746200683  
4.03195810318  -0.615070367874  -0.997133750501  -2.18723881645  0.0718693382401  -0.25172471952  0.203174190995  
4.04011416435  -0.607455590817  -0.995545069692  -2.18370288486  0.0707179353766  -0.249434666862  0.202602488217  
4.04808306694  -0.599841079161  -0.993977768659  -2.18016336611  0.0695658778797  -0.247147203254  0.202031092349  
4.05617213249  -0.592226742872  -0.992432151312  -2.17662059353  0.0684131573291  -0.244862331276  0.20146000339  
4.06426715851  -0.584612493941  -0.990908514095  -2.17307489331  0.0672597654921  -0.242580053482  0.200889221342  
4.07232713699  -0.576998246378  -0.989407146037  -2.16952658455  0.0661056943222  -0.240300372396  0.200318746202  
4.08042097092  -0.569383916212  -0.987928328816  -2.16597597918  0.0649509359597  -0.238023290513  0.199748577973  
4.08871603012  -0.561769421487  -0.98647233681  -2.16242338204  0.0637954827304  -0.235748810297  0.199178716653  
4.09676003456  -0.554154682254  -0.985039437155  -2.15886909082  0.0626393271461  -0.233476934177  0.198609162243  
4.10470104218  -0.54653962057  -0.9836298898  -2.15531339607  0.0614824619034  -0.231207664548  0.198039914743  
4.11284899712  -0.53892416049  -0.982243947563  -2.15175658121  0.0603248798838  -0.228941003767  0.197470974152  
4.12089705467  -0.531308228067  -0.980881856183  -2.14819892251  0.0591665741532  -0.226676954154  0.196902340471  
4.12901115417  -0.523691751341  -0.979543854375  -2.14464068912  0.0580075379612  -0.224415517988  0.1963340137  
4.1370780468  -0.516074660338  -0.978230173881  -2.14108214302  0.0568477647412  -0.222156697507  0.195765993838  
4.14522409439  -0.508456887061  -0.976941039524  -2.13752353909  0.0556872481096  -0.219900494906  0.195198280886  
4.15335297585  -0.500838365488  -0.975676669256  -2.13396512505  0.0545259818658  -0.217646912336  0.194630874844  
4.16139602661  -0.493219031564  -0.97443727421  -2.13040714149  0.0533639599912  -0.215395951902  0.194063775712  
4.16963505745  -0.485598823196  -0.973223058751  -2.12684982187  0.0522011766494  -0.213147615663  0.193496983489  
4.17751312256  -0.473614806202  -0.972034220517  -2.12329339252  0.0510376261854  -0.210901905628  0.192930498176  
4.185806036  -0.459812120084  -0.970870950476  -2.11973807265  0.0498733031255  -0.208658823757  0.192364319773  
4.19376397133  -0.446065684111  -0.969733432964  -2.11618407435  0.0487082021766  -0.206418371959  0.191798448279  
4.20195698738  -0.432375443981  -0.968621845734  -2.11263160258  0.0475423182262  -0.204180552092  0.191232883695  
4.20996308327  -0.41874134732  -0.967536359996  -2.10908085519  0.0463756463417  -0.20194536596  0.190667626021  
4.21804213524  -0.405163343682  -0.96538679888  -2.10553202293  0.04520818177  -0.199712815311  0.190102675256  
4.22616100311  -0.391641384544  -0.944722055501  -2.10198528944  0.0440399199374  -0.197482901841  0.189538031401  
4.23426914215  -0.378175423296  -0.92409479962  -2.09844083125  0.0428708564492  -0.195255627186  0.188973694456  
4.24227309227  -0.364765415238  -0.903505176698  -2.0948988178  0.0417009870889  -0.193030992928  0.188409664421  
4.25038003922  -0.351411317575  -0.882953325861  -2.09135941146  0.0405303078186  -0.190809000588  0.187845941295  
4.25846219063  -0.338113089409  -0.862439379927  -2.08782276748  0.0393588147778  -0.188589651628  0.187282525079  
4.26670598984  -0.32487069174  -0.841963465449  -2.08428903404  0.038186504284  -0.186372947451  0.186719415773  
4.27465701103  -0.311684087451  -0.821525702741  -2.08075835226  0.0370133728315  -0.184158889398  0.186156613376  
4.28274106979  -0.298553241314  -0.801126205915  -2.07723085617  0.0358394170916  -0.181947478747  0.185594117889  
4.2909591198  -0.285478119975  -0.78076508291  -2.07370667274  0.0346646339124  -0.179738716716  0.185031929312  
4.29892110825  -0.272458691957  -0.760442435522  -2.07018592188  0.0334890203181  -0.177532604458  0.184470047645  
4.30699896812  -0.259494927655  -0.74015835943  -2.06666871643  0.0323125735088  -0.175329143061  0.183908472887  
4.31510996819  -0.246586799325  -0.719912944221  -2.06315516218  0.0311352908608  -0.173128333551  0.183347205039  
4.3231921196  -0.233734281088  -0.699706273421  -2.05964535788  0.0299571699254  -0.170930176886  0.182786244101  
4.33129811287  -0.220937348924  -0.679538424509  -2.05613939523  0.0287782084295  -0.168734673959  0.182225590072  
4.33943414688  -0.208195980666  -0.659409468945  -2.05263735888  0.0275984042751  -0.166541825598  0.181665242953  
4.3477241993  -0.195510155997  -0.639319472187  -2.04913932646  0.0264177555389  -0.164351632561  0.181105202744  
4.35574007034  -0.182879856452  -0.619268493712  -2.04564536853  0.0252362604723  -0.162164095543  0.180545469444  
4.36393404007  -0.170305065409  -0.599256587028  -2.04215554866  0.0240539175012  -0.159979215167  0.179986043054  
4.37187314034  -0.15778576809  -0.579283799694  -2.03866992336  0.022870725226  -0.15779699199  0.179426923574  
4.38001608849  -0.145321951558  -0.55935017333  -2.03518854213  0.0216866824211  -0.1556174265  0.178868111004  
4.3880879879  -0.132913604714  -0.539455743631  -2.03171144743  0.0205017880351  -0.153440519118  0.171071562604  
4.39625120163  -0.120560718298  -0.519600540373  -2.02823867471  0.0193160411904  -0.151266270192  0.131944500701  
4.40433311462  -0.108263284884  -0.499784587429  -1.93296368752  0.0181294411836  -0.149094680006  0.0928523516446  
4.41256999969  -0.0960212988809  -0.480007902768  -1.7304570278  -0.0537429410395  -0.14692574877  0.0537951154354  
4.42073917389  -0.0234530125617  -0.460270498465  -1.52900276458  -0.129106165587  -0.0457705199492  0.0147727920732  
4.43084216118  -4.21430978807e-17  -0.418370727315  -1.51162253217  -0.158892529093  -0.00527558125178  0.0  
4.43887114525  -4.21430978807e-17  -0.418370727315  -1.51162253217  -0.158892529093  -0.00527558125178  0.0  
4.44683218002  -4.21430978807e-17  -0.418370727315  -1.51162253217  -0.158892529093  -0.00527558125178  0.0  
4.45488119125  -0.0145643166702  0.59373500532  -2.41589094747  -0.23832935952  -0.0184704966339  0.0752199653431  
4.46301817894  0.0140816849074  0.60830640849  -2.42940193574  -0.310708560632  -0.0299226955672  0.139569727516  
4.47108507156  0.0427441873209  0.622542705885  -2.44291495454  -0.354463047991  -0.0413784489842  0.196150693757  
4.4790930748  0.0714232360786  0.636443787593  -2.45642998097  -0.355609065223  -0.0528377568894  0.197070889486  
4.48722600937  0.100118894915  0.650009500024  -2.46994698305  -0.356749530057  -0.0643006192897  0.197991917697  
4.49529099464  0.128831245814  0.663239646196  -2.48346591979  -0.357884445873  -0.0757670361955  0.19891377839  
4.50356507301  0.157560389035  0.676133986106  -2.49698674124  -0.359013816835  -0.0872370076211  0.199836471565  
4.51181411743  0.18630644315  0.688692237178  -2.51050938864  -0.360137647915  -0.0987105335866  0.200759997222  
4.51982116699  0.215069545087  0.700914074799  -2.52403379452  -0.361255944916  -0.110187614119  0.201684355361  
4.52781915665  0.243849850168  0.712799132933  -2.53755988281  -0.362368714504  -0.121668249253  0.202609545981  
4.53588604927  0.272647532173  0.724347004824  -2.55108756909  -0.363475964233  -0.133152439035  0.203535569084  
4.54402399063  0.301462783387  0.735557243771  -2.56461676067  -0.364577702589  -0.144640183523  0.204462424668  
4.55202102661  0.330295814668  0.746429363998  -2.57814735687  -0.365673939025  -0.15613148279  0.205390112734  
4.56008315086  0.359146855515  0.756962841601  -2.59167924918  -0.366764684006  -0.167626336925  0.206318633282  
4.56813502312  0.388016154134  0.767157115579  -2.60521232156  -0.367849949056  -0.173958399342  0.207247986312  
4.57623910904  0.416903977522  0.777011588951  -2.61874645064  -0.368929746812  -0.174162623488  0.208178171824  
4.5843269825  0.445810611538  0.786525629954  -2.63228150602  -0.370004091073  -0.174366719257  0.209109189818  
4.59243702888  0.457284479629  0.795698573334  -2.64581735058  -0.371072996865  -0.174570686839  0.210041040294  
4.60066819191  0.457648548946  0.804529721707  -2.65935384079  -0.372136480497  -0.174774526455  0.210973723251  
4.60875511169  0.458010219408  0.813018347023  -2.67289082703  -0.373194559634  -0.174978238363  0.21190723869  
4.61675000191  0.458369853186  0.821163692102  -2.68642815397  -0.374247253358  -0.175181822864  0.212841586612  
4.62479305267  0.458727831753  0.828964972265  -2.69996566093  -0.37529458225  -0.175385280302  0.213776767015  
4.63291597366  0.459084555973  0.836421377042  -2.71350318227  -0.376336568459  -0.175588611073  0.2147127799  
4.64099216461  0.459440446191  0.843532071983  -2.72704054782  -0.377373235789  -0.175791815625  0.215649625266  
4.6490020752  0.459795942323  0.850296200535  -2.74057758333  -0.378404609777  -0.175994894468  0.216587303115  
4.65715718269  0.460151503945  0.856712886027  -2.75411411086  -0.379430717785  -0.176197848176  0.217525813446  
4.66522216797  0.46050761038  0.862781233732  -2.76764994934  -0.380451589089  -0.176400677393  0.218465156258  
4.67329502106  0.46086476078  0.868500333019  -2.781184915  -0.381467254971  -0.176603382839  0.219405331552  
4.68144416809  0.461223474205  0.873869259597  -2.79471882192  -0.382477748822  -0.176805965316  0.220346339329  
4.68970608711  0.4615842897  0.878887077849  -2.80825148255  -0.383483106238  -0.177008425715  0.221288179587  
4.69777607918  0.461947766361  0.88355284325  -2.82178270827  -0.384483365128  -0.177210765019  0.222230852327  
4.70581412315  0.462314483404  0.880917162421  -2.83531230997  -0.385478565818  -0.177412984313  0.223174357548  
4.71386003494  0.462685040214  0.875590189978  -2.84884009863  -0.386468751167  -0.177615084792  0.224118695252  
4.72194504738  0.463060056395  0.869880558018  -2.86236588595  -0.387453966674  -0.177817067763  0.225063865438  
4.73002910614  0.46344017181  0.863787312437  -2.87588948498  -0.388434260603  -0.178018934655  0.226009868105  
4.73819208145  0.463826046606  0.857309503707  -2.8894107108  -0.389409684097  -0.17822068703  0.226956703254  
4.74621009827  0.464218361229  0.850446189839  -2.90292938114  -0.390380291303  -0.178422326584  0.227904370886  
4.75431203842  0.464617816433  0.843196439458  -2.91644531716  -0.391346139499  -0.17862385516  0.228852870999  
4.76264715195  0.465025133261  0.835559334953  -2.92480197112  -0.39230728922  -0.178825274754  0.229802203594  
4.77064013481  0.465441053027  0.82753397573  -2.928314657  -0.393263804395  -0.179026587525  0.23075236867  
4.77859902382  0.46586633727  0.819119481557  -2.93177613393  -0.394215752472  -0.179227795801  0.231703366229  
4.78672099113  0.466301767697  0.810314996001  -2.93518624395  -0.395163204565  -0.179428902092  0.23265519627  
4.79482102394  0.466748146102  0.801119689964  -2.93854483629  -0.396106235586  -0.179629909094  0.233607858792  
4.80286216736  0.46720629427  0.791532765304  -2.94185176817  -0.397044924386  -0.179830819705  0.234561353796  
4.81092214584  0.467677053857  0.78155345856  -2.94510690561  -0.397979353904  -0.180031637026  0.235515681283  
4.81904697418  0.468161286242  0.771181044765  -2.94831012437  -0.398909611307  -0.180232364379  0.236470841251  
4.82726097107  0.468659872367  0.760414841355  -2.95146131074  -0.399835788142  -0.180433005311  0.237426833701  
4.83521509171  0.469173712538  0.749254212175  -2.95456036249  -0.400757980482  -0.180633563609  0.238383658632  
4.84333014488  0.469703726204  0.737698571573  -2.95760718977  -0.401676289079  -0.180834043304  0.239341316046  
4.85139799118  0.470250851708  0.725747388593  -2.96060171606  -0.402590819516  -0.18103444869  0.240299805942  
4.8596830368  0.470816046009  0.713400191259  -2.9635438791  -0.40350168236  -0.181234784328  0.241259128319  
4.86769104004  0.471400284363  0.700656570955  -2.96643363188  -0.404408993319  -0.181435055059  0.242219283178  
4.87570619583  0.472004559982  0.687516186892  -2.96927094365  -0.405312873399  -0.181635266016  0.24318027052  
4.88383412361  0.481815412982  0.555802580711  -2.91449132503  -0.405100568541  -0.181461481184  0.241665693645  
4.89188504219  0.56165314039  -0.481285696711  -2.42103598079  -0.396385260323  -0.178402681359  0.221050867528  
4.89995408058  0.561382284601  -0.512784949062  -2.41798532141  -0.395440838351  -0.178216952622  0.220090053033  
4.90812706947  0.561091192849  -0.5438297047  -2.41489101623  -0.394490996255  -0.178030789216  0.219130071021  
4.9160861969  0.560780817029  -0.574417720773  -2.41175281546  -0.393535771226  -0.177844191662  0.218170921491  
4.92414617538  0.56045209443  -0.604546903446  -2.40857049057  -0.392575202939  -0.177657160658  0.217212604442  
4.93226218224  0.560105947246  -0.634215301825  -2.40534383345  -0.391609333352  -0.177469697074  0.216255119875  
4.94054412842  0.559743282119  -0.66342110198  -2.40207265538  -0.390638206511  -0.177281801936  0.215298467791  
4.94845700264  0.559364989721  -0.692162621081  -2.39875678619  -0.389661868358  -0.177093476418  0.214342648188  
4.95657110214  0.55897194436  -0.720438301621  -2.39539607328  -0.388680366542  -0.176904721832  0.213387661067  
4.96465301514  0.558565003622  -0.748246705755  -2.39199038081  -0.38769375024  -0.176715539613  0.212433506428  
4.97267603874  0.55814500804  -0.775586509746  -2.38853958876  -0.386702069978  -0.176525931318  0.21148018427  
4.98081707954  0.557712780788  -0.802456498515  -2.38504359215  -0.385705377458  -0.176335898606  0.210527694595  
4.9889690876  0.55726912741  -0.828855560308  -2.38150230014  -0.384703725395  -0.176145443235  0.209576037401  
4.99697208405  0.556814835563  -0.854782681471  -2.37791563525  -0.383697167345  -0.175954567051  0.20862521269  
5.00497198105  0.556350674792  -0.880236941338  -2.37428353255  -0.382685757555  -0.175763271978  0.20767522046  
5.01309418678  0.555877396325  -0.905217507241  -2.36375327079  -0.381669550807  -0.175571560008  0.206726060712  
5.02123808861  0.555395732891  -0.929723629628  -2.35013877221  -0.380648602266  -0.175379433195  0.205777733446  
5.02924609184  0.554906398555  -0.953754637302  -2.33652667422  -0.379622967338  -0.175186893645  0.204830238662  
5.03733611107  0.554410088576  -0.977309932779  -2.32291695447  -0.378592701531  -0.174993943505  0.203883576359  
5.04544496536  0.55390747928  -1.00038898777  -2.30930959944  -0.377557860318  -0.17480058496  0.202937746539  
5.05370306969  0.553399227953  -1.02299133875  -2.29570460377  -0.376518499007  -0.174606820221  0.2019927492  
5.06171512604  0.552885972749  -1.04511658273  -2.28210196955  -0.375474672612  -0.174412651518  0.201048584344  
5.06973719597  0.552368332605  -1.070992714  -2.26850170572  -0.374426435736  -0.174218081094  0.200105251969  
5.07772517204  0.551846907187  -1.10138728068  -2.25490382741  -0.373373842448  -0.174023111197  0.199162752076  
5.08591604233  0.551322276827  -1.13127610811  -2.24130835534  -0.372316946171  -0.173827744072  0.198221084665  
5.09393310547  0.550795002492  -1.16065899491  -2.22771531521  -0.371255799576  -0.173631981955  0.197280249736  
5.10207700729  0.550265625748  -1.18953578061  -2.21412473715  -0.370190454473  -0.173435827067  0.196340247288  
5.11012816429  0.549734668742  -1.21790634215  -2.20053665517  -0.36912096171  -0.173239281605  0.195401077323  
5.11824202538  0.549202634193  -1.24577059039  -2.1869511066  -0.36804737108  -0.17304234774  0.194462739839  
5.12643003464  0.548670005385  -1.27312846688  -2.1733681316  -0.366969731225  -0.172845027609  0.193525234838  
5.1344871521  0.548137246172  -1.29997994064  -2.15978777266  -0.365888089547  -0.172647323307  0.192588562318  
5.14263415337  0.547604800991  -1.32632500514  -2.14621007412  -0.364802492125  -0.172449236886  0.19165272228  
5.15075802803  0.54654253347  -1.37749598503  -2.11906284218  -0.362619607264  -0.172051925633  0.18978353965  
5.15880513191  0.54601350307  -1.40232198389  -2.10549340273  -0.361522404654  -0.171852704632  0.188850197057  
5.16682100296  0.545486370635  -1.42664173521  -2.09192681079  -0.360421415816  -0.171653109163  0.187917686947  
5.17488002777  0.52792755664  -1.45045531335  -2.07836311353  -0.359316679072  -0.171453140979  0.186986009318  
5.18298101425  0.498873092053  -1.47376280146  -2.06480235756  -0.35820823099  -0.171252801758  0.186055164172  
5.1910071373  0.469843691738  -1.49656428929  -2.05124458856  -0.357096106329  -0.171052093101  0.185125151507  
5.19909310341  0.440839645653  -1.5188598712  -2.03768985098  -0.355980337982  -0.162378800008  0.184195971324  
5.20718002319  0.411861224597  -1.5406496442  -2.02413818771  -0.354860956922  -0.150887749003  0.183267623623  
5.21525502205  0.382908680237  -1.56193370618  -2.01058963987  -0.35373799216  -0.139400016518  0.182340108403  
5.22333312035  0.353982245149  -1.5827121542  -1.99704424647  -0.352611470696  -0.127915603814  0.181413425666  
5.23146319389  0.325082132853  -1.60298508303  -1.98350204424  -0.351481417479  -0.116434512057  0.180487575411  
5.2396709919  0.296208537837  -1.62275258365  -1.96996306735  -0.350347855373  -0.10495674232  0.179562557637  
5.24777412415  0.267361635599  -1.64201474203  -1.95642734727  -0.349210805118  -0.0934822955775  0.178638372345  
5.25577902794  0.238541582667  -1.66077163791  -1.94289491252  -0.348070285302  -0.0820111727051  0.177715019536  
5.26388001442  0.209748516629  -1.67902334379  -1.92936578859  -0.346926312334  -0.0705433744765  0.176792499208  
5.27195215225  0.18098255616  -1.69676992403  -1.91583999771  -0.345778900419  -0.0590789015626  0.175870811362  
5.27996706963  0.152243801036  -1.71401143401  -1.90231755881  -0.344628061539  -0.0476177545299  0.174949955997  
5.28805804253  0.123532332158  -1.73074791954  -1.88879848736  -0.343473805432  -0.0361599338393  0.168696083071  
5.29621005058  0.0948482115643  -1.74697941625  -1.87528279531  -0.284909601942  -0.0247054398452  0.104271283416  
5.30419111252  0.0661914824432  -1.76270594923  -1.86177049102  -0.21256655878  -0.0132542727951  0.0399411836425  
5.3123691082  0.0344714670945  -2.11285879454  -1.30650561625  -0.155727282648  -0.00448748846608  -0.00868827609102  
5.32039499283  -4.06557646267e-18  -1.65014853112  -1.50742612164  -0.157057480491  -0.00564928594726  0.0  
5.32847118378  -4.06557646267e-18  -1.65014853112  -1.50742612164  -0.157057480491  -0.00564928594726  0.0  
5.33669400215  -4.06557646267e-18  -1.65014853112  -1.50742612164  -0.157057480491  -0.00564928594726  0.0  
5.34468412399  0.971289706426  -1.06372590527  -1.84765850305  -0.214281194526  0.176499478219  -0.0714715563095  
5.3527071476  0.983961000011  -0.946769513156  -2.11832993648  -0.26729926365  0.204532460074  -0.132326721824  
5.36081719398  0.996723366902  -0.940154721169  -2.18989221821  -0.320423721803  0.207048707349  -0.190353196905  
5.3689391613  1.00957686465  -0.933764301955  -2.19448919628  -0.349661926813  0.209572696419  -0.191283942593  
5.37711501122  1.02252157378  -0.927598291877  -2.19907970447  -0.350528001616  0.212104427917  -0.192215548073  
5.38510012627  1.03555759778  -0.921656737547  -2.20366370865  -0.351396661094  0.214643902655  -0.193148013345  
5.39323115349  1.04868506299  -0.915939695717  -2.20824116708  -0.352267907517  0.217191121625  -0.194081338408  
5.40124297142  1.06190411861  -0.91044723315  -2.2128120304  -0.353141743577  0.219746085996  -0.195015523264  
5.40933299065  1.07521493657  -0.905179426463  -2.21737624157  -0.354018172376  0.222308797115  -0.195950567911  
5.41752409935  1.08861771147  -0.900136361952  -2.22193373588  -0.354897197437  0.224879256502  -0.196886472351  
5.4257311821  1.10211266046  -0.895318135385  -2.22648444089  -0.3557788227  0.227457465853  -0.197823236582  
5.43365907669  1.11570002316  -0.890724851774  -2.23102827642  -0.356663052524  0.230043427036  -0.198760860605  
5.44175219536  1.1293800615  -0.886356625128  -2.23556515451  -0.35754989169  0.232637142088  -0.19969934442  
5.44980406761  1.14315305961  -0.882213578172  -2.24009497935  -0.3584393454  0.235238613216  -0.200638688027  
5.45801615715  1.15701932366  -0.878295842042  -2.24461764729  -0.359331419282  0.23784784279  -0.201578891426  
5.46597409248  1.17097918167  -0.874603555965  -2.24913304674  -0.360226119389  0.240464833347  -0.202519954617  
5.47405910492  1.1850329834  -0.871136866901  -2.25364105814  -0.361123452204  0.243089587582  -0.2034618776  
5.48217105865  1.19918110008  -0.867895929163  -2.25814155391  -0.362023424638  0.245722108348  -0.204404660375  
5.49023318291  1.21342392425  -0.864880904017  -2.26263439839  -0.362926044037  0.248362398656  -0.205348302941  
5.49843096733  1.22776186955  -0.862091959246  -2.26711944778  -0.363831318181  0.251010461666  -0.2062928053  
5.50657701492  1.24219537044  -0.859529268694  -2.27159655006  -0.364739255289  0.253666300686  -0.20723816745  
5.51464700699  1.25672488199  -0.857193011779  -2.27606554494  -0.365649864021  0.256329919172  -0.208184389392  
5.52263307571  1.27135087958  -0.855083372983  -2.28052626378  -0.36656315348  0.259001320719  -0.209131471127  
5.53072404861  1.28607385866  -0.853200541308  -2.28497852953  -0.367479133218  0.261680509059  -0.210079412653  
5.53873801231  1.3008943344  -0.851544709709  -2.28942215663  -0.368397813237  0.264367488058  -0.211028213971  
5.5468711853  1.31581284141  -0.850116074494  -2.29385695094  -0.369319203991  0.267062261713  -0.211977875081  
5.55496001244  1.3308299334  -0.848914834702  -2.29828270967  -0.370243316396  0.269764834141  -0.212928395983  
5.56313610077  1.34594618278  -0.84794119144  -2.30269922126  -0.371170161828  0.272475209584  -0.213879776676  
5.57113599777  1.36116218038  -0.847195347202  -2.30710626533  -0.372099752128  0.275193392395  -0.214832017162  
5.57924008369  1.37647853496  -0.846677505148  -2.31150361257  -0.373032099609  0.27791938704  -0.21578511744  
5.58735799789  1.39189587286  -0.846387868361  -2.31589102462  -0.37396721706  0.280653198089  -0.216739077509  
5.59540820122  1.40397973584  -0.846326639062  -2.32026825403  -0.374905117749  0.28339483021  -0.217693897371  
5.60365819931  1.41498479085  -0.846494017802  -2.32463504408  -0.375845815428  0.286144288169  -0.218649577024  
5.61172509193  1.4260531829  -0.846890202617  -2.32899112876  -0.376789324342  0.288901576817  -0.219606116469  
5.61975097656  1.43718560402  -0.847515388152  -2.3333362326  -0.377735659228  0.291666701089  -0.220563515706  
5.62781620026  1.44838276143  -0.848369764748  -2.3376700706  -0.378684835328  0.294439665997  -0.221521774735  
5.63582611084  1.45964537699  -0.849453517502  -2.34199234809  -0.37963686839  0.297220476623  -0.222480893556  
5.64388108253  1.47097418659  -0.850766825281  -2.34630276064  -0.380591774674  0.300009138112  -0.223440872169  
5.65200519562  1.48236993964  -0.852309859713  -2.35060099394  -0.381549570963  0.302805655668  -0.224401710574  
5.66019201279  1.49383339834  -0.854082784134  -2.35488672365  -0.382510274564  0.305610034544  -0.225363408771  
5.6681740284  1.50536533712  -0.8560857525  -2.35915961533  -0.38347390332  0.308422280038  -0.226325966759  
5.67630720139  1.51696654192  -0.858318908265  -2.36341932428  -0.384440475613  0.311242397484  -0.22728938454  
5.68456697464  1.52863780949  -0.860782383219  -2.36766549545  -0.385410010375  0.314070392247  -0.228253662112  
5.69264817238  1.54037994668  -0.863476296287  -2.37189776325  -0.386382527094  0.316906269711  -0.229218799477  
5.70073199272  1.55219376962  -0.86640075229  -2.3761157515  -0.38735804582  0.319750035276  -0.230184796633  
5.70866703987  1.564080103  -0.869555840668  -2.38031907325  -0.388336587179  0.322601694351  -0.231151653581  
5.71675300598  1.57603977919  -0.87294163416  -2.38450733068  -0.389318172376  0.325461252339  -0.232119370321  
5.72480416298  1.5880736374  -0.876558187449  -2.38868011492  -0.390302823206  0.328328714637  -0.233087946853  
5.73287796974  1.358050678  -0.997251897047  -2.35755354821  -0.388888204514  0.314603359657  -0.2283930702  
5.74097013474  0.608763627869  -1.36824325423  -2.24988696624  -0.381948593076  0.264410446307  -0.211247783944  
5.74907517433  0.597022055815  -1.38389216623  -2.24534381285  -0.381021462347  0.261739057297  -0.210279625294  
5.75715303421  0.585319051054  -1.39934554279  -2.24080043389  -0.380095002176  0.25907139024  -0.209312326437  
5.7652630806  0.573655691697  -1.41460438944  -2.23625676101  -0.379169268047  0.256407443823  -0.208345887371  
5.77338814735  0.562033023722  -1.42966968856  -2.23171272489  -0.378244314337  0.253747216832  -0.207380308097  
5.78143596649  0.550452061423  -1.44454239945  -2.22716825546  -0.377320194318  0.251090708143  -0.206415588615  
5.78965401649  0.538913787856  -1.45922345822  -2.22262328203  -0.376396960143  0.248437916722  -0.205451728925  
5.79764914513  0.527419155293  -1.47371377786  -2.21807773347  -0.375474662845  0.245788841615  -0.204488729027  
5.80577015877  0.515969085677  -1.48801424816  -2.21353153834  -0.374553352326  0.243143481953  -0.203526588921  
5.81382703781  0.504564471081  -1.50212573583  -2.20898462506  -0.373633077357  0.240501836939  -0.202565308607  
5.8220140934  0.493206174164  -1.51604908442  -2.20443692204  -0.372713885566  0.23786390585  -0.201604888084  
5.82999110222  0.481895028634  -1.52978511443  -2.19988835786  -0.371795823436  0.235229688031  -0.200645327354  
5.83812499046  0.470631839702  -1.54333462334  -2.19533886137  -0.370878936299  0.232599182891  -0.199686626415  
5.84623217583  0.459417384537  -1.55669838563  -2.19078836182  -0.36996326833  0.2299723899  -0.198728785269  
5.8542740345  0.448252412723  -1.56987715288  -2.18623678903  -0.369048862539  0.227349308587  -0.197771803914  
5.86255216599  0.437137646704  -1.58287165382  -2.18168407348  -0.36813576077  0.224729938534  -0.196815682351  
5.87058997154  0.426073782232  -1.5956825944  -2.17713014643  -0.367224003695  0.222114279372  -0.19586042058  
5.87868118286  0.396232228138  -1.62075650488  -2.16801838755  -0.365404680412  0.216894092487  -0.193952476414  
5.88671207428  0.396232228138  -1.62075650488  -2.16801838755  -0.365404680412  0.216894092487  -0.193952476414  
5.89483714104  0.365554672427  -1.64510407947  -2.15890098266  -0.363591194406  0.21168874588  -0.192047971416  
5.9028441906  0.350356042183  -1.65700701604  -2.1543400027  -0.362686729456  0.209091637207  -0.191097008604  
5.91093301773  0.33525157787  -1.66873015427  -2.14977742167  -0.361783828318  0.206498238104  -0.190146905585  
5.91895198822  0.320241800328  -1.68027404307  -2.1452131794  -0.360882523317  0.203908548468  -0.189197662357  
5.92704796791  0.305327207025  -1.69163920925  -2.14064721733  -0.359982845571  0.201322568225  -0.188249278922  
5.93513917923  0.290508272424  -1.70282615767  -2.13607947858  -0.359084824983  0.198740297323  -0.187301755278  
5.94331502914  0.27578544835  -1.7138353713  -2.13150990806  -0.358188490241  0.196161735734  -0.186355091426  
5.95141816139  0.261159164343  -1.72466731134  -2.12693845253  -0.35729386881  0.193586883446  -0.185409287366  
5.9597389698  0.246629827994  -1.73532241728  -2.12236506067  -0.356400986932  0.191015740466  -0.184464343098  
5.96770501137  0.232197825279  -1.74580110704  -2.11778968315  -0.355509869624  0.188448306813  -0.183520258622  
5.97585296631  0.217863520866  -1.75610377702  -2.11321227272  -0.354620540668  0.185884582521  -0.182577033938  
5.98388719559  0.203627258426  -1.76623080221  -2.10863278422  -0.353733022616  0.183324567632  -0.181634669046  
5.99191999435  0.189489360913  -1.77618253627  -2.10405117472  -0.352847336784  0.180768262199  -0.180693163946  
6.00006699562  0.175450130842  -1.7859593116  -2.09946740349  -0.351963503247  0.178215666277  -0.179752518637  
6.00813007355  0.161509850549  -1.79556143944  -2.09488143211  -0.351081540839  0.175666779932  -0.178812733121  
6.01623511314  0.147668782435  -1.80498920994  -2.09029322449  -0.350201467153  0.173121603227  -0.177873807396  
6.02434110641  0.133927169197  -1.81424289222  -2.08570274695  -0.349323298531  0.170580136231  -0.176935741463  
6.03241300583  0.120285234043  -1.82332273446  -2.0811099682  -0.348447050072  0.168042379012  -0.175998535323  
6.04064106941  0.106743180891  -1.83222896394  -2.07651485945  -0.347572735621  0.165508331636  -0.175062188974  
6.04875707626  0.0933011945519  -1.8409617871  -2.0719173944  -0.346700367775  0.162977994169  -0.174126702417  
6.05676102638  0.0799594408987  -1.84952138963  -2.06731754928  -0.345829957875  0.16045136667  -0.173192075652  
6.06480717659  0.0667180670176  -1.85790793648  -2.06271530289  -0.344961516009  0.157928449197  -0.172258308679  
6.07280397415  0.053577201343  -1.86612157192  -2.05811063663  -0.344095051007  0.155409241803  -0.171325401497  
6.08087611198  0.040536953776  -1.87416241957  -2.05350353448  -0.343230570444  0.152893744531  -0.170393354108  
6.08890199661  0.0275974157865  -1.88203058245  -2.04889398309  -0.340895787346  0.150381957423  -0.169462166511  
6.09704017639  0.0147586604987  -1.889726143  -2.04428197173  -0.287718390997  0.14787388051  -0.142261865823  
6.10518503189  0.00202074275896  -1.89724916309  -1.84316141075  -0.234646802951  0.145369513816  -0.0813716167492  
6.11323714256  -0.0987228751453  -2.18493999861  -1.5733934124  -0.181681025747  0.04508441883  -0.0205496272681  
6.121322155  -0.262273757591  -2.25135293668  -1.46699716092  -0.156276821545  -0.0170812230683  0.0054916174273  
6.12963914871  1.63719465338e-18  -2.12841491923  -1.50033916729  -0.158156612727  -0.000859237995586  0.0  
6.1376709938  1.63719465338e-18  -2.12841491923  -1.50033916729  -0.158156612727  -0.000859237995586  0.0  
6.14570903778  1.63719465338e-18  -2.12841491923  -1.50033916729  -0.158156612727  -0.000859237995586  0.0  
6.1538131237  0.571479765408  -3.25062885331  -0.621201197444  -0.131799180538  0.0819189175395  -0.0460885672969  
6.1618540287  0.769016241073  -3.26381384014  -0.604038464843  -0.0992060387029  0.150905740752  -0.0853143436676  
6.16991209984  0.773703601603  -3.27656975114  -0.586783266406  -0.0665650249826  0.190521054832  -0.124568514321  
6.1779999733  0.778352259938  -3.28889648325  -0.56943559312  -0.0338761320342  0.191665214707  -0.163851079257  
6.18607401848  0.78296228382  -3.30079389261  -0.551995432456  -0.00113934958695  0.192810610249  -0.186768894143  
6.1942050457  0.787533760622  -3.31226179499  -0.534462768448  0.0243408627143  0.193957240528  -0.187369215245  
6.20232319832  0.792066797566  -3.32329996631  -0.516837581806  0.0248818077311  0.195105104409  -0.187969893998  
6.2103600502  0.796561521967  -3.33390814331  -0.499119850052  0.0254268190189  0.196254200551  -0.188570930404  
6.2185189724  0.80101808154  -3.34408602435  -0.48130954767  0.0259759184261  0.197404527413  -0.189172324461  
6.22670316696  0.805436644739  -3.3538332703  -0.4634066463  0.0265291306484  0.19855608325  -0.18977407617  
6.2347881794  0.809817401141  -3.36314950554  -0.445411114934  0.0270864832032  0.199708866118  -0.190376185532  
6.24283504486  0.814160561875  -3.37203431919  -0.427322920157  0.0276480064026  0.200862873874  -0.190978652545  
6.25089907646  0.818466360082  -3.38048726627  -0.409142026397  0.0282137333214  0.202018104179  -0.19158147721  
6.2589161396  0.822735051425  -3.38850786921  -0.390868396206  0.0287836997637  0.203174554499  -0.192184659527  
6.26697802544  0.826966914625  -3.39609561926  -0.372501990568  0.0293579442255  0.20433222211  -0.192788199496  
6.27506804466  0.831162252039  -3.40324997821  -0.354042769228  0.0299365078544  0.205491104095  -0.193392097117  
6.28324007988  0.835321390264  -3.40997038012  -0.335490691041  0.030519434406  0.206651197354  -0.193996352389  
6.2912671566  0.839444680782  -3.41625623324  -0.31684571436  0.0311067701973  0.207812498601  -0.194600965314  
6.29937314987  0.843532500621  -3.42210692199  -0.29810779743  0.0316985640565  0.208975004371  -0.195205935891  
6.30754804611  0.84758525305  -3.42752180913  -0.279276898823  0.03229486727  0.210138711022  -0.195811264119  
6.31567001343  0.851603368295  -3.43250023802  -0.260352977888  0.0328957335253  0.211303614739  -0.19641695  
6.32367110252  0.855587304275  -3.43704153506  -0.241335995227  0.033501218851  0.212469711537  -0.197022993532  
6.3318810463  0.859537547355  -3.44114501215  -0.222225913201  0.0341113815536  0.213636997268  -0.197629394717  
6.33984303474  0.863454613114  -3.44480996941  -0.203022696454  0.0347262821498  0.214805467623  -0.198236153553  
6.34789299965  0.867339047125  -3.44803569796  -0.183726312466  0.0353459832963  0.215975118141  -0.198843270041  
6.35595011711  0.871191425738  -3.45082148282  -0.164336732129  0.0359705497153  0.217145944206  -0.199450744181  
6.36413502693  0.875012356873  -3.45316660597  -0.144853930348  0.0366000481165  0.218317941064  -0.200058575973  
6.37220215797  0.878802480807  -3.45507034957  -0.125277886669  0.0372345471152  0.219491103819  -0.200666765417  
6.38020014763  0.88256247096  -3.45653199924  -0.105608585928  0.037874117147  0.220665427444  -0.201275312513  
6.38831520081  0.886293034672  -3.45755084756  -0.0858460189263  0.0385188303781  0.22184090679  -0.201884217261  
6.39640307426  0.889994913964  -3.45812619763  -0.0659901831322  0.0391687606123  0.223017536585  -0.202493479661  
6.4046189785  0.893668886289  -3.45227628891  -0.0460410834049  0.0398239831928  0.224195311452  -0.203103099712  
6.41264510155  0.897315765249  -3.44395822278  -0.0259987327443  0.0404845749016  0.225374225909  -0.203713077416  
6.42074298859  0.900936401298  -3.43515894054  -0.00988806070295  0.0411506138531  0.226554274381  -0.204323412771  
6.42869615555  0.904531682398  -3.42587782616  -0.00292218005974  0.041822179385  0.227735451207  -0.204934105779  
6.43690514565  0.908102534654  -3.41611429415  0.00409122207916  0.0424993519436  0.228917750651  -0.205545156438  
6.44485712051  0.911649922886  -3.40586779409  0.0111520921666  0.0431822129656  0.230101166913  -0.206156564749  
6.45295119286  0.91517485117  -3.39513781512  0.0182603644008  0.0438708447553  0.231285694134  -0.206768330713  
6.46101212502  0.918678363312  -3.3839238907  0.0254159598303  0.0445653303572  0.232471326413  -0.207380454328  
6.46915817261  0.922161543265  -3.37222560346  0.032618785435  0.0452657534242  0.233658057816  -0.207992935595  
6.47727918625  0.925625515477  -3.36004259022  0.0398687331828  0.0459721980811  0.234845882387  -0.208605774514  
6.48538708687  0.929071445172  -3.34737454713  0.0471656790644  0.0466847487837  0.236034794163  -0.209218971085  
6.49364304543  0.932500538538  -3.33422123496  0.0545094821029  0.0474034901728  0.237224787185  -0.209832525307  
6.50170612335  0.935914042839  -3.32058248457  0.0618999833424  0.0481285069237  0.238415855512  -0.210446437182  
6.5097720623  0.939313246429  -3.30645820247  0.0693370048123  0.0488598835909  0.239607993239  -0.211060706709  
6.51783919334  0.942699478664  -3.2918483766  0.0768203484702  0.0495977044477  0.240801194508  -0.211675333888  
6.52597618103  0.946074109709  -3.27675308218  0.0843497951224  0.050342053321  0.241995453526  -0.212290318718  
6.53399205208  0.949438550226  -3.26117248777  0.0919251033228  0.0510930134213  0.243190764582  -0.212905661201  
6.54209303856  0.941163896915  -3.21775182355  0.0848798743619  0.0520112871342  0.243697526741  -0.21317668294  
6.55020713806  0.450604587544  -2.03875578573  -0.533477382186  0.0594054499978  0.215500408753  -0.199095030161  
6.55834317207  0.447568980713  -2.0134007066  -0.541232177051  0.0586477316344  0.21439227814  -0.1984797041  
6.56637096405  0.444478794778  -1.98843488876  -0.548935855855  0.0578933943682  0.213283652784  -0.197864735691  
6.57461810112  0.441334966895  -1.96385875823  -0.556588268552  0.0571425698536  0.212174519884  -0.197250124933  
6.58280110359  0.434890166751  -1.91587691277  -0.571738795903  0.055651961011  0.209954682429  -0.196021976374  
6.59087514877  0.431591093654  -1.8924717118  -0.579236707622  0.054912415673  0.208843954436  -0.195408438573  
6.59883403778  0.428242171974  -1.86945723415  -0.586682945207  0.0541768613106  0.20773267201  -0.194795258423  
6.60691714287  0.424844348816  -1.8468335919  -0.59407744931  0.0534454059894  0.206620824469  -0.194182435925  
6.61504411697  0.421398566349  -1.82460084608  -0.601420175574  0.052718153419  0.205508401534  -0.193569971079  
6.62313818932  0.417905759815  -1.80275901027  -0.60871109364  0.0519952030702  0.204395393319  -0.192957863885  
6.63126802444  0.414366855688  -1.78130805424  -0.615950186174  0.0512766502915  0.203281790324  -0.192346114343  
6.63929510117  0.410782769943  -1.76024790733  -0.623137447923  0.0505625864237  0.202167583424  -0.191734722453  
6.64739608765  0.407154406451  -1.73957846186  -0.630272884792  0.0498530989125  0.201052763862  -0.191123688215  
6.65543413162  0.403482655487  -1.71929957633  -0.637356512946  0.04914827142  0.199937323244  -0.190513011629  
6.66366004944  0.399768392338  -1.69941107864  -0.654186473677  0.0484481839331  0.198821253524  -0.189902692695  
6.67172408104  0.396012476028  -1.67991276907  -0.674336103341  0.0477529128712  0.197704547002  -0.189292731412  
6.67972898483  0.392215748124  -1.658451825  -0.694388392012  0.0470625311902  0.196587196311  -0.188683127782  
6.68793201447  0.388379031646  -1.63180190416  -0.714343388413  0.0463771084856  0.195469194411  -0.188073881803  
6.69596409798  0.384503130057  -1.60557716423  -0.734201147409  0.0456967110926  0.194350534581  -0.187464993477  
6.70404815674  0.380588826337  -1.57977732372  -0.753961729261  0.0450214021835  0.193231210409  -0.186856462802  
6.7121360302  0.376636882137  -1.55440208733  -0.773625198896  0.0443512418631  0.192111215787  -0.186248289779  
6.72023916245  0.372648037002  -1.52945114842  -0.793191625214  0.0436862872612  0.1909905449  -0.185640474408  
6.72833514214  0.368623007661  -1.5049241914  -0.812661080408  0.0430265926224  0.18986919222  -0.185033016689  
6.7365090847  0.364562487385  -1.48082089401  -0.832033639322  0.0423722093933  0.188747152496  -0.184425916622  
6.74452805519  0.360467145401  -1.45714092947  -0.851309378818  0.041723186307  0.18762442075  -0.183819174207  
6.75268316269  0.356337626363  -1.43388396861  -0.870488377184  0.0410795694641  0.186500992269  -0.183212789444  
6.76060605049  0.352174549874  -1.41104968189  -0.889570713558  0.0404414024115  0.185376862593  -0.182606762333  
6.76871299744  0.347978510056  -1.38863774124  -0.908556467375  0.0398087262176  0.184252027517  -0.182001092874  
6.77675914764  0.343750075164  -1.36664782194  -0.927445717847  0.0391815795454  0.183126483074  -0.181395781066  
6.78497409821  0.33948978724  -1.34507960435  -0.946238543463  0.0385599987209  0.182000225539  -0.180790826911  
6.79294204712  0.335198161805  -1.32393277549  -0.964935021508  0.0379440178003  0.180873251412  -0.180186230407  
6.80099606514  0.330875687587  -1.30320703069  -0.983535227623  0.0373336686322  0.179745557424  -0.179581991556  
6.80908107758  0.326522826279  -1.28290207497  -1.00203923537  0.0367289809181  0.178617140519  -0.178978110356  
6.81724119186  0.322140012322  -1.26301762446  -1.02044711584  0.0361299822687  0.177487997858  -0.178374586809  
6.82528400421  0.317727652721  -1.24355340767  -1.03875893727  0.0355366982572  0.17635812681  -0.177771420913  
6.83354401588  0.313286126881  -1.22450916673  -1.05697476469  0.0349491524692  0.175227524946  -0.177168612669  
6.84171319008  0.308815786463  -1.20588465848  -1.07509465961  0.0343673665497  0.174096190039  -0.176566162077  
6.8496761322  0.30431695526  -1.1876796555  -1.0931186797  0.033791360246  0.172964120052  -0.175964069137  
6.85767602921  0.299789929091  -1.16989394708  -1.11104687853  0.0332211514478  0.171831313144  -0.175362333849  
6.86583709717  0.295234975713  -1.15252734009  -1.12887930528  0.0326567562236  0.170697767658  -0.174760956213  
6.87386417389  0.290652334737  -1.13557965972  -1.14661600457  0.0320981888537  0.169563482122  -0.174159936228  
6.88191914558  0.286042217569  -1.11905075025  -1.1642570162  0.0315454618601  0.168428455246  -0.173559273896  
6.89005804062  0.281404807351  -1.10294047558  -1.181802375  0.00457570240351  0.167292685916  -0.172958969216  
6.89811611176  0.27674025892  -1.08724871982  -1.19925211067  -0.028167214789  0.166156173196  -0.148264470232  
6.90624713898  0.272048698767  -1.07197538774  -1.21660624763  -0.0608603928607  0.165018916324  -0.108983208989  
6.9144551754  0.267330225014  -1.0571204051  -1.23386480494  -0.0935038260976  0.122290061448  -0.0697303420281  
6.92264103889  0.0559269863574  -1.04268371895  -1.2510277962  -0.126097510448  0.0533133602826  -0.0305058693504  
6.93077397346  -0.224384653597  -0.556239285009  -1.82030841621  -0.157238325359  -0.0117201998412  0.00657478385692  
6.93884801865  1.03346359566e-17  -1.1005826686  -1.50455673994  -0.159108760013  0.00139242554498  0.0  
6.9468100071  1.03346359566e-17  -1.1005826686  -1.50455673994  -0.159108760013  0.00139242554498  0.0  
6.95492696762  1.03346359566e-17  -1.1005826686  -1.50455673994  -0.159108760013  0.00139242554498  0.0  
6.96299219131  0.978123238528  -2.21952763006  -0.604489183671  -0.140895627149  0.132016067175  -0.0358090007714  
6.97104811668  0.989426287051  -2.23272696418  -0.587957888443  -0.117495704896  0.201606714  -0.0662805974388  
6.97912096977  1.00068860185  -2.24550683162  -0.571337814884  -0.0940688105573  0.203398893472  -0.0967693371745  
6.98720097542  1.01191040301  -2.25786719579  -0.554628979043  -0.0706149373459  0.205193040883  -0.127275219979  
6.99534511566  1.0230919987  -2.26980800585  -0.537831403455  -0.0471340757689  0.20698915585  -0.157798245851  
7.00364899635  1.03423378523  -2.28132919716  -0.520945117205  -0.0236262136402  0.208787237887  -0.185029478738  
7.01151418686  1.04533624705  -2.29243069182  -0.503970156012  -9.13360943411e-05  0.210587286407  -0.185495811729  
7.01955008507  1.05639995686  -2.30311239935  -0.486906562327  0.0234705743964  0.212389300727  -0.185962360653  
7.02774906158  1.06742557567  -2.31337421743  -0.469754385463  0.0247600261316  0.214193280077  -0.186429125509  
7.03577518463  1.07841385284  -2.32321603284  -0.452513681722  0.0251713717539  0.215999223601  -0.186896106298  
7.04387903214  1.08936562618  -2.33263772249  -0.435184514563  0.0255871841311  0.217807130371  -0.187363303019  
7.05192112923  1.10028182199  -2.34163915457  -0.417766954769  0.0260074912056  0.219616999389  -0.187830715673  
7.05993914604  1.11116345512  -2.35022018985  -0.400261080649  0.0264323234489  0.221428829601  -0.18829834426  
7.0680680275  1.12201162907  -2.35838068308  -0.382666978244  0.0268617138254  0.223242619907  -0.188766188779  
7.07607102394  1.13282753593  -2.36612048453  -0.364984741561  0.0272956977525  0.225058369169  -0.189234249231  
7.08417510986  1.14361245648  -2.37343944169  -0.34721447282  0.0277343130581  0.226876076227  -0.189702525615  
7.09229111671  1.15436776012  -2.38033740108  -0.329356282723  0.0281775999344  0.228695739908  -0.190171017932  
7.10038208961  1.16509490484  -2.38681421017  -0.311410290738  0.0286256008883  0.230517359045  -0.190639726182  
7.1084690094  1.17579543717  -2.39286971947  -0.2933766254  0.0290783606885  0.232340932486  -0.191108650364  
7.11672019958  1.18647099201  -2.3985037848  -0.275255424634  0.0295359263095  0.234166459115  -0.191577790479  
7.12474012375  1.19712329247  -2.40371626962  -0.257046836092  0.0299983468715  0.235993937869  -0.192047146526  
7.13275003433  1.20775414964  -2.40850704753  -0.238751017509  0.0304656735772  0.237823367749  -0.192516718506  
7.14078903198  1.21836546231  -2.412876005  -0.22036813708  0.0309379596455  0.239654747848  -0.192986506419  
7.14888811111  1.22895921656  -2.41682304411  -0.201898373843  0.0314152602409  0.241488077365  -0.193456510264  
7.15706419945  1.23953748536  -2.42034808557  -0.183341918097  0.0318976323993  0.243323355628  -0.193926730042  
7.16504716873  1.250102428  -2.42345107183  -0.164698971821  0.0323851349512  0.245160582114  -0.194397165752  
7.17315816879  1.26065628946  -2.42613197036  -0.145969749118  0.03287782844  0.246999756474  -0.194867817395  
7.18131399155  1.27120139966  -2.42839077712  -0.127154476675  0.0333757750373  0.248840878558  -0.195338684971  
7.18931508064  1.28174017262  -2.43022752014  -0.108253394239  0.0338790384538  0.250683948436  -0.195809768479  
7.19747304916  1.29227510548  -2.43164226335  -0.0892667551066  0.0343876838476  0.252528966427  -0.19628106792  
7.20570898056  1.30280877736  -2.43263511048  -0.070194826639  0.0349017777272  0.254375933125  -0.196752583293  
7.2136721611  1.31334384812  -2.42722513136  -0.0510378907813  0.0354213878513  0.256224849428  -0.197224314599  
7.221804142  1.32388305695  -2.41937028786  -0.031796244606  0.0359465831251  0.258075716568  -0.197696261838  
7.22989606857  1.33442922073  -2.41105841239  -0.0124702008693  0.0364774334917  0.259928536137  -0.198168425009  
7.23804497719  1.34278035048  -2.40228981121  0.00671120007893  0.03701400982  0.261783310125  -0.198640804113  
7.24607419968  1.34917529975  -2.39306485287  0.0134431992782  0.0375563837886  0.263640040948  -0.199113399149  
7.2541179657  1.35555353071  -2.38338397333  0.0202162181236  0.0381046277654  0.265498731482  -0.199586210118  
7.26218914986  1.36191815172  -2.37324768121  0.0270298752507  0.038658814683  0.267359385101  -0.20005923702  
7.2703101635  1.36827233807  -2.36265656322  0.0338837706001  0.0392190179099  0.269222005708  -0.200532479854  
