Ethan-CYM/ros_catkin_ws/test/movej_静止不动/ur_joint_target_velocity.txt
time  shoulder_pan_joint  shoulder_lift_joint  elbow_joint  wrist_1_joint  wrist_2_joint  wrist_3_joint
0.148828983307  0.0  0.0  0.0  0.0  -0.0199998834397  -0.032  
0.156916856766  0.0  0.0  0.0  0.0  -0.0265331955143  -0.0424533602418  
0.164891004562  0.0  0.0  0.0  0.0  -0.0165332537945  -0.0264533602418  
0.173027992249  0.0  0.0  0.0  0.0  -0.00653331207464  -0.0104533602418  
0.181071043015  0.0  0.0  0.0  0.0  0.0  0.0  
0.189164876938  0.0  0.0  0.0  0.0  0.0  0.0  
0.197308063507  0.0  0.0  0.0  0.0  0.0  0.0  
0.205630064011  0.0  0.0  0.0  0.0  0.0  0.0  
0.213705062866  0.0  0.0  0.0  0.0  0.016  0.0  
0.221661090851  0.0  0.0  0.0  0.0  0.032  0.0  
0.229788064957  0.0  0.0  0.0  0.0  0.0235094517149  0.0  
0.237869024277  0.0  0.0  0.0  0.0  0.00750945171493  0.0  
0.245940923691  0.0  0.0  0.0  0.0  0.0  0.0  
0.254081964493  0.0  0.0  0.0  0.0  0.0  0.0  
0.262145042419  0.0  0.0  0.0  0.0  0.0  0.0  
0.270262002945  0.0  0.0  0.0  0.016  -0.00800149225891  0.0  
0.278392076492  0.0  0.0  0.0  0.032  -0.0160029845178  0.0  
0.286411046982  0.0  0.0  0.0  0.048  -0.0240044767767  0.0  
0.294498920441  0.0  0.0  0.0  0.0371202057974  -0.0185635649586  0.0  
0.30263209343  0.0  0.0  0.0  0.0211202057974  -0.0105620726996  0.0  
0.31060385704  0.0  0.0  0.0  0.0051202057974  -0.00256058044074  0.0  
0.318665027618  0.0  0.0  0.0  0.0  0.0  0.0  
0.326766967773  0.0  0.0  0.0  0.0  0.0  0.0  
0.334846019745  0.0  0.0  0.0  0.0  0.0  0.0  
0.342931032181  0.0  0.0  0.0  0.0  0.0  0.0  
0.35102391243  0.0  0.0  0.0  0.0  0.016  0.0  
0.359128952026  0.0  0.0  0.0  0.0  0.032  0.0  
0.367224931717  0.0  0.0  0.0  0.0  0.048  0.0  
0.375375986099  0.0  0.0  0.0  0.0  0.0371296364531  0.0  
0.383643865585  0.0  0.0  0.0  0.0  0.0211296364531  0.0  
0.391721010208  0.0  0.0  0.0  0.0  0.00512963645312  0.0  
0.399749040604  0.0  0.0  0.0  0.0  0.0  0.0  
0.407835960388  0.0  0.0  0.0  0.0  0.0  0.0  
0.416019916534  0.0  0.0  0.0  0.0  0.0  0.0  
0.424020051956  0.0  0.0  0.0  0.0  0.0  0.0  
0.432111024857  0.0  0.0  0.0  -0.016  0.0  0.0  
0.440207958221  0.0  0.0  0.0  -0.032  0.0  0.0  
0.448328018188  0.0  0.0  0.0  -0.048  0.0  0.0  
0.456363916397  0.0  0.0  0.0  -0.0371202057974  0.0  0.0  
0.464559078217  0.0  0.0  0.0  -0.0211202057974  0.0  0.0  
0.47260594368  0.0  0.0  0.0  -0.0051202057974  0.0  0.0  
0.480732917786  0.0  0.0  0.0  0.0  0.0  0.0  
0.488839864731  0.0  0.0  0.0  0.0  0.0  0.0  
0.496932983398  0.0  0.0  0.0  0.0  0.0  0.0  
0.504972934723  0.0  0.0  0.0  0.0  0.0  0.0  
0.513099908829  0.0  0.0  0.0  -0.016  0.00799950267313  0.0  
0.52118897438  0.0  0.0  0.0  -0.032  0.0159990053463  0.0  
0.529337882996  0.0  0.0  0.0  -0.048  0.0239985080194  0.0  
0.537355899811  0.0  0.0  0.0  -0.064  0.0319980106925  0.0  
0.545461893082  0.0  0.0  0.0  -0.08  0.0399975133657  0.0  
0.553669929504  0.0  0.0  0.0  -0.0791616684878  0.0395783736673  0.0  
0.561680078506  0.0  0.0  0.0  -0.0631616684878  0.0315788709942  0.0  
0.569752931595  0.0  0.0  0.0  -0.0471616684878  0.0235793683211  0.0  
0.577877998352  0.0  0.0  0.0  -0.0311616684878  0.015579865648  0.0  
0.585906982422  0.0  0.0  0.0  -0.0151616684878  0.00758036297482  0.0  
0.594038963318  0.0  0.0  0.0  0.0  0.0  0.0  
0.602236032486  0.0  0.0  0.0  0.0  0.0  0.0  
0.610275030136  0.0  0.0  0.0  0.0  0.0  0.0  
0.618438959122  0.0  0.0  0.0  0.0  0.0  0.0  
0.626565933228  0.0  0.0  0.0  0.016  -0.00599990674686  0.0  
0.634600877762  0.0  0.0  0.0  0.032  -0.0119998134937  0.0  
0.642649888992  0.0  0.0  0.0  0.048  -0.0179997202406  0.0  
0.650750875473  0.0  0.0  0.0  0.064  -0.0239996269875  0.0  
0.658806085587  0.0  0.0  0.0  0.08  -0.0299995337343  0.0  
0.66686797142  0.0  0.0  0.0  0.096  -0.0359994404812  0.0  
0.675035953522  0.0  0.0  0.0  0.0902545577433  -0.0338449331212  0.0  
0.683125019073  0.0  0.0  0.0  0.0742545577433  -0.0278450263743  0.0  
0.691236972809  0.0  0.0  0.0  0.0582545577433  -0.0218451196275  0.0  
0.699330091476  0.0  0.0  0.0  0.0422545577433  -0.0158452128806  0.0  
0.707633018494  0.0  0.0  0.0  0.0262545577433  -0.00984530613374  0.0  
0.715637922287  0.0  0.0  0.0  0.0102545577433  -0.00384539938688  0.0  
0.723680019379  0.0  0.0  0.0  0.0  0.0  0.0  
0.73178601265  0.0  0.0  0.0  0.0  0.0  0.0  
0.73987197876  0.0  0.0  0.0  0.0  0.0  0.0  
0.747956037521  0.0  0.0  0.0  0.0  0.0  0.0  
0.7560069561  0.0014929870692  -0.016  0.00143727316994  0.000742667315912  -0.000742667315912  0.00386181464048  
0.764163970947  0.0029859741384  -0.032  0.00287454633988  0.00148533463182  -0.00148533463182  0.00772362928096  
0.772202968597  0.0044789612076  -0.048  0.00431181950982  0.00222800194774  -0.00222800194774  0.0115854439214  
0.780258893967  0.00597194827679  -0.064  0.00574909267976  0.00297066926365  -0.00297066926365  0.0154472585619  
0.788541078568  0.00746493534599  -0.08  0.0071863658497  0.00371333657956  -0.00371333657956  0.0193090732024  
0.796494007111  0.00895792241519  -0.096  0.00862363901964  0.00445600389547  -0.00445600389547  0.0231708878429  
0.804705858231  0.0104509094844  -0.112  0.0100609121896  0.00519867121138  -0.00519867121138  0.0270327024834  
0.812622070312  0.0119438965536  -0.128  0.0114981853595  0.0059413385273  -0.0059413385273  0.0308945171238  
0.82067489624  0.0134368836228  -0.144  0.0129354585295  0.00668400584321  -0.00668400584321  0.0347563317643  
0.828744888306  0.014929870692  -0.16  0.0143727316994  0.00742667315912  -0.00742667315912  0.0386181464048  
0.836802005768  0.0164228577612  -0.176  0.0158100048693  0.00816934047503  -0.00816934047503  0.0424799610453  
0.844991922379  0.0179158448304  -0.192  0.0172472780393  0.00891200779094  -0.00891200779094  0.0463417756858  
0.85302400589  0.0194088318996  -0.208  0.0186845512092  0.00965467510685  -0.00965467510685  0.0502035903262  
0.861152887344  0.0209018189688  -0.224  0.0201218243792  0.0103973424228  -0.0103973424228  0.0540654049667  
0.869231939316  0.022394806038  -0.24  0.0215590975491  0.0111400097387  -0.0111400097387  0.0579272196072  
0.877351045609  0.0238877931072  -0.256  0.022996370719  0.0118826770546  -0.0118826770546  0.0617890342477  
0.885457038879  0.0253807801764  -0.272  0.024433643889  0.0126253443705  -0.0126253443705  0.0656508488882  
0.893595933914  0.0268737672456  -0.288  0.0258709170589  0.0133680116864  -0.0133680116864  0.0695126635286  
0.901687860489  0.0283667543148  -0.304  0.0273081902289  0.0141106790023  -0.0141106790023  0.0733744781691  
0.909791946411  0.029859741384  -0.32  0.0287454633988  0.0148533463182  -0.0148533463182  0.0772362928096  
0.917943954468  0.0305902869487  -0.327829089264  0.0294487471453  0.0152167468626  -0.0152167468626  0.079125948531  
0.926047086716  0.0276043128103  -0.295829089264  0.0265742008055  0.0137314122308  -0.0137314122308  0.07140231925  
0.934140920639  0.0261113257411  -0.279829089264  0.0251369276355  0.0129887449149  -0.0129887449149  0.0675405046096  
0.9422519207  0.0246183386719  -0.263829089264  0.0236996544656  0.012246077599  -0.012246077599  0.0636786899691  
0.950253009796  0.0231253516027  -0.247829089264  0.0222623812956  0.011503410283  -0.011503410283  0.0598168753286  
0.958353996277  0.0216323645335  -0.231829089264  0.0208251081257  0.0107607429671  -0.0107607429671  0.0559550606881  
0.966434955597  0.0201393774643  -0.215829089264  0.0193878349558  0.0100180756512  -0.0100180756512  0.0520932460476  
0.974720954895  0.0186463903951  -0.199829089264  0.0179505617858  0.00927540833531  -0.00927540833531  0.0482314314072  
0.982722043991  0.0171534033259  -0.183829089264  0.0165132886159  0.0085327410194  -0.0085327410194  0.0443696167667  
0.990854978561  0.0156604162567  -0.167829089264  0.0150760154459  0.00779007370349  -0.00779007370349  0.0405078021262  
0.998954057693  0.0141674291875  -0.151829089264  0.013638742276  0.00704740638758  -0.00704740638758  0.0366459874857  
1.00700592995  0.0126744421183  -0.135829089264  0.0122014691061  0.00630473907167  -0.00630473907167  0.0327841728452  
1.01507902145  0.0111814550491  -0.119829089264  0.0107641959361  0.00556207175575  -0.00556207175575  0.0289223582048  
1.0232219696  0.00968846797989  -0.103829089264  0.00932692276618  0.00481940443984  -0.00481940443984  0.0250605435643  
1.03128504753  0.00819548091069  -0.0878290892643  0.00788964959624  0.00407673712393  -0.00407673712393  0.0211987289238  
1.03947305679  0.00670249384149  -0.0718290892643  0.0064523764263  0.00333406980802  -0.00333406980802  0.0173369142833  
1.04767608643  0.00520950677229  -0.0558290892643  0.00501510325636  0.00259140249211  -0.00259140249211  0.0134750996428  
1.0556230545  0.00371651970309  -0.0398290892643  0.00357783008642  0.00184873517619  -0.00184873517619  0.00961328500236  
1.0636639595  0.0022235326339  -0.0238290892643  0.00214055691648  0.00110606786028  -0.00110606786028  0.00575147036188  
1.07177901268  0.000730545564696  -0.00782908926426  0.000703283746537  0.00036340054437  -0.00036340054437  0.0018896557214  
1.07987308502  0.0  0.0  0.0  0.0  0.0  0.0  
1.08792591095  0.0  0.0  0.0  0.0  0.0  0.0  
1.09605693817  0.0  0.0  0.0  0.0  0.0  0.0  
1.10418200493  0.0  0.0  0.0  0.0  0.0  0.0  
1.11228704453  -0.00288645990836  -0.016  -0.0110301365436  0.0131201421992  0.00309438012904  0.00594119565092  
1.12052297592  -0.00577291981671  -0.032  -0.0220602730872  0.0262402843985  0.00618876025808  0.0118823913018  
1.12867689133  -0.00865937972507  -0.048  -0.0330904096308  0.0393604265977  0.00928314038712  0.0178235869528  
1.13680291176  -0.0115458396334  -0.064  -0.0441205461744  0.052480568797  0.0123775205162  0.0237647826037  
1.14479804039  -0.0144322995418  -0.08  -0.0551506827179  0.0656007109962  0.0154719006452  0.0297059782546  
1.15280985832  -0.0173187594501  -0.096  -0.0661808192615  0.0787208531954  0.0185662807742  0.0356471739055  
1.16096997261  -0.0202052193585  -0.112  -0.0772109558051  0.0918409953947  0.0216606609033  0.0415883695564  
1.16908407211  -0.0230916792668  -0.128  -0.0882410923487  0.104961137594  0.0247550410323  0.0475295652074  
1.1772069931  -0.0259781391752  -0.144  -0.0992712288923  0.118081279793  0.0278494211614  0.0534707608583  
1.18534493446  -0.0288645990836  -0.16  -0.110301365436  0.131201421992  0.0309438012904  0.0594119565092  
1.19366407394  -0.0317510589919  -0.176  -0.121331501979  0.144321564192  0.0340381814195  0.0653531521601  
1.20163798332  -0.0346375189003  -0.192  -0.132361638523  0.157441706391  0.0371325615485  0.071294347811  
1.20964193344  -0.0375239788086  -0.208  -0.143391775067  0.17056184859  0.0402269416775  0.077235543462  
1.21777200699  -0.040410438717  -0.224  -0.15442191161  0.183681990789  0.0433213218066  0.0831767391129  
1.22587108612  -0.0432968986253  -0.24  -0.165452048154  0.196802132989  0.0464157019356  0.0891179347638  
1.23396205902  -0.0461833585337  -0.256  -0.176482184697  0.209922275188  0.0495100820647  0.0950591304147  
1.24206495285  -0.049069818442  -0.272  -0.187512321241  0.223042417387  0.0526044621937  0.101000326066  
1.25018501282  -0.0519562783504  -0.288  -0.198542457785  0.236162559586  0.0556988423227  0.106941521717  
1.25828790665  -0.0548427382588  -0.304  -0.209572594328  0.249282701786  0.0587932224518  0.112882717367  
1.26653194427  -0.0577291981671  -0.32  -0.220602730872  0.262402843985  0.0618876025808  0.118823913018  
1.27445292473  -0.0606156580755  -0.336  -0.231632867415  0.275522986184  0.0649819827099  0.124765108669  
1.28256487846  -0.0635021179838  -0.352  -0.242663003959  0.288643128383  0.0680763628389  0.13070630432  
1.29063200951  -0.0663885778922  -0.368  -0.253693140503  0.301763270583  0.0711707429679  0.136647499971  
1.29871988297  -0.0692750378005  -0.384  -0.264723277046  0.314883412782  0.074265123097  0.142588695622  
1.30681490898  -0.0721614977089  -0.4  -0.27575341359  0.328003554981  0.077359503226  0.148529891273  
1.31488204002  -0.0716240712216  -0.397020979307  -0.273699725776  0.325560731537  0.0767833643237  0.147423707224  
1.32302188873  -0.0687376113132  -0.381020979307  -0.262669589233  0.312440589337  0.0736889841947  0.141482511573  
1.33111596107  -0.0658511514049  -0.365020979307  -0.251639452689  0.299320447138  0.0705946040656  0.135541315922  
1.33925390244  -0.0629646914965  -0.349020979307  -0.240609316146  0.286200304939  0.0675002239366  0.129600120271  
1.3474419117  -0.0600782315881  -0.333020979307  -0.229579179602  0.27308016274  0.0644058438075  0.12365892462  
1.35544490814  -0.0571917716798  -0.317020979307  -0.218549043059  0.25996002054  0.0613114636785  0.117717728969  
1.36355900764  -0.0543053117714  -0.301020979307  -0.207518906515  0.246839878341  0.0582170835495  0.111776533318  
1.3716878891  -0.0514188518631  -0.285020979307  -0.196488769971  0.233719736142  0.0551227034204  0.105835337667  
1.3797659874  -0.0485323919547  -0.269020979307  -0.185458633428  0.220599593943  0.0520283232914  0.0998941420165  
1.38784909248  -0.0456459320464  -0.253020979307  -0.174428496884  0.207479451744  0.0489339431623  0.0939529463656  
1.39592790604  -0.042759472138  -0.237020979307  -0.163398360341  0.194359309544  0.0458395630333  0.0880117507146  
1.40402698517  -0.0398730122297  -0.221020979307  -0.152368223797  0.181239167345  0.0427451829043  0.0820705550637  
1.41214799881  -0.0369865523213  -0.205020979307  -0.141338087253  0.168119025146  0.0396508027752  0.0761293594128  
1.42024302483  -0.0341000924129  -0.189020979307  -0.13030795071  0.154998882947  0.0365564226462  0.0701881637619  
1.42849588394  -0.0312136325046  -0.173020979307  -0.119277814166  0.141878740747  0.0334620425171  0.064246968111  
1.43648004532  -0.0283271725962  -0.157020979307  -0.108247677623  0.128758598548  0.0303676623881  0.05830577246  
1.44457793236  -0.0254407126879  -0.141020979307  -0.097217541079  0.115638456349  0.0272732822591  0.0523645768091  
1.4526848793  -0.0225542527795  -0.125020979307  -0.0861874045354  0.10251831415  0.02417890213  0.0464233811582  
1.46073293686  -0.0196677928712  -0.109020979307  -0.0751572679919  0.0893981719503  0.021084522001  0.0404821855073  
1.46874809265  -0.0167813329628  -0.0930209793068  -0.0641271314483  0.0762780297511  0.0179901418719  0.0345409898564  
1.47690987587  -0.0138948730545  -0.0770209793068  -0.0530969949047  0.0631578875519  0.0148957617429  0.0285997942054  
1.48497486115  -0.0110084131461  -0.0610209793068  -0.0420668583611  0.0500377453526  0.0118013816138  0.0226585985545  
1.49310398102  -0.00812195323775  -0.0450209793068  -0.0310367218175  0.0369176031534  0.00870700148481  0.0167174029036  
1.5011548996  -0.00523549332939  -0.0290209793068  -0.0200065852739  0.0237974609541  0.00561262135576  0.0107762072527  
1.50931096077  -0.00234903342104  -0.0130209793068  -0.00897644873032  0.0106773187549  0.00251824122672  0.00483501160176  
1.51746201515  0.0  0.0  0.0  0.0  0.0  0.0  
1.52550601959  0.0  0.0  0.0  0.0  0.0  0.0  
1.53351306915  0.0  0.0  0.0  0.0  0.0  0.0  
1.54157686234  0.0  0.0  0.0  0.0  0.0  0.0  
1.54969596863  -0.00203822738109  -0.00726839491902  -0.0127677606274  0.016  0.00760395088902  0.00544949395161  
1.55773186684  -0.00407645476217  -0.014536789838  -0.0255355212548  0.032  0.015207901778  0.0108989879032  
1.56585097313  -0.00611468214326  -0.0218051847571  -0.0383032818822  0.048  0.0228118526671  0.0163484818548  
1.57402300835  -0.0101911369054  -0.0363419745951  -0.0638388031369  0.08  0.0380197544451  0.027247469758  
1.582062006  -0.0122293642865  -0.0436103695141  -0.0766065637643  0.096  0.0456237053341  0.0326969637097  
1.59019207954  -0.0142675916676  -0.0508787644331  -0.0893743243917  0.112  0.0532276562232  0.0381464576613  
1.59846997261  -0.0163058190487  -0.0581471593522  -0.102142085019  0.128  0.0608316071122  0.0435959516129  
1.60652303696  -0.0183440464298  -0.0654155542712  -0.114909845646  0.144  0.0684355580012  0.0490454455645  
1.61456108093  -0.0203822738109  -0.0726839491902  -0.127677606274  0.16  0.0760395088902  0.0544949395161  
1.62271595001  -0.022420501192  -0.0799523441092  -0.140445366901  0.176  0.0836434597793  0.0599444334677  
1.63078093529  -0.024458728573  -0.0872207390282  -0.153213127529  0.192  0.0912474106683  0.0653939274193  
1.63898205757  -0.0264969559541  -0.0944891339473  -0.165980888156  0.208  0.0988513615573  0.0708434213709  
1.64701485634  -0.0285351833352  -0.101757528866  -0.178748648783  0.224  0.106455312446  0.0762929153225  
1.65508008003  -0.0305734107163  -0.109025923785  -0.191516409411  0.24  0.114059263335  0.0817424092741  
1.66322588921  -0.0326116380974  -0.116294318704  -0.204284170038  0.256  0.121663214224  0.0871919032257  
1.67127895355  -0.0346498654785  -0.123562713623  -0.217051930666  0.272  0.129267165113  0.0926413971774  
1.67945790291  -0.0366880928596  -0.130831108542  -0.229819691293  0.288  0.136871116002  0.098090891129  
1.68750786781  -0.0387263202406  -0.138099503461  -0.24258745192  0.304  0.144475066891  0.103540385081  
1.69562792778  -0.0407645476217  -0.14536789838  -0.255355212548  0.32  0.15207901778  0.108989879032  
1.70375394821  -0.0428027750028  -0.152636293299  -0.268122973175  0.336  0.15968296867  0.114439372984  
1.7118639946  -0.0448410023839  -0.159904688218  -0.280890733802  0.352  0.167286919559  0.119888866935  
1.71997594833  -0.046879229765  -0.167173083137  -0.29365849443  0.368  0.174890870448  0.125338360887  
1.72810602188  -0.0489174571461  -0.174441478056  -0.306426255057  0.384  0.182494821337  0.130787854839  
1.73617291451  -0.0509556845272  -0.181709872975  -0.319194015685  0.4  0.190098772226  0.13623734879  
1.74438595772  -0.0529939119082  -0.188978267895  -0.331961776312  0.416  0.197702723115  0.141686842742  
1.75245785713  -0.0550321392893  -0.196246662814  -0.344729536939  0.432  0.205306674004  0.147136336693  
1.76048088074  -0.0570703666704  -0.203515057733  -0.357497297567  0.448  0.212910624893  0.152585830645  
1.76856708527  -0.0591085940515  -0.210783452652  -0.370265058194  0.464  0.220514575782  0.158035324597  
1.77666401863  -0.0611468214326  -0.218051847571  -0.383032818822  0.48  0.228118526671  0.163484818548  
1.78479599953  -0.0631850488137  -0.22532024249  -0.395800579449  0.496  0.23572247756  0.1689343125  
1.79289889336  -0.0642459550127  -0.229103473594  -0.402446254275  0.50432806945  0.239680367003  0.171770797756  
1.80102992058  -0.0622077276316  -0.221835078675  -0.389678493648  0.48832806945  0.232076416114  0.166321303804  
1.80910491943  -0.0601695002505  -0.214566683756  -0.37691073302  0.47232806945  0.224472465225  0.160871809853  
1.81718587875  -0.0581312728694  -0.207298288837  -0.364142972393  0.45632806945  0.216868514336  0.155422315901  
1.82538199425  -0.0560930454883  -0.200029893918  -0.351375211766  0.44032806945  0.209264563447  0.149972821949  
1.8334748745  -0.0540548181072  -0.192761498999  -0.338607451138  0.42432806945  0.201660612558  0.144523327998  
1.84141898155  -0.0520165907261  -0.18549310408  -0.325839690511  0.40832806945  0.194056661669  0.139073834046  
1.84959793091  -0.049978363345  -0.178224709161  -0.313071929883  0.39232806945  0.18645271078  0.133624340094  
1.85764694214  -0.047940135964  -0.170956314242  -0.300304169256  0.37632806945  0.178848759891  0.128174846143  
1.86576485634  -0.0459019085829  -0.163687919323  -0.287536408629  0.36032806945  0.171244809002  0.122725352191  
1.87397694588  -0.0438636812018  -0.156419524404  -0.274768648001  0.34432806945  0.163640858113  0.11727585824  
1.8820400238  -0.0418254538207  -0.149151129485  -0.262000887374  0.32832806945  0.156036907224  0.111826364288  
1.89014005661  -0.0397872264396  -0.141882734566  -0.249233126747  0.31232806945  0.148432956335  0.106376870336  
1.8982489109  -0.0377489990585  -0.134614339647  -0.236465366119  0.29632806945  0.140829005446  0.100927376385  
1.90644407272  -0.0357107716774  -0.127345944728  -0.223697605492  0.28032806945  0.133225054557  0.0954778824332  
1.91445493698  -0.0336725442964  -0.120077549809  -0.210929844864  0.26432806945  0.125621103668  0.0900283884816  
1.92253398895  -0.0316343169153  -0.11280915489  -0.198162084237  0.24832806945  0.118017152779  0.08457889453  
1.93065595627  -0.0295960895342  -0.105540759971  -0.18539432361  0.23232806945  0.11041320189  0.0791294005784  
1.9386510849  -0.0275578621531  -0.0982723650518  -0.172626562982  0.21632806945  0.102809251001  0.0736799066268  
1.94671201706  -0.025519634772  -0.0910039701327  -0.159858802355  0.20032806945  0.0952053001117  0.0682304126752  
1.95476388931  -0.0234814073909  -0.0837355752137  -0.147091041727  0.18432806945  0.0876013492227  0.0627809187236  
1.96296286583  -0.0214431800098  -0.0764671802947  -0.1343232811  0.16832806945  0.0799973983336  0.0573314247719  
1.97100496292  -0.0194049526288  -0.0691987853757  -0.121555520473  0.15232806945  0.0723934474446  0.0518819308203  
1.97916007042  -0.0173667252477  -0.0619303904567  -0.108787759845  0.13632806945  0.0647894965556  0.0464324368687  
1.98719286919  -0.0153284978666  -0.0546619955376  -0.0960199992179  0.12032806945  0.0571855456666  0.0409829429171  
1.99535799026  -0.0132902704855  -0.0473936006186  -0.0832522385905  0.10432806945  0.0495815947775  0.0355334489655  
2.00348591805  -0.0112520431044  -0.0401252056996  -0.0704844779632  0.0883280694495  0.0419776438885  0.0300839550139  
2.0114979744  -0.00921381572332  -0.0328568107806  -0.0577167173358  0.0723280694495  0.0343736929995  0.0246344610623  
2.01955199242  -0.00717558834223  -0.0255884158616  -0.0449489567084  0.0563280694495  0.0267697421105  0.0191849671107  
2.02764892578  -0.00513736096115  -0.0183200209425  -0.032181196081  0.0403280694495  0.0191657912215  0.0137354731591  
2.03576207161  -0.00309913358006  -0.0110516260235  -0.0194134354536  0.0243280694495  0.0115618403324  0.00828597920747  
2.04383087158  -0.00106090619897  -0.00378323110451  -0.00664567482623  0.00832806944951  0.00395788944341  0.00283648525586  
2.05193185806  0.0  0.0  0.0  0.0  0.0  0.0  
2.06003808975  0.0  0.0  0.0  0.0  0.0  0.0  
2.06816005707  0.0  0.0  0.0  0.0  0.0  0.0  
2.07625508308  0.0  0.0  0.0  0.0  0.0  0.0  
2.08447003365  -0.00209777575959  -0.00693864080504  -0.0113015252629  0.016  0.0108695701532  0.00208695559628  
2.09254598618  -0.00419555151918  -0.0138772816101  -0.0226030505259  0.032  0.0217391403063  0.00417391119256  
2.10058903694  -0.00629332727877  -0.0208159224151  -0.0339045757888  0.048  0.0326087104595  0.00626086678884  
2.10867285728  -0.00839110303836  -0.0277545632202  -0.0452061010517  0.064  0.0434782806127  0.00834782238512  
2.11671900749  -0.010488878798  -0.0346932040252  -0.0565076263146  0.08  0.0543478507659  0.0104347779814  
2.12480807304  -0.0125866545575  -0.0416318448302  -0.0678091515776  0.096  0.065217420919  0.0125217335777  
2.13289904594  -0.0146844303171  -0.0485704856353  -0.0791106768405  0.112  0.0760869910722  0.014608689174  
2.14108991623  -0.0167822060767  -0.0555091264403  -0.0904122021034  0.128  0.0869565612254  0.0166956447702  
2.1491560936  -0.0188799818363  -0.0624477672454  -0.101713727366  0.144  0.0978261313786  0.0187826003665  
2.15728902817  -0.0209777575959  -0.0693864080504  -0.113015252629  0.16  0.108695701532  0.0208695559628  
2.16536808014  -0.0230755333555  -0.0763250488554  -0.124316777892  0.176  0.119565271685  0.0229565115591  
2.17359209061  -0.0251733091151  -0.0832636896605  -0.135618303155  0.192  0.130434841838  0.0250434671554  
2.18163204193  -0.0272710848747  -0.0902023304655  -0.146919828418  0.208  0.141304411991  0.0271304227516  
2.18968892097  -0.0293688606343  -0.0971409712706  -0.158221353681  0.224  0.152173982144  0.0292173783479  
2.19778108597  -0.0314666363939  -0.104079612076  -0.169522878944  0.24  0.163043552298  0.0313043339442  
2.20593190193  -0.0335644121535  -0.111018252881  -0.180824404207  0.256  0.173913122451  0.0333912895405  
2.21393704414  -0.035662187913  -0.117956893686  -0.19212592947  0.272  0.184782692604  0.0354782451368  
2.22201490402  -0.0377599636726  -0.124895534491  -0.203427454733  0.288  0.195652262757  0.037565200733  
2.23009490967  -0.0419555151918  -0.138772816101  -0.226030505259  0.32  0.217391403064  0.0417391119256  
2.23817706108  -0.0440532909514  -0.145711456906  -0.237332030521  0.336  0.228260973217  0.0438260675219  
2.24629402161  -0.046151066711  -0.152650097711  -0.248633555784  0.352  0.23913054337  0.0459130231182  
2.2545170784  -0.0482488424706  -0.159588738516  -0.259935081047  0.368  0.250000113523  0.0479999787144  
2.26258802414  -0.0503466182302  -0.166527379321  -0.27123660631  0.384  0.260869683676  0.0500869343107  
2.27059006691  -0.0524443939898  -0.173466020126  -0.282538131573  0.4  0.271739253829  0.052173889907  
2.27857708931  -0.0545421697494  -0.180404660931  -0.293839656836  0.416  0.282608823983  0.0542608455033  
2.28664088249  -0.0566399455089  -0.187343301736  -0.305141182099  0.432  0.293478394136  0.0563478010996  
2.29474687576  -0.0587377212685  -0.194281942541  -0.316442707362  0.448  0.304347964289  0.0584347566958  
2.30288887024  -0.0608354970281  -0.201220583346  -0.327744232625  0.464  0.315217534442  0.0605217122921  
2.31093597412  -0.0629332727877  -0.208159224151  -0.339045757888  0.48  0.326087104595  0.0626086678884  
2.31906604767  -0.0621452431661  -0.205552723212  -0.334800339074  0.473989598799  0.322003949751  0.0618247028619  
2.32718491554  -0.0600474674065  -0.198614082407  -0.323498813811  0.457989598799  0.311134379598  0.0597377472657  
2.33528709412  -0.0579496916469  -0.191675441602  -0.312197288548  0.441989598799  0.300264809445  0.0576507916694  
2.34351301193  -0.0558519158873  -0.184736800797  -0.300895763285  0.425989598799  0.289395239291  0.0555638360731  
2.35160589218  -0.0537541401277  -0.177798159992  -0.289594238022  0.409989598799  0.278525669138  0.0534768804768  
2.35967898369  -0.0516563643682  -0.170859519187  -0.27829271276  0.393989598799  0.267656098985  0.0513899248805  
2.36770987511  -0.0495585886086  -0.163920878382  -0.266991187497  0.377989598799  0.256786528832  0.0493029692843  
2.37579798698  -0.047460812849  -0.156982237576  -0.255689662234  0.361989598799  0.245916958679  0.047216013688  
2.38389086723  -0.0453630370894  -0.150043596771  -0.244388136971  0.345989598799  0.235047388526  0.0451290580917  
2.3919839859  -0.0432652613298  -0.143104955966  -0.233086611708  0.329989598799  0.224177818372  0.0430421024954  
2.40009188652  -0.0411674855702  -0.136166315161  -0.221785086445  0.313989598799  0.213308248219  0.0409551468991  
2.40822100639  -0.0390697098106  -0.129227674356  -0.210483561182  0.297989598799  0.202438678066  0.0388681913029  
2.41629099846  -0.036971934051  -0.122289033551  -0.199182035919  0.281989598799  0.191569107913  0.0367812357066  
2.42441296577  -0.0348741582914  -0.115350392746  -0.187880510656  0.265989598799  0.18069953776  0.0346942801103  
2.43259096146  -0.0327763825318  -0.108411751941  -0.176578985393  0.249989598799  0.169829967607  0.032607324514  
2.44067692757  -0.0306786067722  -0.101473111136  -0.16527746013  0.233989598799  0.158960397453  0.0305203689177  
2.44872689247  -0.0285808310127  -0.0945344703311  -0.153975934867  0.217989598799  0.1480908273  0.0284334133215  
2.45673799515  -0.0264830552531  -0.0875958295261  -0.142674409604  0.201989598799  0.137221257147  0.0263464577252  
2.46479105949  -0.0243852794935  -0.080657188721  -0.131372884341  0.185989598799  0.126351686994  0.0242595021289  
2.47289299965  -0.0222875037339  -0.073718547916  -0.120071359079  0.169989598799  0.115482116841  0.0221725465326  
2.48101902008  -0.0201897279743  -0.066779907111  -0.108769833816  0.153989598799  0.104612546687  0.0200855909363  
2.48913407326  -0.0180919522147  -0.0598412663059  -0.0974683085527  0.137989598799  0.0937429765343  0.0179986353401  
2.49724698067  -0.0159941764551  -0.0529026255009  -0.0861667832898  0.121989598799  0.0828734063811  0.0159116797438  
2.50531697273  -0.0138964006955  -0.0459639846958  -0.0748652580268  0.105989598799  0.072003836228  0.0138247241475  
2.51346087456  -0.0117986249359  -0.0390253438908  -0.0635637327639  0.0899895987985  0.0611342660748  0.0117377685512  
2.52158093452  -0.00970084917634  -0.0320867030858  -0.052262207501  0.0739895987985  0.0502646959216  0.00965081295494  
2.52965807915  -0.00760307341675  -0.0251480622807  -0.040960682238  0.0579895987985  0.0393951257684  0.00756385735866  
2.53773188591  -0.00550529765716  -0.0182094214757  -0.0296591569751  0.0419895987985  0.0285255556153  0.00547690176238  
2.54582285881  -0.00340752189757  -0.0112707806706  -0.0183576317122  0.0259895987985  0.0176559854621  0.0033899461661  
2.55386590958  -0.00130974613798  -0.00433213986559  -0.00705610644926  0.00998959879853  0.00678641530892  0.00130299056982  
2.56198596954  0.0  0.0  0.0  0.0  0.0  0.0  
2.57005405426  0.0  0.0  0.0  0.0  0.0  0.0  
2.57810401917  0.0  0.0  0.0  0.0  0.0  0.0  
2.58618688583  0.0  0.0  0.0  0.0  0.0  0.0  
2.59431791306  -0.016  -0.0105334585133  -0.00230618994204  0.0141573387509  0.0049742184242  0.0  
2.60242700577  -0.032  -0.0210669170266  -0.00461237988408  0.0283146775017  0.00994843684841  0.0  
2.61038804054  -0.048  -0.03160037554  -0.00691856982612  0.0424720162526  0.0149226552726  0.0  
2.61868691444  -0.064  -0.0421338340533  -0.00922475976816  0.0566293550034  0.0198968736968  0.0  
2.62661790848  -0.08  -0.0526672925666  -0.0115309497102  0.0707866937543  0.024871092121  0.0  
2.63468289375  -0.096  -0.0632007510799  -0.0138371396522  0.0849440325052  0.0298453105452  0.0  
2.64271306992  -0.112  -0.0737342095932  -0.0161433295943  0.099101371256  0.0348195289694  0.0  
2.65076899529  -0.128  -0.0842676681065  -0.0184495195363  0.113258710007  0.0397937473936  0.0  
2.65882587433  -0.144  -0.0948011266199  -0.0207557094784  0.127416048758  0.0447679658178  0.0  
2.66691088676  -0.16  -0.105334585133  -0.0230618994204  0.141573387509  0.049742184242  0.0  
2.67500805855  -0.176  -0.115868043646  -0.0253680893625  0.155730726259  0.0547164026662  0.0  
2.68306994438  -0.192  -0.12640150216  -0.0276742793045  0.16988806501  0.0596906210904  0.0  
2.6911740303  -0.208  -0.136934960673  -0.0299804692465  0.184045403761  0.0646648395147  0.0  
2.69930386543  -0.224  -0.147468419186  -0.0322866591886  0.198202742512  0.0696390579389  0.0  
2.70745396614  -0.24  -0.1580018777  -0.0345928491306  0.212360081263  0.0746132763631  0.0  
2.71565508842  -0.256  -0.168535336213  -0.0368990390727  0.226517420014  0.0795874947873  0.0  
2.72369408607  -0.272  -0.179068794726  -0.0392052290147  0.240674758765  0.0845617132115  0.0  
2.73169088364  -0.288  -0.18960225324  -0.0415114189567  0.254832097516  0.0895359316357  0.0  
2.73978590965  -0.304  -0.200135711753  -0.0438176088988  0.268989436266  0.0945101500599  0.0  
2.74786305428  -0.32  -0.210669170266  -0.0461237988408  0.283146775017  0.0994843684841  0.0  
2.75593996048  -0.317947697172  -0.209318054848  -0.0458279863321  0.28133082837  0.0988463308255  0.0  
2.76408100128  -0.301947697172  -0.198784596335  -0.0435217963901  0.26717348962  0.0938721124013  0.0  
2.7721619606  -0.285947697172  -0.188251137822  -0.0412156064481  0.253016150869  0.0888978939771  0.0  
2.78029608727  -0.269947697172  -0.177717679308  -0.038909416506  0.238858812118  0.0839236755529  0.0  
2.78835988045  -0.253947697172  -0.167184220795  -0.036603226564  0.224701473367  0.0789494571287  0.0  
2.79644393921  -0.237947697172  -0.156650762282  -0.0342970366219  0.210544134616  0.0739752387045  0.0  
2.80462098122  -0.221947697172  -0.146117303768  -0.0319908466799  0.196386795865  0.0690010202803  0.0  
2.81271100044  -0.205947697172  -0.135583845255  -0.0296846567379  0.182229457114  0.0640268018561  0.0  
2.82081389427  -0.189947697172  -0.125050386742  -0.0273784667958  0.168072118364  0.0590525834319  0.0  
2.82882499695  -0.173947697172  -0.114516928228  -0.0250722768538  0.153914779613  0.0540783650077  0.0  
2.83700609207  -0.157947697172  -0.103983469715  -0.0227660869117  0.139757440862  0.0491041465835  0.0  
2.84502601624  -0.141947697172  -0.0934500112017  -0.0204598969697  0.125600102111  0.0441299281593  0.0  
2.85316205025  -0.125947697172  -0.0829165526884  -0.0181537070277  0.11144276336  0.0391557097351  0.0  
2.86128997803  -0.109947697172  -0.0723830941751  -0.0158475170856  0.0972854246093  0.0341814913109  0.0  
2.86941099167  -0.0939476971725  -0.0618496356618  -0.0135413271436  0.0831280858584  0.0292072728867  0.0  
2.87758493423  -0.0779476971725  -0.0513161771484  -0.0112351372015  0.0689707471075  0.0242330544625  0.0  
2.88570690155  -0.0619476971725  -0.0407827186351  -0.00892894725949  0.0548134083567  0.0192588360383  0.0  
2.89373993874  -0.0459476971725  -0.0302492601218  -0.00662275731745  0.0406560696058  0.0142846176141  0.0  
2.90184187889  -0.0299476971725  -0.0197158016085  -0.00431656737541  0.0264987308549  0.00931039918987  0.0  
2.90995287895  -0.0139476971725  -0.00918234309517  -0.00201037743336  0.0123413921041  0.00433618076566  0.0  
2.91803097725  0.0  0.0  0.0  0.0  0.0  0.0  
2.92616605759  0.0  0.0  0.0  0.0  0.0  0.0  
2.93413591385  0.0  0.0  0.0  0.0  0.0  0.0  
2.94233298302  -0.00474557149245  -0.00941849826299  0.016  0.0  0.0044260998177  0.0  
2.95029401779  -0.0094911429849  -0.018836996526  0.032  0.0  0.0088521996354  0.0  
2.9583568573  -0.0142367144774  -0.028255494789  0.048  0.0  0.0132782994531  0.0  
2.9664940834  -0.0189822859698  -0.037673993052  0.064  0.0  0.0177043992708  0.0  
2.97475886345  -0.0237278574623  -0.047092491315  0.08  0.0  0.0221304990885  0.0  
2.98257303238  -0.0284734289547  -0.056510989578  0.096  0.0  0.0265565989062  0.0  
2.99074792862  -0.0332190004472  -0.065929487841  0.112  0.0  0.0309826987239  0.0  
2.99880504608  -0.0318793314839  -0.0632706574297  0.107483219788  0.0  0.0297332162194  0.0  
3.00691986084  -0.0271337599915  -0.0538521591667  0.0914832197881  0.0  0.0253071164017  0.0  
3.01503705978  -0.022388188499  -0.0444336609037  0.0754832197881  0.0  0.020881016584  0.0  
3.02316904068  -0.0176426170066  -0.0350151626407  0.0594832197881  0.0  0.0164549167663  0.0  
3.03125786781  -0.0128970455141  -0.0255966643777  0.0434832197881  0.0  0.0120288169486  0.0  
3.03939795494  -0.00815147402169  -0.0161781661147  0.0274832197881  0.0  0.00760271713086  0.0  
3.04754590988  -0.00340590252924  -0.00675966785172  0.0114832197881  0.0  0.00317661731316  0.0  
3.05557394028  0.0  0.0  0.0  0.0  0.0  0.0  
3.06631088257  0.0  0.0  0.0  0.0  0.0  0.0  
3.07434105873  0.0  0.0  0.0  0.0  0.0  0.0  
3.08244991302  0.0  0.0  0.0  0.0  0.0  0.0  
3.09051799774  -0.016  0.0  0.00507407579201  0.0  -0.00795806855606  0.00636703928754  
3.09861588478  -0.032  0.0  0.010148151584  0.0  -0.0159161371121  0.0127340785751  
3.10670208931  -0.048  0.0  0.015222227376  0.0  -0.0238742056682  0.0191011178626  
3.11476898193  -0.064  0.0  0.0202963031681  0.0  -0.0318322742242  0.0254681571501  
3.12285709381  -0.0633885092586  0.0  0.0201023812701  0.0  -0.0315281313966  0.0252248205517  
3.13095808029  -0.0473885092586  0.0  0.015028305478  0.0  -0.0235700628406  0.0188577812642  
3.13923597336  -0.0313885092586  0.0  0.00995422968603  0.0  -0.0156119942845  0.0124907419767  
3.14732003212  -0.0153885092586  0.0  0.00488015389401  0.0  -0.00765392572846  0.00612370268913  
3.15528988838  0.0  0.0  0.0  0.0  0.0  0.0  
3.16331505775  0.0  0.0  0.0  0.0  0.0  0.0  
3.17154097557  0.0  0.0  0.0  0.0  0.0  0.0  
3.17954206467  0.0  0.0  0.0  0.0  0.0  0.0  
3.18766999245  -0.00643342036554  0.0  0.0  0.0  -0.016  0.0  
3.19580292702  -0.0128668407311  0.0  0.0  0.0  -0.032  0.0  
3.20379090309  -0.0193002610966  0.0  0.0  0.0  -0.048  0.0  
3.21194005013  -0.0149294099577  0.0  0.0  0.0  -0.0371296364531  0.0  
3.22000002861  -0.00849598959212  0.0  0.0  0.0  -0.0211296364531  0.0  
3.22813892365  -0.00206256922658  0.0  0.0  0.0  -0.00512963645312  0.0  
3.23621106148  0.0  0.0  0.0  0.0  0.0  0.0  
3.24434685707  0.0  0.0  0.0  0.0  0.0  0.0  
3.25239992142  0.0  0.0  0.0  0.0  0.0  0.0  
3.26051497459  0.0  0.0  0.0  0.0  0.0  0.0  
3.26868391037  -0.016  0.0  0.00422790877464  0.0132650947043  0.0  0.0  
3.27671790123  -0.032  0.0  0.00845581754928  0.0265301894086  0.0  0.0  
3.28482699394  -0.048  0.0  0.0126837263239  0.0397952841129  0.0  0.0  
3.29293990135  -0.0470665443899  0.0  0.0124370660011  0.039021385546  0.0  0.0  
3.30101895332  -0.0310665443899  0.0  0.00820915722649  0.0257562908417  0.0  0.0  
3.30926895142  -0.0150665443899  0.0  0.00398124845185  0.0124911961374  0.0  0.0  
3.31726408005  0.0  0.0  0.0  0.0  0.0  0.0  
3.32539200783  0.0  0.0  0.0  0.0  0.0  0.0  
3.33344602585  0.0  0.0  0.0  0.0  0.0  0.0  
3.34157705307  0.0  0.0  0.0  0.0  0.0  0.0  
3.34964489937  -0.0128668407311  0.0  0.0  -0.016  -0.008  0.012800074599  
3.35774087906  -0.0257336814621  0.0  0.0  -0.032  -0.016  0.0256001491981  
3.36578798294  -0.0386005221932  0.0  0.0  -0.048  -0.024  0.0384002237971  
3.37395191193  -0.0298588199153  0.0  0.0  -0.0371296364531  -0.0185648182266  0.0297038822772  
3.38223791122  -0.00412513845316  0.0  0.0  -0.00512963645312  -0.00256481822656  0.00410373307912  
3.39027309418  0.0  0.0  0.0  0.0  0.0  0.0  
3.39833688736  0.0  0.0  0.0  0.0  0.0  0.0  
3.40632796288  0.0  0.0  0.0  0.0  0.0  0.0  
3.4144589901  0.0  0.0  0.0  0.0  0.0  0.0  
3.42253994942  -0.016  0.0  0.0  0.0  0.0  0.0  
3.43060708046  -0.032  0.0  0.0  0.0  0.0  0.0  
3.43873405457  -0.0426837010183  0.0  0.0  0.0  0.0  0.0  
3.446860075  -0.0266837010183  0.0  0.0  0.0  0.0  0.0  
3.45501208305  -0.0106837010183  0.0  0.0  0.0  0.0  0.0  
3.46308493614  0.0  0.0  0.0  0.0  0.0  0.0  
3.47128605843  0.0  0.0  0.0  0.0  0.0  0.0  
3.47923898697  0.0  0.0  0.0  0.0  0.0  0.0  
3.48736000061  0.0  0.0  0.0  0.0  0.0  0.0  
3.49535799026  -0.00402089358695  0.0  0.0  0.0100000145701  -0.00500000728507  0.016  
3.50345087051  -0.0080417871739  0.0  0.0  0.0200000291403  -0.0100000145701  0.032  
3.51156902313  -0.0120626807609  0.0  0.0  0.0300000437104  -0.0150000218552  0.048  
3.51971101761  -0.0160634454691  0.0  0.0  0.0399499974977  -0.0199749987489  0.0639199028641  
3.52773189545  -0.0120425518821  0.0  0.0  0.0299499829276  -0.0149749914638  0.0479199028641  
3.5358300209  -0.00802165829515  0.0  0.0  0.0199499683574  -0.00997498417871  0.0319199028641  
3.54396390915  -0.0040007647082  0.0  0.0  0.00994995378728  -0.00497497689364  0.0159199028641  
3.55225491524  0.0  0.0  0.0  0.0  0.0  0.0  
3.56017994881  0.0  0.0  0.0  0.0  0.0  0.0  
3.56828308105  0.0  0.0  0.0  0.0  0.0  0.0  
3.57633900642  0.0  0.0  0.0  0.0  0.0  0.0  
3.58442687988  0.0  0.0  0.00254979485267  -0.016  -0.004  0.0  
3.59250497818  0.0  0.0  0.00509958970533  -0.032  -0.008  0.0  
3.60061693192  0.0  0.0  0.007649384558  -0.048  -0.012  0.0  
3.60873103142  0.0  0.0  0.0101991794107  -0.064  -0.016  0.0  
3.61682891846  0.0  0.0  0.0100428297241  -0.0630189034299  -0.0157547258575  0.0  
3.62493395805  0.0  0.0  0.00749303487147  -0.0470189034299  -0.0117547258575  0.0  
3.63307905197  0.0  0.0  0.0049432400188  -0.0310189034299  -0.00775472585747  0.0  
3.64123392105  0.0  0.0  0.00239344516614  -0.0150189034299  -0.00375472585747  0.0  
3.6492600441  0.0  0.0  0.0  0.0  0.0  0.0  
3.65734887123  0.0  0.0  0.0  0.0  0.0  0.0  
3.66542696953  0.0  0.0  0.0  0.0  0.0  0.0  
3.67353796959  0.0  0.0  0.0  0.0  0.0  0.0  
3.68169498444  0.0  0.0  0.0  0.00666708113149  -0.00666708113149  0.016  
3.6897110939  0.0  0.0  0.0  0.013334162263  -0.013334162263  0.032  
3.69782090187  0.0  0.0  0.0  0.0200012433945  -0.0200012433945  0.048  
3.70593905449  0.0  0.0  0.0  0.026668324526  -0.026668324526  0.064  
3.71413207054  0.0  0.0  0.0  0.0319455231284  -0.0319455231284  0.0766644892981  
3.72223997116  0.0  0.0  0.0  0.0252784419969  -0.0252784419969  0.0606644892981  
3.73028802872  0.0  0.0  0.0  0.0186113608654  -0.0186113608654  0.0446644892981  
3.73848485947  0.0  0.0  0.0  0.0119442797339  -0.0119442797339  0.0286644892981  
3.74647688866  0.0  0.0  0.0  0.00527719860245  -0.00527719860245  0.0126644892981  
3.75457406044  0.0  0.0  0.0  0.0  0.0  0.0  
3.76263308525  0.0  0.0  0.0  0.0  0.0  0.0  
3.77074694633  0.0  0.0  0.0  0.0  0.0  0.0  
3.7788169384  0.0  0.0  0.0  0.0  0.0  0.0  
3.78696489334  0.0  0.0  0.00425027561789  0.0  0.00333333009553  0.016  
3.79506397247  0.0  0.0  0.00850055123579  0.0  0.00666666019106  0.032  
3.80314898491  0.0  0.0  0.0127508268537  0.0  0.00999999028659  0.048  
3.81126904488  0.0  0.0  0.0170011024716  0.0  0.0133333203821  0.064  
3.81946802139  0.0  0.0  0.0203666394434  0.0  0.0159727834862  0.0766694352061  
3.82744503021  0.0  0.0  0.0161163638255  0.0  0.0126394533907  0.0606694352061  
3.8355550766  0.0  0.0  0.0118660882076  0.0  0.00930612329518  0.0446694352061  
3.84365296364  0.0  0.0  0.0076158125897  0.0  0.00597279319965  0.0286694352061  
3.85174894333  0.0  0.0  0.00336553697181  0.0  0.00263946310412  0.0126694352061  
3.85988903046  0.0  0.0  0.0  0.0  0.0  0.0  
3.86798501015  0.0  0.0  0.0  0.0  0.0  0.0  
3.87605690956  0.0  0.0  0.0  0.0  0.0  0.0  
3.88417100906  0.0  0.0  0.0  0.0  0.0  0.0  
3.89248204231  0.0  0.0  0.00212496114392  -0.00666708113149  0.0  0.016  
3.90048789978  0.0  0.0  0.00424992228785  -0.013334162263  0.0  0.032  
3.90862107277  0.0  0.0  0.00637488343177  -0.0200012433945  0.0  0.048  
3.91670393944  0.0  0.0  0.00849984457569  -0.026668324526  0.0  0.064  
3.92479491234  0.0  0.0  0.0101818163048  -0.0319455231284  0.0  0.0766644892981  
3.93292307854  0.0  0.0  0.0080568551609  -0.0252784419969  0.0  0.0606644892981  
3.94104194641  0.0  0.0  0.00593189401698  -0.0186113608654  0.0  0.0446644892981  
3.94912004471  0.0  0.0  0.00380693287305  -0.0119442797339  0.0  0.0286644892981  
3.95740199089  0.0  0.0  0.00168197172913  -0.00527719860245  0.0  0.0126644892981  
3.96530199051  0.0  0.0  0.0  0.0  0.0  0.0  
3.97355604172  0.0  0.0  0.0  0.0  0.0  0.0  
3.98157191277  0.0  0.0  0.0  0.0  0.0  0.0  
3.9896440506  0.0  0.0  0.0  0.0  0.0  0.0  
3.99771094322  -0.00268059572463  0.0  0.0  0.0  0.0  0.016  
4.00587892532  -0.00536119144927  0.0  0.0  0.0  0.0  0.032  
4.01397395134  -0.0107223828985  0.0  0.0  0.0  0.0  0.064  
4.02203798294  -0.0128449531443  0.0  0.0  0.0  0.0  0.0766692449817  
4.03017807007  -0.0101643574197  0.0  0.0  0.0  0.0  0.0606692449817  
4.03835701942  -0.00748376169504  0.0  0.0  0.0  0.0  0.0446692449817  
4.04647088051  -0.00480316597041  0.0  0.0  0.0  0.0  0.0286692449817  
4.05451893806  -0.00212257024578  0.0  0.0  0.0  0.0  0.0126692449817  
4.06259489059  0.0  0.0  0.0  0.0  0.0  0.0  
4.07060289383  0.0  0.0  0.0  0.0  0.0  0.0  
4.07871389389  0.0  0.0  0.0  0.0  0.0  0.0  
4.08674001694  0.0  0.0  0.0  0.0  0.0  0.0  
4.09488606453  -0.00267996755722  0.0  0.0  0.0  0.00333333009553  0.016  
4.10294604301  -0.00535993511445  0.0  0.0  0.0  0.00666666019106  0.032  
4.11100196838  -0.00803990267167  0.0  0.0  0.0  0.00999999028659  0.048  
4.11912703514  -0.0107198702289  0.0  0.0  0.0  0.0133333203821  0.064  
4.12724804878  -0.0128419749364  0.0  0.0  0.0  0.0159727834862  0.0766694352061  
4.13544392586  -0.0101620073792  0.0  0.0  0.0  0.0126394533907  0.0606694352061  
4.14349603653  -0.00748203982199  0.0  0.0  0.0  0.00930612329518  0.0446694352061  
4.15154099464  -0.00480207226477  0.0  0.0  0.0  0.00597279319965  0.0286694352061  
4.15964388847  -0.00212210470754  0.0  0.0  0.0  0.00263946310412  0.0126694352061  
4.17044687271  0.0  0.0  0.0  0.0  0.0  0.0  
4.17844295502  0.0  0.0  0.0  0.0  0.0  0.0  
4.18655896187  0.0  0.0  0.0  0.0  0.0  0.0  
4.19457888603  0.0  0.0  0.0  0.0  0.0  0.0  
4.20265889168  -0.00643342036554  0.0  0.0  0.016  -0.016  0.0  
4.21076202393  -0.0128668407311  0.0  0.0  0.032  -0.032  0.0  
4.21885490417  -0.0193002610966  0.0  0.0  0.048  -0.048  0.0  
4.22695708275  -0.0149294099577  0.0  0.0  0.0371296364531  -0.0371296364531  0.0  
4.23502206802  -0.00849598959212  0.0  0.0  0.0211296364531  -0.0211296364531  0.0  
4.24311494827  -0.00206256922658  0.0  0.0  0.00512963645312  -0.00512963645312  0.0  
4.25124907494  0.0  0.0  0.0  0.0  0.0  0.0  
4.25953507423  0.0  0.0  0.0  0.0  0.0  0.0  
4.26751208305  0.0  0.0  0.0  0.0  0.0  0.0  
4.27566599846  0.0  0.0  0.0  0.0  0.0  0.0  
4.28369808197  0.0  0.0  0.0  -0.016  0.008  0.0127975568818  
4.29183101654  0.0  0.0  0.0  -0.032  0.016  0.0255951137635  
4.29992103577  0.0  0.0  0.0  -0.048  0.024  0.0383926706453  
4.30801606178  0.0  0.0  0.0  -0.0371296364531  0.0185648182266  0.0296980396567  
4.31616401672  0.0  0.0  0.0  -0.0211296364531  0.0105648182266  0.016900482775  
4.32428693771  0.0  0.0  0.0  -0.00512963645312  0.00256481822656  0.00410292589322  
4.33255004883  0.0  0.0  0.0  0.0  0.0  0.0  
4.34046792984  0.0  0.0  0.0  0.0  0.0  0.0  
4.34847402573  0.0  0.0  0.0  0.0  0.0  0.0  
4.35664486885  0.0  0.0  0.0  0.0  0.0  0.0  
4.36467504501  0.0  0.0  0.0  0.016  0.0  0.012800074599  
4.37275600433  0.0  0.0  0.0  0.032  0.0  0.0256001491981  
4.38091802597  0.0  0.0  0.0  0.048  0.0  0.0384002237971  
4.38906097412  0.0  0.0  0.0  0.0371296364531  0.0  0.0297038822772  
4.39716696739  0.0  0.0  0.0  0.0211296364531  0.0  0.0169038076781  
4.40548300743  0.0  0.0  0.0  0.00512963645312  0.0  0.00410373307912  
4.41344690323  0.0  0.0  0.0  0.0  0.0  0.0  
4.42151403427  0.0  0.0  0.0  0.0  0.0  0.0  
4.4296040535  0.0  0.0  0.0  0.0  0.0  0.0  
4.43770289421  0.0  0.0  0.0  0.0  0.0  0.0  
4.44579005241  0.0  0.0  0.00509958970533  -0.016  -0.008  0.0  
4.45390605927  0.0  0.0  0.0101991794107  -0.032  -0.016  0.0  
4.46193599701  0.0  0.0  0.015298769116  -0.048  -0.024  0.0  
4.47007489204  0.0  0.0  0.00673452978336  -0.0211296364531  -0.0105648182266  0.0  
4.47823905945  0.0  0.0  0.00163494007803  -0.00512963645312  -0.00256481822656  0.0  
4.48628592491  0.0  0.0  0.0  0.0  0.0  0.0  
4.49436807632  0.0  0.0  0.0  0.0  0.0  0.0  
4.50254106522  0.0  0.0  0.0  0.0  0.0  0.0  
4.51057600975  0.0  0.0  0.0  0.0  0.0  0.0  
4.51865386963  0.0  -0.00531954026338  0.0042558808745  0.0  0.0066666763801  0.016  
4.52672791481  0.0  -0.0106390805268  0.008511761749  0.0  0.0133333527602  0.032  
4.5348379612  0.0  -0.0159586207901  0.0127676426235  0.0  0.0200000291403  0.048  
4.54292988777  0.0  -0.0212781610535  0.017023523498  0.0  0.0266667055204  0.064  
4.55098986626  0.0  -0.0254903209777  0.0203934483363  0.0  0.0319455652875  0.0766692449817  
4.55913186073  0.0  -0.0201707807143  0.0161375674618  0.0  0.0252788889074  0.0606692449817  
4.56723809242  0.0  -0.0148512404509  0.0118816865873  0.0  0.0186122125273  0.0446692449817  
4.57532906532  0.0  -0.00953170018757  0.00762580571276  0.0  0.0119455361472  0.0286692449817  
4.58346199989  0.0  -0.00421215992419  0.00336992483826  0.0  0.00527885976709  0.0126692449817  
4.59145689011  0.0  0.0  0.0  0.0  0.0  0.0  
4.59967207909  0.0  0.0  0.0  0.0  0.0  0.0  
4.60765194893  0.0  0.0  0.0  0.0  0.0  0.0  
4.61567592621  0.0  0.0  0.0  0.0  0.0  0.0  
4.62373900414  0.0  0.0  0.0  -0.00499929786984  -0.00500023040069  0.016  
4.63186597824  0.0  0.0  0.0  -0.00999859573968  -0.0100004608014  0.032  
4.64000105858  0.0  0.0  0.0  -0.0149978936095  -0.0150006912021  0.048  
4.64810299873  0.0  0.0  0.0  -0.0199971914794  -0.0200009216028  0.064  
4.65625095367  0.0  0.0  0.0  -0.0249964893492  -0.0250011520034  0.08  
4.66433095932  0.0  0.0  0.0  -0.0265281571618  -0.0265331055216  0.0849020253721  
4.67243289948  0.0  0.0  0.0  -0.0215288592919  -0.0215328751209  0.0689020253721  
4.68064904213  0.0  0.0  0.0  -0.0165295614221  -0.0165326447202  0.0529020253721  
4.6886279583  0.0  0.0  0.0  -0.0115302635522  -0.0115324143195  0.0369020253721  
4.69670295715  0.0  0.0  0.0  -0.00653096568239  -0.00653218391885  0.0209020253721  
4.70485901833  0.0  0.0  0.0  -0.00153166781255  -0.00153195351817  0.00490202537213  
4.7129919529  0.0  0.0  0.0  0.0  0.0  0.0  
4.72104907036  0.0  0.0  0.0  0.0  0.0  0.0  
4.72914505005  0.0  0.0  0.0  0.0  0.0  0.0  
4.73732805252  0.0  0.0  0.0  0.0  0.0  0.0  
4.74537587166  0.0  0.0  0.0  0.0  0.0100000145701  0.016  
4.75366592407  0.0  0.0  0.0  0.0  0.0200000291403  0.032  
4.76172804832  0.0  0.0  0.0  0.0  0.0265331828866  0.0424530307639  
4.76976895332  0.0  0.0  0.0  0.0  0.0165331683165  0.0264530307639  
4.77796792984  0.0  0.0  0.0  0.0  0.00653315374635  0.0104530307639  
4.78600001335  0.0  0.0  0.0  0.0  0.0  0.0  
4.79412698746  0.0  0.0  0.0  0.0  0.0  0.0  
4.802257061  0.0  0.0  0.0  0.0  0.0  0.0  
4.81047296524  0.0  0.0  0.0  0.0  0.0  0.0  
4.81855893135  0.0  -0.00797834884441  0.00638379805854  0.0  0.00999997814486  0.016  
4.82658290863  0.0  -0.0159566976888  0.0127675961171  0.0  0.0199999562897  0.032  
4.8346118927  0.0  -0.0211691502052  0.0169382891894  0.0  0.0265331892006  0.042453195503  
4.84266591072  0.0  -0.0131908013608  0.0105544911309  0.0  0.0165332110557  0.026453195503  
4.85077691078  0.0  -0.00521245251636  0.00417069307235  0.0  0.00653323291088  0.010453195503  
4.85887503624  0.0  0.0  0.0  0.0  0.0  0.0  
4.86694693565  0.0  0.0  0.0  0.0  0.0  0.0  
4.87505888939  0.0  0.0  0.0  0.0  0.0  0.0  
4.88315391541  0.0  0.0  0.0  0.0  0.0  0.0  
4.89125299454  0.0  0.0  0.0  0.0  0.0  0.016  
4.89937186241  0.0  0.0  0.0  0.0  0.0  0.032  
4.90763688087  0.0  0.0  0.0  0.0  0.0  0.0424530307639  
4.91565895081  0.0  0.0  0.0  0.0  0.0  0.0264530307639  
4.92373108864  0.0  0.0  0.0  0.0  0.0  0.0104530307639  
4.93182897568  0.0  0.0  0.0  0.0  0.0  0.0  
4.9399600029  0.0  0.0  0.0  0.0  0.0  0.0  
4.94802594185  0.0  0.0  0.0  0.0  0.0  0.0  
4.95618700981  0.0  0.0  0.0  0.0  0.0  0.0  
4.96428108215  0.0  0.0  0.0  0.0  0.0  0.016  
4.9723739624  0.0  0.0  0.0  0.0  0.0  0.032  
4.98055386543  0.0  0.0  0.0  0.0  0.0  0.0424530307639  
4.9886059761  0.0  0.0  0.0  0.0  0.0  0.0264530307639  
4.99664402008  0.0  0.0  0.0  0.0  0.0  0.0104530307639  
5.00477290154  0.0  0.0  0.0  0.0  0.0  0.0  
5.012830019  0.0  0.0  0.0  0.0  0.0  0.0  
5.02093791962  0.0  0.0  0.0  0.0  0.0  0.0  
5.02903604507  0.0  0.0  0.0  0.0  0.0  0.0  
5.03719997406  0.0  0.0  0.0  0.0  0.0  -0.016  
5.04528903961  0.0  0.0  0.0  0.0  0.0  -0.032  
5.05342698097  0.0  0.0  0.0  0.0  0.0  -0.0424530307639  
5.06161808968  0.0  0.0  0.0  0.0  0.0  -0.0264530307639  
5.06961202621  0.0  0.0  0.0  0.0  0.0  -0.0104530307639  
5.07776093483  0.0  0.0  0.0  0.0  0.0  0.0  
5.08576607704  0.0  0.0  0.0  0.0  0.0  0.0  
5.09388208389  0.0  0.0  0.0  0.0  0.0  0.0  
5.10209608078  0.0  0.0  0.0  0.0  0.0  0.016  
5.11012792587  0.0  0.0  0.0  0.0  0.0  0.032  
5.11823606491  0.0  0.0  0.0  0.0  0.0  0.0424530307639  
5.1263229847  0.0  0.0  0.0  0.0  0.0  0.0264530307639  
5.13454604149  0.0  0.0  0.0  0.0  0.0  0.0104530307639  
5.14258599281  0.0  0.0  0.0  0.0  0.0  0.0  
5.15062189102  0.0  0.0  0.0  0.0  0.0  0.0  
5.15866494179  0.0  0.0  0.0  0.0  0.0  0.0  
5.16676902771  0.0  0.0  0.0  0.0  0.0  0.0  
5.17485904694  0.00643462040664  -0.00638537586271  0.0153090841261  0.016  0.0  0.0  
5.18292999268  0.0128692408133  -0.0127707517254  0.0306181682522  0.032  0.0  0.0  
5.19109201431  0.0193038612199  -0.0191561275881  0.0459272523783  0.048  0.0  0.0  
5.19918608665  0.0149284021077  -0.0148141541324  0.0355172720831  0.0371202057974  0.0  0.0  
5.20733094215  0.00849378170102  -0.00842877826964  0.0202081879571  0.0211202057974  0.0  0.0  
5.21556806564  0.00205916129438  -0.00204340240693  0.00489910383095  0.0051202057974  0.0  0.0  
5.22363185883  0.0  0.0  0.0  0.0  0.0  0.0  
5.23173308372  0.0  0.0  0.0  0.0  0.0  0.0  
5.23978590965  0.0  0.0  0.0  0.0  0.0  0.0  
5.24788093567  0.0  0.0  0.0  0.0  0.0  0.0  
5.25595402718  0.0  0.0  0.0  -0.016  0.0  0.0  
5.26410198212  0.0  0.0  0.0  -0.032  0.0  0.0  
5.27218008041  0.0  0.0  0.0  -0.048  0.0  0.0  
5.2803030014  0.0  0.0  0.0  -0.0371202057974  0.0  0.0  
5.28839993477  0.0  0.0  0.0  -0.0211202057974  0.0  0.0  
5.29661393166  0.0  0.0  0.0  -0.0051202057974  0.0  0.0  
5.30463290215  0.0  0.0  0.0  0.0  0.0  0.0  
5.3126039505  0.0  0.0  0.0  0.0  0.0  0.0  
5.32068705559  0.0  0.0  0.0  0.0  0.0  0.0  
5.32876992226  0.0  0.0  0.0  0.0  0.0  0.0  
5.33693194389  -0.00804175788151  0.0  0.0  0.0  0.0  0.016  
5.34505105019  -0.016083515763  0.0  0.0  0.0  0.0  0.032  
5.35310506821  -0.0213373949707  0.0  0.0  0.0  0.0  0.042453195503  
5.36126089096  -0.0132956370892  0.0  0.0  0.0  0.0  0.026453195503  
5.36937904358  -0.00525387920771  0.0  0.0  0.0  0.0  0.010453195503  
5.37743401527  0.0  0.0  0.0  0.0  0.0  0.0  
5.38555693626  0.0  0.0  0.0  0.0  0.0  0.0  
5.39362096786  0.0  0.0  0.0  0.0  0.0  0.0  
5.40174007416  0.0  0.0  0.0  0.0  0.0  0.0  
5.40985703468  0.0  0.0  0.0  0.0  0.0  0.0  
5.41791605949  0.0  0.0  0.0  0.0  0.0  0.0  
5.42605090141  0.0  0.0  0.0  0.0  0.0  0.0  
5.43410801888  0.0  0.0  0.0  0.0  0.0  0.0  
5.44229006767  0.0  0.0  0.0  0.0  0.0  0.0  
5.45036792755  0.0  0.0  0.0  0.0  0.0  0.0  
5.4585518837  0.0  0.0  0.0  0.0  0.0  0.0  
5.46655702591  0.0  0.0  0.0  0.0  0.0  0.0  
5.47467589378  0.0  0.0  0.0  0.016  0.0  0.0  
5.48262000084  0.0  0.0  0.0  0.032  0.0  0.0  
5.49076199532  0.0  0.0  0.0  0.048  0.0  0.0  
5.498939991  0.0  0.0  0.0  0.0371202057974  0.0  0.0  
5.50699687004  0.0  0.0  0.0  0.0211202057974  0.0  0.0  
5.51508593559  0.0  0.0  0.0  0.0051202057974  0.0  0.0  
5.52315807343  0.0  0.0  0.0  0.0  0.0  0.0  
5.53129887581  0.0  0.0  0.0  0.0  0.0  0.0  
5.53937888145  0.0  0.0  0.0  0.0  0.0  0.0  
5.54759097099  0.0  0.0  0.0  0.0  0.0  0.0  
5.55557394028  0.0  0.0  0.0  0.0  0.0  0.016  
5.56366086006  0.0  0.0  0.0  0.0  0.0  0.032  
5.5717189312  0.0  0.0  0.0  0.0  0.0  0.0424530307639  
5.57987904549  0.0  0.0  0.0  0.0  0.0  0.0264530307639  
5.58794808388  0.0  0.0  0.0  0.0  0.0  0.0104530307639  
5.59604787827  0.0  0.0  0.0  0.0  0.0  0.0  
5.60412788391  0.0  0.0  0.0  0.0  0.0  0.0  
5.61224603653  0.0  0.0  0.0  0.0  0.0  0.0  
5.6203789711  0.0  0.0  0.0  0.0  0.0  0.0  
5.62836694717  0.0  -0.00797986031922  0.00638500745037  0.0  0.0  0.016  
5.63663387299  0.0  -0.0159597206384  0.0127700149007  0.0  0.0  0.032  
5.64466786385  0.0  -0.0211688880074  0.0169380793944  0.0  0.0  0.0424446286738  
5.6526799202  0.0  -0.0131890276882  0.010553071944  0.0  0.0  0.0264446286738  
5.66080403328  0.0  -0.00520916736894  0.00416806449366  0.0  0.0  0.0104446286738  
5.66893291473  0.0  0.0  0.0  0.0  0.0  0.0  
5.67701387405  0.0  0.0  0.0  0.0  0.0  0.0  
5.68509197235  0.0  0.0  0.0  0.0  0.0  0.0  
5.6932258606  0.0  0.0  0.0  0.0  0.0  0.0  
5.70129489899  0.0  0.0  0.0  0.0  -0.016  0.0  
5.70955085754  0.0  0.0  0.0  0.0  -0.032  0.0  
5.71755194664  0.0  0.0  0.0  0.0  -0.0235094517149  0.0  
5.72564291954  0.0  0.0  0.0  0.0  -0.00750945171493  0.0  
5.73372197151  0.0  0.0  0.0  0.0  0.0  0.0  
5.74184894562  0.0  0.0  0.0  0.0  0.0  0.0  
5.74991989136  0.0  0.0  0.0  0.0  0.0  0.0  
5.75810194016  0.0  0.0  0.0  0.0  0.00999997814486  0.016  
5.76615405083  0.0  0.0  0.0  0.0  0.0199999562897  0.032  
5.77424287796  0.0  0.0  0.0  0.0  0.0265331892006  0.042453195503  
5.78235197067  0.0  0.0  0.0  0.0  0.0165332110557  0.026453195503  
5.79037094116  0.0  0.0  0.0  0.0  0.00653323291088  0.010453195503  
5.79859685898  0.0  0.0  0.0  0.0  0.0  0.0  
5.80661296844  0.0  0.0  0.0  0.0  0.0  0.0  
5.81474900246  0.0  0.0  0.0  0.0  0.0  0.0  
5.82282996178  0.0  0.0  0.0  0.0  0.0  0.0  
5.83087897301  0.0  0.0  0.0  0.0  0.0  0.0  
5.83904790878  0.0  0.0  0.0  0.0  0.0  0.0  
5.84713792801  0.0  0.0  0.0  0.0  0.0  0.0  
5.85519599915  0.0  0.0  0.0  0.0  0.0  0.0  
5.86331892014  0.0  0.0  0.0  0.0  0.0  0.0  
5.87151288986  0.0  0.0  0.0  0.0  0.0  0.0  
5.87962508202  0.0  0.0  0.0  0.0  0.0  0.0  
5.88773393631  0.0  0.0  0.0  0.0  0.0  0.0  
5.89569687843  0.0  0.0  0.0  0.0  0.0  0.0  
5.90371704102  0.0  0.0  0.0  0.0  0.0  0.0  
5.91184091568  0.0  0.0  0.0  0.0  0.0  0.0  
5.91991686821  0.0  0.0  0.0  0.0  0.0  0.0  
5.92802500725  0.0  0.0  0.0  0.0  0.0  0.0  
5.9361269474  0.0  0.0  0.0  0.0  0.0  0.0  
5.9441819191  0.0  0.0  0.0  0.0  0.0  0.0  
5.95231509209  0.0  0.0  0.0  0.0  0.0  0.0  
5.96042490005  0.0  0.0  0.0  0.0  0.0  0.016  
5.96871209145  0.0  0.0  0.0  0.0  0.0  0.032  
5.9767138958  0.0  0.0  0.0  0.0  0.0  0.0424530307639  
5.98470902443  0.0  0.0  0.0  0.0  0.0  0.0264530307639  
5.99281907082  0.0  0.0  0.0  0.0  0.0  0.0104530307639  
6.00094294548  0.0  0.0  0.0  0.0  0.0  0.0  
6.00901794434  0.0  0.0  0.0  0.0  0.0  0.0  
6.01710104942  0.0  0.0  0.0  0.0  0.0  0.0  
6.02527999878  0.0  0.0  0.0  0.0  0.0  0.0  
6.03334903717  0.0  0.0  0.0  0.0  0.0  0.016  
6.04145002365  0.0  0.0  0.0  0.0  0.0  0.032  
6.04965901375  0.0  0.0  0.0  0.0  0.0  0.042453195503  
6.05767893791  0.0  0.0  0.0  0.0  0.0  0.026453195503  
6.06566500664  0.0  0.0  0.0  0.0  0.0  0.010453195503  
6.07380986214  0.0  0.0  0.0  0.0  0.0  0.0  
6.08179306984  0.0  0.0  0.0  0.0  0.0  0.0  
6.08990502357  0.0  0.0  0.0  0.0  0.0  0.0  
6.09802293777  0.0  0.0  0.0  0.0  0.0  0.0  
6.10615587234  0.0  0.0  0.0  0.0  0.0  0.0  
6.1142809391  0.0  0.0  0.0  0.0  0.0  0.0  
6.12237095833  0.0  0.0  0.0  0.0  0.0  0.0  
6.13040494919  0.0  0.0  0.0  0.0  0.0  0.0  
6.13872098923  0.0  0.0  0.0  0.0  0.0  0.0  
6.14667487144  0.0  0.0  0.0  0.0  0.0  0.0  
6.15469694138  0.0  0.0  0.0  0.0  0.0  0.0  
6.1628780365  0.0  0.0  0.0  0.0  0.0  0.0  
6.17087006569  0.0  0.0  0.0  0.0  0.0  0.0  
6.17896008492  0.0  0.0  0.0  0.0  0.0  0.0  
6.18708705902  0.0  0.0  0.0  0.0  0.0  0.0  
6.19517302513  0.0  0.0  0.0  0.0  0.0  0.0  
6.2032968998  0.0  0.0  0.0  0.0  0.0  0.0  
6.21139097214  0.0  0.0  0.0  0.0  0.0  0.0  
6.21963906288  0.0  0.0  0.0  0.0  0.0  0.0  
6.227684021  0.0  0.0  0.0  0.0  0.0  0.0  
6.2357199192  0.0  0.0  0.0  0.0  0.0  0.016  
6.24379897118  0.0  0.0  0.0  0.0  0.0  0.032  
6.25184607506  0.0  0.0  0.0  0.0  0.0  0.0424530307639  
6.25995588303  0.0  0.0  0.0  0.0  0.0  0.0264530307639  
6.26807498932  0.0  0.0  0.0  0.0  0.0  0.0104530307639  
6.27620196342  0.0  0.0  0.0  0.0  0.0  0.0  
6.28435397148  0.0  0.0  0.0  0.0  0.0  0.0  
6.29245901108  0.0  0.0  0.0  0.0  0.0  0.0  
6.30058789253  0.0  0.0  0.0  0.0  0.0  0.0  
6.30868792534  0.0  -0.0127683700112  0.0102140992167  0.0  -0.016  0.0  
6.31678295135  0.0  -0.0255367400224  0.0204281984334  0.0  -0.032  0.0  
6.32486701012  0.0  -0.018761086141  0.0150079920217  0.0  -0.0235094517149  0.0  
6.33301091194  0.0  -0.00599271612984  0.00479389280496  0.0  -0.00750945171493  0.0  
6.34119391441  0.0  0.0  0.0  0.0  0.0  0.0  
6.34922885895  0.0  0.0  0.0  0.0  0.0  0.0  
6.35738706589  0.0  0.0  0.0  0.0  0.0  0.0  
6.36544108391  0.0  0.0  0.0  0.0  0.0  0.0  
6.37365198135  0.0  0.0  0.0  0.0  0.0  0.0  
6.38167285919  0.0  0.0  0.0  0.0  0.0  0.0  
6.38977599144  0.0  0.0  0.0  0.0  0.0  0.0  
6.3978600502  0.0  0.0  0.0  0.0  0.0  0.0  
6.40593290329  0.0  0.0  0.0  0.0  0.0  0.0  
6.41409707069  0.0  0.0  0.0  0.0  0.0  0.0  
6.42219901085  0.0  0.0  0.0  0.0  0.0  0.0  
6.43030595779  0.0  0.0  0.0  0.0  0.0  0.016  
6.43847703934  0.0  0.0  0.0  0.0  0.0  0.032  
6.44638204575  0.0  0.0  0.0  0.0  0.0  0.0424530307639  
6.4546148777  0.0  0.0  0.0  0.0  0.0  0.0264530307639  
6.46263599396  0.0  0.0  0.0  0.0  0.0  0.0104530307639  
6.47075486183  0.0  0.0  0.0  0.0  0.0  0.0  
6.47882699966  0.0  0.0  0.0  0.0  0.0  0.0  
6.48691701889  0.0  0.0  0.0  0.0  0.0  0.0  
6.49506998062  0.0  0.0  0.0  0.0  0.0  0.0  
6.50317788124  0.0  0.0  -0.00637636139786  0.0  -0.0100000145701  -0.016  
6.51130199432  0.0  0.0  -0.0127527227957  0.0  -0.0200000291403  -0.032  
6.51941108704  0.0  0.0  -0.0169184916616  0.0  -0.0265331828866  -0.0424530307639  
6.52771496773  0.0  0.0  -0.0105421302637  0.0  -0.0165331683165  -0.0264530307639  
6.53568887711  0.0  0.0  -0.00416576886587  0.0  -0.00653315374635  -0.0104530307639  
6.5437810421  0.0  0.0  0.0  0.0  0.0  0.0  
6.55186009407  0.0  0.0  0.0  0.0  0.0  0.0  
6.5599770546  0.0  0.0  0.0  0.0  0.0  0.0  
6.56804203987  0.0  0.0  0.0  0.0  0.0  0.0  
6.57612586021  0.0  0.0  0.0  0.0  0.0100000145701  0.016  
6.58424496651  0.0  0.0  0.0  0.0  0.0200000291403  0.032  
6.59233903885  0.0  0.0  0.0  0.0  0.0265331828866  0.0424530307639  
6.60057091713  0.0  0.0  0.0  0.0  0.0165331683165  0.0264530307639  
6.60865998268  0.0  0.0  0.0  0.0  0.00653315374635  0.0104530307639  
6.61670804024  0.0  0.0  0.0  0.0  0.0  0.0  
6.62481093407  0.0  0.0  0.0  0.0  0.0  0.0  
6.63287091255  0.0  0.0  0.0  0.0  0.0  0.0  
6.64099192619  0.0  0.0  0.0  0.0  0.0  0.0  
6.64903092384  0.0128668407311  0.0  0.0  0.0  -0.016  0.0  
6.65709805489  0.0257336814621  0.0  0.0  0.0  -0.032  0.0  
6.66524195671  0.0189057731807  0.0  0.0  0.0  -0.0235094517149  0.0  
6.6733880043  0.00603893244961  0.0  0.0  0.0  -0.00750945171493  0.0  
6.68140697479  0.0  0.0  0.0  0.0  0.0  0.0  
6.68969988823  0.0  0.0  0.0  0.0  0.0  0.0  
6.69769692421  0.0  0.0  0.0  0.0  0.0  0.0  
6.70575404167  0.0  0.0  0.0  0.0  0.0  0.0  
6.7138440609  0.0  0.0  0.0  0.0  0.0  -0.016  
6.72186088562  0.0  0.0  0.0  0.0  0.0  -0.032  
6.73003101349  0.0  0.0  0.0  0.0  0.0  -0.0424530307639  
6.73805403709  0.0  0.0  0.0  0.0  0.0  -0.0264530307639  
6.74615192413  0.0  0.0  0.0  0.0  0.0  -0.0104530307639  
6.75426197052  0.0  0.0  0.0  0.0  0.0  0.0  
6.76233005524  0.0  0.0  0.0  0.0  0.0  0.0  
6.77035498619  0.0  0.0  0.0  0.0  0.0  0.0  
6.77869701385  0.0  0.0  0.0  0.0  0.0  0.0  
6.78659796715  0.0  0.0  0.016  0.0  0.0  0.0  
6.79466199875  0.0  0.0  0.0251017730705  0.0  0.0  0.0  
6.80277705193  0.0  0.0  0.00910177307048  0.0  0.0  0.0  
6.81094098091  0.0  0.0  0.0  0.0  0.0  0.0  
6.81896901131  0.0  0.0  0.0  0.0  0.0  0.0  
6.82711386681  0.0  0.0  0.0  0.0  0.0  0.0  
6.83515191078  0.0  0.0  0.0  0.0  0.0  0.0  
6.8432559967  0.0  0.0  0.0  0.0  0.0  0.0  
6.85140395164  0.0  0.0  0.0  0.0  0.0  0.0  
6.85964298248  0.0  0.0  0.0  0.0  0.0  0.0  
6.86763095856  0.0  0.0  0.0  0.0  0.0  0.0  
6.87569499016  0.0  0.0  0.0  0.016  0.0  0.0127999813502  
6.88374400139  0.0  0.0  0.0  0.032  0.0  0.0255999627005  
6.89187788963  0.0  0.0  0.0  0.048  0.0  0.0383999440507  
6.89989805222  0.0  0.0  0.0  0.0371296364531  0.0  0.0297036658838  
6.90800309181  0.0  0.0  0.0  0.0211296364531  0.0  0.0169036845336  
6.91617703438  0.0  0.0  0.0  0.00512963645312  0.0  0.00410370318334  
6.92416191101  0.0  0.0  0.0  0.0  0.0  0.0  
6.93227887154  0.0  0.0  0.0  0.0  0.0  0.0  
6.94039201736  0.0  0.0  0.0  0.0  0.0  0.0  
6.94858598709  0.0  0.0  0.0  0.0  0.0  0.0  
6.95656991005  0.0  0.0  0.0  -0.016  0.0  0.0  
6.96470189095  0.0  0.0  0.0  -0.032  0.0  0.0  
6.97272491455  0.0  0.0  0.0  -0.048  0.0  0.0  
6.98080301285  0.0  0.0  0.0  -0.0371296364531  0.0  0.0  
6.98894500732  0.0  0.0  0.0  -0.0211296364531  0.0  0.0  
6.9970510006  0.0  0.0  0.0  -0.00512963645312  0.0  0.0  
7.00519108772  0.0  0.0  0.0  0.0  0.0  0.0  
7.01325297356  0.0  0.0  0.0  0.0  0.0  0.0  
7.02130389214  0.0  0.0  0.0  0.0  0.0  0.0  
7.02943897247  0.0  0.0  0.0  0.0  0.0  0.0  
7.03765201569  0.0  -0.016  0.0127985039738  0.0  0.0  0.0  
7.04565095901  0.0  -0.0318734586944  0.025495786735  0.0  0.0  0.0  
7.05370903015  0.0  -0.0158734586944  0.0126972827612  0.0  0.0  0.0  
7.06183886528  0.0  0.0  0.0  0.0  0.0  0.0  
7.06994199753  0.0  0.0  0.0  0.0  0.0  0.0  
7.0779838562  0.0  0.0  0.0  0.0  0.0  0.0  
7.08623790741  0.0  0.0  0.0  0.0  0.0  0.0  
7.09431195259  0.0  0.0  0.0  0.0  0.0  0.0  
7.10234093666  0.0  0.0  0.0  0.0  0.0  0.0  
7.1105260849  0.0  0.0  0.0  0.0  0.0  0.0  
7.11849188805  0.0  0.0  0.0  0.0  -0.016  0.0  
7.12671208382  0.0  0.0  0.0  0.0  -0.032  0.0  
7.13465499878  0.0  0.0  0.0  0.0  -0.0235027832343  0.0  
7.14282608032  0.0  0.0  0.0  0.0  -0.00750278323432  0.0  
7.1508409977  0.0  0.0  0.0  0.0  0.0  0.0  
7.15896391869  0.0  0.0  0.0  0.0  0.0  0.0  
7.16708898544  0.0  0.0  0.0  0.0  0.0  0.0  
7.17511487007  0.0  0.0  0.0  0.0  0.0  0.0  
7.18330097198  0.0  0.0  0.0  0.0  0.016  0.0  
7.19152998924  0.0  0.0  0.0  0.0  0.032  0.0  
7.19946098328  0.0  0.0  0.0  0.0  0.0235027832343  0.0  
7.20759606361  0.0  0.0  0.0  0.0  0.00750278323432  0.0  
7.21565294266  0.0  0.0  0.0  0.0  0.0  0.0  
7.22373008728  0.0  0.0  0.0  0.0  0.0  0.0  
7.23183298111  0.0  0.0  0.0  0.0  0.0  0.0  
7.23989295959  0.0  0.0  0.0  0.0  0.0  0.0  
7.24801397324  0.00803992219543  0.0  0.0  0.0  -0.00999814959167  -0.016  
7.25610303879  0.0160798443909  0.0  0.0  0.0  -0.0199962991833  -0.032  
7.2641980648  0.0213324415189  0.0  0.0  0.0  -0.0265282345124  -0.0424530307639  
7.27230000496  0.0132925193235  0.0  0.0  0.0  -0.0165300849207  -0.0264530307639  
7.28041696548  0.00525259712804  0.0  0.0  0.0  -0.00653193532902  -0.0104530307639  
7.28865599632  0.0  0.0  0.0  0.0  0.0  0.0  
7.29677605629  0.0  0.0  0.0  0.0  0.0  0.0  
7.30465292931  0.0  0.0  0.0  0.0  0.0  0.0  
7.31280088425  0.0  0.0  0.0  0.0  0.0  0.0  
7.32082390785  -0.00643192838493  0.0  0.0  0.016  0.0079985080194  0.0127999813502  
7.32894897461  -0.0128638567699  0.0  0.0  0.032  0.0159970160388  0.0255999627005  
7.33712506294  -0.0192957851548  0.0  0.0  0.048  0.0239955240582  0.0383999440507  
7.34519886971  -0.0149259476641  0.0  0.0  0.0371296364531  0.018561355933  0.0297036658838  
7.35324406624  -0.00849401927913  0.0  0.0  0.0211296364531  0.0105628479136  0.0169036845336  
7.36137890816  -0.0020620908942  0.0  0.0  0.00512963645312  0.00256433989418  0.00410370318334  
7.36951708794  0.0  0.0  0.0  0.0  0.0  0.0  
7.37760305405  0.0  0.0  0.0  0.0  0.0  0.0  
7.38562703133  0.0  0.0  0.0  0.0  0.0  0.0  
7.39374494553  0.0  0.0  0.0  0.0  0.0  0.0  
7.40191292763  0.0  0.0  -0.00509958970533  -0.016  -0.0079985080194  -0.0127999813502  
7.40994286537  0.0  0.0  -0.0101991794107  -0.032  -0.0159970160388  -0.0255999627005  
7.41809391975  0.0  0.0  -0.015298769116  -0.048  -0.0239955240582  -0.0383999440507  
7.4262368679  0.0  0.0  -0.0118341194887  -0.0371296364531  -0.018561355933  -0.0297036658838  
7.43431806564  0.0  0.0  -0.00673452978336  -0.0211296364531  -0.0105628479136  -0.0169036845336  
7.44250798225  0.0  0.0  -0.00163494007803  -0.00512963645312  -0.00256433989418  -0.00410370318334  
7.4506418705  0.0  0.0  0.0  0.0  0.0  0.0  
7.4586789608  0.0  0.0  0.0  0.0  0.0  0.0  
7.46682786942  0.0  0.0  0.0  0.0  0.0  0.0  
7.47482705116  0.0  0.0  0.0  0.0  0.0  0.0  
7.4829158783  0.0  0.0  0.0  0.0  -0.016  0.0  
7.49099302292  0.0  0.0  0.0  0.0  -0.032  0.0  
7.49910902977  0.0  0.0  0.0  0.0  -0.0235094517149  0.0  
7.50717306137  0.0  0.0  0.0  0.0  -0.00750945171493  0.0  
7.51528596878  0.0  0.0  0.0  0.0  0.0  0.0  
7.52342486382  0.0  0.0  0.0  0.0  0.0  0.0  
7.53159999847  0.0  0.0  0.0  0.0  0.0  0.0  
7.53962492943  0.0  0.0  0.0  0.0  0.0  0.0  
7.5477399826  0.00803992219543  0.0  0.0  0.0  0.0  0.016  
7.55584001541  0.0160798443909  0.0  0.0  0.0  0.0  0.032  
7.56399703026  0.0213324415189  0.0  0.0  0.0  0.0  0.0424530307639  
7.57208800316  0.0132925193235  0.0  0.0  0.0  0.0  0.0264530307639  
7.5801680088  0.00525259712804  0.0  0.0  0.0  0.0  0.0104530307639  
7.58825993538  0.0  0.0  0.0  0.0  0.0  0.0  
7.59645700455  0.0  0.0  0.0  0.0  0.0  0.0  
7.60461807251  0.0  0.0  0.0  0.0  0.0  0.0  
7.61266207695  0.0  0.0  0.0  0.0  0.0  0.0  
7.62075591087  0.0  -0.00798024288431  0.00638382131175  0.0  0.0100000145701  -0.016  
7.6288318634  0.0  -0.0159604857686  0.0127676426235  0.0  0.0200000291403  -0.032  
7.63691401482  0.0  -0.021174093542  0.0169382851587  0.0  0.0265331828866  -0.0424530307639  
7.6450779438  0.0  -0.0131938506576  0.010554463847  0.0  0.0165331683165  -0.0264530307639  
7.65321588516  0.0  -0.00521360777334  0.0041706425352  0.0  0.00653315374635  -0.0104530307639  
7.66132903099  0.0  0.0  0.0  0.0  0.0  0.0  
7.66952705383  0.0  0.0  0.0  0.0  0.0  0.0  
7.67758989334  0.0  0.0  0.0  0.0  0.0  0.0  
7.68565297127  0.0  0.0  0.0  0.0  0.0  0.0  
7.69373703003  0.016  0.0  0.0  0.0  -0.00994805194805  0.0  
7.70185899734  0.032  0.0  0.0  0.0  -0.0198961038961  0.0  
7.70993900299  0.0426889591113  0.0  0.0  0.0  -0.026541998928  0.0  
7.71812486649  0.0106889591113  0.0  0.0  0.0  -0.00664589503185  0.0  
7.72623586655  0.0  0.0  0.0  0.0  0.0  0.0  
7.7342300415  0.0  0.0  0.0  0.0  0.0  0.0  
7.74231791496  0.0  0.0  0.0  0.0  0.0  0.0  
7.75032687187  0.0  0.0  0.0  0.0  0.0  0.0  
7.75857591629  0.0  0.0  0.016  0.0  0.0  0.0  
7.76664805412  0.0  0.0  0.0250934218056  0.0  0.0  0.0  
7.77465486526  0.0  0.0  0.00909342180564  0.0  0.0  0.0  
7.78276491165  0.0  0.0  0.0  0.0  0.0  0.0  
7.79079508781  0.0  0.0  0.0  0.0  0.0  0.0  
7.79889297485  0.0  0.0  0.0  0.0  0.0  0.0  
7.80697989464  0.0  0.0  0.0  0.0  0.0  0.0  
7.81507301331  0.0  -0.0159586207901  0.0127676426235  0.0  0.0  0.016  
7.82320904732  0.0  -0.0319172415803  0.025535285247  0.0  0.0  0.032  
7.83131694794  0.0  -0.0423432387096  0.0338765703174  0.0  0.0  0.0424530307639  
7.83963990211  0.0  -0.0263846179195  0.0211089276939  0.0  0.0  0.0264530307639  
7.84777188301  0.0  -0.0104259971293  0.00834128507041  0.0  0.0  0.0104530307639  
7.85574197769  0.0  0.0  0.0  0.0  0.0  0.0  
7.86391806602  0.0  0.0  0.0  0.0  0.0  0.0  
7.87196993828  0.0  0.0  0.0  0.0  0.0  0.0  
7.88004207611  0.0  0.0  0.0  0.0  0.0  0.0  
7.88815808296  0.00643462040664  -0.00638388360381  0.00510650997948  -0.016  0.0  -0.012802368961  
7.89628195763  0.0128692408133  -0.0127677672076  0.010213019959  -0.032  0.0  -0.025604737922  
7.90434789658  0.0193038612199  -0.0191516508114  0.0153195299384  -0.048  0.0  -0.038407106883  
7.91242194176  0.0149284021077  -0.0148106920725  0.0118471688341  -0.0371202057974  0.0  -0.0297016606579  
7.92067289352  0.00849378170102  -0.00842680846869  0.00674065885457  -0.0211202057974  0.0  -0.0168992916969  
7.92861199379  0.00205916129438  -0.00204292486488  0.00163414887509  -0.0051202057974  0.0  -0.00409692273591  
7.93667602539  0.0  0.0  0.0  0.0  0.0  0.0  
7.94483208656  0.0  0.0  0.0  0.0  0.0  0.0  
7.95293307304  0.0  0.0  0.0  0.0  0.0  0.0  
7.96099805832  0.0  0.0  0.0  0.0  0.0  0.0  
7.96904802322  0.0  -0.016  0.0128022440393  0.0  0.0  0.0  
7.97722005844  0.0  -0.0318734586944  0.0255032372863  0.0  0.0  0.0  
7.9852809906  0.0  -0.0158734586944  0.0127009932471  0.0  0.0  0.0  
7.99354195595  0.0  0.0  0.0  0.0  0.0  0.0  
8.0016040802  0.0  0.0  0.0  0.0  0.0  0.0  
8.00961995125  0.0  0.0  0.0  0.0  0.0  0.0  
8.01780605316  0.0  0.0  0.0  0.0  0.0  0.0  
8.02584195137  0.0  0.0  0.0  0.016  0.0  0.012802368961  
8.03389596939  0.0  0.0  0.0  0.032  0.0  0.025604737922  
8.04199385643  0.0  0.0  0.0  0.048  0.0  0.038407106883  
8.05011606216  0.0  0.0  0.0  0.0371202057974  0.0  0.0297016606579  
8.05818891525  0.0  0.0  0.0  0.0211202057974  0.0  0.0168992916969  
8.0662689209  0.0  0.0  0.0  0.0051202057974  0.0  0.00409692273591  
8.07427501678  0.0  0.0  0.0  0.0  0.0  0.0  
8.08247995377  0.0  0.0  0.0  0.0  0.0  0.0  
8.09060406685  0.0  0.0  0.0  0.0  0.0  0.0  
8.09862399101  0.0  0.0  0.0  0.0  0.0  0.0  
8.10671901703  0.0  0.0  0.0  -0.016  0.0  0.0  
8.11481499672  0.0  0.0  0.0  -0.032  0.0  0.0  
8.12289190292  0.0  0.0  0.0  -0.048  0.0  0.0  
8.13108205795  0.0  0.0  0.0  -0.0371202057974  0.0  0.0  
8.13923192024  0.0  0.0  0.0  -0.0211202057974  0.0  0.0  
8.14725995064  0.0  0.0  0.0  -0.0051202057974  0.0  0.0  
8.1552939415  0.0  0.0  0.0  0.0  0.0  0.0  
8.16357493401  0.0  0.0  0.0  0.0  0.0  0.0  
8.17160987854  0.0  0.0  0.0  0.0  0.0  0.0  
8.17970705032  0.0  0.0  0.0  0.0  0.0  0.0  
8.18775892258  0.00643312814773  0.0  0.0  0.016  0.0  0.0  
8.19583392143  0.0128662562955  0.0  0.0  0.032  0.0  0.0  
8.20400691032  0.0192993844432  0.0  0.0  0.048  0.0  0.0  
8.21210002899  0.0149249400478  0.0  0.0  0.0371202057974  0.0  0.0  
8.22019386292  0.00849181190007  0.0  0.0  0.0211202057974  0.0  0.0  
8.22828388214  0.00205868375234  0.0  0.0  0.0051202057974  0.0  0.0  
8.23639702797  0.0  0.0  0.0  0.0  0.0  0.0  
8.24466705322  0.0  0.0  0.0  0.0  0.0  0.0  
8.25262308121  0.0  0.0  0.0  0.0  0.0  0.0  
8.26078701019  0.0  0.0  0.0  0.0  0.0  0.0  
8.26882100105  0.0  0.0  0.0  0.0  0.0  -0.016  
8.2769639492  0.0  0.0  0.0  0.0  0.0  -0.032  
8.28505992889  0.0  0.0  0.0  0.0  0.0  -0.0424530307639  
8.29317593575  0.0  0.0  0.0  0.0  0.0  -0.0264530307639  
8.30123806  0.0  0.0  0.0  0.0  0.0  -0.0104530307639  
8.30935788155  0.0  0.0  0.0  0.0  0.0  0.0  
8.31753587723  0.0  0.0  0.0  0.0  0.0  0.0  
8.32563900948  0.0  0.0  0.0  0.0  0.0  0.0  
8.33370709419  0.0  0.0  0.0  0.0  0.0  0.0  
8.34183287621  0.0  -0.016  0.0127992521617  0.0  0.0  0.0  
8.34984898567  0.0  -0.0318809235993  0.0255032487685  0.0  0.0  0.0  
8.35788488388  0.0  -0.0158809235993  0.0127039966068  0.0  0.0  0.0  
8.36596989632  0.0  0.0  0.0  0.0  0.0  0.0  
8.37403702736  0.0  0.0  0.0  0.0  0.0  0.0  
8.38216209412  0.0  0.0  0.0  0.0  0.0  0.0  
8.39024496078  0.0  0.0  0.0  0.0  -0.016  0.0  
8.39828801155  0.0  0.0  0.0  0.0  -0.032  0.0  
8.40632486343  0.0  0.0  0.0  0.0  -0.0235094517149  0.0  
8.4145488739  0.0  0.0  0.0  0.0  -0.00750945171493  0.0  
8.42264699936  0.0  0.0  0.0  0.0  0.0  0.0  
8.43071293831  0.0  0.0  0.0  0.0  0.0  0.0  
8.43879008293  0.0  0.0  0.0  0.0  0.0  0.0  
8.44683790207  0.0  0.0  0.0  0.0  0.0  0.0  
8.45496797562  0.0  0.0  0.0  0.0  0.016  0.0  
8.4631049633  0.0  0.0  0.0  0.0  0.032  0.0  
8.47117304802  0.0  0.0  0.0  0.0  0.0235094517149  0.0  
8.47927308083  0.0  0.0  0.0  0.0  0.00750945171493  0.0  
8.48751306534  0.0  0.0  0.0  0.0  0.0  0.0  
8.49562501907  0.0  0.0  0.0  0.0  0.0  0.0  
8.50364995003  0.0  0.0  0.0  0.0  0.0  0.0  
8.51175498962  0.0  0.0  0.0  0.0  0.0  0.0  
8.51990008354  0.0  0.0  0.0  0.0  0.0  0.0  
8.52797889709  0.0  0.0  0.0  0.0  0.0  0.0  
8.53607392311  0.0  0.0  0.0  0.0  0.0  0.0  
8.54421496391  0.0  0.0  0.0  0.0  0.0  0.0  
8.55230093002  0.0  0.0  0.0  0.0  0.0  0.016  
8.56053686142  0.0  0.0  0.0  0.0  0.0  0.032  
8.56844186783  0.0  0.0  0.0  0.0  0.0  0.0424530307639  
8.5766479969  0.0  0.0  0.0  0.0  0.0  0.0264530307639  
8.58473706245  0.0  0.0  0.0  0.0  0.0  0.0104530307639  
8.59282898903  0.0  0.0  0.0  0.0  0.0  0.0  
8.60087203979  0.0  0.0  0.0  0.0  0.0  0.0  
8.60903000832  0.0  0.0  0.0  0.0  0.0  0.0  
8.61709690094  0.0  0.0  0.0  0.0  0.0  0.0  
8.62519693375  0.0  0.0  0.0  0.0  -0.016  0.0  
8.63330793381  0.0  0.0  0.0  0.0  -0.032  0.0  
8.64139890671  0.0  0.0  0.0  0.0  -0.0235094517149  0.0  
8.64945006371  0.0  0.0  0.0  0.0  -0.00750945171493  0.0  
8.65756702423  0.0  0.0  0.0  0.0  0.0  0.0  
8.66566801071  0.0  0.0  0.0  0.0  0.0  0.0  
8.67383289337  0.0  0.0  0.0  0.0  0.0  0.0  
8.68195104599  0.0  0.0  0.0  0.0  0.0  0.0  
8.69004797935  0.0  0.0  0.0  0.0  0.016  0.0  
8.6982550621  0.0  0.0  0.0  0.0  0.032  0.0  
8.70632696152  0.0  0.0  0.0  0.0  0.0235094517149  0.0  
8.71430706978  0.0  0.0  0.0  0.0  0.00750945171493  0.0  
8.72233200073  0.0  0.0  0.0  0.0  0.0  0.0  
8.73064899445  0.0  0.0  0.0  0.0  0.0  0.0  
8.73851108551  0.0  0.0  0.0  0.0  0.0  0.0  
8.74664998055  0.0  0.0  0.0  0.0  0.0  0.0  
8.75473093987  0.0  0.0  0.0  0.0  -0.0100000145701  -0.016  
8.76271986961  0.0  0.0  0.0  0.0  -0.0200000291403  -0.032  
8.77082204819  0.0  0.0  0.0  0.0  -0.0265331828866  -0.0424530307639  
8.77892398834  0.0  0.0  0.0  0.0  -0.0165331683165  -0.0264530307639  
8.78701901436  0.0  0.0  0.0  0.0  -0.00653315374635  -0.0104530307639  
8.79511499405  0.0  0.0  0.0  0.0  0.0  0.0  
8.80323886871  0.0  0.0  0.0  0.0  0.0  0.0  
8.81135892868  0.0  0.0  0.0  0.0  0.0  0.0  
8.81960606575  0.0  0.0  0.0  0.0  0.0  0.0  
8.827698946  0.0  0.0  -0.00637449641939  0.0  0.0100000145701  0.016  
8.83576893806  0.0  0.0  -0.0127489928388  0.0  0.0200000291403  0.032  
8.84387898445  0.0  0.0  -0.0169135432873  0.0  0.0265331828866  0.0424530307639  
8.85200691223  0.0  0.0  -0.0105390468679  0.0  0.0165331683165  0.0264530307639  
8.86007785797  0.0  0.0  -0.00416455044853  0.0  0.00653315374635  0.0104530307639  
8.8681499958  0.0  0.0  0.0  0.0  0.0  0.0  
8.87628102303  0.0  0.0  0.0  0.0  0.0  0.0  
8.88438892365  0.0  0.0  0.0  0.0  0.0  0.0  
8.8925819397  0.0  0.0  0.0  0.0  0.0  0.0  
8.90055608749  0.0  0.0  0.0  0.0  -0.016  0.0  
8.90874099731  0.0  0.0  0.0  0.0  -0.032  0.0  
8.91674494743  0.0  0.0  0.0  0.0  -0.0235094517149  0.0  
8.92486405373  0.0  0.0  0.0  0.0  -0.00750945171493  0.0  
8.93296408653  0.0  0.0  0.0  0.0  0.0  0.0  
8.94105291367  0.0  0.0  0.0  0.0  0.0  0.0  
8.94913196564  0.0  0.0  0.0  0.0  0.0  0.0  
8.95730686188  0.0  0.0  0.0  0.0  0.0  0.0  
8.96548199654  0.0  0.0  0.0  0.0  0.016  0.0  
8.97358202934  0.0  0.0  0.0  0.0  0.032  0.0  
8.98175287247  0.0  0.0  0.0  0.0  0.0235094517149  0.0  
8.98969388008  0.0  0.0  0.0  0.0  0.00750945171493  0.0  
8.99786090851  0.0  0.0  0.0  0.0  0.0  0.0  
9.00588989258  0.0  0.0  0.0  0.0  0.0  0.0  
9.01400995255  0.0  0.0  0.0  0.0  0.0  0.0  
9.02205491066  0.0  0.0  0.0  0.0  -0.0100000145701  -0.016  
9.0302259922  0.0  0.0  0.0  0.0  -0.0200000291403  -0.032  
9.0382900238  0.0  0.0  0.0  0.0  -0.0265331828866  -0.0424530307639  
9.04632592201  0.0  0.0  0.0  0.0  -0.0165331683165  -0.0264530307639  
9.05436205864  0.0  0.0  0.0  0.0  -0.00653315374635  -0.0104530307639  
9.06268191338  0.0  0.0  0.0  0.0  0.0  0.0  
9.07063293457  0.0  0.0  0.0  0.0  0.0  0.0  
9.07870197296  0.0  0.0  0.0  0.0  0.0  0.0  
9.08677887917  0.0  0.0  0.0  0.0  0.0  0.0  
9.09486699104  0.0  0.0  0.0  0.0  0.016  0.0  
9.10299086571  0.0  0.0  0.0  0.0  0.032  0.0  
9.11117005348  0.0  0.0  0.0  0.0  0.0235094517149  0.0  
9.11923408508  0.0  0.0  0.0  0.0  0.00750945171493  0.0  
9.12739300728  0.0  0.0  0.0  0.0  0.0  0.0  
9.13558006287  0.0  0.0  0.0  0.0  0.0  0.0  
9.14367985725  0.0  0.0  0.0  0.0  0.0  0.0  
9.15168595314  0.0  0.0  0.0  0.0  0.0  0.0  
9.15981602669  0.0  0.0  0.0  0.0  -0.0100000145701  0.016  
9.1678750515  0.0  0.0  0.0  0.0  -0.0200000291403  0.032  
9.17597293854  0.0  0.0  0.0  0.0  -0.0265331828866  0.0424530307639  
9.1840429306  0.0  0.0  0.0  0.0  -0.0165331683165  0.0264530307639  
9.19215893745  0.0  0.0  0.0  0.0  -0.00653315374635  0.0104530307639  
9.20025086403  0.0  0.0  0.0  0.0  0.0  0.0  
9.20830988884  0.0  0.0  0.0  0.0  0.0  0.0  
9.21646690369  0.0  0.0  0.0  0.0  0.0  0.0  
9.22470593452  0.0  0.0  0.0  0.0  0.0  0.0  
9.23288393021  0.0  0.0  0.0  0.0  0.0100000145701  -0.016  
9.24094200134  0.0  0.0  0.0  0.0  0.0200000291403  -0.032  
9.24908804893  0.0  0.0  0.0  0.0  0.0265331828866  -0.0424530307639  
9.25724887848  0.0  0.0  0.0  0.0  0.0165331683165  -0.0264530307639  
9.26529788971  0.0  0.0  0.0  0.0  0.00653315374635  -0.0104530307639  
9.27336406708  0.0  0.0  0.0  0.0  0.0  0.0  
9.28156590462  0.0  0.0  0.0  0.0  0.0  0.0  
9.28967094421  0.0  0.0  0.0  0.0  0.0  0.0  
9.2976360321  0.0  0.0  0.0  0.0  0.0  0.0  
9.30572199821  0.0  0.0  0.0  0.0  0.0  0.0  
9.31378602982  0.0  0.0  0.0  0.0  0.0  0.0  
9.3218960762  0.0  0.0  0.0  0.0  0.0  0.0  
9.33009791374  0.0  0.0  0.0  0.0  0.0  0.0  
9.33810091019  0.0  0.0  0.0  0.0  0.0  0.016  
9.34619498253  0.0  0.0  0.0  0.0  0.0  0.032  
9.35428285599  0.0  0.0  0.0  0.0  0.0  0.0424530307639  
9.3623418808  0.0  0.0  0.0  0.0  0.0  0.0264530307639  
9.37060499191  0.0  0.0  0.0  0.0  0.0  0.0104530307639  
9.37864995003  0.0  0.0  0.0  0.0  0.0  0.0  
9.38667488098  0.0  0.0  0.0  0.0  0.0  0.0  
9.39478206635  0.0  0.0  0.0  0.0  0.0  0.0  
9.40287899971  0.0  0.0  0.0  0.0  0.0  0.0  
9.41097998619  0.0  0.0  0.0  0.0  -0.016  0.0  
9.41904497147  0.0  0.0  0.0  0.0  -0.032  0.0  
9.42719006538  0.0  0.0  0.0  0.0  -0.0235094517149  0.0  
9.43527197838  0.0  0.0  0.0  0.0  -0.00750945171493  0.0  
9.44356989861  0.0  0.0  0.0  0.0  0.0  0.0  
9.45148301125  0.0  0.0  0.0  0.0  0.0  0.0  
9.45972585678  0.0  0.0  0.0  0.0  0.0  0.0  
9.46770000458  0.0  0.0  0.0  0.0  0.0  0.0  
9.47579789162  0.0  0.0  0.0  0.0  0.0  0.0  
9.48388195038  0.0  0.0  0.0  0.0  0.0  0.0  
9.49200201035  0.0  0.0  0.0  0.0  0.0  0.0  
9.50015807152  0.0  0.0  0.0  0.0  0.0  0.0  
9.50827789307  0.0  0.0  0.0  0.0  0.016  0.0  
9.51639604568  0.0  0.0  0.0  0.0  0.032  0.0  
9.52465987206  0.0  0.0  0.0  0.0  0.0235094517149  0.0  
9.53259396553  0.0  0.0  0.0  0.0  0.00750945171493  0.0  
9.54062986374  0.0  0.0  0.0  0.0  0.0  0.0  
9.54875302315  0.0  0.0  0.0  0.0  0.0  0.0  
9.55687308311  0.0  0.0  0.0  0.0  0.0  0.0  
9.56500887871  0.0  0.0  0.0  0.0  0.0  0.0  
9.57307696342  0.0  0.0  0.0  0.0  -0.0100000145701  -0.016  
9.58120894432  0.0  0.0  0.0  0.0  -0.0200000291403  -0.032  
9.58939599991  0.0  0.0  0.0  0.0  -0.0265331828866  -0.0424530307639  
9.59753799438  0.0  0.0  0.0  0.0  -0.0165331683165  -0.0264530307639  
9.60566306114  0.0  0.0  0.0  0.0  -0.00653315374635  -0.0104530307639  
9.61369991302  0.0  0.0  0.0  0.0  0.0  0.0  
9.62166500092  0.0  0.0  0.0  0.0  0.0  0.0  
9.6298019886  0.0  0.0  0.0  0.0  0.0  0.0  
9.63789701462  0.0  0.0  0.0  0.0  0.0  0.0  
9.6459569931  0.0  0.0  0.0  0.0  0.016  0.0  
9.65412092209  0.0  0.0  0.0  0.0  0.0235094517149  0.0  
9.66223788261  0.0  0.0  0.0  0.0  0.00750945171493  0.0  
9.67026996613  0.0  0.0  0.0  0.0  0.0  0.0  
9.67850899696  0.0  0.0  0.0  0.0  0.0  0.0  
9.68658590317  0.0  0.0  0.0  0.0  0.0  0.0  
9.69460296631  0.0  0.0  0.0  0.0  0.0  0.0  
9.70269799232  0.0  0.0  0.0  0.0  -0.0100000145701  0.016  
9.71074795723  0.0  0.0  0.0  0.0  -0.0200000291403  0.032  
9.71890997887  0.0  0.0  0.0  0.0  -0.0265331828866  0.0424530307639  
9.72703003883  0.0  0.0  0.0  0.0  -0.0165331683165  0.0264530307639  
9.73511886597  0.0  0.0  0.0  0.0  -0.00653315374635  0.0104530307639  
9.74322295189  0.0  0.0  0.0  0.0  0.0  0.0  
9.75143694878  0.0  0.0  0.0  0.0  0.0  0.0  
9.75952100754  0.0  0.0  0.0  0.0  0.0  0.0  
9.76761293411  0.0  0.0  0.0  0.0  0.0  0.0  
9.77569007874  0.0128668407311  0.0  0.0  0.0  0.016  0.0  
9.78382301331  0.0257336814621  0.0  0.0  0.0  0.032  0.0  
9.79192399979  0.0189057731807  0.0  0.0  0.0  0.0235094517149  0.0  
9.80002498627  0.00603893244961  0.0  0.0  0.0  0.00750945171493  0.0  
9.80807495117  0.0  0.0  0.0  0.0  0.0  0.0  
9.81617999077  0.0  0.0  0.0  0.0  0.0  0.0  
9.82441496849  0.0  0.0  0.0  0.0  0.0  0.0  
9.83247590065  0.0  0.0  0.0  0.0  0.0  0.0  
9.84061408043  0.0128668407311  0.0  0.0101991794107  0.0  -0.016  0.0  
9.84863495827  0.0257336814621  0.0  0.0203983588213  0.0  -0.032  0.0  
9.85672903061  0.0189057731807  0.0  0.0149860697429  0.0  -0.0235094517149  0.0  
9.86487197876  0.00603893244961  0.0  0.00478689033227  0.0  -0.00750945171493  0.0  
9.87294197083  0.0  0.0  0.0  0.0  0.0  0.0  
9.88103199005  0.0  0.0  0.0  0.0  0.0  0.0  
9.88908791542  0.0  0.0  0.0  0.0  0.0  0.0  
9.89724993706  0.0  0.0  0.0  0.0  0.0  0.0  
9.90549492836  0.016  0.0  0.0  0.0  0.0  0.0  
9.91349005699  0.032  0.0  0.0  0.0  0.0  0.0  
9.92163300514  0.0426837010183  0.0  0.0  0.0  0.0  0.0  
9.92960691452  0.0266837010183  0.0  0.0  0.0  0.0  0.0  
9.93768906593  0.0106837010183  0.0  0.0  0.0  0.0  0.0  
9.94578289986  0.0  0.0  0.0  0.0  0.0  0.0  
9.95389008522  0.0  0.0  0.0  0.0  0.0  0.0  
9.96193003654  0.0  0.0  0.0  0.0  0.0  0.0  
9.97002196312  0.0  0.0  0.0  0.0  0.0  0.0  
9.97816491127  0.0  0.0  0.0  0.0  0.0  -0.016  
9.98629498482  0.0  0.0  0.0  0.0  0.0  -0.032  
9.99444007874  0.0  0.0  0.0  0.0  0.0  -0.0424530307639  
10.0025708675  0.0  0.0  0.0  0.0  0.0  -0.0264530307639  
10.0105130672  0.0  0.0  0.0  0.0  0.0  -0.0104530307639  
10.0186100006  0.0  0.0  0.0  0.0  0.0  0.0  
10.0267379284  0.0  0.0  0.0  0.0  0.0  0.0  
10.0348329544  0.0  0.0  0.0  0.0  0.0  0.0  
10.0429799557  0.0  0.0  0.0  0.0  0.0  0.0  
10.0510730743  0.0  0.0  0.0  0.0  0.0  0.016  
10.0591540337  0.0  0.0  0.0  0.0  0.0  0.032  
10.0673520565  0.0  0.0  0.0  0.0  0.0  0.0424530307639  
10.0755939484  0.0  0.0  0.0  0.0  0.0  0.0264530307639  
10.0834810734  0.0  0.0  0.0  0.0  0.0  0.0104530307639  
10.0916609764  0.0  0.0  0.0  0.0  0.0  0.0  
10.0996558666  0.0  0.0  0.0  0.0  0.0  0.0  
10.1076989174  0.0  0.0  0.0  0.0  0.0  0.0  
10.1157879829  0.0  0.0  0.0  0.0  0.0  0.0  
10.1238870621  0.0  0.0  0.0  0.016  0.008  0.0  
10.1320278645  0.0  0.0  0.0  0.032  0.016  0.0  
10.1401669979  0.0  0.0  0.0  0.048  0.024  0.0  
10.1484279633  0.0  0.0  0.0  0.0371296364531  0.0185648182266  0.0  
10.1564068794  0.0  0.0  0.0  0.0211296364531  0.0105648182266  0.0  
10.1645109653  0.0  0.0  0.0  0.00512963645312  0.00256481822656  0.0  
10.1725389957  0.0  0.0  0.0  0.0  0.0  0.0  
10.1806769371  0.0  0.0  0.0  0.0  0.0  0.0  
10.1887259483  0.0  0.0  0.0  0.0  0.0  0.0  
10.1968090534  0.0  0.0  0.0  0.0  0.0  0.0  
10.2049219608  0.0  0.0  0.0  -0.016  -0.008  0.0  
10.2130110264  0.0  0.0  0.0  -0.032  -0.016  0.0  
10.2211689949  0.0  0.0  0.0  -0.048  -0.024  0.0  
10.2292780876  0.0  0.0  0.0  -0.0371296364531  -0.0185648182266  0.0  
10.2373490334  0.0  0.0  0.0  -0.0211296364531  -0.0105648182266  0.0  
10.2454590797  0.0  0.0  0.0  -0.00512963645312  -0.00256481822656  0.0  
10.2536220551  0.0  0.0  0.0  0.0  0.0  0.0  
10.2617008686  0.0  0.0  0.0  0.0  0.0  0.0  
10.269767046  0.0  0.0  0.0  0.0  0.0  0.0  
10.2778968811  0.0  0.0  0.0  0.0  0.0  0.0  
10.2860200405  0.0  0.0  0.0  0.0  0.0  -0.016  
10.2942199707  0.0  0.0  0.0  0.0  0.0  -0.0424530307639  
10.3022270203  0.0  0.0  0.0  0.0  0.0  -0.0264530307639  
10.3102400303  0.0  0.0  0.0  0.0  0.0  -0.0104530307639  
10.3183569908  0.0  0.0  0.0  0.0  0.0  0.0  
10.3265109062  0.0  0.0  0.0  0.0  0.0  0.0  
10.3345639706  0.0  0.0  0.0  0.0  0.0  0.0  
10.3427240849  0.0  0.0  0.0  0.0  0.0  0.0  
10.3508329391  0.0  0.0  0.0  0.016  0.0  0.0127999813502  
10.3589670658  0.0  0.0  0.0  0.032  0.0  0.0255999627005  
10.3671069145  0.0  0.0  0.0  0.048  0.0  0.0383999440507  
10.3751859665  0.0  0.0  0.0  0.0371296364531  0.0  0.0297036658838  
10.3833479881  0.0  0.0  0.0  0.0211296364531  0.0  0.0169036845336  
10.3915688992  0.0  0.0  0.0  0.00512963645312  0.0  0.00410370318334  
10.3996179104  0.0  0.0  0.0  0.0  0.0  0.0  
10.4076859951  0.0  0.0  0.0  0.0  0.0  0.0  
10.4157760143  0.0  0.0  0.0  0.0  0.0  0.0  
10.4239358902  0.0  0.0  0.0  0.0  0.0  0.0  
10.4319999218  0.0  0.0  0.0  0.0  0.0  0.0  
10.4401259422  0.0  0.0  0.0  0.0  0.0  0.0  
10.4482228756  0.0  0.0  0.0  0.0  0.0  0.0  
10.456553936  0.0  0.0  0.0  0.0  0.0  0.0  
10.4645080566  0.0  0.0  0.0  0.0  0.0  0.0  
10.4725289345  0.0  0.0  0.0  0.0  0.0  0.0  
10.4806110859  0.0  0.0  0.0  0.0  0.0  0.0  
10.4887769222  0.0  0.0  0.0  0.0  0.0  0.0  
10.4968628883  0.0  0.0  0.0  -0.016  0.0  0.0  
10.5049760342  0.0  0.0  0.0  -0.032  0.0  0.0  
10.5131380558  0.0  0.0  0.0  -0.048  0.0  0.0  
10.5213389397  0.0  0.0  0.0  -0.0371296364531  0.0  0.0  
10.5296108723  0.0  0.0  0.0  -0.0211296364531  0.0  0.0  
10.5375440121  0.0  0.0  0.0  -0.00512963645312  0.0  0.0  
10.5456280708  0.0  0.0  0.0  0.0  0.0  0.0  
10.5536940098  0.0  0.0  0.0  0.0  0.0  0.0  
10.5617589951  0.0  0.0  0.0  0.0  0.0  0.0  
10.5699779987  0.0  0.0  0.0  0.0  0.0  0.0  
10.5779390335  0.0  0.0  0.0  0.0  0.0  0.0  
10.5860600471  0.0  0.0  0.0  0.0  0.0  0.0  
10.5941660404  0.0  0.0  0.0  0.0  0.0  0.0  
10.6022949219  0.0  0.0  0.0  0.0  0.0  0.0  
10.610724926  0.0  0.0  0.0  0.0  0.0  0.0  
10.6185610294  0.0  0.0  0.0  0.0  0.0  0.0  
10.626625061  0.0  0.0  0.0  0.0  0.0  0.0  
10.6346480846  0.0  0.0  0.0  0.0  0.0  0.0  
10.6427259445  0.0  0.0  0.0  0.0  0.0  -0.016  
10.6508169174  0.0  0.0  0.0  0.0  0.0  -0.032  
10.6588799953  0.0  0.0  0.0  0.0  0.0  -0.0424530307639  
10.6670429707  0.0  0.0  0.0  0.0  0.0  -0.0264530307639  
10.6751539707  0.0  0.0  0.0  0.0  0.0  -0.0104530307639  
10.6832430363  0.0  0.0  0.0  0.0  0.0  0.0  
10.6913459301  0.0  0.0  0.0  0.0  0.0  0.0  
10.6995539665  0.0  0.0  0.0  0.0  0.0  0.0  
10.7075440884  0.0  0.0  0.0  0.0  0.0  0.0  
10.7155909538  0.00643342036554  0.0  0.0  0.016  0.0  0.0127999813502  
10.7236909866  0.0128668407311  0.0  0.0  0.032  0.0  0.0255999627005  
10.7318220139  0.0193002610966  0.0  0.0  0.048  0.0  0.0383999440507  
10.7398889065  0.0149294099577  0.0  0.0  0.0371296364531  0.0  0.0297036658838  
10.7479989529  0.00849598959212  0.0  0.0  0.0211296364531  0.0  0.0169036845336  
10.7560389042  0.00206256922658  0.0  0.0  0.00512963645312  0.0  0.00410370318334  
10.7641749382  0.0  0.0  0.0  0.0  0.0  0.0  
10.7722790241  0.0  0.0  0.0  0.0  0.0  0.0  
10.7804019451  0.0  0.0  0.0  0.0  0.0  0.0  
10.7885298729  0.0  0.0  0.0  0.0  0.0  0.0  
10.7965700626  0.0  0.0  0.0  -0.016  0.0  0.0  
10.8046050072  0.0  0.0  0.0  -0.032  0.0  0.0  
10.8126869202  0.0  0.0  0.0  -0.048  0.0  0.0  
10.8207819462  0.0  0.0  0.0  -0.0371296364531  0.0  0.0  
10.8288378716  0.0  0.0  0.0  -0.0211296364531  0.0  0.0  
10.836961031  0.0  0.0  0.0  -0.00512963645312  0.0  0.0  
10.8450930119  0.0  0.0  0.0  0.0  0.0  0.0  
10.8531939983  0.0  0.0  0.0  0.0  0.0  0.0  
10.8613898754  0.0  0.0  0.0  0.0  0.0  0.0  
10.8695468903  0.0  0.0  0.0  0.0  0.0  0.0  
10.8775880337  0.0  0.0  0.0  0.016  0.0  0.0  
10.885653019  0.0  0.0  0.0  0.032  0.0  0.0  
10.8937718868  0.0  0.0  0.0  0.048  0.0  0.0  
10.901884079  0.0  0.0  0.0  0.0371296364531  0.0  0.0  
10.9099700451  0.0  0.0  0.0  0.0211296364531  0.0  0.0  
10.9181129932  0.0  0.0  0.0  0.0  0.0  0.0  
10.9262690544  0.0  0.0  0.0  0.0  0.0  0.0  
10.9342889786  0.0  0.0  0.0  0.0  0.0  0.0  
10.9425330162  0.0  0.0  0.0  0.0  0.0  0.0  
10.9504899979  0.0  0.0  0.0  0.0  0.0  -0.016  
10.9585678577  0.0  0.0  0.0  0.0  0.0  -0.032  
10.96667099  0.0  0.0  0.0  0.0  0.0  -0.0424530307639  
10.9747428894  0.0  0.0  0.0  0.0  0.0  -0.0264530307639  
10.9828109741  0.0  0.0  0.0  0.0  0.0  -0.0104530307639  
10.9909338951  0.0  0.0  0.0  0.0  0.0  0.0  
10.99898386  0.0  0.0  0.0  0.0  0.0  0.0  
11.0071558952  0.0  0.0  0.0  0.0  0.0  0.0  
11.0152468681  0.0  0.0  0.0  0.0  0.0  0.0  
11.0233130455  0.0  0.0  0.0  0.0  0.0  0.016  
11.0315089226  0.0  0.0  0.0  0.0  0.0  0.032  
11.0395128727  0.0  0.0  0.0  0.0  0.0  0.0424530307639  
11.0476698875  0.0  0.0  0.0  0.0  0.0  0.0264530307639  
11.0557079315  0.0  0.0  0.0  0.0  0.0  0.0104530307639  
11.0638730526  0.0  0.0  0.0  0.0  0.0  0.0  
11.0719690323  0.0  0.0  0.0  0.0  0.0  0.0  
11.0800590515  0.0  0.0  0.0  0.0  0.0  0.0  
11.0881819725  0.0  0.0  0.0  0.0  0.0  0.0  
11.0963189602  0.0  0.0  0.0  0.0  0.0  0.0  
11.1045079231  0.0  0.0  0.0  0.0  0.0  0.0  
11.1125679016  0.0  0.0  0.0  0.0  0.0  0.0  
11.1205849648  0.0  0.0  0.0  0.0  0.0  0.0  
11.1287269592  0.0  0.0  0.0  0.0  0.0  0.0  
11.1367969513  0.0  0.0  0.0  0.0  0.0  0.0  
11.1448659897  0.0  0.0  0.0  0.0  0.0  0.0  
11.152987957  0.0  0.0  0.0  0.0  0.0  0.0  
11.1610989571  0.0  0.0  0.0  -0.016  0.0  0.0  
11.1692118645  0.0  0.0  0.0  -0.032  0.0  0.0  
11.1775009632  0.0  0.0  0.0  -0.048  0.0  0.0  
11.1855208874  0.0  0.0  0.0  -0.0371296364531  0.0  0.0  
11.1935129166  0.0  0.0  0.0  -0.0211296364531  0.0  0.0  
11.2016129494  0.0  0.0  0.0  -0.00512963645312  0.0  0.0  
11.2096989155  0.0  0.0  0.0  0.0  0.0  0.0  
11.2177829742  0.0  0.0  0.0  0.0  0.0  0.0  
11.2258899212  0.0  0.0  0.0  0.0  0.0  0.0  
11.2339448929  0.0  0.0  0.0  0.0  0.0  0.0  
11.2420959473  -0.00643342036554  0.0  0.0  0.016  0.0  0.0  
11.2502019405  -0.0128668407311  0.0  0.0  0.032  0.0  0.0  
11.2584939003  -0.0193002610966  0.0  0.0  0.048  0.0  0.0  
11.2664699554  -0.0149294099577  0.0  0.0  0.0371296364531  0.0  0.0  
11.2745990753  -0.00849598959212  0.0  0.0  0.0211296364531  0.0  0.0  
11.2826180458  -0.00206256922658  0.0  0.0  0.00512963645312  0.0  0.0  
11.2906880379  0.0  0.0  0.0  0.0  0.0  0.0  
11.2987809181  0.0  0.0  0.0  0.0  0.0  0.0  
11.3069450855  0.0  0.0  0.0  0.0  0.0  0.0  
11.315046072  0.0  0.0  0.0  0.0  0.0  0.0  
11.3231320381  0.0  0.0  0.0  0.0  0.0  -0.016  
11.3312079906  0.0  0.0  0.0  0.0  0.0  -0.032  
11.3395109177  0.0  0.0  0.0  0.0  0.0  -0.0424530307639  
11.3475239277  0.0  0.0  0.0  0.0  0.0  -0.0264530307639  
11.3555538654  0.0  0.0  0.0  0.0  0.0  -0.0104530307639  
11.3635928631  0.0  0.0  0.0  0.0  0.0  0.0  
11.3717200756  0.0  0.0  0.0  0.0  0.0  0.0  
11.379776001  0.0  0.0  0.0  0.0  0.0  0.0  
11.3879458904  0.0  0.0  0.0  0.0  0.0  0.0  
11.3960540295  0.0  0.0  0.0  0.0  0.0  0.0  
11.4041290283  0.0  0.0  0.0  0.0  0.0  0.0  
11.4122149944  0.0  0.0  0.0  0.0  0.0  0.0  
11.4204359055  0.0  0.0  0.0  0.0  0.0  0.0  
11.4285330772  0.0  0.0  0.0  -0.016  0.0  0.0127999813502  
11.436524868  0.0  0.0  0.0  -0.032  0.0  0.0255999627005  
11.4446399212  0.0  0.0  0.0  -0.048  0.0  0.0383999440507  
11.4527299404  0.0  0.0  0.0  -0.0371296364531  0.0  0.0297036658838  
11.46083498  0.0  0.0  0.0  -0.0211296364531  0.0  0.0169036845336  
11.4689590931  0.0  0.0  0.0  -0.00512963645312  0.0  0.00410370318334  
11.4770729542  0.0  0.0  0.0  0.0  0.0  0.0  
11.4851620197  0.0  0.0  0.0  0.0  0.0  0.0  
11.4933099747  0.0  0.0  0.0  0.0  0.0  0.0  
11.5015389919  0.0  0.0  0.0  0.0  0.0  0.0  
11.5095620155  0.00643342036554  0.0  -0.00509958970533  0.016  0.0  0.0  
11.5176179409  0.0128668407311  0.0  -0.0101991794107  0.032  0.0  0.0  
11.5256700516  0.0193002610966  0.0  -0.015298769116  0.048  0.0  0.0  
11.5338039398  0.0149294099577  0.0  -0.0118341194887  0.0371296364531  0.0  0.0  
11.541864872  0.00849598959212  0.0  -0.00673452978336  0.0211296364531  0.0  0.0  
11.5499789715  0.00206256922658  0.0  -0.00163494007803  0.00512963645312  0.0  0.0  
11.5580589771  0.0  0.0  0.0  0.0  0.0  0.0  
11.5663740635  0.0  0.0  0.0  0.0  0.0  0.0  
11.5743310452  0.0  0.0  0.0  0.0  0.0  0.0  
11.5825459957  0.0  0.0  0.0  0.0  0.0  0.0  
11.5904829502  0.0  0.0  0.0  0.0  0.0  0.0  
11.5985000134  0.0  0.0  0.0  0.0  0.0  0.0  
11.6066789627  0.0  0.0  0.0  0.0  0.0  0.0  
11.6146879196  0.0  0.0  0.0  0.0  0.0  0.0  
11.6227989197  0.0  0.0  0.0  0.0  0.0  0.0  
11.6309700012  0.0  0.0  0.0  0.0  0.0  0.0  
11.6390070915  0.0  0.0  0.0  0.0  0.0  0.0  
11.6471509933  0.0  0.0  0.016  0.0  0.0  0.0  
11.6551949978  0.0  0.0  0.0250934218056  0.0  0.0  0.0  
11.6634919643  0.0  0.0  0.00909342180564  0.0  0.0  0.0  
11.6714639664  0.0  0.0  0.0  0.0  0.0  0.0  
11.6796000004  0.0  0.0  0.0  0.0  0.0  0.0  
11.6876559258  0.0  0.0  0.0  0.0  0.0  0.0  
11.6958088875  0.0  0.0  0.0  0.0  0.0  0.0  
11.7037820816  0.016  0.0  0.0  0.0  0.0  0.0  
11.7118930817  0.032  0.0  0.0  0.0  0.0  0.0  
11.7200400829  0.0426889591113  0.0  0.0  0.0  0.0  0.0  
11.728110075  0.0266889591113  0.0  0.0  0.0  0.0  0.0  
11.7362310886  0.0106889591113  0.0  0.0  0.0  0.0  0.0  
11.7443518639  0.0  0.0  0.0  0.0  0.0  0.0  
11.752630949  0.0  0.0  0.0  0.0  0.0  0.0  
11.7606620789  0.0  0.0  0.0  0.0  0.0  0.0  
11.7687079906  0.0  0.0  0.0  0.0  0.0  0.0  
11.776802063  0.016  0.0  0.0  0.0  0.0  0.0  
11.784952879  0.032  0.0  0.0  0.0  0.0  0.0  
11.7930510044  0.0161193416843  0.0  0.0  0.0  0.0  0.0  
11.8011419773  0.000119341684295  0.0  0.0  0.0  0.0  0.0  
11.809210062  0.0  0.0  0.0  0.0  0.0  0.0  
11.8175120354  0.0  0.0  0.0  0.0  0.0  0.0  
11.8255438805  0.0  0.0  0.0  0.0  0.0  0.0  
11.8335158825  0.0  0.0  0.0  0.0  0.0  0.0  
11.8416500092  0.0  0.0  0.0  0.0  0.0  0.0  
11.8496589661  0.0  0.0  0.0  0.0  0.0  0.0  
11.8577668667  0.0  0.0  0.0  0.0  0.0  0.0  
11.8658759594  0.0  0.0  0.0  0.0  0.0  0.0  
11.8739910126  0.0  0.0  0.0  0.0  0.0  0.0  
11.8820819855  0.0  0.0  0.0  0.0  0.0  0.0  
11.8902270794  0.0  0.0  0.0  0.0  0.0  0.0  
11.8984429836  0.0  0.0  0.0  0.0  0.0  0.0  
11.906539917  0.0  0.0  0.0  0.0  0.0  0.0  
11.9145710468  0.0  0.0  0.0  0.0  0.0  0.0  
11.9226748943  0.0  0.0  0.0  0.0  0.0  0.0  
11.930727005  0.0  0.0  0.0  0.0  0.0  0.0  
11.9388990402  0.0  0.0  0.0  0.0  0.0  -0.016  
11.9470200539  0.0  0.0  0.0  0.0  0.0  -0.032  
11.9551179409  0.0  0.0  0.0  0.0  0.0  -0.0424530307639  
11.9632530212  0.0  0.0  0.0  0.0  0.0  -0.0264530307639  
11.9714279175  0.0  0.0  0.0  0.0  0.0  -0.0104530307639  
11.9795160294  0.0  0.0  0.0  0.0  0.0  0.0  
11.9875199795  0.0  0.0  0.0  0.0  0.0  0.0  
11.9956328869  0.0  0.0  0.0  0.0  0.0  0.0  
12.0037579536  0.0  0.0  0.0  0.0  0.0  0.0  
12.0118319988  0.0  0.0  0.0  -0.016  -0.008  0.0  
12.0200328827  0.0  0.0  0.0  -0.032  -0.016  0.0  
12.0280940533  0.0  0.0  0.0  -0.048  -0.024  0.0  
12.0362050533  0.0  0.0  0.0  -0.0371296364531  -0.0185648182266  0.0  
12.044262886  0.0  0.0  0.0  -0.0211296364531  -0.0105648182266  0.0  
12.052448988  0.0  0.0  0.0  -0.00512963645312  -0.00256481822656  0.0  
12.060600996  0.0  0.0  0.0  0.0  0.0  0.0  
12.0685620308  0.0  0.0  0.0  0.0  0.0  0.0  
12.0766508579  0.0  0.0  0.0  0.0  0.0  0.0  
12.0847330093  0.0  0.0  0.0  0.0  0.0  0.0  
12.0928549767  0.0  0.0  0.0  0.016  0.008  0.0127999813502  
12.1009290218  0.0  0.0  0.0  0.032  0.016  0.0255999627005  
12.1090559959  0.0  0.0  0.0  0.048  0.024  0.0383999440507  
12.1171569824  0.0  0.0  0.0  0.0371296364531  0.0185648182266  0.0297036658838  
12.1252858639  0.0  0.0  0.0  0.0211296364531  0.0105648182266  0.0169036845336  
12.1334140301  0.0  0.0  0.0  0.00512963645312  0.00256481822656  0.00410370318334  
12.141602993  0.0  0.0  0.0  0.0  0.0  0.0  
12.1495640278  0.0  0.0  0.0  0.0  0.0  0.0  
12.1576690674  0.0  0.0  0.0  0.0  0.0  0.0  
12.1657710075  0.0  0.0  0.0  0.0  0.0  0.0  
12.1738328934  0.0  0.0  0.0  0.0  0.0  -0.016  
12.1819028854  0.0  0.0  0.0  0.0  0.0  -0.032  
12.1900029182  0.0  0.0  0.0  0.0  0.0  -0.0424530307639  
12.1981620789  0.0  0.0  0.0  0.0  0.0  -0.0104530307639  
12.2062680721  0.0  0.0  0.0  0.0  0.0  0.0  
12.2143979073  0.0  0.0  0.0  0.0  0.0  0.0  
12.2225189209  0.0  0.0  0.0  0.0  0.0  0.0  
12.2305018902  0.0  0.0  0.0  0.0  0.0  0.0  
12.2385730743  0.00643342036554  0.0  0.0  -0.016  0.0  0.0  
12.2466909885  0.0128668407311  0.0  0.0  -0.032  0.0  0.0  
12.2547259331  0.0193002610966  0.0  0.0  -0.048  0.0  0.0  
12.2628178596  0.0149294099577  0.0  0.0  -0.0371296364531  0.0  0.0  
12.2709050179  0.00849598959212  0.0  0.0  -0.0211296364531  0.0  0.0  
12.2791080475  0.00206256922658  0.0  0.0  -0.00512963645312  0.0  0.0  
12.287184  0.0  0.0  0.0  0.0  0.0  0.0  
12.2954630852  0.0  0.0  0.0  0.0  0.0  0.0  
12.3035039902  0.0  0.0  0.0  0.0  0.0  0.0  
12.3115980625  0.0  0.0  0.0  0.0  0.0  0.0  
12.319660902  0.0  0.0  0.0  0.0  -0.016  0.0  
12.3277299404  0.0  0.0  0.0  0.0  -0.032  0.0  
12.3358519077  0.0  0.0  0.0  0.0  -0.0235094517149  0.0  
12.3439450264  0.0  0.0  0.0  0.0  -0.00750945171493  0.0  
12.3520228863  0.0  0.0  0.0  0.0  0.0  0.0  
12.360104084  0.0  0.0  0.0  0.0  0.0  0.0  
12.368393898  0.0  0.0  0.0  0.0  0.0  0.0  
12.3765599728  0.0  0.0  0.0  0.0  0.0  0.0  
12.3845169544  0.00643342036554  0.0  0.0  0.016  0.016  0.0127999813502  
12.3925988674  0.0128668407311  0.0  0.0  0.032  0.032  0.0255999627005  
12.400744915  0.0193002610966  0.0  0.0  0.048  0.048  0.0383999440507  
12.4087560177  0.0149294099577  0.0  0.0  0.0371296364531  0.0371296364531  0.0297036658838  
