Ethan-CYM/ros_catkin_ws/test/movej_静止不动/ur_joint_target_degree.txt
time  shoulder_pan_joint  shoulder_lift_joint  elbow_joint  wrist_1_joint  wrist_2_joint  wrist_3_joint
0.148814916611  1.57000005245  -1.22109806538  2.09333586693  -3.1534705162  -1.57154228323  -0.188095508057  
0.156878948212  1.57000005245  -1.22109806538  2.09333586693  -3.1534705162  -1.57173987855  -0.188411662405  
0.164874076843  1.57000005245  -1.22109806538  2.09333586693  -3.1534705162  -1.57191214435  -0.188687289287  
0.173007965088  1.57000005245  -1.22109806538  2.09333586693  -3.1534705162  -1.57200441061  -0.188834916169  
0.181047916412  1.57000005245  -1.22109806538  2.09333586693  -3.1534705162  -1.57202148438  -0.188862234354  
0.18914604187  1.57000005245  -1.22109806538  2.09333586693  -3.1534705162  -1.57202148438  -0.188862234354  
0.197257041931  1.57000005245  -1.22109806538  2.09333586693  -3.1534705162  -1.57202148438  -0.188862234354  
0.205585956573  1.57000005245  -1.22109806538  2.09333586693  -3.1534705162  -1.57202148438  -0.188862234354  
0.213670015335  1.57000005245  -1.22109806538  2.09333586693  -3.1534705162  -1.57195748437  -0.188862234354  
0.221643924713  1.57000005245  -1.22109806538  2.09333586693  -3.1534705162  -1.57176548437  -0.188862234354  
0.229740858078  1.57000005245  -1.22109806538  2.09333586693  -3.1534705162  -1.57152045774  -0.188862234354  
0.237842082977  1.57000005245  -1.22109806538  2.09333586693  -3.1534705162  -1.57139638213  -0.188862234354  
0.245893001556  1.57000005245  -1.22109806538  2.09333586693  -3.1534705162  -1.57138228416  -0.188862234354  
0.254057884216  1.57000005245  -1.22109806538  2.09333586693  -3.1534705162  -1.57138228416  -0.188862234354  
0.262124061584  1.57000005245  -1.22109806538  2.09333586693  -3.1534705162  -1.57138228416  -0.188862234354  
0.270223855972  1.57000005245  -1.22109806538  2.09333586693  -3.1534065162  -1.57141429013  -0.188862234354  
0.278338909149  1.57000005245  -1.22109806538  2.09333586693  -3.1532145162  -1.57151030804  -0.188862234354  
0.286361932755  1.57000005245  -1.22109806538  2.09333586693  -3.1528945162  -1.57167033789  -0.188862234354  
0.294476032257  1.57000005245  -1.22109806538  2.09333586693  -3.15253683162  -1.57184921354  -0.188862234354  
0.302607059479  1.57000005245  -1.22109806538  2.09333586693  -3.15230386998  -1.57196571609  -0.188862234354  
0.310585021973  1.57000005245  -1.22109806538  2.09333586693  -3.15219890833  -1.5720182067  -0.188862234354  
0.318641901016  1.57000005245  -1.22109806538  2.09333586693  -3.1521923542  -1.57202148438  -0.188862234354  
0.326732873917  1.57000005245  -1.22109806538  2.09333586693  -3.1521923542  -1.57202148438  -0.188862234354  
0.334795951843  1.57000005245  -1.22109806538  2.09333586693  -3.1521923542  -1.57202148438  -0.188862234354  
0.342886924744  1.57000005245  -1.22109806538  2.09333586693  -3.1521923542  -1.57202148438  -0.188862234354  
0.351005077362  1.57000005245  -1.22109806538  2.09333586693  -3.1521923542  -1.57195748437  -0.188862234354  
0.359117984772  1.57000005245  -1.22109806538  2.09333586693  -3.1521923542  -1.57176548437  -0.188862234354  
0.367213964462  1.57000005245  -1.22109806538  2.09333586693  -3.1521923542  -1.57144548438  -0.188862234354  
0.375360965729  1.57000005245  -1.22109806538  2.09333586693  -3.1521923542  -1.57108773643  -0.188862234354  
0.383596897125  1.57000005245  -1.22109806538  2.09333586693  -3.1521923542  -1.57085469934  -0.188862234354  
0.391696929932  1.57000005245  -1.22109806538  2.09333586693  -3.1521923542  -1.57074966225  -0.188862234354  
0.399726867676  1.57000005245  -1.22109806538  2.09333586693  -3.1521923542  -1.57074308395  -0.188862234354  
0.407816886902  1.57000005245  -1.22109806538  2.09333586693  -3.1521923542  -1.57074308395  -0.188862234354  
0.416001081467  1.57000005245  -1.22109806538  2.09333586693  -3.1521923542  -1.57074308395  -0.188862234354  
0.423979997635  1.57000005245  -1.22109806538  2.09333586693  -3.1521923542  -1.57074308395  -0.188862234354  
0.432074069977  1.57000005245  -1.22109806538  2.09333586693  -3.1522563542  -1.57074308395  -0.188862234354  
0.440170049667  1.57000005245  -1.22109806538  2.09333586693  -3.1524483542  -1.57074308395  -0.188862234354  
0.448292970657  1.57000005245  -1.22109806538  2.09333586693  -3.1527683542  -1.57074308395  -0.188862234354  
0.456343889236  1.57000005245  -1.22109806538  2.09333586693  -3.15312603879  -1.57074308395  -0.188862234354  
0.464531898499  1.57000005245  -1.22109806538  2.09333586693  -3.15335900043  -1.57074308395  -0.188862234354  
0.472590923309  1.57000005245  -1.22109806538  2.09333586693  -3.15346396208  -1.57074308395  -0.188862234354  
0.480710983276  1.57000005245  -1.22109806538  2.09333586693  -3.1534705162  -1.57074308395  -0.188862234354  
0.488791942596  1.57000005245  -1.22109806538  2.09333586693  -3.1534705162  -1.57074308395  -0.188862234354  
0.496908903122  1.57000005245  -1.22109806538  2.09333586693  -3.1534705162  -1.57074308395  -0.188862234354  
0.504956960678  1.57000005245  -1.22109806538  2.09333586693  -3.1534705162  -1.57074308395  -0.188862234354  
0.513074874878  1.57000005245  -1.22109806538  2.09333586693  -3.1535345162  -1.57071108594  -0.188862234354  
0.521146059036  1.57000005245  -1.22109806538  2.09333586693  -3.1537265162  -1.57061509191  -0.188862234354  
0.529314994812  1.57000005245  -1.22109806538  2.09333586693  -3.1540465162  -1.57045510186  -0.188862234354  
0.537314891815  1.57000005245  -1.22109806538  2.09333586693  -3.1544945162  -1.57023111578  -0.188862234354  
0.545449018478  1.57000005245  -1.22109806538  2.09333586693  -3.1550705162  -1.56994313369  -0.188862234354  
0.553647041321  1.57000005245  -1.22109806538  2.09333586693  -3.15573907503  -1.56960887506  -0.188862234354  
0.561667919159  1.57000005245  -1.22109806538  2.09333586693  -3.15630836838  -1.56932424608  -0.188862234354  
0.569742918015  1.57000005245  -1.22109806538  2.09333586693  -3.15674966172  -1.56910361312  -0.188862234354  
0.577848911285  1.57000005245  -1.22109806538  2.09333586693  -3.15706295507  -1.56894697618  -0.188862234354  
0.58588886261  1.57000005245  -1.22109806538  2.09333586693  -3.15724824842  -1.56885433527  -0.188862234354  
0.594017982483  1.57000005245  -1.22109806538  2.09333586693  -3.15730571747  -1.56882560253  -0.188862234354  
0.602196931839  1.57000005245  -1.22109806538  2.09333586693  -3.15730571747  -1.56882560253  -0.188862234354  
0.610261917114  1.57000005245  -1.22109806538  2.09333586693  -3.15730571747  -1.56882560253  -0.188862234354  
0.618411064148  1.57000005245  -1.22109806538  2.09333586693  -3.15730571747  -1.56882560253  -0.188862234354  
0.626504898071  1.57000005245  -1.22109806538  2.09333586693  -3.15724171747  -1.56884960216  -0.188862234354  
0.634566068649  1.57000005245  -1.22109806538  2.09333586693  -3.15704971747  -1.56892160104  -0.188862234354  
0.642629861832  1.57000005245  -1.22109806538  2.09333586693  -3.15672971747  -1.56904159917  -0.188862234354  
0.650717973709  1.57000005245  -1.22109806538  2.09333586693  -3.15628171747  -1.56920959656  -0.188862234354  
0.658756971359  1.57000005245  -1.22109806538  2.09333586693  -3.15570571747  -1.56942559321  -0.188862234354  
0.666853904724  1.57000005245  -1.22109806538  2.09333586693  -3.15500171747  -1.5696895891  -0.188862234354  
0.674983024597  1.57000005245  -1.22109806538  2.09333586693  -3.1542288255  -1.56997941909  -0.188862234354  
0.683104991913  1.57000005245  -1.22109806538  2.09333586693  -3.15357078904  -1.57022617892  -0.188862234354  
0.691221952438  1.57000005245  -1.22109806538  2.09333586693  -3.15304075258  -1.57042493951  -0.188862234354  
0.699320077896  1.57000005245  -1.22109806538  2.09333586693  -3.15263871611  -1.57057570084  -0.188862234354  
0.707603931427  1.57000005245  -1.22109806538  2.09333586693  -3.15236467965  -1.57067846291  -0.188862234354  
0.71556687355  1.57000005245  -1.22109806538  2.09333586693  -3.15221864319  -1.57073322574  -0.188862234354  
0.723659038544  1.57000005245  -1.22109806538  2.09333586693  -3.1521923542  -1.57074308395  -0.188862234354  
0.731750011444  1.57000005245  -1.22109806538  2.09333586693  -3.1521923542  -1.57074308395  -0.188862234354  
0.739820957184  1.57000005245  -1.22109806538  2.09333586693  -3.1521923542  -1.57074308395  -0.188862234354  
0.747931957245  1.57000005245  -1.22109806538  2.09333586693  -3.1521923542  -1.57074308395  -0.188862234354  
0.755990028381  1.5700060244  -1.22116206538  2.09334161602  -3.15218938353  -1.57074605462  -0.188846787095  
0.764121055603  1.57002394025  -1.22135406538  2.0933588633  -3.15218047153  -1.57075496663  -0.18880044532  
0.772167921066  1.57005379999  -1.22167406538  2.09338760876  -3.15216561818  -1.57076981998  -0.188723209027  
0.780248880386  1.57009560362  -1.22212206538  2.09342785241  -3.15214482349  -1.57079061466  -0.188615078217  
0.788511037827  1.57014935116  -1.22269806538  2.09347959425  -3.15211808747  -1.57081735069  -0.18847605289  
0.796411037445  1.57021504259  -1.22340206538  2.09354283426  -3.15208541011  -1.57085002805  -0.188306133046  
0.804678916931  1.57029267792  -1.22423406538  2.09361757247  -3.15204679141  -1.57088864675  -0.188105318684  
0.812612056732  1.57038225714  -1.22519406538  2.09370380886  -3.15200223137  -1.57093320679  -0.187873609806  
0.820641994476  1.57048378026  -1.22628206538  2.09380154344  -3.15195172999  -1.57098370816  -0.187611006411  
0.828721046448  1.57059724728  -1.22749806538  2.0939107762  -3.15189528728  -1.57104015088  -0.187317508498  
0.836786985397  1.57072265819  -1.22884206538  2.09403150714  -3.15183290322  -1.57110253493  -0.186993116068  
0.844966888428  1.570860013  -1.23031406538  2.09416373627  -3.15176457783  -1.57117086033  -0.186637829121  
0.853007078171  1.57100931171  -1.23191406538  2.09430746359  -3.1516903111  -1.57124512706  -0.186251647657  
0.861120939255  1.57117055431  -1.23364206538  2.09446268909  -3.15161010303  -1.57132533513  -0.185834571676  
0.869209051132  1.57134374081  -1.23549806538  2.09462941278  -3.15152395362  -1.57141148454  -0.185386601178  
0.877321004868  1.57152887121  -1.23748206538  2.09480763465  -3.15143186287  -1.57150357529  -0.184907736162  
0.885441064835  1.5717259455  -1.23959406538  2.09499735471  -3.15133383079  -1.57160160737  -0.18439797663  
0.893573045731  1.57193496369  -1.24183406538  2.09519857296  -3.15122985736  -1.5717055808  -0.18385732258  
0.901658058167  1.57215592578  -1.24420206538  2.09541128939  -3.1511199426  -1.57181549556  -0.183285774013  
0.909758090973  1.57238883176  -1.24669806538  2.095635504  -3.1510040865  -1.57193135166  -0.182683330929  
0.917912960052  1.57263290291  -1.2493137199  2.09587046713  -3.15088267643  -1.57205276173  -0.18205200762  
0.925976991653  1.57287165326  -1.25187235262  2.09610030801  -3.15076391312  -1.57217152504  -0.18143444729  
0.93411397934  1.57331332226  -1.25660561805  2.09652549523  -3.15054421053  -1.57239122763  -0.180292010182  
0.942215919495  1.57351624092  -1.25878025076  2.09672084156  -3.15044327123  -1.57249216692  -0.179767133404  
0.9502389431  1.57370721568  -1.26082688347  2.0969046897  -3.15034827328  -1.57258716487  -0.179273151143  
0.958334922791  1.57388624655  -1.26274551619  2.09707703966  -3.15025921667  -1.57267622149  -0.178810063399  
0.966403961182  1.57405333352  -1.2645361489  2.09723789143  -3.1501761014  -1.57275933676  -0.178377870172  
0.974703073502  1.57420847659  -1.26619878162  2.09738724502  -3.15009892746  -1.5728365107  -0.177976571462  
0.982688903809  1.57435167576  -1.26773341433  2.09752510042  -3.15002769486  -1.57290774329  -0.177606167269  
0.99082493782  1.57448293104  -1.26914004704  2.09765145763  -3.1499624036  -1.57297303455  -0.177266657594  
0.998908042908  1.57460224242  -1.27041867976  2.09776631666  -3.14990305368  -1.57303238447  -0.176958042435  
1.00698685646  1.57470960991  -1.27156931247  2.09786967751  -3.1498496451  -1.57308579305  -0.176680321794  
1.01505899429  1.5748050335  -1.27259194519  2.09796154017  -3.14980217786  -1.5731332603  -0.17643349567  
1.02318787575  1.57488851319  -1.2734865779  2.09804190464  -3.14976065195  -1.5731747862  -0.176217564063  
1.03125286102  1.57496004898  -1.27425321062  2.09811077093  -3.14972506739  -1.57321037077  -0.176032526973  
1.0393550396  1.57501964088  -1.27489184333  2.09816813904  -3.14969542416  -1.573240014  -0.1758783844  
1.04764008522  1.57506728888  -1.27540247604  2.09821400896  -3.14967172227  -1.57326371589  -0.175755136344  
1.05560088158  1.57510299299  -1.27578510876  2.09824838069  -3.14965396172  -1.57328147644  -0.175662782806  
1.06365394592  1.5751267532  -1.27603974147  2.09827125424  -3.14964214251  -1.57329329565  -0.175601323784  
1.07175397873  1.57513856951  -1.27616637419  2.0982826296  -3.14963626463  -1.57329917352  -0.17557075928  
1.07983899117  1.57513999939  -1.27618169785  2.09828400612  -3.14963555336  -1.5732998848  -0.175567060709  
1.08791708946  1.57513999939  -1.27618169785  2.09828400612  -3.14963555336  -1.5732998848  -0.175567060709  
1.09604001045  1.57513999939  -1.27618169785  2.09828400612  -3.14963555336  -1.5732998848  -0.175567060709  
1.10413694382  1.57513999939  -1.27618169785  2.09828400612  -3.14963555336  -1.5732998848  -0.175567060709  
1.11227202415  1.57512845355  -1.27624569785  2.09823988557  -3.14958307279  -1.57328750728  -0.175543295926  
1.12040686607  1.57509381603  -1.27643769785  2.09810752393  -3.14942563108  -1.57325037471  -0.175472001579  
1.12866401672  1.57503608683  -1.27675769785  2.0978869212  -3.14916322824  -1.57318848711  -0.175353177666  
1.13677406311  1.57495526596  -1.27720569785  2.09757807738  -3.14879586426  -1.57310184447  -0.175186824187  
1.14474487305  1.5748513534  -1.27778169785  2.09718099246  -3.14832353914  -1.57299044678  -0.174972941144  
1.15279889107  1.57472434916  -1.27848569785  2.09669566646  -3.14774625288  -1.57285429406  -0.174711528535  
1.16094899178  1.57457425325  -1.27931769785  2.09612209936  -3.14706400549  -1.57269338629  -0.174402586361  
1.16903686523  1.57440106565  -1.28027769785  2.09546029116  -3.14627679696  -1.57250772348  -0.174046114622  
1.17718195915  1.57420478638  -1.28136569785  2.09471024188  -3.14538462729  -1.57229730563  -0.173642113318  
1.18530988693  1.57398541543  -1.28258169785  2.0938719515  -3.14438749648  -1.57206213274  -0.173190582449  
1.19356203079  1.57374295279  -1.28392569785  2.09294542003  -3.14328540454  -1.57180220481  -0.172691522014  
1.20160508156  1.57347739848  -1.28539769785  2.09193064747  -3.14207835145  -1.57151752184  -0.172144932014  
1.20959806442  1.57318875249  -1.28699769785  2.09082763382  -3.14076633723  -1.57120808383  -0.171550812449  
1.21773195267  1.57287701482  -1.28872569785  2.08963637907  -3.13934936188  -1.57087389077  -0.170909163319  
1.22584700584  1.57254218547  -1.29058169785  2.08835688323  -3.13782742538  -1.57051494268  -0.170219984623  
1.23393392563  1.57218426444  -1.29256569785  2.0869891463  -3.13620052775  -1.57013123954  -0.169483276362  
1.24203085899  1.57180325174  -1.29467769785  2.08553316827  -3.13446866898  -1.56972278137  -0.168699038537  
1.25014901161  1.57139914735  -1.29691769785  2.08398894916  -3.13263184907  -1.56928956815  -0.167867271145  
1.25825500488  1.57097195128  -1.29928569785  2.08235648895  -3.13069006802  -1.56883159989  -0.166987974189  
1.26649999619  1.57052166354  -1.30178169785  2.08063578765  -3.12864332584  -1.56834887659  -0.166061147668  
1.27438497543  1.57004828411  -1.30440569785  2.07882684526  -3.12649162252  -1.56784139825  -0.165086791581  
1.28254103661  1.56955181301  -1.30715769785  2.07692966177  -3.12423495806  -1.56730916487  -0.164064905929  
1.29060292244  1.56903225022  -1.31003769785  2.07494423719  -3.12187333247  -1.56675217644  -0.162995490712  
1.29870891571  1.56848959576  -1.31304569785  2.07287057152  -3.11940674573  -1.56617043298  -0.161878545929  
1.3067920208  1.56792384962  -1.31618169785  2.07070866476  -3.11683519786  -1.56556393447  -0.160714071582  
1.31486797333  1.56734313455  -1.31940067244  2.06848955668  -3.11419561008  -1.56494138878  -0.159518786715  
1.32300186157  1.56678168782  -1.32251284028  2.06634407942  -3.1116436048  -1.56433949939  -0.158363161839  
1.33109998703  1.56624333277  -1.32549700811  2.06428684325  -3.10919656065  -1.56376236504  -0.157255066529  
1.33922386169  1.5657280694  -1.32835317595  2.06231784817  -3.10685447765  -1.56320998573  -0.156194500785  
1.34741187096  1.5652358977  -1.33108134378  2.06043709419  -3.10461735578  -1.56268236145  -0.155181464605  
1.35542201996  1.56476681769  -1.33368151161  2.0586445813  -3.10248519504  -1.56217949222  -0.154215957991  
1.36352705956  1.56432082936  -1.33615367945  2.0569403095  -3.10045799545  -1.56170137804  -0.153297980942  
1.37167191505  1.5638979327  -1.33849784728  2.0553242788  -3.09853575699  -1.56124801889  -0.152427533458  
1.37974786758  1.56349812773  -1.34071401512  2.05379648918  -3.09671847967  -1.56081941478  -0.151604615539  
1.38781404495  1.56312141443  -1.34280218295  2.05235694066  -3.09500616349  -1.56041556571  -0.150829227185  
1.39589095116  1.56276779281  -1.34476235079  2.05100563323  -3.09339880844  -1.56003647169  -0.150101368397  
1.40399289131  1.56243726288  -1.34659451862  2.0497425669  -3.09189641453  -1.55968213271  -0.149421039174  
1.41213107109  1.56212982462  -1.34829868646  2.04856774165  -3.09049898176  -1.55935254876  -0.148788239516  
1.42023205757  1.56184547804  -1.34987485429  2.0474811575  -3.08920651013  -1.55904771986  -0.148202969423  
1.42844104767  1.56158422314  -1.35132302212  2.04648281444  -3.08801899964  -1.558767646  -0.147665228896  
1.43646502495  1.56134605992  -1.35264318996  2.04557271247  -3.08693645028  -1.55851232718  -0.147175017934  
1.44456195831  1.56113098838  -1.35383535779  2.0447508516  -3.08595886206  -1.5582817634  -0.146732336536  
1.45266103745  1.56093900852  -1.35489952563  2.04401723182  -3.08508623498  -1.55807595467  -0.146337184705  
1.46071600914  1.56077012033  -1.35583569346  2.04337185313  -3.08431856903  -1.55789490097  -0.145989562438  
1.46873807907  1.56062432383  -1.3566438613  2.04281471553  -3.08365586423  -1.55773860231  -0.145689469736  
1.47689008713  1.56050161901  -1.35732402913  2.04234581902  -3.08309812056  -1.5576070587  -0.1454369066  
1.4849588871  1.56040200586  -1.35787619697  2.04196516361  -3.08264533803  -1.55750027013  -0.145231873029  
1.49306106567  1.5603254844  -1.3583003648  2.04167274929  -3.08229751663  -1.55741823659  -0.145074369023  
1.50114488602  1.56027205461  -1.35859653263  2.04146857606  -3.08205465637  -1.5573609581  -0.144964394583  
1.50928401947  1.5602417165  -1.35876470047  2.04135264392  -3.08191675726  -1.55732843465  -0.144901949707  
1.51743102074  1.56023406982  -1.35880708694  2.04132342339  -3.08188199997  -1.55732023716  -0.144886210561  
1.52547097206  1.56023406982  -1.35880708694  2.04132342339  -3.08188199997  -1.55732023716  -0.144886210561  
1.53347587585  1.56023406982  -1.35880708694  2.04132342339  -3.08188199997  -1.55732023716  -0.144886210561  
1.54153895378  1.56023406982  -1.35880708694  2.04132342339  -3.08188199997  -1.55732023716  -0.144886210561  
1.54966402054  1.56022591691  -1.35883616052  2.04127235234  -3.08181799997  -1.55728982136  -0.144864412585  
1.5577070713  1.56020145819  -1.35892338126  2.04111913922  -3.08162599997  -1.55719857395  -0.144799018658  
1.56583690643  1.56016069364  -1.35906874916  2.040863784  -3.08130599997  -1.55704649493  -0.144690028779  
1.57395792007  1.56010362327  -1.35927226422  2.04050628671  -3.08085799997  -1.5568335843  -0.144537442948  
1.58205199242  1.55994056508  -1.35985373581  2.03948486586  -3.07957799997  -1.55622526823  -0.144101483432  
1.59014797211  1.55983457726  -1.36023169235  2.0388209423  -3.07874599997  -1.55582986279  -0.143818109746  
1.59836101532  1.55971228361  -1.36066779604  2.03805487667  -3.07778599997  -1.55537362573  -0.143491140109  
1.60649585724  1.55957368415  -1.3611620469  2.03718666894  -3.07669799997  -1.55485655707  -0.14312057452  
1.61455106735  1.55941877887  -1.36171444491  2.03621631913  -3.07548199997  -1.5542786568  -0.14270641298  
1.62269687653  1.55924756777  -1.36232499009  2.03514382724  -3.07413799997  -1.55363992493  -0.142248655488  
1.63074398041  1.55906005085  -1.36299368242  2.03396919326  -3.07266599997  -1.55294036145  -0.141747302045  
1.63894104958  1.55885622811  -1.36372052191  2.0326924172  -3.07106599997  -1.55217996636  -0.14120235265  
1.64694905281  1.55863609956  -1.36450550856  2.03131349905  -3.06933799997  -1.55135873966  -0.140613807303  
1.65506601334  1.55839966518  -1.36534864237  2.02983243882  -3.06748199997  -1.55047668136  -0.139981666004  
1.66318202019  1.55814692499  -1.36624992334  2.0282492365  -3.06549799997  -1.54953379145  -0.139305928754  
1.67126893997  1.55787787897  -1.36720935147  2.0265638921  -3.06338599997  -1.54853006993  -0.138586595553  
1.67943000793  1.55759252714  -1.36822692676  2.02477640561  -3.06114599997  -1.54746551681  -0.1378236664  
1.68749690056  1.55729086949  -1.36930264921  2.02288677704  -3.05877799997  -1.54634013208  -0.137017141295  
1.69558906555  1.55697290601  -1.37043651882  2.02089500638  -3.05628199997  -1.54515391574  -0.136167020238  
1.70372700691  1.55663863672  -1.37162853558  2.01880109364  -3.05365799997  -1.54390686779  -0.13527330323  
1.71184396744  1.55628806161  -1.37287869951  2.01660503881  -3.05090599997  -1.54259898824  -0.13433599027  
1.71993207932  1.55592118069  -1.37418701059  2.0143068419  -3.04802599997  -1.54123027708  -0.133355081359  
1.72807788849  1.55553799394  -1.37555346884  2.0119065029  -3.04501799997  -1.53980073431  -0.132330576496  
1.73616290092  1.55513850137  -1.37697807424  2.00940402182  -3.04188199997  -1.53831035994  -0.131262475682  
1.74436688423  1.55472270299  -1.37846082681  2.00679939865  -3.03861799997  -1.53675915396  -0.130150778916  
1.75241494179  1.55429059878  -1.38000172653  2.0040926334  -3.03522599997  -1.53514711637  -0.128995486198  
1.76047086716  1.55384218876  -1.38160077341  2.00128372606  -3.03170599997  -1.53347424717  -0.127796597529  
1.76855707169  1.55337747291  -1.38325796745  1.99837267664  -3.02805799997  -1.53174054637  -0.126554112908  
1.77665495872  1.55289645125  -1.38497330865  1.99535948513  -3.02428199997  -1.52994601396  -0.125268032335  
1.78477907181  1.55239912377  -1.38674679701  1.99224415153  -3.02037799997  -1.52809064994  -0.123938355811  
1.79289007187  1.55188642771  -1.38857509029  1.98903254688  -3.01635335728  -1.52617795086  -0.122567589188  
1.80099201202  1.55138061298  -1.3903788445  1.98586404789  -3.01238273273  -1.52429092373  -0.121215220781  
1.8090698719  1.55089110407  -1.39212445155  1.98279769098  -3.00854010817  -1.5224647282  -0.119906448327  
1.81717085838  1.55041790098  -1.39381191144  1.97983347616  -3.00482548362  -1.52069936428  -0.118641271824  
1.82535386086  1.54996100371  -1.39544122417  1.97697140343  -3.00123885906  -1.51899483197  -0.117419691272  
1.83343791962  1.54952041225  -1.39701238974  1.97421147277  -2.99778023451  -1.51735113127  -0.116241706673  
1.84140586853  1.54909612662  -1.39852540816  1.97155368421  -2.99444960995  -1.51576826217  -0.115107318024  
1.84957289696  1.5486881468  -1.39998027941  1.96899803773  -2.9912469854  -1.51424622468  -0.114016525328  
1.85763692856  1.5482964728  -1.4013770035  1.96654453333  -2.98817236084  -1.5127850188  -0.112969328583  
1.86575508118  1.54792110462  -1.40271558044  1.96419317102  -2.98522573628  -1.51138464452  -0.11196572779  
1.87393903732  1.54756204227  -1.40399601021  1.96194395079  -2.98240711173  -1.51004510185  -0.111005722948  
1.88200592995  1.54721928573  -1.40521829283  1.95979687265  -2.97971648717  -1.50876639079  -0.110089314058  
1.8901219368  1.546892835  -1.40638242828  1.95775193659  -2.97715386262  -1.50754851134  -0.109216501119  
1.89822387695  1.5465826901  -1.40748841658  1.95580914262  -2.97471923806  -1.50639146349  -0.108387284132  
1.9064218998  1.54628885102  -1.40853625772  1.95396849074  -2.97241261351  -1.50529524725  -0.107601663097  
1.91443705559  1.54601131776  -1.4095259517  1.95222998093  -2.97023398895  -1.50425986262  -0.106859638013  
1.92250800133  1.54575009031  -1.41045749851  1.95059361322  -2.96818336439  -1.50328530959  -0.106161208881  
1.93061709404  1.54550516868  -1.41133089817  1.94905938759  -2.96626073984  -1.50237158817  -0.105506375701  
1.93862295151  1.54527655288  -1.41214615067  1.94762730404  -2.96446611528  -1.50151869836  -0.104895138472  
1.9467010498  1.54506424289  -1.41290325601  1.94629736258  -2.96279949073  -1.50072664016  -0.104327497195  
1.95475387573  1.54486823872  -1.4136022142  1.9450695632  -2.96126086617  -1.49999541356  -0.103803451869  
1.96290707588  1.54468854037  -1.41424302522  1.94394390591  -2.95985024162  -1.49932501857  -0.103323002495  
1.97098398209  1.54452514784  -1.41482568908  1.94292039071  -2.95856761706  -1.49871545519  -0.102886149073  
1.97912192345  1.54437806113  -1.41535020578  1.94199901758  -2.95741299251  -1.49816672341  -0.102492891602  
1.98717308044  1.54424728024  -1.41581657533  1.94117978655  -2.95638636795  -1.49767882324  -0.102143230083  
1.99533486366  1.54413280516  -1.41622479771  1.9404626976  -2.95548774339  -1.49725175468  -0.101837164516  
2.00347399712  1.54403463591  -1.41657487294  1.93984775073  -2.95471711884  -1.49688551773  -0.1015746949  
2.01148605347  1.54395277247  -1.416866801  1.93933494595  -2.95407449428  -1.49658011238  -0.101355821235  
2.01954197884  1.54388721486  -1.41710058191  1.93892428325  -2.95355986973  -1.49633553864  -0.101180543523  
2.0276389122  1.54383796306  -1.41727621566  1.93861576264  -2.95317324517  -1.49615179651  -0.101048861762  
2.03574895859  1.54380501708  -1.41739370225  1.93840938412  -2.95291462062  -1.49602888598  -0.100960775952  
2.04381203651  1.54378837692  -1.41745304167  1.93830514767  -2.95278399606  -1.49596680706  -0.100916286094  
2.05189585686  1.5437861681  -1.41746091843  1.93829131126  -2.95276665688  -1.49595856667  -0.100910380483  
2.06000494957  1.5437861681  -1.41746091843  1.93829131126  -2.95276665688  -1.49595856667  -0.100910380483  
2.06812596321  1.5437861681  -1.41746091843  1.93829131126  -2.95276665688  -1.49595856667  -0.100910380483  
2.07624197006  1.5437861681  -1.41746091843  1.93829131126  -2.95276665688  -1.49595856667  -0.100910380483  
2.08445000648  1.543777777  -1.41748867299  1.93824610516  -2.95270265688  -1.49591508839  -0.10090203266  
2.09253191948  1.54375260369  -1.41757193668  1.93811048686  -2.95251065688  -1.49578465354  -0.100876989193  
2.10056090355  1.54371064817  -1.4177107095  1.93788445635  -2.95219065688  -1.49556726214  -0.100835250081  
2.10862588882  1.54365191045  -1.41790499144  1.93756801365  -2.95174265688  -1.49526291418  -0.100776815325  
2.11670899391  1.54357639052  -1.41815478251  1.93716115874  -2.95116665688  -1.49487160965  -0.100701684923  
2.12479686737  1.54348408839  -1.4184600827  1.93666389163  -2.95046265688  -1.49439334856  -0.100609858877  
2.13288402557  1.54337500405  -1.41882089202  1.93607621231  -2.94963065688  -1.49382813092  -0.100501337186  
2.14105296135  1.5432491375  -1.41923721047  1.9353981208  -2.94867065688  -1.49317595671  -0.10037611985  
2.14911198616  1.54310648875  -1.41970903805  1.93462961708  -2.94758265688  -1.49243682594  -0.100234206869  
2.15726900101  1.54294705779  -1.42023637475  1.93377070116  -2.94636665688  -1.4916107386  -0.100075598244  
2.16534996033  1.54277084463  -1.42081922058  1.93282137304  -2.94502265688  -1.49069769471  -0.0999002939741  
2.17353987694  1.54257784926  -1.42145757553  1.93178163271  -2.94355065688  -1.48969769426  -0.0997082940592  
2.18161702156  1.54236807168  -1.42215143961  1.93065148019  -2.94195065688  -1.48861073724  -0.0994995984996  
2.18967008591  1.5421415119  -1.42290081282  1.92943091546  -2.94022265688  -1.48743682367  -0.0992742072952  
2.19775295258  1.54189816991  -1.42370569515  1.92811993853  -2.93836665688  -1.48617595353  -0.099032120446  
2.20590591431  1.54163804572  -1.42456608661  1.92671854939  -2.93638265688  -1.48482812683  -0.0987733379521  
2.21391201019  1.54136113932  -1.4254819872  1.92522674806  -2.93427065688  -1.48339334357  -0.0984978598134  
2.22200298309  1.54106745071  -1.42645339691  1.92364453452  -2.93203065688  -1.48187160375  -0.0982056860299  
2.23007798195  1.54042972688  -1.42856274371  1.92020887084  -2.92716665688  -1.47856725442  -0.0975712515286  
2.23814105988  1.54008569166  -1.42970068081  1.9183554207  -2.92454265688  -1.47678464492  -0.0972289908108  
2.24625086784  1.53972487423  -1.43089412703  1.91641155836  -2.92179065688  -1.47491507885  -0.0968700344483  
2.25435900688  1.53934727459  -1.43214308237  1.91437728381  -2.91891065688  -1.47295855622  -0.0964943824409  
2.26255297661  1.53895289275  -1.43344754684  1.91225259706  -2.91590265688  -1.47091507703  -0.0961020347888  
2.27056407928  1.5385417287  -1.43480752044  1.91003749811  -2.91276665688  -1.46878464128  -0.095692991492  
2.27856588364  1.53811378244  -1.43622300316  1.90773198695  -2.90950265688  -1.46656724897  -0.0952672525503  
2.28662991524  1.53766905398  -1.43769399501  1.9053360636  -2.90611065688  -1.4642629001  -0.0948248179639  
2.29472303391  1.53720754332  -1.43922049599  1.90284972804  -2.90259065688  -1.46187159467  -0.0943656877327  
2.30285191536  1.53672925044  -1.44080250609  1.90027298028  -2.89894265688  -1.45939333267  -0.0938898618568  
2.31092596054  1.53623417536  -1.44244002532  1.89760582032  -2.89516665688  -1.45682811411  -0.0933973403361  
2.31905293465  1.5357302578  -1.44410679213  1.89489102246  -2.8913232141  -1.45421707843  -0.0928960219349  
2.32715606689  1.53524148695  -1.44572345935  1.89225782585  -2.88759529731  -1.45168452511  -0.0924097721344  
2.33527088165  1.53476949832  -1.44728461745  1.88971504144  -2.88399538051  -1.44923892836  -0.0919402179787  
2.34342193604  1.53431429189  -1.44879026642  1.88726266923  -2.88052346372  -1.44688028816  -0.0914873594677  
2.35158395767  1.53387586766  -1.45024040626  1.88490070923  -2.87717954693  -1.44460860453  -0.0910511966015  
2.35963988304  1.53345422564  -1.45163503698  1.88262916143  -2.87396363014  -1.44242387746  -0.0906317293801  
2.36769986153  1.53304936583  -1.45297415857  1.88044802583  -2.87087571335  -1.44032610695  -0.0902289578034  
2.3757879734  1.53266128823  -1.45425777103  1.87835730243  -2.86791579656  -1.438315293  -0.0898428818715  
2.38388204575  1.53228999283  -1.45548587437  1.87635699123  -2.86508387977  -1.43639143561  -0.0894735015844  
2.39196801186  1.53193547963  -1.45665846858  1.87444709223  -2.86237996298  -1.43455453478  -0.0891208169421  
2.40007686615  1.53159774865  -1.45777555367  1.87262760544  -2.85980404619  -1.43280459051  -0.0887848279445  
2.4081890583  1.53127679986  -1.45883712962  1.87089853085  -2.8573561294  -1.43114160281  -0.0884655345917  
2.41628098488  1.53097263329  -1.45984319646  1.86925986846  -2.85503621261  -1.42956557166  -0.0881629368836  
2.42437505722  1.53068524892  -1.46079375416  1.86771161828  -2.85284429582  -1.42807649708  -0.0878770348204  
2.43245601654  1.53041464676  -1.46168880274  1.86625378029  -2.85078037903  -1.42667437906  -0.0876078284019  
2.44064807892  1.5301608268  -1.46252834219  1.86488635451  -2.84884446224  -1.4253592176  -0.0873553176281  
2.44870686531  1.52992378905  -1.46331237252  1.86360934093  -2.84703654545  -1.4241310127  -0.0871195024992  
2.4567220211  1.5297035335  -1.46404089372  1.86242273955  -2.84535662866  -1.42298976436  -0.086900383015  
2.46478009224  1.52950006016  -1.46471390579  1.86132655038  -2.84380471187  -1.42193547259  -0.0866979591756  
2.4728770256  1.52931336903  -1.46533140874  1.8603207734  -2.84238079508  -1.42096813737  -0.0865122309809  
2.48098301888  1.5291434601  -1.46589340256  1.85940540863  -2.84108487829  -1.42008775872  -0.0863431984311  
2.48911499977  1.52899033338  -1.46639988725  1.85858045606  -2.8399169615  -1.41929433662  -0.0861908615259  
2.49721193314  1.52885398887  -1.46685086282  1.85784591569  -2.83887704471  -1.41858787109  -0.0860552202656  
2.50530004501  1.52873442656  -1.46724632926  1.85720178753  -2.83796512792  -1.41796836212  -0.08593627465  
2.51343607903  1.52863164646  -1.46758628657  1.85664807157  -2.83718121113  -1.41743580971  -0.0858340246793  
2.52155590057  1.52854564856  -1.46787073476  1.85618476781  -2.83652529434  -1.41699021386  -0.0857484703532  
2.52962899208  1.52847643287  -1.46809967382  1.85581187625  -2.83599737755  -1.41663157458  -0.085679611672  
2.53770709038  1.52842399939  -1.46827310376  1.85552939689  -2.83559746076  -1.41635989185  -0.0856274486355  
2.54579401016  1.52838834811  -1.46839102457  1.85533732973  -2.83532554396  -1.41617516569  -0.0855919812438  
2.55384993553  1.52836947904  -1.46845343625  1.85523567478  -2.83518162717  -1.41607739608  -0.0855732094968  
2.5619699955  1.52836620808  -1.46846425533  1.85521805286  -2.83515667915  -1.41606044769  -0.0855699554086  
2.57003688812  1.52836620808  -1.46846425533  1.85521805286  -2.83515667915  -1.41606044769  -0.0855699554086  
2.57808709145  1.52836620808  -1.46846425533  1.85521805286  -2.83515667915  -1.41606044769  -0.0855699554086  
2.58615207672  1.52836620808  -1.46846425533  1.85521805286  -2.83515667915  -1.41606044769  -0.0855699554086  
2.59428191185  1.52830220808  -1.46850638917  1.8552088281  -2.8351000498  -1.41604055082  -0.0855699554086  
2.60239291191  1.52811020808  -1.46863279067  1.85518115383  -2.83493016173  -1.4159808602  -0.0855699554086  
2.61037802696  1.52779020808  -1.46884345984  1.85513503003  -2.83464701496  -1.41588137583  -0.0855699554086  
2.61862301826  1.52734220808  -1.46913839668  1.85507045671  -2.83425060947  -1.41574209771  -0.0855699554086  
2.62657904625  1.52676620808  -1.46951760118  1.85498743387  -2.83374094528  -1.41556302585  -0.0855699554086  
2.63465595245  1.52606220808  -1.46998107336  1.85488596151  -2.83311802237  -1.41534416024  -0.0855699554086  
2.64267301559  1.52523020808  -1.4705288132  1.85476603964  -2.83238184076  -1.41508550088  -0.0855699554086  
2.65073108673  1.52427020808  -1.47116082071  1.85462766824  -2.83153240043  -1.41478704778  -0.0855699554086  
2.65879201889  1.52318220808  -1.47187709589  1.85447084732  -2.8305697014  -1.41444880092  -0.0855699554086  
2.66689300537  1.52196620808  -1.47267763874  1.85429557689  -2.82949374365  -1.41407076032  -0.0855699554086  
2.67496490479  1.52062220808  -1.47356244925  1.85410185693  -2.8283045272  -1.41365292598  -0.0855699554086  
2.68304896355  1.51915020808  -1.47453152744  1.85388968746  -2.82700205203  -1.41319529788  -0.0855699554086  
2.69116091728  1.51755020808  -1.47558487329  1.85365906846  -2.82558631816  -1.41269787604  -0.0855699554086  
2.69929003716  1.51582220808  -1.47672248681  1.85340999995  -2.82405732557  -1.41216066045  -0.0855699554086  
2.70740389824  1.51396620808  -1.47794436799  1.85314248192  -2.82241507428  -1.41158365111  -0.0855699554086  
2.71562600136  1.51198220808  -1.47925051685  1.85285651436  -2.82065956427  -1.41096684803  -0.0855699554086  
2.72365498543  1.50987020808  -1.48064093337  1.85255209729  -2.81879079556  -1.41031025119  -0.0855699554086  
2.73167991638  1.50763020808  -1.48211561757  1.8522292307  -2.81680876813  -1.40961386062  -0.0855699554086  
2.73976898193  1.50526220808  -1.48367456943  1.85188791459  -2.814713482  -1.40887767629  -0.0855699554086  
2.74784803391  1.50276620808  -1.48531778895  1.85152814896  -2.81250493715  -1.40810169821  -0.0855699554086  
2.7559299469  1.50018294378  -1.48701845816  1.85115580532  -2.81021917792  -1.40729859066  -0.0855699554086  
2.7640619278  1.4977033622  -1.48865086876  1.85079840619  -2.80802516065  -1.40652771689  -0.0855699554086  
2.77214407921  1.49535178063  -1.4901990117  1.85045945658  -2.80594440209  -1.40579663686  -0.0855699554086  
2.78027701378  1.49312819905  -1.49166288697  1.85013895649  -2.80397690223  -1.40510535058  -0.0855699554086  
2.78833794594  1.49103261747  -1.49304249457  1.84983690592  -2.80212266109  -1.40445385805  -0.0855699554086  
2.79643392563  1.48906503589  -1.4943378345  1.84955330486  -2.80038167866  -1.40384215927  -0.0855699554086  
2.80459189415  1.48722545432  -1.49554890677  1.84928815333  -2.79875395494  -1.40327025423  -0.0855699554086  
2.8126718998  1.48551387274  -1.49667571136  1.84904145132  -2.79723948993  -1.40273814295  -0.0855699554086  
2.82077407837  1.48393029116  -1.49771824829  1.84881319882  -2.79583828362  -1.4022458254  -0.0855699554086  
2.8288090229  1.48247470958  -1.49867651755  1.84860339585  -2.79455033603  -1.40179330161  -0.0855699554086  
2.83697986603  1.48114712801  -1.49955051914  1.84841204239  -2.79337564715  -1.40138057156  -0.0855699554086  
2.84501290321  1.47994754643  -1.50034025307  1.84823913846  -2.79231421698  -1.40100763527  -0.0855699554086  
2.85314393044  1.47887596485  -1.50104571932  1.84808468404  -2.79136604552  -1.40067449271  -0.0855699554086  
2.86127591133  1.47793238328  -1.50166691791  1.84794867915  -2.79053113277  -1.40038114391  -0.0855699554086  
2.86940097809  1.4771168017  -1.50220384883  1.84783112377  -2.78980947872  -1.40012758885  -0.0855699554086  
2.87756896019  1.47642922012  -1.50265651208  1.84773201791  -2.78920108339  -1.39991382754  -0.0855699554086  
2.88569402695  1.47586963854  -1.50302490766  1.84765136157  -2.78870594677  -1.39973985998  -0.0855699554086  
2.89372396469  1.47543805697  -1.50330903558  1.84758915476  -2.78832406886  -1.39960568617  -0.0855699554086  
2.90180587769  1.47513447539  -1.50350889582  1.84754539746  -2.78805544966  -1.3995113061  -0.0855699554086  
2.90992593765  1.47495889381  -1.5036244884  1.84752008968  -2.78790008916  -1.39945671978  -0.0855699554086  
2.91799092293  1.47491025925  -1.50365650654  1.84751307964  -2.78785705566  -1.39944159985  -0.0855699554086  
2.92613887787  1.47491025925  -1.50365650654  1.84751307964  -2.78785705566  -1.39944159985  -0.0855699554086  
2.93411397934  1.47491025925  -1.50365650654  1.84751307964  -2.78785705566  -1.39944159985  -0.0855699554086  
2.94228601456  1.47489127696  -1.50369418053  1.84757707964  -2.78785705566  -1.39942389545  -0.0855699554086  
2.95025086403  1.4748343301  -1.50380720251  1.84776907964  -2.78785705566  -1.39937078225  -0.0855699554086  
2.95834207535  1.47473941867  -1.50399557248  1.84808907964  -2.78785705566  -1.39928226025  -0.0855699554086  
2.96641588211  1.47460654267  -1.50425929043  1.84853707964  -2.78785705566  -1.39915832946  -0.0855699554086  
2.97467803955  1.4744357021  -1.50459835636  1.84911307964  -2.78785705566  -1.39899898986  -0.0855699554086  
2.98255801201  1.47422689695  -1.50501277029  1.84981707964  -2.78785705566  -1.39880424147  -0.0855699554086  
2.99072408676  1.47398012723  -1.5055025322  1.85064907964  -2.78785705566  -1.39857408428  -0.0855699554086  
2.9987950325  1.47371099914  -1.50603666861  1.85155646236  -2.78785705566  -1.39832307388  -0.0855699554086  
3.00691008568  1.47347494677  -1.50650515987  1.85235232812  -2.78785705566  -1.39810291255  -0.0855699554086  
3.01502203941  1.47327685898  -1.50689830315  1.85302019388  -2.78785705566  -1.39791816001  -0.0855699554086  
3.02313399315  1.47311673576  -1.50721609845  1.85356005963  -2.78785705566  -1.39776881628  -0.0855699554086  
3.03122901917  1.47299457711  -1.50745854576  1.85397192539  -2.78785705566  -1.39765488135  -0.0855699554086  
3.03937697411  1.47291038303  -1.50762564508  1.85425579115  -2.78785705566  -1.39757635521  -0.0855699554086  
3.0474460125  1.47286415352  -1.50771739641  1.85441165691  -2.78785705566  -1.39753323787  -0.0855699554086  
3.05555605888  1.47285437584  -1.5077368021  1.85444462299  -2.78785705566  -1.39752411842  -0.0855699554086  
3.06628704071  1.47285437584  -1.5077368021  1.85444462299  -2.78785705566  -1.39752411842  -0.0855699554086  
3.0743060112  1.47285437584  -1.5077368021  1.85444462299  -2.78785705566  -1.39752411842  -0.0855699554086  
3.08242988586  1.47285437584  -1.5077368021  1.85444462299  -2.78785705566  -1.39752411842  -0.0855699554086  
3.09048390388  1.47279037584  -1.5077368021  1.8544649193  -2.78785705566  -1.3975559507  -0.0855444872514  
3.09859895706  1.47259837584  -1.5077368021  1.85452580821  -2.78785705566  -1.39765144752  -0.08546808278  
3.10665607452  1.47227837584  -1.5077368021  1.85462728972  -2.78785705566  -1.39781060889  -0.0853407419942  
3.11474990845  1.47183037584  -1.5077368021  1.85476936384  -2.78785705566  -1.39803343481  -0.0851624648942  
3.12283587456  1.47128886854  -1.5077368021  1.85494109191  -2.78785705566  -1.39830276932  -0.0849469775045  
3.13092803955  1.47084576047  -1.5077368021  1.85508161466  -2.78785705566  -1.3985231621  -0.0847706470973  
3.13919591904  1.47053065239  -1.5077368021  1.8551815448  -2.78785705566  -1.39867989033  -0.0846452530043  
3.14728808403  1.47034354432  -1.5077368021  1.85524088233  -2.78785705566  -1.39877295401  -0.0845707952257  
3.15524196625  1.47028434277  -1.5077368021  1.85525965691  -2.78785705566  -1.39880239964  -0.0845472365618  
3.16330194473  1.47028434277  -1.5077368021  1.85525965691  -2.78785705566  -1.39880239964  -0.0845472365618  
3.17149186134  1.47028434277  -1.5077368021  1.85525965691  -2.78785705566  -1.39880239964  -0.0845472365618  
3.17950797081  1.47028434277  -1.5077368021  1.85525965691  -2.78785705566  -1.39880239964  -0.0845472365618  
3.18762993813  1.47025860908  -1.5077368021  1.85525965691  -2.78785705566  -1.39886639964  -0.0845472365618  
3.19577693939  1.47018140804  -1.5077368021  1.85525965691  -2.78785705566  -1.39905839964  -0.0845472365618  
3.20377993584  1.47005273963  -1.5077368021  1.85525965691  -2.78785705566  -1.39937839964  -0.0845472365618  
3.21191596985  1.4699088932  -1.5077368021  1.85525965691  -2.78785705566  -1.39973614758  -0.0845472365618  
3.2199819088  1.4698151916  -1.5077368021  1.85525965691  -2.78785705566  -1.39996918467  -0.0845472365618  
3.22811698914  1.46977295737  -1.5077368021  1.85525965691  -2.78785705566  -1.40007422176  -0.0845472365618  
3.23619389534  1.46977031231  -1.5077368021  1.85525965691  -2.78785705566  -1.40008080006  -0.0845472365618  
3.24432706833  1.46977031231  -1.5077368021  1.85525965691  -2.78785705566  -1.40008080006  -0.0845472365618  
3.25237894058  1.46977031231  -1.5077368021  1.85525965691  -2.78785705566  -1.40008080006  -0.0845472365618  
3.26048588753  1.46977031231  -1.5077368021  1.85525965691  -2.78785705566  -1.40008080006  -0.0845472365618  
3.26865386963  1.46970631231  -1.5077368021  1.85527656854  -2.78780399529  -1.40008080006  -0.0845472365618  
3.27668499947  1.46951431231  -1.5077368021  1.85532730345  -2.78764481415  -1.40008080006  -0.0845472365618  
3.28480195999  1.46919431231  -1.5077368021  1.85541186162  -2.78737951225  -1.40008080006  -0.0845472365618  
3.29292201996  1.46878215505  -1.5077368021  1.85552077183  -2.78703780569  -1.40008080006  -0.0845472365618  
3.30100893974  1.46846962269  -1.5077368021  1.85560335672  -2.78677869498  -1.40008080006  -0.0845472365618  
3.30917191505  1.46828509034  -1.5077368021  1.85565211834  -2.78662570503  -1.40008080006  -0.0845472365618  
3.3172519207  1.46822834015  -1.5077368021  1.85566711426  -2.78657865524  -1.40008080006  -0.0845472365618  
3.32532596588  1.46822834015  -1.5077368021  1.85566711426  -2.78657865524  -1.40008080006  -0.0845472365618  
3.33340287209  1.46822834015  -1.5077368021  1.85566711426  -2.78657865524  -1.40008080006  -0.0845472365618  
3.34154605865  1.46822834015  -1.5077368021  1.85566711426  -2.78657865524  -1.40008080006  -0.0845472365618  
3.34959888458  1.46817687279  -1.5077368021  1.85566711426  -2.78664265524  -1.40011280006  -0.0844960362634  
3.35771298409  1.4680224707  -1.5077368021  1.85566711426  -2.78683465524  -1.40020880006  -0.0843424353682  
3.36577701569  1.46776513388  -1.5077368021  1.85566711426  -2.78715465524  -1.40036880006  -0.0840864338762  
3.37389492989  1.46747744102  -1.5077368021  1.85566711426  -2.78751240319  -1.40054767403  -0.0838002338519  
3.38219499588  1.46720556935  -1.5077368021  1.85566711426  -2.78785047737  -1.40071671112  -0.0835297729291  
3.39024496078  1.46720027924  -1.5077368021  1.85566711426  -2.78785705566  -1.40072000027  -0.0835245102644  
3.39831495285  1.46720027924  -1.5077368021  1.85566711426  -2.78785705566  -1.40072000027  -0.0835245102644  
3.40631103516  1.46720027924  -1.5077368021  1.85566711426  -2.78785705566  -1.40072000027  -0.0835245102644  
3.41444087029  1.46720027924  -1.5077368021  1.85566711426  -2.78785705566  -1.40072000027  -0.0835245102644  
3.42248702049  1.46713627924  -1.5077368021  1.85566711426  -2.78785705566  -1.40072000027  -0.0835245102644  
3.43056797981  1.46694427924  -1.5077368021  1.85566711426  -2.78785705566  -1.40072000027  -0.0835245102644  
3.43870902061  1.46662781212  -1.5077368021  1.85566711426  -2.78785705566  -1.40072000027  -0.0835245102644  
3.44681501389  1.46635034251  -1.5077368021  1.85566711426  -2.78785705566  -1.40072000027  -0.0835245102644  
3.45494008064  1.4662008729  -1.5077368021  1.85566711426  -2.78785705566  -1.40072000027  -0.0835245102644  
3.4630510807  1.46617233753  -1.5077368021  1.85566711426  -2.78785705566  -1.40072000027  -0.0835245102644  
3.47121500969  1.46617233753  -1.5077368021  1.85566711426  -2.78785705566  -1.40072000027  -0.0835245102644  
3.47922492027  1.46617233753  -1.5077368021  1.85566711426  -2.78785705566  -1.40072000027  -0.0835245102644  
3.48732995987  1.46617233753  -1.5077368021  1.85566711426  -2.78785705566  -1.40072000027  -0.0835245102644  
3.49534702301  1.46615625396  -1.5077368021  1.85566711426  -2.78781705561  -1.4007400003  -0.0834605102644  
3.50343990326  1.46610800323  -1.5077368021  1.85566711426  -2.78769705543  -1.40080000038  -0.0832685102644  
3.51155900955  1.46602758536  -1.5077368021  1.85566711426  -2.78749705514  -1.40090000053  -0.0829485102644  
3.51969003677  1.46591500054  -1.5077368021  1.85566711426  -2.78721705523  -1.40104000048  -0.0825005110663  
3.52771687508  1.46580257655  -1.5077368021  1.85566711426  -2.78693745531  -1.40117980044  -0.0820531518434  
3.53581905365  1.46572231971  -1.5077368021  1.85566711426  -2.78673785551  -1.40127960035  -0.0817337926205  
3.54395294189  1.46567423002  -1.5077368021  1.85566711426  -2.78661825582  -1.40133940019  -0.0815424333976  
3.55221986771  1.46565830708  -1.5077368021  1.85566711426  -2.78657865524  -1.40135920048  -0.0814790725708  
3.56015086174  1.46565830708  -1.5077368021  1.85566711426  -2.78657865524  -1.40135920048  -0.0814790725708  
3.5682349205  1.46565830708  -1.5077368021  1.85566711426  -2.78657865524  -1.40135920048  -0.0814790725708  
3.57632803917  1.46565830708  -1.5077368021  1.85566711426  -2.78657865524  -1.40135920048  -0.0814790725708  
3.58441090584  1.46565830708  -1.5077368021  1.85567731344  -2.78664265524  -1.40137520048  -0.0814790725708  
3.5924680233  1.46565830708  -1.5077368021  1.85570791098  -2.78683465524  -1.40142320048  -0.0814790725708  
3.60056686401  1.46565830708  -1.5077368021  1.85575890687  -2.78715465524  -1.40150320048  -0.0814790725708  
3.60870099068  1.46565830708  -1.5077368021  1.85583030113  -2.78760265524  -1.40161520048  -0.0814790725708  
3.61681604385  1.46565830708  -1.5077368021  1.85591634958  -2.78814261054  -1.4017501893  -0.0814790725708  
3.62491798401  1.46565830708  -1.5077368021  1.85598649304  -2.78858276177  -1.40186022711  -0.0814790725708  
3.63303589821  1.46565830708  -1.5077368021  1.85603623814  -2.78889491299  -1.40193826492  -0.0814790725708  
3.64120793343  1.46565830708  -1.5077368021  1.85606558488  -2.78907906422  -1.40198430272  -0.0814790725708  
3.64922499657  1.46565830708  -1.5077368021  1.85607457161  -2.78913545609  -1.40199840069  -0.0814790725708  
3.6573278904  1.46565830708  -1.5077368021  1.85607457161  -2.78913545609  -1.40199840069  -0.0814790725708  
3.66540908813  1.46565830708  -1.5077368021  1.85607457161  -2.78913545609  -1.40199840069  -0.0814790725708  
3.67350196838  1.46565830708  -1.5077368021  1.85607457161  -2.78913545609  -1.40199840069  -0.0814790725708  
3.68162608147  1.46565830708  -1.5077368021  1.85607457161  -2.78910878776  -1.40202506901  -0.0814150725708  
3.68969392776  1.46565830708  -1.5077368021  1.85607457161  -2.78902878279  -1.40210507399  -0.0812230725708  
3.69780492783  1.46565830708  -1.5077368021  1.85607457161  -2.78889544116  -1.40223841561  -0.0809030725708  
3.70592498779  1.46565830708  -1.5077368021  1.85607457161  -2.78870876289  -1.40242509388  -0.0804550725708  
3.71409392357  1.46565830708  -1.5077368021  1.85607457161  -2.78846932747  -1.40266452931  -0.0798804632748  
3.72221493721  1.46565830708  -1.5077368021  1.85607457161  -2.78824043161  -1.40289342517  -0.0793311473604  
3.73025107384  1.46565830708  -1.5077368021  1.85607457161  -2.7880648724  -1.40306898438  -0.078909831446  
3.73843288422  1.46565830708  -1.5077368021  1.85607457161  -2.78794264983  -1.40319120694  -0.0786165155316  
3.7464568615  1.46565830708  -1.5077368021  1.85607457161  -2.78787376392  -1.40326009285  -0.0784511996172  
3.75453186035  1.46565830708  -1.5077368021  1.85607457161  -2.78785705566  -1.40327680111  -0.0784111022949  
3.76261496544  1.46565830708  -1.5077368021  1.85607457161  -2.78785705566  -1.40327680111  -0.0784111022949  
3.77070307732  1.46565830708  -1.5077368021  1.85607457161  -2.78785705566  -1.40327680111  -0.0784111022949  
3.77879905701  1.46565830708  -1.5077368021  1.85607457161  -2.78785705566  -1.40327680111  -0.0784111022949  
3.78692507744  1.46565830708  -1.5077368021  1.85609157271  -2.78785705566  -1.40326346779  -0.0783471022949  
3.79505395889  1.46565830708  -1.5077368021  1.85614257602  -2.78785705566  -1.40322346783  -0.0781551022949  
3.80313801765  1.46565830708  -1.5077368021  1.85622758153  -2.78785705566  -1.40315680123  -0.0778351022949  
3.8112590313  1.46565830708  -1.5077368021  1.85634658925  -2.78785705566  -1.40306346798  -0.0773871022949  
3.81944894791  1.46565830708  -1.5077368021  1.85649923084  -2.78785705566  -1.40294375697  -0.0768124888777  
3.82743501663  1.46565830708  -1.5077368021  1.85664516285  -2.78785705566  -1.40282930802  -0.076263133396  
3.83552098274  1.46565830708  -1.5077368021  1.85675709266  -2.78785705566  -1.40274152572  -0.0758417779144  
3.84361100197  1.46565830708  -1.5077368021  1.85683502026  -2.78785705566  -1.40268041005  -0.0755484224327  
3.85172986984  1.46565830708  -1.5077368021  1.85687894566  -2.78785705566  -1.40264596103  -0.0753830669511  
3.85985803604  1.46565830708  -1.5077368021  1.85688960552  -2.78785705566  -1.4026376009  -0.0753429383039  
3.86794900894  1.46565830708  -1.5077368021  1.85688960552  -2.78785705566  -1.4026376009  -0.0753429383039  
3.87603592873  1.46565830708  -1.5077368021  1.85688960552  -2.78785705566  -1.4026376009  -0.0753429383039  
3.88416099548  1.46565830708  -1.5077368021  1.85688960552  -2.78785705566  -1.4026376009  -0.0753429383039  
3.89242005348  1.46565830708  -1.5077368021  1.85689810537  -2.78788372399  -1.4026376009  -0.0752789383039  
3.90047287941  1.46565830708  -1.5077368021  1.8569236049  -2.78796372896  -1.4026376009  -0.0750869383039  
3.90857601166  1.46565830708  -1.5077368021  1.85696610412  -2.78809707058  -1.4026376009  -0.0747669383039  
3.91667604446  1.46565830708  -1.5077368021  1.85702560304  -2.78828374886  -1.4026376009  -0.0743189383039  
3.92476701736  1.46565830708  -1.5077368021  1.85710191694  -2.78852318428  -1.4026376009  -0.0737443290079  
3.93288993835  1.46565830708  -1.5077368021  1.85717487162  -2.78875208014  -1.4026376009  -0.0731950130935  
3.94100594521  1.46565830708  -1.5077368021  1.85723082662  -2.78892763935  -1.4026376009  -0.0727736971791  
3.94908595085  1.46565830708  -1.5077368021  1.85726978193  -2.78904986192  -1.4026376009  -0.0724803812647  
3.95737099648  1.46565830708  -1.5077368021  1.85729173755  -2.78911874783  -1.4026376009  -0.0723150653504  
3.96528601646  1.46565830708  -1.5077368021  1.85729706287  -2.78913545609  -1.4026376009  -0.0722749680281  
3.97350406647  1.46565830708  -1.5077368021  1.85729706287  -2.78913545609  -1.4026376009  -0.0722749680281  
3.98152494431  1.46565830708  -1.5077368021  1.85729706287  -2.78913545609  -1.4026376009  -0.0722749680281  
3.98961400986  1.46565830708  -1.5077368021  1.85729706287  -2.78913545609  -1.4026376009  -0.0722749680281  
3.99769496918  1.46564758469  -1.5077368021  1.85729706287  -2.78913545609  -1.4026376009  -0.0722109680281  
4.00583291054  1.46561541754  -1.5077368021  1.85729706287  -2.78913545609  -1.4026376009  -0.0720189680281  
4.01389503479  1.46556180563  -1.5077368021  1.85729706287  -2.78913545609  -1.4026376009  -0.0716989680281  
4.02202105522  1.46548674895  -1.5077368021  1.85729706287  -2.78913545609  -1.4026376009  -0.0712509680281  
4.03012704849  1.46529844259  -1.5077368021  1.85729706287  -2.78913545609  -1.4026376009  -0.0701270008093  
4.03825306892  1.46522785012  -1.5077368021  1.85729706287  -2.78913545609  -1.4026376009  -0.0697056468495  
4.04644203186  1.4651787024  -1.5077368021  1.85729706287  -2.78913545609  -1.4026376009  -0.0694122928896  
4.05446100235  1.46515099946  -1.5077368021  1.85729706287  -2.78913545609  -1.4026376009  -0.0692469389298  
4.06256604195  1.46514427662  -1.5077368021  1.85729706287  -2.78913545609  -1.4026376009  -0.0692068114877  
4.07055306435  1.46514427662  -1.5077368021  1.85729706287  -2.78913545609  -1.4026376009  -0.0692068114877  
4.07869195938  1.46514427662  -1.5077368021  1.85729706287  -2.78913545609  -1.4026376009  -0.0692068114877  
4.08672499657  1.46514427662  -1.5077368021  1.85729706287  -2.78913545609  -1.4026376009  -0.0692068114877  
4.09484791756  1.46513355675  -1.5077368021  1.85729706287  -2.78913545609  -1.40262426758  -0.0691428114877  
4.10292601585  1.46510139714  -1.5077368021  1.85729706287  -2.78913545609  -1.40258426762  -0.0689508114877  
4.11098504066  1.46504779779  -1.5077368021  1.85729706287  -2.78913545609  -1.40251760102  -0.0686308114877  
4.1191110611  1.4649727587  -1.5077368021  1.85729706287  -2.78913545609  -1.40242426777  -0.0681828114877  
4.12723088264  1.46487651211  -1.5077368021  1.85729706287  -2.78913545609  -1.40230455676  -0.0676081980704  
4.1354329586  1.46478449618  -1.5077368021  1.85729706287  -2.78913545609  -1.40219010781  -0.0670588425888  
4.14347290993  1.46471391999  -1.5077368021  1.85729706287  -2.78913545609  -1.40210232551  -0.0666374871071  
4.15151405334  1.46466478355  -1.5077368021  1.85729706287  -2.78913545609  -1.40204120984  -0.0663441316255  
4.15961909294  1.46463708684  -1.5077368021  1.85729706287  -2.78913545609  -1.40200676081  -0.0661787761438  
4.17042088509  1.46463036537  -1.5077368021  1.85729706287  -2.78913545609  -1.40199840069  -0.0661386474967  
4.17841100693  1.46463036537  -1.5077368021  1.85729706287  -2.78913545609  -1.40199840069  -0.0661386474967  
4.18652486801  1.46463036537  -1.5077368021  1.85729706287  -2.78913545609  -1.40199840069  -0.0661386474967  
4.19454503059  1.46463036537  -1.5077368021  1.85729706287  -2.78913545609  -1.40199840069  -0.0661386474967  
4.20263004303  1.46460463169  -1.5077368021  1.85729706287  -2.78907145609  -1.40206240069  -0.0661386474967  
4.21074295044  1.46452743065  -1.5077368021  1.85729706287  -2.78887945609  -1.40225440069  -0.0661386474967  
4.2188179493  1.46439876224  -1.5077368021  1.85729706287  -2.78855945609  -1.40257440069  -0.0661386474967  
4.22692108154  1.46425491581  -1.5077368021  1.85729706287  -2.78820170814  -1.40293214863  -0.0661386474967  
4.23501205444  1.46416121421  -1.5077368021  1.85729706287  -2.78796867105  -1.40316518573  -0.0661386474967  
4.24310398102  1.46411897997  -1.5077368021  1.85729706287  -2.78786363396  -1.40327022282  -0.0661386474967  
4.25122904778  1.46411633492  -1.5077368021  1.85729706287  -2.78785705566  -1.40327680111  -0.0661386474967  
4.25950908661  1.46411633492  -1.5077368021  1.85729706287  -2.78785705566  -1.40327680111  -0.0661386474967  
4.26747894287  1.46411633492  -1.5077368021  1.85729706287  -2.78785705566  -1.40327680111  -0.0661386474967  
4.27563786507  1.46411633492  -1.5077368021  1.85729706287  -2.78785705566  -1.40327680111  -0.0661386474967  
4.28368806839  1.46411633492  -1.5077368021  1.85729706287  -2.78792105566  -1.40324480111  -0.0660874572692  
4.29181408882  1.46411633492  -1.5077368021  1.85729706287  -2.78811305566  -1.40314880111  -0.0659338865866  
4.29990386963  1.46411633492  -1.5077368021  1.85729706287  -2.78843305566  -1.40298880111  -0.065677935449  
4.30800104141  1.46411633492  -1.5077368021  1.85729706287  -2.78879080361  -1.40280992714  -0.065391791719  
4.31614398956  1.46411633492  -1.5077368021  1.85729706287  -2.7890238407  -1.40269340859  -0.0652053976292  
4.32423496246  1.46411633492  -1.5077368021  1.85729706287  -2.78912887779  -1.40264089005  -0.0651213839946  
4.33250594139  1.46411633492  -1.5077368021  1.85729706287  -2.78913545609  -1.4026376009  -0.065116122365  
4.34043598175  1.46411633492  -1.5077368021  1.85729706287  -2.78913545609  -1.4026376009  -0.065116122365  
4.34846401215  1.46411633492  -1.5077368021  1.85729706287  -2.78913545609  -1.4026376009  -0.065116122365  
4.35662102699  1.46411633492  -1.5077368021  1.85729706287  -2.78913545609  -1.4026376009  -0.065116122365  
4.36466503143  1.46411633492  -1.5077368021  1.85729706287  -2.78907145609  -1.4026376009  -0.0650649220666  
4.37274503708  1.46411633492  -1.5077368021  1.85729706287  -2.78887945609  -1.4026376009  -0.0649113211714  
4.38087797165  1.46411633492  -1.5077368021  1.85729706287  -2.78855945609  -1.4026376009  -0.0646553196794  
4.38901400566  1.46411633492  -1.5077368021  1.85729706287  -2.78820170814  -1.4026376009  -0.0643691196552  
4.39714503288  1.46411633492  -1.5077368021  1.85729706287  -2.78796867105  -1.4026376009  -0.0641826888953  
4.4054479599  1.46411633492  -1.5077368021  1.85729706287  -2.78786363396  -1.4026376009  -0.0640986587323  
4.41342687607  1.46411633492  -1.5077368021  1.85729706287  -2.78785705566  -1.4026376009  -0.0640933960676  
4.42149400711  1.46411633492  -1.5077368021  1.85729706287  -2.78785705566  -1.4026376009  -0.0640933960676  
4.42956089973  1.46411633492  -1.5077368021  1.85729706287  -2.78785705566  -1.4026376009  -0.0640933960676  
4.43768501282  1.46411633492  -1.5077368021  1.85729706287  -2.78785705566  -1.4026376009  -0.0640933960676  
4.44577908516  1.46411633492  -1.5077368021  1.85731746123  -2.78792105566  -1.4026696009  -0.0640933960676  
4.45387101173  1.46411633492  -1.5077368021  1.85737865631  -2.78811305566  -1.4027656009  -0.0640933960676  
4.46192598343  1.46411633492  -1.5077368021  1.8574806481  -2.78843305566  -1.4029256009  -0.0640933960676  
4.47002887726  1.46411633492  -1.5077368021  1.85759467109  -2.78879080361  -1.40310447487  -0.0640933960676  
4.47818803787  1.46411633492  -1.5077368021  1.85770242356  -2.78912887779  -1.40327351196  -0.0640933960676  
4.48622107506  1.46411633492  -1.5077368021  1.85770452023  -2.78913545609  -1.40327680111  -0.0640933960676  
4.49432897568  1.46411633492  -1.5077368021  1.85770452023  -2.78913545609  -1.40327680111  -0.0640933960676  
4.50251197815  1.46411633492  -1.5077368021  1.85770452023  -2.78913545609  -1.40327680111  -0.0640933960676  
4.5105369091  1.46411633492  -1.5077368021  1.85770452023  -2.78913545609  -1.40327680111  -0.0640933960676  
4.5186290741  1.46411633492  -1.50775808026  1.85772154375  -2.78913545609  -1.4032501344  -0.0640293960676  
4.52668595314  1.46411633492  -1.50782191475  1.85777261432  -2.78913545609  -1.40317013429  -0.0638373960676  
4.53479409218  1.46411633492  -1.50792830555  1.85785773194  -2.78913545609  -1.40303680076  -0.0635173960676  
4.54290699959  1.46411633492  -1.50807725268  1.8579768966  -2.78913545609  -1.40285013382  -0.0630693960676  
4.55097293854  1.46411633492  -1.50826829508  1.85812973945  -2.78913545609  -1.40261071128  -0.0624947828087  
4.5591070652  1.46411633492  -1.50845093948  1.85827586351  -2.78913545609  -1.40238181346  -0.0619454288489  
4.56719493866  1.46411633492  -1.50859102757  1.85838794053  -2.78913545609  -1.40220624906  -0.061524074889  
4.5753159523  1.46411633492  -1.50868855933  1.8584659705  -2.78913545609  -1.40208401806  -0.0612307209292  
4.58340406418  1.46411633492  -1.50874353477  1.85850995342  -2.78913545609  -1.40201512048  -0.0610653669693  
4.59143185616  1.46411633492  -1.50875687599  1.85852062702  -2.78913545609  -1.40199840069  -0.0610252395272  
4.59964299202  1.46411633492  -1.50875687599  1.85852062702  -2.78913545609  -1.40199840069  -0.0610252395272  
4.60763788223  1.46411633492  -1.50875687599  1.85852062702  -2.78913545609  -1.40199840069  -0.0610252395272  
4.61565899849  1.46411633492  -1.50875687599  1.85852062702  -2.78913545609  -1.40199840069  -0.0610252395272  
4.62372899055  1.46411633492  -1.50875687599  1.85852062702  -2.78915545328  -1.40201840161  -0.0609612395272  
4.6318500042  1.46411633492  -1.50875687599  1.85852062702  -2.78921544485  -1.40207840437  -0.0607692395272  
4.63997602463  1.46411633492  -1.50875687599  1.85852062702  -2.78931543081  -1.40217840898  -0.0604492395272  
4.64806699753  1.46411633492  -1.50875687599  1.85852062702  -2.78945541115  -1.40231841543  -0.0600012395272  
4.65623307228  1.46411633492  -1.50875687599  1.85852062702  -2.78963538587  -1.40249842373  -0.0594252395272  
4.66430687904  1.46411633492  -1.50875687599  1.85852062702  -2.78985054452  -1.40271362251  -0.0587366351573  
4.67241287231  1.46411633492  -1.50875687599  1.85852062702  -2.79004277259  -1.40290588643  -0.0581214189544  
4.68060588837  1.46411633492  -1.50875687599  1.85852062702  -2.79019500627  -1.40305814851  -0.0576342027514  
4.68861198425  1.46411633492  -1.50875687599  1.85852062702  -2.79030724557  -1.40317040875  -0.0572749865484  
4.6966919899  1.46411633492  -1.50875687599  1.85852062702  -2.79037949049  -1.40324266714  -0.0570437703454  
4.70483994484  1.46411633492  -1.50875687599  1.85852062702  -2.79041174102  -1.40327492369  -0.0569405541424  
4.71295905113  1.46411633492  -1.50875687599  1.85852062702  -2.79041361809  -1.40327680111  -0.0569345466793  
4.72103190422  1.46411633492  -1.50875687599  1.85852062702  -2.79041361809  -1.40327680111  -0.0569345466793  
4.7290968895  1.46411633492  -1.50875687599  1.85852062702  -2.79041361809  -1.40327680111  -0.0569345466793  
4.73725986481  1.46411633492  -1.50875687599  1.85852062702  -2.79041361809  -1.40327680111  -0.0569345466793  
4.7453649044  1.46411633492  -1.50875687599  1.85852062702  -2.79041361809  -1.40323680105  -0.0568705466793  
4.75364804268  1.46411633492  -1.50875687599  1.85852062702  -2.79041361809  -1.40311680088  -0.0566785466793  
4.76166987419  1.46411633492  -1.50875687599  1.85852062702  -2.79041361809  -1.40291920441  -0.0563623927877  
4.7697520256  1.46411633492  -1.50875687599  1.85852062702  -2.79041361809  -1.402746939  -0.0560867685416  
4.77792906761  1.46411633492  -1.50875687599  1.85852062702  -2.79041361809  -1.40265467371  -0.0559391442955  
4.78598189354  1.46411633492  -1.50875687599  1.85852062702  -2.79041361809  -1.4026376009  -0.0559118278325  
4.79409503937  1.46411633492  -1.50875687599  1.85852062702  -2.79041361809  -1.4026376009  -0.0559118278325  
4.80224299431  1.46411633492  -1.50875687599  1.85852062702  -2.79041361809  -1.4026376009  -0.0559118278325  
4.81043696404  1.46411633492  -1.50875687599  1.85852062702  -2.79041361809  -1.4026376009  -0.0559118278325  
4.81852293015  1.46411633492  -1.50878878939  1.85854616221  -2.79041361809  -1.40259760099  -0.0558478278325  
4.82653594017  1.46411633492  -1.50888452957  1.85862276779  -2.79041361809  -1.40247760125  -0.0556558278325  
4.83460092545  1.46411633492  -1.50904217881  1.85874890929  -2.79041361809  -1.40228000536  -0.0553396737125  
4.84265589714  1.46411633492  -1.50917961862  1.85885888042  -2.79041361809  -1.40210773975  -0.0550640481485  
4.85076498985  1.46411633492  -1.50925323164  1.85891778115  -2.79041361809  -1.40201547398  -0.0549164225844  
4.85885000229  1.46411633492  -1.50926685333  1.85892868042  -2.79041361809  -1.40199840069  -0.0548891052604  
4.86692905426  1.46411633492  -1.50926685333  1.85892868042  -2.79041361809  -1.40199840069  -0.0548891052604  
4.8750269413  1.46411633492  -1.50926685333  1.85892868042  -2.79041361809  -1.40199840069  -0.0548891052604  
4.8831179142  1.46411633492  -1.50926685333  1.85892868042  -2.79041361809  -1.40199840069  -0.0548891052604  
4.89123988152  1.46411633492  -1.50926685333  1.85892868042  -2.79041361809  -1.40199840069  -0.0548251052604  
4.89935803413  1.46411633492  -1.50926685333  1.85892868042  -2.79041361809  -1.40199840069  -0.0546331052604  
4.90759992599  1.46411633492  -1.50926685333  1.85892868042  -2.79041361809  -1.40199840069  -0.0543169513688  
4.91563391685  1.46411633492  -1.50926685333  1.85892868042  -2.79041361809  -1.40199840069  -0.0540413271227  
4.92371797562  1.46411633492  -1.50926685333  1.85892868042  -2.79041361809  -1.40199840069  -0.0538937028766  
4.93181085587  1.46411633492  -1.50926685333  1.85892868042  -2.79041361809  -1.40199840069  -0.0538663864136  
4.93994092941  1.46411633492  -1.50926685333  1.85892868042  -2.79041361809  -1.40199840069  -0.0538663864136  
4.94801497459  1.46411633492  -1.50926685333  1.85892868042  -2.79041361809  -1.40199840069  -0.0538663864136  
4.9561650753  1.46411633492  -1.50926685333  1.85892868042  -2.79041361809  -1.40199840069  -0.0538663864136  
4.96426296234  1.46411633492  -1.50926685333  1.85892868042  -2.79041361809  -1.40199840069  -0.0538023864136  
4.97235798836  1.46411633492  -1.50926685333  1.85892868042  -2.79041361809  -1.40199840069  -0.0536103864136  
4.98050498962  1.46411633492  -1.50926685333  1.85892868042  -2.79041361809  -1.40199840069  -0.053294232522  
4.98859000206  1.46411633492  -1.50926685333  1.85892868042  -2.79041361809  -1.40199840069  -0.0530186082759  
4.99662089348  1.46411633492  -1.50926685333  1.85892868042  -2.79041361809  -1.40199840069  -0.0528709840298  
5.00474786758  1.46411633492  -1.50926685333  1.85892868042  -2.79041361809  -1.40199840069  -0.0528436675668  
5.01281404495  1.46411633492  -1.50926685333  1.85892868042  -2.79041361809  -1.40199840069  -0.0528436675668  
5.02092194557  1.46411633492  -1.50926685333  1.85892868042  -2.79041361809  -1.40199840069  -0.0528436675668  
5.02901601791  1.46411633492  -1.50926685333  1.85892868042  -2.79041361809  -1.40199840069  -0.0528436675668  
5.03718590736  1.46411633492  -1.50926685333  1.85892868042  -2.79041361809  -1.40199840069  -0.0529076675668  
5.04527306557  1.46411633492  -1.50926685333  1.85892868042  -2.79041361809  -1.40199840069  -0.0530996675668  
5.05340099335  1.46411633492  -1.50926685333  1.85892868042  -2.79041361809  -1.40199840069  -0.0534158214583  
5.06159901619  1.46411633492  -1.50926685333  1.85892868042  -2.79041361809  -1.40199840069  -0.0536914457044  
5.06959986687  1.46411633492  -1.50926685333  1.85892868042  -2.79041361809  -1.40199840069  -0.0538390699505  
5.07773995399  1.46411633492  -1.50926685333  1.85892868042  -2.79041361809  -1.40199840069  -0.0538663864136  
5.08575201035  1.46411633492  -1.50926685333  1.85892868042  -2.79041361809  -1.40199840069  -0.0538663864136  
5.09386587143  1.46411633492  -1.50926685333  1.85892868042  -2.79041361809  -1.40199840069  -0.0538663864136  
5.1020128727  1.46411633492  -1.50926685333  1.85892868042  -2.79041361809  -1.40199840069  -0.0538023864136  
5.11009287834  1.46411633492  -1.50926685333  1.85892868042  -2.79041361809  -1.40199840069  -0.0536103864136  
5.11821293831  1.46411633492  -1.50926685333  1.85892868042  -2.79041361809  -1.40199840069  -0.053294232522  
5.12629389763  1.46411633492  -1.50926685333  1.85892868042  -2.79041361809  -1.40199840069  -0.0530186082759  
5.13447594643  1.46411633492  -1.50926685333  1.85892868042  -2.79041361809  -1.40199840069  -0.0528709840298  
5.14254593849  1.46411633492  -1.50926685333  1.85892868042  -2.79041361809  -1.40199840069  -0.0528436675668  
5.15058708191  1.46411633492  -1.50926685333  1.85892868042  -2.79041361809  -1.40199840069  -0.0528436675668  
5.15864896774  1.46411633492  -1.50926685333  1.85892868042  -2.79041361809  -1.40199840069  -0.0528436675668  
5.16674399376  1.46411633492  -1.50926685333  1.85892868042  -2.79041361809  -1.40199840069  -0.0528436675668  
5.17480993271  1.4641420734  -1.50929239484  1.85898991676  -2.79034961809  -1.40199840069  -0.0528436675668  
5.18290996552  1.46421928884  -1.50936901935  1.85917362577  -2.79015761809  -1.40199840069  -0.0528436675668  
5.19105696678  1.46434798125  -1.50949672686  1.85947980745  -2.78983761809  -1.40199840069  -0.0528436675668  
5.19916200638  1.46449182903  -1.50963947377  1.85982204641  -2.7894799335  -1.40199840069  -0.0528436675668  
5.20728993416  1.46458551777  -1.5097324455  1.86004494825  -2.78924697186  -1.40199840069  -0.0528436675668  
5.215528965  1.46462772954  -1.50977433422  1.86014537742  -2.78914201021  -1.40199840069  -0.0528436675668  
5.22361588478  1.46463036537  -1.50977694988  1.86015164852  -2.78913545609  -1.40199840069  -0.0528436675668  
5.23170089722  1.46463036537  -1.50977694988  1.86015164852  -2.78913545609  -1.40199840069  -0.0528436675668  
5.23974490166  1.46463036537  -1.50977694988  1.86015164852  -2.78913545609  -1.40199840069  -0.0528436675668  
5.24782896042  1.46463036537  -1.50977694988  1.86015164852  -2.78913545609  -1.40199840069  -0.0528436675668  
5.25593805313  1.46463036537  -1.50977694988  1.86015164852  -2.78919945609  -1.40199840069  -0.0528436675668  
5.26407909393  1.46463036537  -1.50977694988  1.86015164852  -2.78939145609  -1.40199840069  -0.0528436675668  
5.27214503288  1.46463036537  -1.50977694988  1.86015164852  -2.78971145609  -1.40199840069  -0.0528436675668  
5.28028392792  1.46463036537  -1.50977694988  1.86015164852  -2.79006914067  -1.40199840069  -0.0528436675668  
5.28838086128  1.46463036537  -1.50977694988  1.86015164852  -2.79030210231  -1.40199840069  -0.0528436675668  
5.29649996758  1.46463036537  -1.50977694988  1.86015164852  -2.79040706396  -1.40199840069  -0.0528436675668  
5.30459690094  1.46463036537  -1.50977694988  1.86015164852  -2.79041361809  -1.40199840069  -0.0528436675668  
5.31258797646  1.46463036537  -1.50977694988  1.86015164852  -2.79041361809  -1.40199840069  -0.0528436675668  
5.32067608833  1.46463036537  -1.50977694988  1.86015164852  -2.79041361809  -1.40199840069  -0.0528436675668  
5.32875990868  1.46463036537  -1.50977694988  1.86015164852  -2.79041361809  -1.40199840069  -0.0528436675668  
5.33691096306  1.46459819834  -1.50977694988  1.86015164852  -2.79041361809  -1.40199840069  -0.0527796675668  
5.34502696991  1.46450169725  -1.50977694988  1.86015164852  -2.79041361809  -1.40199840069  -0.0525876675668  
5.35308694839  1.46434279507  -1.50977694988  1.86015164852  -2.79041361809  -1.40199840069  -0.0522715134468  
5.36120700836  1.46420426294  -1.50977694988  1.86015164852  -2.79041361809  -1.40199840069  -0.0519958878828  
5.36933398247  1.46413006487  -1.50977694988  1.86015164852  -2.79041361809  -1.40199840069  -0.0518482623187  
5.37740707397  1.46411633492  -1.50977694988  1.86015164852  -2.79041361809  -1.40199840069  -0.0518209449947  
5.38553285599  1.46411633492  -1.50977694988  1.86015164852  -2.79041361809  -1.40199840069  -0.0518209449947  
5.39360404015  1.46411633492  -1.50977694988  1.86015164852  -2.79041361809  -1.40199840069  -0.0518209449947  
5.40168786049  1.46411633492  -1.50977694988  1.86015164852  -2.79041361809  -1.40199840069  -0.0518209449947  
5.40981698036  1.46411633492  -1.50977694988  1.86015164852  -2.79041361809  -1.40199840069  -0.0518209449947  
5.41790103912  1.46411633492  -1.50977694988  1.86015164852  -2.79041361809  -1.40199840069  -0.0518209449947  
5.42602491379  1.46411633492  -1.50977694988  1.86015164852  -2.79041361809  -1.40199840069  -0.0518209449947  
5.43408799171  1.46411633492  -1.50977694988  1.86015164852  -2.79041361809  -1.40199840069  -0.0518209449947  
5.44225406647  1.46411633492  -1.50977694988  1.86015164852  -2.79041361809  -1.40199840069  -0.0518209449947  
5.45031905174  1.46411633492  -1.50977694988  1.86015164852  -2.79041361809  -1.40199840069  -0.0518209449947  
5.45853090286  1.46411633492  -1.50977694988  1.86015164852  -2.79041361809  -1.40199840069  -0.0518209449947  
5.46654105186  1.46411633492  -1.50977694988  1.86015164852  -2.79041361809  -1.40199840069  -0.0518209449947  
5.47464108467  1.46411633492  -1.50977694988  1.86015164852  -2.79034961809  -1.40199840069  -0.0518209449947  
5.48260807991  1.46411633492  -1.50977694988  1.86015164852  -2.79015761809  -1.40199840069  -0.0518209449947  
5.49073290825  1.46411633492  -1.50977694988  1.86015164852  -2.78983761809  -1.40199840069  -0.0518209449947  
5.49884986877  1.46411633492  -1.50977694988  1.86015164852  -2.7894799335  -1.40199840069  -0.0518209449947  
5.5069539547  1.46411633492  -1.50977694988  1.86015164852  -2.78924697186  -1.40199840069  -0.0518209449947  
5.51503586769  1.46411633492  -1.50977694988  1.86015164852  -2.78914201021  -1.40199840069  -0.0518209449947  
5.52314686775  1.46411633492  -1.50977694988  1.86015164852  -2.78913545609  -1.40199840069  -0.0518209449947  
5.53128194809  1.46411633492  -1.50977694988  1.86015164852  -2.78913545609  -1.40199840069  -0.0518209449947  
5.53936886787  1.46411633492  -1.50977694988  1.86015164852  -2.78913545609  -1.40199840069  -0.0518209449947  
5.54755997658  1.46411633492  -1.50977694988  1.86015164852  -2.78913545609  -1.40199840069  -0.0518209449947  
5.55555987358  1.46411633492  -1.50977694988  1.86015164852  -2.78913545609  -1.40199840069  -0.0517569449947  
5.56364393234  1.46411633492  -1.50977694988  1.86015164852  -2.78913545609  -1.40199840069  -0.0515649449947  
5.57170295715  1.46411633492  -1.50977694988  1.86015164852  -2.78913545609  -1.40199840069  -0.0512487911032  
5.57983994484  1.46411633492  -1.50977694988  1.86015164852  -2.78913545609  -1.40199840069  -0.050973166857  
5.58790802956  1.46411633492  -1.50977694988  1.86015164852  -2.78913545609  -1.40199840069  -0.0508255426109  
5.59600186348  1.46411633492  -1.50977694988  1.86015164852  -2.78913545609  -1.40199840069  -0.0507982261479  
5.60410690308  1.46411633492  -1.50977694988  1.86015164852  -2.78913545609  -1.40199840069  -0.0507982261479  
5.61221694946  1.46411633492  -1.50977694988  1.86015164852  -2.78913545609  -1.40199840069  -0.0507982261479  
5.62033987045  1.46411633492  -1.50977694988  1.86015164852  -2.78913545609  -1.40199840069  -0.0507982261479  
5.62835597992  1.46411633492  -1.50980886932  1.86017718855  -2.78913545609  -1.40199840069  -0.0507342261479  
5.63656902313  1.46411633492  -1.50990462765  1.86025380864  -2.78913545609  -1.40199840069  -0.0505422261479  
5.64460206032  1.46411633492  -1.51006230083  1.8603799693  -2.78913545609  -1.40199840069  -0.0502260839167  
5.65266990662  1.46411633492  -1.51019973249  1.8604899339  -2.78913545609  -1.40199840069  -0.0499505268873  
5.6607708931  1.46411633492  -1.51027332527  1.86054881845  -2.78913545609  -1.40199840069  -0.0498029698579  
5.66889286041  1.46411633492  -1.51028692722  1.86055970192  -2.78913545609  -1.40199840069  -0.0497756972909  
5.67699790001  1.46411633492  -1.51028692722  1.86055970192  -2.78913545609  -1.40199840069  -0.0497756972909  
5.68507504463  1.46411633492  -1.51028692722  1.86055970192  -2.78913545609  -1.40199840069  -0.0497756972909  
5.69318985939  1.46411633492  -1.51028692722  1.86055970192  -2.78913545609  -1.40199840069  -0.0497756972909  
5.70127701759  1.46411633492  -1.51028692722  1.86055970192  -2.78913545609  -1.40206240069  -0.0497756972909  
5.70951700211  1.46411633492  -1.51028692722  1.86055970192  -2.78913545609  -1.40225440069  -0.0497756972909  
5.71753287315  1.46411633492  -1.51028692722  1.86055970192  -2.78913545609  -1.40249942732  -0.0497756972909  
5.72560501099  1.46411633492  -1.51028692722  1.86055970192  -2.78913545609  -1.40262350293  -0.0497756972909  
5.73369908333  1.46411633492  -1.51028692722  1.86055970192  -2.78913545609  -1.4026376009  -0.0497756972909  
5.74179005623  1.46411633492  -1.51028692722  1.86055970192  -2.78913545609  -1.4026376009  -0.0497756972909  
5.74990391731  1.46411633492  -1.51028692722  1.86055970192  -2.78913545609  -1.4026376009  -0.0497756972909  
5.75807309151  1.46411633492  -1.51028692722  1.86055970192  -2.78913545609  -1.40259760099  -0.0497116972909  
5.76613402367  1.46411633492  -1.51028692722  1.86055970192  -2.78913545609  -1.40247760125  -0.0495196972909  
5.77422904968  1.46411633492  -1.51028692722  1.86055970192  -2.78913545609  -1.40228000536  -0.0492035431709  
5.78232097626  1.46411633492  -1.51028692722  1.86055970192  -2.78913545609  -1.40210773975  -0.0489279176069  
5.79035997391  1.46411633492  -1.51028692722  1.86055970192  -2.78913545609  -1.40201547398  -0.0487802920429  
5.7985599041  1.46411633492  -1.51028692722  1.86055970192  -2.78913545609  -1.40199840069  -0.0487529747188  
5.80659389496  1.46411633492  -1.51028692722  1.86055970192  -2.78913545609  -1.40199840069  -0.0487529747188  
5.81472587585  1.46411633492  -1.51028692722  1.86055970192  -2.78913545609  -1.40199840069  -0.0487529747188  
5.82275795937  1.46411633492  -1.51028692722  1.86055970192  -2.78913545609  -1.40199840069  -0.0487529747188  
5.83085989952  1.46411633492  -1.51028692722  1.86055970192  -2.78913545609  -1.40199840069  -0.0487529747188  
5.83902287483  1.46411633492  -1.51028692722  1.86055970192  -2.78913545609  -1.40199840069  -0.0487529747188  
5.84710502625  1.46411633492  -1.51028692722  1.86055970192  -2.78913545609  -1.40199840069  -0.0487529747188  
5.85517501831  1.46411633492  -1.51028692722  1.86055970192  -2.78913545609  -1.40199840069  -0.0487529747188  
5.86328101158  1.46411633492  -1.51028692722  1.86055970192  -2.78913545609  -1.40199840069  -0.0487529747188  
5.87145400047  1.46411633492  -1.51028692722  1.86055970192  -2.78913545609  -1.40199840069  -0.0487529747188  
5.87958693504  1.46411633492  -1.51028692722  1.86055970192  -2.78913545609  -1.40199840069  -0.0487529747188  
5.88764691353  1.46411633492  -1.51028692722  1.86055970192  -2.78913545609  -1.40199840069  -0.0487529747188  
5.89567804337  1.46411633492  -1.51028692722  1.86055970192  -2.78913545609  -1.40199840069  -0.0487529747188  
5.90368890762  1.46411633492  -1.51028692722  1.86055970192  -2.78913545609  -1.40199840069  -0.0487529747188  
5.91181707382  1.46411633492  -1.51028692722  1.86055970192  -2.78913545609  -1.40199840069  -0.0487529747188  
5.91987299919  1.46411633492  -1.51028692722  1.86055970192  -2.78913545609  -1.40199840069  -0.0487529747188  
5.92796897888  1.46411633492  -1.51028692722  1.86055970192  -2.78913545609  -1.40199840069  -0.0487529747188  
5.93607902527  1.46411633492  -1.51028692722  1.86055970192  -2.78913545609  -1.40199840069  -0.0487529747188  
5.9441640377  1.46411633492  -1.51028692722  1.86055970192  -2.78913545609  -1.40199840069  -0.0487529747188  
5.95229291916  1.46411633492  -1.51028692722  1.86055970192  -2.78913545609  -1.40199840069  -0.0487529747188  
5.96040701866  1.46411633492  -1.51028692722  1.86055970192  -2.78913545609  -1.40199840069  -0.0486889747188  
5.96860003471  1.46411633492  -1.51028692722  1.86055970192  -2.78913545609  -1.40199840069  -0.0484969747188  
5.97667098045  1.46411633492  -1.51028692722  1.86055970192  -2.78913545609  -1.40199840069  -0.0481808208273  
5.98467707634  1.46411633492  -1.51028692722  1.86055970192  -2.78913545609  -1.40199840069  -0.0479051965812  
5.99279904366  1.46411633492  -1.51028692722  1.86055970192  -2.78913545609  -1.40199840069  -0.047757572335  
6.00090694427  1.46411633492  -1.51028692722  1.86055970192  -2.78913545609  -1.40199840069  -0.047730255872  
6.00897502899  1.46411633492  -1.51028692722  1.86055970192  -2.78913545609  -1.40199840069  -0.047730255872  
6.01708292961  1.46411633492  -1.51028692722  1.86055970192  -2.78913545609  -1.40199840069  -0.047730255872  
6.02524399757  1.46411633492  -1.51028692722  1.86055970192  -2.78913545609  -1.40199840069  -0.047730255872  
6.03328108788  1.46411633492  -1.51028692722  1.86055970192  -2.78913545609  -1.40199840069  -0.047666255872  
6.04141497612  1.46411633492  -1.51028692722  1.86055970192  -2.78913545609  -1.40199840069  -0.047474255872  
6.04961490631  1.46411633492  -1.51028692722  1.86055970192  -2.78913545609  -1.40199840069  -0.047158101752  
6.05765891075  1.46411633492  -1.51028692722  1.86055970192  -2.78913545609  -1.40199840069  -0.046882476188  
6.06565403938  1.46411633492  -1.51028692722  1.86055970192  -2.78913545609  -1.40199840069  -0.046734850624  
6.07376503944  1.46411633492  -1.51028692722  1.86055970192  -2.78913545609  -1.40199840069  -0.0467075332999  
6.08178186417  1.46411633492  -1.51028692722  1.86055970192  -2.78913545609  -1.40199840069  -0.0467075332999  
6.08988785744  1.46411633492  -1.51028692722  1.86055970192  -2.78913545609  -1.40199840069  -0.0467075332999  
6.09798502922  1.46411633492  -1.51028692722  1.86055970192  -2.78913545609  -1.40199840069  -0.0467075332999  
6.10611486435  1.46411633492  -1.51028692722  1.86055970192  -2.78913545609  -1.40199840069  -0.0467075332999  
6.11424303055  1.46411633492  -1.51028692722  1.86055970192  -2.78913545609  -1.40199840069  -0.0467075332999  
6.12234997749  1.46411633492  -1.51028692722  1.86055970192  -2.78913545609  -1.40199840069  -0.0467075332999  
6.13038706779  1.46411633492  -1.51028692722  1.86055970192  -2.78913545609  -1.40199840069  -0.0467075332999  
6.13865208626  1.46411633492  -1.51028692722  1.86055970192  -2.78913545609  -1.40199840069  -0.0467075332999  
6.14664506912  1.46411633492  -1.51028692722  1.86055970192  -2.78913545609  -1.40199840069  -0.0467075332999  
6.15468287468  1.46411633492  -1.51028692722  1.86055970192  -2.78913545609  -1.40199840069  -0.0467075332999  
6.16282987595  1.46411633492  -1.51028692722  1.86055970192  -2.78913545609  -1.40199840069  -0.0467075332999  
6.17085194588  1.46411633492  -1.51028692722  1.86055970192  -2.78913545609  -1.40199840069  -0.0467075332999  
6.17894601822  1.46411633492  -1.51028692722  1.86055970192  -2.78913545609  -1.40199840069  -0.0467075332999  
6.18706798553  1.46411633492  -1.51028692722  1.86055970192  -2.78913545609  -1.40199840069  -0.0467075332999  
6.19515395164  1.46411633492  -1.51028692722  1.86055970192  -2.78913545609  -1.40199840069  -0.0467075332999  
6.20326805115  1.46411633492  -1.51028692722  1.86055970192  -2.78913545609  -1.40199840069  -0.0467075332999  
6.21133995056  1.46411633492  -1.51028692722  1.86055970192  -2.78913545609  -1.40199840069  -0.0467075332999  
6.2196199894  1.46411633492  -1.51028692722  1.86055970192  -2.78913545609  -1.40199840069  -0.0467075332999  
6.22767090797  1.46411633492  -1.51028692722  1.86055970192  -2.78913545609  -1.40199840069  -0.0467075332999  
6.23569893837  1.46411633492  -1.51028692722  1.86055970192  -2.78913545609  -1.40199840069  -0.0466435332999  
6.24375104904  1.46411633492  -1.51028692722  1.86055970192  -2.78913545609  -1.40199840069  -0.0464515332999  
6.25183105469  1.46411633492  -1.51028692722  1.86055970192  -2.78913545609  -1.40199840069  -0.0461353794084  
6.25993299484  1.46411633492  -1.51028692722  1.86055970192  -2.78913545609  -1.40199840069  -0.0458597551623  
6.2680439949  1.46411633492  -1.51028692722  1.86055970192  -2.78913545609  -1.40199840069  -0.0457121309162  
6.27616286278  1.46411633492  -1.51028692722  1.86055970192  -2.78913545609  -1.40199840069  -0.0456848144531  
6.28428196907  1.46411633492  -1.51028692722  1.86055970192  -2.78913545609  -1.40199840069  -0.0456848144531  
6.29243588448  1.46411633492  -1.51028692722  1.86055970192  -2.78913545609  -1.40199840069  -0.0456848144531  
6.30057501793  1.46411633492  -1.51028692722  1.86055970192  -2.78913545609  -1.40199840069  -0.0456848144531  
6.30867505074  1.46411633492  -1.5103380007  1.86060055832  -2.78913545609  -1.40206240069  -0.0456848144531  
6.31676697731  1.46411633492  -1.51049122114  1.86072312751  -2.78913545609  -1.40225440069  -0.0456848144531  
6.32485389709  1.46411633492  -1.51068675806  1.8608795479  -2.78913545609  -1.40249942732  -0.0456848144531  
6.33296489716  1.46411633492  -1.51078577327  1.86095875544  -2.78913545609  -1.40262350293  -0.0456848144531  
6.34116005898  1.46411633492  -1.51079702377  1.86096775532  -2.78913545609  -1.4026376009  -0.0456848144531  
6.34920191765  1.46411633492  -1.51079702377  1.86096775532  -2.78913545609  -1.4026376009  -0.0456848144531  
6.35734987259  1.46411633492  -1.51079702377  1.86096775532  -2.78913545609  -1.4026376009  -0.0456848144531  
6.36543107033  1.46411633492  -1.51079702377  1.86096775532  -2.78913545609  -1.4026376009  -0.0456848144531  
6.3736140728  1.46411633492  -1.51079702377  1.86096775532  -2.78913545609  -1.4026376009  -0.0456848144531  
6.38163208961  1.46411633492  -1.51079702377  1.86096775532  -2.78913545609  -1.4026376009  -0.0456848144531  
6.38975095749  1.46411633492  -1.51079702377  1.86096775532  -2.78913545609  -1.4026376009  -0.0456848144531  
6.39781403542  1.46411633492  -1.51079702377  1.86096775532  -2.78913545609  -1.4026376009  -0.0456848144531  
6.40591788292  1.46411633492  -1.51079702377  1.86096775532  -2.78913545609  -1.4026376009  -0.0456848144531  
6.41401290894  1.46411633492  -1.51079702377  1.86096775532  -2.78913545609  -1.4026376009  -0.0456848144531  
6.42216205597  1.46411633492  -1.51079702377  1.86096775532  -2.78913545609  -1.4026376009  -0.0456848144531  
6.43026685715  1.46411633492  -1.51079702377  1.86096775532  -2.78913545609  -1.4026376009  -0.0456208144531  
6.43834495544  1.46411633492  -1.51079702377  1.86096775532  -2.78913545609  -1.4026376009  -0.0454288144531  
6.44636297226  1.46411633492  -1.51079702377  1.86096775532  -2.78913545609  -1.4026376009  -0.0451126605616  
6.45458102226  1.46411633492  -1.51079702377  1.86096775532  -2.78913545609  -1.4026376009  -0.0448370363155  
6.46262001991  1.46411633492  -1.51079702377  1.86096775532  -2.78913545609  -1.4026376009  -0.0446894120694  
6.47069406509  1.46411633492  -1.51079702377  1.86096775532  -2.78913545609  -1.4026376009  -0.0446620956063  
6.47879290581  1.46411633492  -1.51079702377  1.86096775532  -2.78913545609  -1.4026376009  -0.0446620956063  
6.48690104485  1.46411633492  -1.51079702377  1.86096775532  -2.78913545609  -1.4026376009  -0.0446620956063  
6.49501991272  1.46411633492  -1.51079702377  1.86096775532  -2.78913545609  -1.4026376009  -0.0446620956063  
6.50313901901  1.46411633492  -1.51079702377  1.86094224987  -2.78913545609  -1.40267760096  -0.0447260956063  
6.51126694679  1.46411633492  -1.51079702377  1.86086573354  -2.78913545609  -1.40279760113  -0.0449180956063  
6.51938700676  1.46411633492  -1.51079702377  1.86073973907  -2.78913545609  -1.4029951976  -0.0452342494979  
6.52767896652  1.46411633492  -1.51079702377  1.86062989658  -2.78913545609  -1.40316746301  -0.045509873744  
6.53567290306  1.46411633492  -1.51079702377  1.86057106498  -2.78913545609  -1.4032597283  -0.0456574979901  
6.54375886917  1.46411633492  -1.51079702377  1.86056017876  -2.78913545609  -1.40327680111  -0.0456848144531  
6.55184197426  1.46411633492  -1.51079702377  1.86056017876  -2.78913545609  -1.40327680111  -0.0456848144531  
6.55996394157  1.46411633492  -1.51079702377  1.86056017876  -2.78913545609  -1.40327680111  -0.0456848144531  
6.56802201271  1.46411633492  -1.51079702377  1.86056017876  -2.78913545609  -1.40327680111  -0.0456848144531  
6.57611298561  1.46411633492  -1.51079702377  1.86056017876  -2.78913545609  -1.40323680105  -0.0456208144531  
6.58422088623  1.46411633492  -1.51079702377  1.86056017876  -2.78913545609  -1.40311680088  -0.0454288144531  
6.59230303764  1.46411633492  -1.51079702377  1.86056017876  -2.78913545609  -1.40291920441  -0.0451126605616  
6.60051488876  1.46411633492  -1.51079702377  1.86056017876  -2.78913545609  -1.402746939  -0.0448370363155  
6.60859704018  1.46411633492  -1.51079702377  1.86056017876  -2.78913545609  -1.40265467371  -0.0446894120694  
6.6166639328  1.46411633492  -1.51079702377  1.86056017876  -2.78913545609  -1.4026376009  -0.0446620956063  
6.62477207184  1.46411633492  -1.51079702377  1.86056017876  -2.78913545609  -1.4026376009  -0.0446620956063  
6.63285589218  1.46411633492  -1.51079702377  1.86056017876  -2.78913545609  -1.4026376009  -0.0446620956063  
6.64094996452  1.46411633492  -1.51079702377  1.86056017876  -2.78913545609  -1.4026376009  -0.0446620956063  
6.64901304245  1.46416780228  -1.51079702377  1.86056017876  -2.78913545609  -1.4027016009  -0.0446620956063  
6.65708804131  1.46432220437  -1.51079702377  1.86056017876  -2.78913545609  -1.4028936009  -0.0446620956063  
6.66520786285  1.46451924928  -1.51079702377  1.86056017876  -2.78913545609  -1.40313862753  -0.0446620956063  
6.67334103584  1.4646190281  -1.51079702377  1.86056017876  -2.78913545609  -1.40326270314  -0.0446620956063  
6.68139696121  1.46463036537  -1.51079702377  1.86056017876  -2.78913545609  -1.40327680111  -0.0446620956063  
6.68966698647  1.46463036537  -1.51079702377  1.86056017876  -2.78913545609  -1.40327680111  -0.0446620956063  
6.69767999649  1.46463036537  -1.51079702377  1.86056017876  -2.78913545609  -1.40327680111  -0.0446620956063  
6.70573997498  1.46463036537  -1.51079702377  1.86056017876  -2.78913545609  -1.40327680111  -0.0446620956063  
6.71382904053  1.46463036537  -1.51079702377  1.86056017876  -2.78913545609  -1.40327680111  -0.0447260956063  
6.72183990479  1.46463036537  -1.51079702377  1.86056017876  -2.78913545609  -1.40327680111  -0.0449180956063  
6.72998404503  1.46463036537  -1.51079702377  1.86056017876  -2.78913545609  -1.40327680111  -0.0452342494979  
6.73802495003  1.46463036537  -1.51079702377  1.86056017876  -2.78913545609  -1.40327680111  -0.045509873744  
6.74612808228  1.46463036537  -1.51079702377  1.86056017876  -2.78913545609  -1.40327680111  -0.0456574979901  
6.75423288345  1.46463036537  -1.51079702377  1.86056017876  -2.78913545609  -1.40327680111  -0.0456848144531  
6.76231002808  1.46463036537  -1.51079702377  1.86056017876  -2.78913545609  -1.40327680111  -0.0456848144531  
6.77034091949  1.46463036537  -1.51079702377  1.86056017876  -2.78913545609  -1.40327680111  -0.0456848144531  
6.77852392197  1.46463036537  -1.51079702377  1.86056017876  -2.78913545609  -1.40327680111  -0.0456848144531  
6.78656101227  1.46463036537  -1.51079702377  1.86062417876  -2.78913545609  -1.40327680111  -0.0456848144531  
6.79463887215  1.46463036537  -1.51079702377  1.86081023056  -2.78913545609  -1.40327680111  -0.0456848144531  
6.80274391174  1.46463036537  -1.51079702377  1.86094704475  -2.78913545609  -1.40327680111  -0.0456848144531  
6.8108830452  1.46463036537  -1.51079702377  1.86096775532  -2.78913545609  -1.40327680111  -0.0456848144531  
6.81891393661  1.46463036537  -1.51079702377  1.86096775532  -2.78913545609  -1.40327680111  -0.0456848144531  
6.82708287239  1.46463036537  -1.51079702377  1.86096775532  -2.78913545609  -1.40327680111  -0.0456848144531  
6.83511805534  1.46463036537  -1.51079702377  1.86096775532  -2.78913545609  -1.40327680111  -0.0456848144531  
6.84323501587  1.46463036537  -1.51079702377  1.86096775532  -2.78913545609  -1.40327680111  -0.0456848144531  
6.85135293007  1.46463036537  -1.51079702377  1.86096775532  -2.78913545609  -1.40327680111  -0.0456848144531  
6.85957407951  1.46463036537  -1.51079702377  1.86096775532  -2.78913545609  -1.40327680111  -0.0456848144531  
6.86758589745  1.46463036537  -1.51079702377  1.86096775532  -2.78913545609  -1.40327680111  -0.0456848144531  
6.87567996979  1.46463036537  -1.51079702377  1.86096775532  -2.78907145609  -1.40327680111  -0.0456336145277  
6.88369607925  1.46463036537  -1.51079702377  1.86096775532  -2.78887945609  -1.40327680111  -0.0454800147515  
6.89182090759  1.46463036537  -1.51079702377  1.86096775532  -2.78855945609  -1.40327680111  -0.0452240151245  
6.89988803864  1.46463036537  -1.51079702377  1.86096775532  -2.78820170814  -1.40327680111  -0.0449378171852  
6.90797591209  1.46463036537  -1.51079702377  1.86096775532  -2.78796867105  -1.40327680111  -0.0447513877836  
6.91614294052  1.46463036537  -1.51079702377  1.86096775532  -2.78786363396  -1.40327680111  -0.0446673582327  
6.92413401604  1.46463036537  -1.51079702377  1.86096775532  -2.78785705566  -1.40327680111  -0.0446620956063  
6.93226003647  1.46463036537  -1.51079702377  1.86096775532  -2.78785705566  -1.40327680111  -0.0446620956063  
6.94036698341  1.46463036537  -1.51079702377  1.86096775532  -2.78785705566  -1.40327680111  -0.0446620956063  
6.94855690002  1.46463036537  -1.51079702377  1.86096775532  -2.78785705566  -1.40327680111  -0.0446620956063  
6.95655798912  1.46463036537  -1.51079702377  1.86096775532  -2.78792105566  -1.40327680111  -0.0446620956063  
6.96467900276  1.46463036537  -1.51079702377  1.86096775532  -2.78811305566  -1.40327680111  -0.0446620956063  
6.97269392014  1.46463036537  -1.51079702377  1.86096775532  -2.78843305566  -1.40327680111  -0.0446620956063  
6.98079299927  1.46463036537  -1.51079702377  1.86096775532  -2.78879080361  -1.40327680111  -0.0446620956063  
6.98890686035  1.46463036537  -1.51079702377  1.86096775532  -2.7890238407  -1.40327680111  -0.0446620956063  
6.99702000618  1.46463036537  -1.51079702377  1.86096775532  -2.78912887779  -1.40327680111  -0.0446620956063  
7.00516796112  1.46463036537  -1.51079702377  1.86096775532  -2.78913545609  -1.40327680111  -0.0446620956063  
7.01322889328  1.46463036537  -1.51079702377  1.86096775532  -2.78913545609  -1.40327680111  -0.0446620956063  
7.02129387856  1.46463036537  -1.51079702377  1.86096775532  -2.78913545609  -1.40327680111  -0.0446620956063  
7.02941393852  1.46463036537  -1.51079702377  1.86096775532  -2.78913545609  -1.40327680111  -0.0446620956063  
7.0376188755  1.46463036537  -1.51086102377  1.86101894933  -2.78913545609  -1.40327680111  -0.0446620956063  
7.04560399055  1.46463036537  -1.51105302177  1.86117252978  -2.78913545609  -1.40327680111  -0.0446620956063  
7.05368685722  1.46463036537  -1.51124400944  1.86132530206  -2.78913545609  -1.40327680111  -0.0446620956063  
7.06179094315  1.46463036537  -1.51130700111  1.86137568951  -2.78913545609  -1.40327680111  -0.0446620956063  
7.06992197037  1.46463036537  -1.51130700111  1.86137568951  -2.78913545609  -1.40327680111  -0.0446620956063  
7.07797408104  1.46463036537  -1.51130700111  1.86137568951  -2.78913545609  -1.40327680111  -0.0446620956063  
7.08618402481  1.46463036537  -1.51130700111  1.86137568951  -2.78913545609  -1.40327680111  -0.0446620956063  
7.09425497055  1.46463036537  -1.51130700111  1.86137568951  -2.78913545609  -1.40327680111  -0.0446620956063  
7.1022670269  1.46463036537  -1.51130700111  1.86137568951  -2.78913545609  -1.40327680111  -0.0446620956063  
7.11036205292  1.46463036537  -1.51130700111  1.86137568951  -2.78913545609  -1.40327680111  -0.0446620956063  
7.11847805977  1.46463036537  -1.51130700111  1.86137568951  -2.78913545609  -1.40334080111  -0.0446620956063  
7.12668585777  1.46463036537  -1.51130700111  1.86137568951  -2.78913545609  -1.40353280111  -0.0446620956063  
7.13464188576  1.46463036537  -1.51130700111  1.86137568951  -2.78913545609  -1.40377778691  -0.0446620956063  
7.1428000927  1.46463036537  -1.51130700111  1.86137568951  -2.78913545609  -1.40390180917  -0.0446620956063  
7.15083003044  1.46463036537  -1.51130700111  1.86137568951  -2.78913545609  -1.40391588211  -0.0446620956063  
7.15892696381  1.46463036537  -1.51130700111  1.86137568951  -2.78913545609  -1.40391588211  -0.0446620956063  
7.1670498848  1.46463036537  -1.51130700111  1.86137568951  -2.78913545609  -1.40391588211  -0.0446620956063  
7.17510485649  1.46463036537  -1.51130700111  1.86137568951  -2.78913545609  -1.40391588211  -0.0446620956063  
7.18326997757  1.46463036537  -1.51130700111  1.86137568951  -2.78913545609  -1.40385188211  -0.0446620956063  
7.19147491455  1.46463036537  -1.51130700111  1.86137568951  -2.78913545609  -1.40365988211  -0.0446620956063  
7.19944095612  1.46463036537  -1.51130700111  1.86137568951  -2.78913545609  -1.40341489631  -0.0446620956063  
7.20755004883  1.46463036537  -1.51130700111  1.86137568951  -2.78913545609  -1.40329087405  -0.0446620956063  
7.21562790871  1.46463036537  -1.51130700111  1.86137568951  -2.78913545609  -1.40327680111  -0.0446620956063  
7.22369503975  1.46463036537  -1.51130700111  1.86137568951  -2.78913545609  -1.40327680111  -0.0446620956063  
7.23181295395  1.46463036537  -1.51130700111  1.86137568951  -2.78913545609  -1.40327680111  -0.0446620956063  
7.2398660183  1.46463036537  -1.51130700111  1.86137568951  -2.78913545609  -1.40327680111  -0.0446620956063  
7.2479929924  1.46466252506  -1.51130700111  1.86137568951  -2.78913545609  -1.40331679371  -0.0447260956063  
7.25608491898  1.46475900413  -1.51130700111  1.86137568951  -2.78913545609  -1.4034367715  -0.0449180956063  
7.26418805122  1.46491786992  -1.51130700111  1.86137568951  -2.78913545609  -1.40363433112  -0.0452342494979  
7.27225708961  1.46505636976  -1.51130700111  1.86137568951  -2.78913545609  -1.4038065644  -0.045509873744  
7.28037405014  1.46513055023  -1.51130700111  1.86137568951  -2.78913545609  -1.40389881248  -0.0456574979901  
7.28863096237  1.46514427662  -1.51130700111  1.86137568951  -2.78913545609  -1.40391588211  -0.0456848144531  
7.29675292969  1.46514427662  -1.51130700111  1.86137568951  -2.78913545609  -1.40391588211  -0.0456848144531  
7.30464291573  1.46514427662  -1.51130700111  1.86137568951  -2.78913545609  -1.40391588211  -0.0456848144531  
7.31277894974  1.46514427662  -1.51130700111  1.86137568951  -2.78913545609  -1.40391588211  -0.0456848144531  
7.3208129406  1.46511854891  -1.51130700111  1.86137568951  -2.78907145609  -1.40388388808  -0.0456336145277  
7.32893109322  1.46504136576  -1.51130700111  1.86137568951  -2.78887945609  -1.40378790598  -0.0454800147515  
7.3370950222  1.4649127272  -1.51130700111  1.86137568951  -2.78855945609  -1.40362793582  -0.0452240151245  
7.34517097473  1.46476891412  -1.51130700111  1.86137568951  -2.78820170814  -1.40344909521  -0.0449378171852  
7.3532230854  1.46467523426  -1.51130700111  1.86137568951  -2.78796867105  -1.40333259839  -0.0447513877836  
7.36134600639  1.46463300982  -1.51130700111  1.86137568951  -2.78786363396  -1.40328008964  -0.0446673582327  
7.36948609352  1.46463036537  -1.51130700111  1.86137568951  -2.78785705566  -1.40327680111  -0.0446620956063  
7.37757992744  1.46463036537  -1.51130700111  1.86137568951  -2.78785705566  -1.40327680111  -0.0446620956063  
7.38561701775  1.46463036537  -1.51130700111  1.86137568951  -2.78785705566  -1.40327680111  -0.0446620956063  
7.3937060833  1.46463036537  -1.51130700111  1.86137568951  -2.78785705566  -1.40327680111  -0.0446620956063  
7.40186500549  1.46463036537  -1.51130700111  1.86135529115  -2.78792105566  -1.40330879514  -0.0447132955317  
7.40992808342  1.46463036537  -1.51130700111  1.86129409607  -2.78811305566  -1.40340477724  -0.0448668953079  
7.41806697845  1.46463036537  -1.51130700111  1.86119210428  -2.78843305566  -1.4035647474  -0.0451228949349  
