Ethan-CYM/ros_catkin_ws/test/movej_静止不动/ur_joint_target_current.txt
time  shoulder_pan_joint  shoulder_lift_joint  elbow_joint  wrist_1_joint  wrist_2_joint  wrist_3_joint
0.148902893066  -0.00194164713166  -2.16626668722  -1.01602223841  -0.16105721431  -0.201312785788  -0.236144078149  
0.156940937042  -0.0012684109883  -2.16626688704  -1.01602227464  -0.161057265717  -0.192398860617  -0.221542661088  
0.164902925491  0.00194169426093  -2.16626317337  -1.01602154836  -0.161056240077  -0.137443375514  -0.133690496153  
0.173049926758  0.00194161683421  -2.16626267675  -1.01602144988  -0.16105610113  -0.0775454030034  -0.12928688234  
0.181102991104  0.00126851689734  -2.16626334357  -1.01602157944  -0.161056284167  0.0204887370745  0.0329681103135  
0.189188957214  6.33104514053e-17  -2.16626477353  -1.01602185799  -0.161056677629  -3.77736786476e-05  0.0  
0.197334051132  6.33104514053e-17  -2.16626477353  -1.01602185799  -0.161056677629  -3.77736786476e-05  0.0  
0.205662965775  6.33104514053e-17  -2.16626477353  -1.01602185799  -0.161056677629  -3.77736786476e-05  0.0  
0.213725090027  0.00310666806226  -2.16626182191  -1.01602128426  -0.161055867108  0.228928262493  0.0  
0.22167301178  0.00310692558374  -2.1662634724  -1.01602160908  -0.161056325631  0.233640632797  0.0  
0.229826927185  -0.00164853210346  -2.16626667152  -1.01602223561  -0.161057210335  0.154203479856  0.0  
0.237887859344  -0.00310684891597  -2.16626658065  -1.01602221924  -0.161057187091  0.0824835146962  0.0  
0.245965957642  6.56831452735e-17  -2.16626478505  -1.01602186959  -0.161056693198  -1.80660609399e-05  0.0  
0.25411605835  6.56831452735e-17  -2.16626478505  -1.01602186959  -0.161056693198  -1.80660609399e-05  0.0  
0.262180089951  6.56831452735e-17  -2.16626478505  -1.01602186959  -0.161056693198  -1.80660609399e-05  0.0  
0.270286083221  -0.00293885645889  -2.15286567887  -1.01118866041  0.0831935243008  -0.158608415736  0.0  
0.27841591835  -0.00293726292512  -2.15287652222  -1.01119469085  0.0879567747331  -0.193828039062  0.0  
0.286453008652  -0.0029346066052  -2.15289458919  -1.0112047331  0.0927248451111  -0.196245332972  0.0  
0.294619083405  0.00199889566886  -2.1754364551  -1.01936767079  -0.00123209326052  -0.152377428717  0.0  
0.302664041519  0.00293677685776  -2.17974189228  -1.02093996972  -0.0233063034729  -0.141927499142  0.0  
0.310654878616  0.00293590541054  -2.17974901632  -1.02094981319  -0.118798604886  -0.0175504614183  0.0  
0.318681001663  0.000939510079599  -2.17063411225  -1.01765348569  -0.17843434614  0.00800677150471  0.0  
0.326783895493  3.95895640456e-17  -2.16634428276  -1.01610189181  -0.161164102058  -3.78151832355e-05  0.0  
0.334862947464  3.95895640456e-17  -2.16634428276  -1.01610189181  -0.161164102058  -3.78151832355e-05  0.0  
0.342959880829  3.95895640456e-17  -2.16634428276  -1.01610189181  -0.161164102058  -3.78151832355e-05  0.0  
0.351039886475  0.00310688663074  -2.16634132963  -1.01610131483  -0.161163291534  0.228928223156  0.0  
0.359138011932  0.00310714377207  -2.16634298096  -1.01610164145  -0.161163750049  0.233640599964  0.0  
0.367243051529  0.00310757114231  -2.16634573153  -1.01610218417  -0.16116451204  0.238374720138  0.0  
0.375387907028  -0.00211072984009  -2.16634683432  -1.0161024028  -0.161164818924  0.15075225569  0.0  
0.383665084839  -0.00310722153074  -2.16634510298  -1.01610206447  -0.16116434365  0.129930883282  0.0  
0.391743898392  -0.00310736136242  -2.16634420183  -1.01610188804  -0.161164095832  0.0403637352878  0.0  
0.399765014648  -0.00099622993828  -2.16634424884  -1.01610189724  -0.161164108752  -0.0161147669018  0.0  
0.40784907341  4.26555890296e-17  -2.16634429765  -1.0161019068  -0.161164122177  1.64336784558e-06  0.0  
0.416051864624  4.26555890296e-17  -2.16634429765  -1.0161019068  -0.161164122177  1.64336784558e-06  0.0  
0.424038887024  4.26555890296e-17  -2.16634429765  -1.0161019068  -0.161164122177  1.64336784558e-06  0.0  
0.432126045227  0.00138288803334  -2.1797467475  -1.02094475806  -0.404831666981  1.68457357514e-06  0.0  
0.440222024918  0.00138441836886  -2.17973329736  -1.02092666468  -0.409683995792  1.684310308e-06  0.0  
0.448354005814  0.00138696836137  -2.17971086621  -1.02089649825  -0.414542852258  1.68387139484e-06  0.0  
0.456418991089  -0.000939855995719  -2.1571695489  -1.01274571367  -0.320523408909  1.61398499928e-06  0.0  
0.464614868164  -0.00138488465759  -2.1528672893  -1.01118994641  -0.298359432037  1.60043252199e-06  0.0  
0.472641944885  -0.00138572085611  -2.15286158557  -1.01118669239  -0.203126283929  1.60028019e-06  0.0  
0.480750083923  -0.000443465206159  -2.16197547714  -1.01447448798  -0.143786299309  1.62834970702e-06  0.0  
0.488864898682  -1.24393275201e-17  -2.16626478844  -1.016021873  -0.161056697778  1.64156414913e-06  0.0  
0.496952056885  -1.24393275201e-17  -2.16626478844  -1.016021873  -0.161056697778  1.64156414913e-06  0.0  
0.505011081696  -1.24393275201e-17  -2.16626478844  -1.016021873  -0.161056697778  1.64156414913e-06  0.0  
0.513128995895  0.00293978377344  -2.1796640663  -1.02085125787  -0.404724288021  0.166591593666  0.0  
0.521221876144  0.00294137710262  -2.17965098997  -1.02083321284  -0.409576690155  0.203833350795  0.0  
0.529361963272  0.00294403221965  -2.17962918102  -1.02080312579  -0.414435668207  0.206189258165  0.0  
0.537375926971  0.00294774847585  -2.17959861688  -1.02076097873  -0.419301201449  0.208551629872  0.0  
0.545495986938  0.00295252496053  -2.17955926596  -1.02070674647  -0.424173260873  0.210920461469  0.0  
0.553691864014  -0.00014567229028  -2.16541497924  -1.01559452545  -0.367062669996  0.184356386116  0.0  
0.561691045761  -0.00294158692035  -2.15268551346  -1.01101683692  -0.310954188764  0.158188352534  0.0  
0.569782018661  -0.0029452458511  -2.15266045793  -1.01100281466  -0.306014445443  0.155839878041  0.0  
0.577895879745  -0.00294784285741  -2.15264266229  -1.01099284741  -0.301102883396  0.153493935131  0.0  
0.585932970047  -0.00294937857793  -2.15263213431  -1.01098694763  -0.296219522671  0.108952873053  0.0  
0.594063043594  -0.00279529507996  -2.15333076902  -1.01123637523  -0.109591857646  -0.0237570479874  0.0  
0.60228395462  3.74895623205e-17  -2.16602500918  -1.01578051175  -0.16073273352  6.05598088911e-05  0.0  
0.610285997391  3.74895623205e-17  -2.16602500918  -1.01578051175  -0.16073273352  6.05598088911e-05  0.0  
0.618551969528  3.74895623205e-17  -2.16602500918  -1.01578051175  -0.16073273352  6.05598088911e-05  0.0  
0.626600027084  -0.00256099441234  -2.15263314823  -1.0109872789  0.0835182697516  -0.118812774781  0.0  
0.634645938873  -0.00255943098172  -2.15264387685  -1.01099335731  0.0882814463021  -0.186256731565  0.0  
0.642680883408  -0.00255682481383  -2.1526617526  -1.01100347933  0.0930493933164  -0.188066900475  0.0  
0.650773048401  -0.0025531752346  -2.15268676756  -1.01101763201  0.0978221309599  -0.189881384867  0.0  
0.658827066422  -0.00254848130268  -2.15271891064  -1.01103579717  0.102599687472  -0.191700188277  0.0  
0.666883945465  -0.00254274181186  -2.15275816756  -1.01105795146  0.107382099174  -0.193523315244  0.0  
0.675050973892  0.000927882136959  -2.17102102037  -1.01766510161  0.0322288632786  -0.167259248664  0.0  
0.683158874512  0.00255886468607  -2.1796562534  -1.02082112117  -0.0072514969012  -0.15337086838  0.0  
0.691248893738  0.0025545434605  -2.17969283594  -1.02087101656  -0.0121167520192  -0.151565830478  0.0  
0.699348926544  0.00255126476021  -2.17972055044  -1.02090883633  -0.016955601725  -0.149762160356  0.0  
0.707658052444  0.00254902942618  -2.1797394246  -1.02093460209  -0.0217680715515  -0.145419144197  0.0  
0.715669870377  0.00254783803036  -2.17974947731  -1.0209483286  -0.0265541789065  -0.04521884416  0.0  
0.723695039749  0.0016327970482  -2.17493696902  -1.0192096098  -0.195752643984  0.0120832344306  0.0  
0.731833934784  4.26555890296e-17  -2.16634429765  -1.0161019068  -0.161164122177  1.64336784558e-06  0.0  
0.739893913269  4.26555890296e-17  -2.16634429765  -1.0161019068  -0.161164122177  1.64336784558e-06  0.0  
0.747991085052  4.26555890296e-17  -2.16634429765  -1.0161019068  -0.161164122177  1.64336784558e-06  0.0  
0.75602388382  0.165190381701  -3.24220412223  -0.94371589746  -0.162408794218  -0.0143119594072  0.0835580270511  
0.764184951782  0.239731969666  -3.2556419795  -0.860937900463  -0.148438341257  -0.0266818702002  0.155053393226  
0.772238969803  0.314431017307  -3.26881924769  -0.778042528926  -0.134450728581  -0.0390564038935  0.197670995872  
0.780302047729  0.389287492372  -3.28173568333  -0.695029683286  -0.120445940575  -0.0514355606211  0.198693481658  
0.788572072983  0.464301349733  -3.29439094583  -0.611899224073  -0.106423955381  -0.0638193405701  0.199716994571  
0.79661989212  0.5394725314  -3.30678459775  -0.528650971825  -0.0923847449097  -0.0762077439796  0.200741534611  
0.804729938507  0.592403388461  -3.31891610515  -0.448776005373  -0.0783282748436  -0.0886007711409  0.201767101778  
0.812653064728  0.59363200587  -3.33078483795  -0.447778092885  -0.0642545046475  -0.100998422396  0.202793696073  
0.820688009262  0.594868195531  -3.34239007048  -0.4468660823  -0.0501633875803  -0.113400698135  0.203821317496  
0.828768968582  0.596111848358  -3.35373098205  -0.446039632891  -0.0360548707071  -0.1258075988  0.204849966046  
0.836813926697  0.597362842606  -3.36480665754  -0.445298363171  -0.0219288949142  -0.138219124875  0.205879641723  
0.845016002655  0.598621043928  -3.37561608818  -0.444641850668  -0.0077853949253  -0.150635276894  0.206910344528  
0.853039979935  0.599886305444  -3.38615817232  -0.444069631687  0.00637570068014  -0.163056055431  0.20794207446  
0.861170053482  0.601158467813  -3.39643171632  -0.443581201033  0.0131525979022  -0.168954606533  0.208974831519  
0.869246959686  0.60243735931  -3.40643543552  -0.443176011723  0.0135081952435  -0.169182087045  0.210008615706  
0.877374887466  0.603722795917  -3.41616795524  -0.442853474676  0.0138735729818  -0.169409899188  0.21104342702  
0.885473012924  0.605014581411  -3.42562781194  -0.442612958371  0.0142488268955  -0.169638043689  0.212079265462  
0.893615007401  0.606312507475  -3.43481345441  -0.442453788496  0.0146340587883  -0.169866521308  0.213116131031  
0.901705026627  0.607616353799  -3.44372324502  -0.442375247569  0.0150293764591  -0.170095332836  0.214154023728  
0.909806013107  0.6089258882  -3.45235546114  -0.442376574535  0.0154348936703  -0.170324479087  0.215192943552  
0.917964935303  0.562940605166  -3.16609582377  -0.438470113796  0.023493314214  -0.169439817152  0.209481828141  
0.926096916199  0.424256915579  -2.2880363313  -0.432429930152  0.0460504184382  -0.166081488977  0.189264856617  
0.9341609478  0.422951057204  -2.26832489653  -0.436666572137  0.0460095268624  -0.165859257602  0.188227488456  
0.942281007767  0.421654030718  -2.24893125293  -0.440755080587  0.0459591794665  -0.165636972279  0.187191147422  
0.95028591156  0.420365618153  -2.22985700769  -0.444696184113  0.0458992826042  -0.165414637518  0.186155833516  
0.958369970322  0.419085614924  -2.2111036665  -0.448490570514  0.0458297482984  -0.165192257568  0.185121546737  
0.966451883316  0.417813829733  -2.19267263484  -0.452138886397  0.0457504942134  -0.164969836411  0.184088287085  
0.97473692894  0.416550084474  -2.17456521911  -0.45564173682  0.0321693719121  -0.152848204851  0.183056054561  
0.982738018036  0.415294214146  -2.15678262772  -0.458999684958  0.0182497769686  -0.140433947262  0.182024849165  
0.990876913071  0.414046066776  -2.13932597213  -0.462213251798  0.00432831496881  -0.128023955687  0.180994670895  
0.999011039734  0.412805503335  -2.12219626777  -0.465282915855  -0.00959507410522  -0.115618233053  0.179965519754  
1.00702190399  0.411572397676  -2.10539443491  -0.468209112911  -0.0235204447461  -0.103216782019  0.178937395739  
1.01511192322  0.410346636464  -2.08892129946  -0.470992235789  -0.0374478459392  -0.0908196049798  0.177910298852  
1.02325296402  0.393661664588  -2.07277759364  -0.512186889953  -0.0513773211788  -0.0784267040635  0.176884229092  
1.03129792213  0.318419164448  -2.05696395665  -0.596862598926  -0.0653089084831  -0.0660380811327  0.17585918646  
1.03951001167  0.243333246331  -2.04148093521  -0.681191677961  -0.0792426404067  -0.0536537377839  0.174835170955  
1.0477039814  0.168403847637  -2.02632898402  -0.765174346163  -0.093178544052  -0.0412736753469  0.173812182578  
1.05565190315  0.0936309183542  -2.01150846618  -0.848810778859  -0.107116641078  -0.0288978948853  0.165720937036  
1.06370401382  0.0190144210311  -1.9970196535  -0.932101107506  -0.121056947708  -0.0165263971962  0.0941683979607  
1.07180190086  -0.0554456692456  -1.87387074457  -1.01504541963  -0.134999474736  -0.0041591828099  0.0227327008803  
1.07989597321  -0.0449308257072  -1.76382605162  -1.06052470921  -0.14956794653  0.000887374907063  -0.00595965094828  
1.08794188499  -1.72893351815e-17  -2.03884441274  -1.06533393919  -0.156989259129  -7.40326667625e-05  0.0  
1.09609389305  -1.72893351815e-17  -2.03884441274  -1.06533393919  -0.156989259129  -7.40326667625e-05  0.0  
1.10421705246  -1.72893351815e-17  -2.03884441274  -1.06533393919  -0.156989259129  -7.40326667625e-05  0.0  
1.11230301857  -0.201274063193  -3.13124433163  -2.03050088066  0.0544786390547  0.063548171526  0.128597957927  
1.1205599308  -0.346929484937  -3.14494502983  -2.04232113508  0.0583947738046  0.118288098262  0.204307593709  
1.12869000435  -0.493071985066  -3.15856025179  -2.05437640573  0.062321680712  0.173128082905  0.205881180428  
1.13683104515  -0.562234591931  -3.17208958213  -2.06666632951  0.0662593791723  0.186546232282  0.207457198171  
1.1448340416  -0.564307907601  -3.18553243904  -2.07919039758  0.0702078963524  0.187457740807  0.209035646937  
1.15286588669  -0.566355530747  -3.19888807405  -2.09194795483  0.0741672672039  0.188370687415  0.210616526728  
1.1609890461  -0.568377337393  -3.21215557168  -2.10493819924  0.0781375344803  0.189285075169  0.212199837541  
1.16910791397  -0.57037318127  -3.22533384906  -2.1181601811  0.0821187487579  0.190200907693  0.213785579379  
1.17722988129  -0.572342893943  -3.23842165543  -2.13161280203  0.0861109684599  0.19111818917  0.21537375224  
1.18545389175  -0.574286284961  -3.2514175716  -2.14529481396  0.0901142598854  0.192036924342  0.216964356124  
1.19372105598  -0.576203142038  -3.26432000938  -2.15920481787  0.0941286972408  0.192957118516  0.218557391033  
1.20170092583  -0.578093231259  -3.27712721087  -2.17334126244  0.0981543626758  0.19387877756  0.220152856964  
1.20965600014  -0.579956297314  -3.28983724774  -2.1877024426  0.102191346323  0.194801907908  0.22175075392  
1.21782588959  -0.581792063764  -3.3024480204  -2.20228649786  0.106239746339  0.195726516559  0.223351081899  
1.22588896751  -0.58360023335  -3.31495725723  -2.21709141059  0.110299668955  0.196652611078  0.224953840902  
1.2339849472  -0.58538048833  -3.32736251357  -2.23211500416  0.114371228521  0.197580199598  0.226559030928  
1.24208593369  -0.587132490866  -3.33966117084  -2.24735494089  0.118454547565  0.198509290823  0.228166651978  
1.25020599365  -0.588855883451  -3.35185043549  -2.26280871996  0.122549756845  0.199439894026  0.229776704051  
1.2583129406  -0.59055028939  -3.36392733795  -2.27847367519  0.126656995413  0.200372019051  0.231389187149  
1.26656603813  -0.59221531333  -3.37588873158  -2.29434697265  0.130776410677  0.201305676312  0.233004101269  
1.27448105812  -0.593850541853  -3.38773129148  -2.31042560823  0.134908158467  0.202240876797  0.234621446414  
1.28260207176  -0.595455544127  -3.39945151339  -2.32670640507  0.139052403107  0.203177632067  0.236241222582  
1.29064893723  -0.597029872632  -3.41104571246  -2.3431860109  0.143209317486  0.204115954254  0.237863429774  
1.29873490334  -0.598573063951  -3.42251002207  -2.35986089525  0.147379083136  0.20505585606  0.239488067989  
1.30686807632  -0.600084639652  -3.43384039259  -2.37672734668  0.151561890309  0.205997350759  0.241115137228  
1.31490087509  -0.536683853892  -2.72818482672  -1.95253870317  0.125801493795  0.195157450322  0.218585780766  
1.32304501534  -0.492038166111  -2.22735617307  -1.65218373657  0.104835267136  0.186918087983  0.20171036452  
1.33114290237  -0.490462875325  -2.20554195342  -1.64475387971  0.10117498275  0.186012006057  0.200086178934  
1.33927202225  -0.488865000158  -2.18403534136  -1.63712686109  0.0975050376306  0.185105709206  0.198464424371  
1.34748601913  -0.487244036023  -2.16284092083  -1.62930573172  0.0938253448839  0.184199230854  0.196845100833  
1.35546302795  -0.48559950462  -2.14196307279  -1.62129342927  0.0901358226722  0.183292603069  0.195228208318  
1.36357188225  -0.483930953578  -2.12140597473  -1.61309277475  0.0864363940561  0.18238585654  0.193613746826  
1.37170600891  -0.482237956086  -2.10117360016  -1.60470646928  0.082726986843  0.181479020558  0.192001716358  
1.37979888916  -0.480520110501  -2.08126971832  -1.59613709117  0.0790075334425  0.180572122997  0.190392116914  
1.38786506653  -0.478777039955  -2.06169789378  -1.58738709305  0.0752779707291  0.179665190296  0.188784948494  
1.39594101906  -0.477008391959  -2.04246148616  -1.5784587993  0.0715382399126  0.178758247447  0.187180211097  
1.40404200554  -0.475213837998  -2.02356364995  -1.56935440355  0.0677882864156  0.177851317975  0.185577904723  
1.41215991974  -0.473393073142  -2.00500733422  -1.56007596644  0.064028059758  0.176944423929  0.183978029374  
1.42025589943  -0.471545815657  -1.98679528249  -1.55062541346  0.0602575134495  0.176037585866  0.182380585047  
1.42851495743  -0.46967180663  -1.9689300326  -1.54100453304  0.0564766048892  0.175130822842  0.180785571745  
1.43649196625  -0.467770809608  -1.95141391658  -1.53121497472  0.0526852952729  0.174224152402  0.179192989466  
1.44459009171  -0.465842610259  -1.93424906051  -1.52125824755  0.0488835495071  0.173317590569  0.177602838211  
1.45270705223  -0.463887016043  -1.91743738454  -1.51113571855  0.0450713361319  0.172411151836  0.176015117979  
1.46077108383  -0.461903855923  -1.90098060272  -1.50084861145  0.04124862725  0.171504849158  0.174429828771  
1.46875786781  -0.459892980084  -1.88488022304  -1.49039800545  0.0374153984638  0.170598693949  0.172846970587  
1.47692608833  -0.45785425969  -1.86913754735  -1.47978483422  0.0335716288202  0.169692696072  0.171266543426  
1.48500800133  -0.455787586674  -1.85375367134  -1.46900988498  0.0297173007631  0.168786863836  0.169688547289  
1.4931409359  -0.359775790262  -1.83872948454  -1.4580737978  0.0258524000922  0.145324243446  0.168112982175  
1.50117206573  -0.213730316354  -1.82406567025  -1.44697706494  0.0219769159315  0.0905057788491  0.166539848085  
1.50941300392  -0.068169222242  -1.80976270563  -1.37415674937  0.018090840703  0.0357861211256  0.0706471934463  
1.51749396324  0.0406356687062  -1.41018420552  -0.896947314707  -0.166770079717  -0.00698874078131  -0.0152487996364  
1.52553296089  2.49212737857e-17  -1.89557651351  -1.19292297372  -0.150013781134  0.000370456196418  0.0  
1.53353404999  2.49212737857e-17  -1.89557651351  -1.19292297372  -0.150013781134  0.000370456196418  0.0  
1.54158997536  2.49212737857e-17  -1.89557651351  -1.19292297372  -0.150013781134  0.000370456196418  0.0  
1.54971694946  -0.153408259353  -2.55232497694  -2.18188268272  0.0799553611284  0.158213808361  0.117944513765  
1.55774593353  -0.2561143768  -2.69571561344  -2.19543993948  0.0847290858574  0.202233022748  0.202496620649  
1.56586408615  -0.359067025887  -2.70203321593  -2.20918597732  0.0895146038592  0.204471386219  0.203939513761  
1.57407689095  -0.556141261778  -2.7147101411  -2.23724344952  0.0991210469975  0.208965305541  0.20683143584  
1.58208107948  -0.557636395202  -2.72106884613  -2.25155419472  0.103941992055  0.211220865457  0.208280464807  
1.5902569294  -0.559122284972  -2.72744050478  -2.26605234224  0.108774770263  0.213482162431  0.209731539059  
1.59850502014  -0.560598844476  -2.73382461335  -2.28073733063  0.113619397938  0.215749199761  0.211184658596  
1.60654592514  -0.562065973747  -2.74022058945  -2.29560851108  0.118475893988  0.218021981254  0.212639823418  
1.61459803581  -0.563523559453  -2.74662777151  -2.31066514706  0.123344279947  0.22030051122  0.214097033524  
1.62273597717  -0.564971474879  -2.75304541823  -2.32590641383  0.128224580018  0.222584794474  0.215556288916  
1.63080096245  -0.56640957992  -2.75947270791  -2.34133139792  0.133116821114  0.224874836336  0.217017589593  
1.63904595375  -0.567837721069  -2.76590873776  -2.3569390966  0.13802103291  0.227170642624  0.218480935554  
1.64704394341  -0.569255731405  -2.77235252316  -2.37272841722  0.142937247895  0.229472219661  0.2199463268  
1.65509700775  -0.570663430584  -2.77880299682  -2.38869817659  0.147865501429  0.231779574266  0.221413763332  
1.66324591637  -0.572060624835  -2.78525900788  -2.40484710025  0.152805831806  0.234092713756  0.222883245148  
1.6712949276  -0.573447106956  -2.79171932096  -2.4211738217  0.157758280324  0.23641164594  0.224354772249  
1.67947292328  -0.574822656311  -2.79818261519  -2.4376768816  0.162722891351  0.238736379122  0.225828344635  
1.68752288818  -0.57618703884  -2.80464748307  -2.45435472695  0.167699712406  0.241066922091  0.227303962307  
1.69565296173  -0.57754000707  -2.81111242943  -2.47120571013  0.172688794234  0.243403284125  0.228781625263  
1.70376706123  -0.578881300126  -2.81757587018  -2.48822808803  0.177690190895  0.245745474978  0.230261333504  
1.71190905571  -0.580210643765  -2.82403613107  -2.50542002103  0.18270395985  0.248093504883  0.231743087029  
1.71999406815  -0.581527750403  -2.83049144647  -2.522779572  0.187730162052  0.250447384545  0.23322688584  
1.72813296318  -0.582832319163  -2.83693995794  -2.54030470523  0.192768862046  0.252807125131  0.234712729936  
1.73621892929  -0.584124035929  -2.84337971287  -2.55799328538  0.197820128069  0.255172738271  0.236200619317  
1.74448800087  -0.585402573413  -2.84980866304  -2.57584307628  0.202884032151  0.257544236044  0.237690553982  
1.7525229454  -0.58666759124  -2.85622466314  -2.59385173988  0.207960650228  0.259921630972  0.239182533933  
1.76053786278  -0.587918736042  -2.86262546917  -2.61201683494  0.213050062253  0.262304936015  0.240676559168  
1.76858186722  -0.589155641576  -2.86900873694  -2.63033581594  0.218152352311  0.264694164555  0.242172629689  
1.77669787407  -0.590377928855  -2.8753720204  -2.64880603173  0.223267608738  0.26708933039  0.243670745494  
1.78483486176  -0.591585206307  -2.88171276996  -2.66742472435  0.228395924245  0.26949044772  0.245170906584  
1.79292297363  -0.568576021675  -2.74105110809  -2.49610032182  0.211405092803  0.259522653046  0.237711573782  
1.80104398727  -0.492614151088  -2.27628828022  -1.90461799059  0.148945024387  0.221555677876  0.210077786883  
1.80912399292  -0.49136004627  -2.26576481141  -1.89349417489  0.144037617659  0.219255711061  0.208578606498  
1.8171980381  -0.49010007037  -2.25535191902  -1.88227371116  0.139134940195  0.216957917734  0.207081471397  
1.82542896271  -0.488833834179  -2.24505270291  -1.87095907002  0.134237016988  0.214662333853  0.205586381582  
1.83350801468  -0.487560961762  -2.23487016028  -1.85955264994  0.129343873357  0.212368994186  0.204093337052  
1.84145593643  -0.486281090556  -2.22480718511  -1.8480567758  0.124455534817  0.210077932295  0.202602337807  
1.84961295128  -0.484993871435  -2.21486656763  -1.83647369747  0.119572026956  0.207789180537  0.201113383846  
1.85765695572  -0.483698968777  -2.20505099385  -1.82480558847  0.114693375319  0.20550277005  0.199626475171  
1.8657810688  -0.482396060502  -2.19536304512  -1.81305454472  0.10981960529  0.203218730752  0.19814161178  
1.87399888039  -0.481084838108  -2.18580519772  -1.80122258333  0.104950741989  0.200937091334  0.196658793675  
1.88205885887  -0.479765006695  -2.17637982248  -1.78931164144  0.100086810167  0.198657879254  0.195178020854  
1.89015507698  -0.47843628497  -2.16708918445  -1.77732357519  0.0952278341083  0.196381120736  0.193699293319  
1.89827394485  -0.477098405255  -2.15793544257  -1.76526015865  0.0903738375373  0.194106840766  0.192222611068  
1.90648198128  -0.475751113482  -2.14892064941  -1.75312308293  0.0855248435298  0.191835063088  0.190747974102  
1.91452789307  -0.474394169175  -2.14004675088  -1.74091395523  0.0806808744294  0.189565810201  0.189275382421  
1.92255806923  -0.47302734544  -2.13131558601  -1.728634298  0.0758419517689  0.187299103363  0.187804836025  
1.93070197105  -0.471650428936  -2.12272888672  -1.71628554821  0.0710080961958  0.185034962582  0.186336334914  
1.93866896629  -0.470263219854  -2.11428827764  -1.70386905653  0.0661793274025  0.182773406618  0.184869879088  
1.94676303864  -0.468865531883  -2.10599527595  -1.69138608673  0.0613556640615  0.180514452987  0.183405468547  
1.95478487015  -0.467457192185  -2.09785129116  -1.67883781499  0.0565371237643  0.17825811795  0.181943103291  
1.96301603317  -0.466038041356  -2.08985762505  -1.66622532936  0.051723722966  0.176004416523  0.180482783319  
1.97104406357  -0.464607933397  -2.08201547149  -1.6535496292  0.0469154769331  0.173753362471  0.179024508633  
1.97917604446  -0.46316673568  -2.07432591634  -1.64081162469  0.0421123996964  0.171504968308  0.177568279231  
1.98722100258  -0.461714328918  -2.06678993736  -1.62801213645  0.0373145040083  0.169259245301  0.176114095115  
1.99539709091  -0.460250607131  -2.05940840411  -1.61515189508  0.0325218013042  0.167016203465  0.174661956283  
2.00349903107  -0.458775477624  -2.05218207791  -1.60223154083  0.0277343016684  0.164775851566  0.173211862737  
2.01156306267  -0.417947071499  -2.04511161174  -1.58925162333  0.0229520138044  0.162538197124  0.171763814475  
2.01956796646  -0.31463014704  -2.03819755019  -1.57621260131  0.018174945009  0.160303246404  0.170317811498  
2.02766299248  -0.211557178422  -2.03144032943  -1.56311484237  0.0134031011512  0.158071004428  0.168873853806  
2.03577804565  -0.108728125844  -2.02484027718  -1.54995862285  0.00863648665541  0.155841474967  0.136107880406  
2.04384899139  -0.00614296268829  -1.70718033904  -1.33536330867  -0.0272450643207  0.0483550106965  0.0352290360925  
2.05196404457  0.0245451912601  -1.66398345016  -1.11726335929  -0.166088968893  -0.0102665916405  -0.00894578935911  
2.06005191803  7.16376605434e-18  -1.82478560947  -1.31768274557  -0.146510061639  0.00198135537422  0.0  
2.06819105148  7.16376605434e-18  -1.82478560947  -1.31768274557  -0.146510061639  0.00198135537422  0.0  
2.07626605034  7.16376605434e-18  -1.82478560947  -1.31768274557  -0.146510061639  0.00198135537422  0.0  
2.08460497856  -0.154011567679  -2.46623290253  -2.26923099743  0.0826552016369  0.212931265163  0.0451409179392  
2.0925579071  -0.259729133543  -2.6257891532  -2.28118870284  0.0874292554565  0.21612653903  0.0837340575025  
2.10061502457  -0.365707645672  -2.63171811894  -2.29328507  0.0922153226474  0.219332538218  0.122361319698  
2.10869693756  -0.471947077531  -2.63761963425  -2.30551989975  0.0970134104695  0.222549264262  0.161022704527  
2.11673688889  -0.553964022158  -2.64349343662  -2.31789291314  0.101823529099  0.225776719312  0.191768932853  
2.12482690811  -0.555500288959  -2.6493391883  -2.33040375136  0.106645691643  0.229014906128  0.19232119943  
2.13294005394  -0.557026619055  -2.65515647612  -2.34305197551  0.111479914151  0.232263828077  0.19287376597  
2.1411190033  -0.558542943562  -2.66094481128  -2.35583706651  0.11632621564  0.235523489129  0.193426632472  
2.14919090271  -0.560049183051  -2.66670362907  -2.36875842482  0.121184618115  0.238793893858  0.193979798938  
2.15730595589  -0.561545247566  -2.67243228858  -2.38181537022  0.126055146597  0.242075047431  0.194533265367  
2.16538500786  -0.563031036657  -2.67813007239  -2.39500714154  0.130937829152  0.245366955605  0.19508703176  
2.17362189293  -0.564506439408  -2.68379618616  -2.40833289634  0.135832696925  0.248669624722  0.195641098115  
2.1816470623  -0.565971334473  -2.68942975825  -2.42179171059  0.14073978418  0.251983061702  0.196195464433  
2.18972086906  -0.56742559012  -2.69502983924  -2.43538257828  0.145659128336  0.255307274034  0.196750130715  
2.19779896736  -0.568869064279  -2.70059540151  -2.44910441105  0.150590770016  0.258642269768  0.19730509696  
2.20596790314  -0.571723048475  -2.71161846488  -2.47693620397  0.160491124727  0.265344646391  0.198415929339  
2.21395087242  -0.571723048475  -2.71161846488  -2.47693620397  0.160491124727  0.265344646391  0.198415929339  
2.2220480442  -0.573133223193  -2.71707351463  -2.49104357165  0.16545993545  0.268712046099  0.198971795473  
2.23014092445  -0.575919023873  -2.72786391891  -2.51963413735  0.175435093354  0.275479319261  0.20008442763  
2.2381939888  -0.577294254315  -2.73319633693  -2.53411423597  0.180441558874  0.278879214604  0.200641193654  
2.24631094933  -0.57865742476  -2.73848480407  -2.5487153361  0.185460700283  0.282289964517  0.201198259641  
2.25454306602  -0.580008313034  -2.74372764527  -2.56343567307  0.190492585782  0.285711581126  0.20175562559  
2.26261591911  -0.581346687425  -2.74892310138  -2.57827339515  0.195537287312  0.289144076997  0.202313291503  
2.27062988281  -0.582672306824  -2.7540693284  -2.59322656287  0.200594880624  0.29258746512  0.20287125738  
2.27859187126  -0.583984920881  -2.7591643966  -2.60829314844  0.20566544536  0.296041758886  0.203429523219  
2.28668498993  -0.585284270186  -2.76420628971  -2.62347103503  0.21074906513  0.299506972065  0.203988089021  
2.29476308823  -0.586570086455  -2.76919290407  -2.63875801612  0.215845827596  0.302983118787  0.204546954787  
2.302932024  -0.587842092743  -2.77412204768  -2.6541517948  0.220955824552  0.306470213511  0.205106120515  
2.31096601486  -0.589100003677  -2.77899143936  -2.66964998306  0.226079152013  0.309968271001  0.205665586207  
2.3190779686  -0.524121990229  -2.36380305378  -2.19276401459  0.171843663762  0.262166222739  0.196400995085  
2.32721090317  -0.49363603596  -2.16707360958  -1.96686185034  0.143109707842  0.23765792978  0.191732232674  
2.33533191681  -0.492335489741  -2.15656553864  -1.95642016722  0.138137036166  0.234300693816  0.191173179627  
2.34356093407  -0.491027250482  -2.14619521608  -1.94591219518  0.133171733935  0.230949466294  0.190614426542  
2.35164093971  -0.489711029234  -2.13596509883  -1.93534004908  0.128213833303  0.227604282481  0.190055973421  
2.35969996452  -0.488386548631  -2.12587755405  -1.92470577231  0.123263365994  0.224265176313  0.189497820263  
2.36772489548  -0.487053542833  -2.115934859  -1.91401133603  0.118320363215  0.220932180388  0.188939967068  
2.37581086159  -0.485711757466  -2.10613920086  -1.90325863838  0.113384855571  0.217605325972  0.188382413836  
2.38392806053  -0.484360949556  -2.09649267662  -1.89244950382  0.108456872981  0.214284642997  0.187825160568  
2.3920249939  -0.483000887452  -2.08699729298  -1.88158568239  0.103536444607  0.210970160067  0.187268207262  
2.40010404587  -0.48163135075  -2.07765496623  -1.8706688491  0.0986235987772  0.207661904456  0.18671155392  
2.40823698044  -0.480252130213  -2.06846752221  -1.85970060335  0.0937183629152  0.204359902114  0.18615520054  
2.41630601883  -0.478863027685  -2.05943669619  -1.84868246833  0.088820763478  0.20106417767  0.185599147124  
2.42443299294  -0.477463856008  -2.05056413287  -1.83761589052  0.0839308258927  0.197774754432  0.185043393671  
2.43263101578  -0.476054438939  -2.04185138629  -1.82650223919  0.0790485744979  0.194491654397  0.184487940182  
2.4407389164  -0.474634611056  -2.03329991983  -1.81534280592  0.0741740324898  0.19121489825  0.183932786655  
2.44874000549  -0.473204217683  -2.02491110614  -1.8041388042  0.0693072218706  0.187944505369  0.183377933091  
2.45677399635  -0.471763114802  -2.01668622714  -1.79289136903  0.0644481634008  0.184680493829  0.182823379491  
2.46483898163  -0.470311168971  -2.00862647402  -1.78160155653  0.0595968765553  0.181422880406  0.182269125854  
2.47290897369  -0.46884825725  -2.00073294721  -1.77027034364  0.0547533794819  0.178171680581  0.181715172179  
2.48104000092  -0.467374267125  -1.99300665635  -1.75889862777  0.0499176889638  0.174926908545  0.181161518468  
2.48914599419  -0.465889096436  -1.98544852033  -1.74748722654  0.0450898203856  0.171688577198  0.180608164721  
2.49727606773  -0.464392653317  -1.97805936726  -1.73603687756  0.0402697877014  0.168456698158  0.180055110936  
2.50532889366  -0.462884856129  -1.9708399345  -1.72454823813  0.0354576034073  0.16523128176  0.179502357114  
2.51362299919  -0.46136563341  -1.96379086862  -1.71302188512  0.0306532785164  0.162012337061  0.178949903256  
2.5215959549  -0.444860505931  -1.95691272542  -1.70145831472  0.0258568225369  0.158799871841  0.172014438176  
2.52968502045  -0.338465782411  -1.95020596996  -1.68985794236  0.0210682434537  0.155593892606  0.133331748885  
2.53774690628  -0.232330192809  -1.94367097653  -1.67822110255  0.0162875477127  0.152394404592  0.0946831822254  
2.54584693909  -0.126453705935  -1.93730802866  -1.66654804878  0.0115147402084  0.14920141176  0.0560687381989  
2.55388498306  -0.0208363005976  -1.647267653  -1.47804154861  0.00655609707399  0.0899842230752  0.0174884168051  
2.56200408936  0.0280798559538  -1.54290370084  -1.18090062701  -0.167728080161  -0.0172118577227  -0.00410940940042  
2.57012701035  2.29246522851e-17  -1.73374107086  -1.39796307134  -0.144430687555  0.00400532042385  0.0  
2.57815694809  2.29246522851e-17  -1.73374107086  -1.39796307134  -0.144430687555  0.00400532042385  0.0  
2.58620595932  2.29246522851e-17  -1.73374107086  -1.39796307134  -0.144430687555  0.00400532042385  0.0  
2.59433794022  -0.966807161354  -2.59421211312  -1.6572024147  0.0798235050111  0.10371543939  0.0  
2.60252404213  -0.978942675165  -2.60304883645  -1.79704297956  0.0840429039323  0.191856428481  0.0  
2.6104259491  -0.991082956661  -2.61170738068  -1.93742316243  0.0882697035951  0.194220347599  0.0  
2.61871099472  -1.00322799628  -2.62018762278  -2.07834290283  0.0925039114297  0.195688062506  0.0  
2.62665700912  -1.01537778083  -2.62848939042  -2.12753491944  0.0967455378437  0.197159450065  0.0  
2.63473105431  -1.02753229368  -2.63661246194  -2.13012431202  0.100994596228  0.198634515456  0.0  
2.64273905754  -1.03969151505  -2.64455656636  -2.13274825989  0.105251102965  0.200113265002  0.0  
2.65080404282  -1.05185542226  -2.65232138319  -2.13540660528  0.109515077435  0.201595706167  0.0  
2.65884590149  -1.06402399014  -2.65990654245  -2.13809916592  0.113786542028  0.203081847548  0.0  
2.66694688797  -1.07619719145  -2.6673116245  -2.14082573491  0.118065522157  0.204571698871  0.0  
2.67503499985  -1.08837499737  -2.67453615998  -2.14358608061  0.122352046266  0.206065270986  0.0  
2.68308591843  -1.10055737799  -2.68157962963  -2.14637994651  0.126646145854  0.207562575856  0.0  
2.69121694565  -1.11274430299  -2.68844146421  -2.14920705109  0.130947855482  0.20906362655  0.0  
2.69934797287  -1.12493574221  -2.69512104428  -2.15206708762  0.135257212798  0.210568437235  0.0  
2.70747900009  -1.13713166643  -2.7016177001  -2.15495972403  0.139574258551  0.212077023164  0.0  
2.71568489075  -1.14933204812  -2.70793071142  -2.15788460266  0.143899036618  0.213589400669  0.0  
2.72372794151  -1.16153686228  -2.7140593073  -2.16084134006  0.148231594018  0.215105587142  0.0  
2.7317109108  -1.17374608733  -2.72000266588  -2.16382952678  0.152571980944  0.216625601031  0.0  
2.73980307579  -1.18595970605  -2.7257599142  -2.16684872709  0.156920250783  0.218149461817  0.0  
2.74789595604  -1.19817770665  -2.73133012795  -2.16989847873  0.161276460143  0.21967719001  0.0  
2.75598406792  -0.684837959754  -2.32781204161  -2.03548521327  0.121847875672  0.206095082039  0.0  
2.76411700249  -0.277518974673  -2.0060649945  -1.93000689501  0.0874492838137  0.194243495204  0.0  
2.77217507362  -0.265304744357  -1.99175561282  -1.9289100967  0.0830687121248  0.192760362282  0.0  
2.78030896187  -0.253095429132  -1.97772492166  -1.92773648158  0.0786972440994  0.191278661356  0.0  
2.78837203979  -0.240890970312  -1.96397372052  -1.9264870583  0.0743349250599  0.189798410386  0.0  
2.79645705223  -0.228691317829  -1.95050275759  -1.92516277762  0.0699817978683  0.18831962623  0.0  
2.80467700958  -0.216496429312  -1.9373127307  -1.9237645324  0.0656379028998  0.186842324658  0.0  
2.81272792816  -0.204306269222  -1.92440428818  -1.92229315756  0.0613032780168  0.185366520361  0.0  
2.82085394859  -0.192120808031  -1.91177802967  -1.92074942998  0.0569779585464  0.183892226964  0.0  
2.82883787155  -0.179940021464  -1.89943450692  -1.91913406854  0.0526619772581  0.182419457031  0.0  
2.83703589439  -0.167763889795  -1.88737422446  -1.91744773406  0.0483553643442  0.18094822208  0.0  
2.84506201744  -0.155592397194  -1.87559764029  -1.91569102928  0.0440581474014  0.179478532586  0.0  
2.85318088531  -0.143425531133  -1.86410516647  -1.91386449886  0.0397703514145  0.178010397991  0.0  
2.86130690575  -0.131263281852  -1.85289716966  -1.91196862938  0.0354919987411  0.176543826711  0.0  
2.86942100525  -0.119105641868  -1.84197397157  -1.91000384927  0.0312231090988  0.175078826143  0.0  
2.8777179718  -0.10695260556  -1.83133584947  -1.9079705289  0.0269636995533  0.173615402669  0.0  
2.8857178688  -0.0948041687969  -1.82098303645  -1.84145105426  0.0227137845083  0.172153561661  0.0  
2.89375591278  -0.0826603286261  -1.81091572185  -1.70094643195  0.0184733756974  0.170693307486  0.0  
2.90185594559  -0.0705210830228  -1.8011340514  -1.56087870687  0.0142424821768  0.157202093643  0.0  
2.90997099876  -0.0583864306944  -1.75054755482  -1.42124801688  0.0100211103206  0.0690971036013  0.0  
2.91810393333  -3.39472784709e-17  -1.63684416585  -1.41960888459  -0.14482867503  0.00445492772189  0.0  
2.92620491982  -3.39472784709e-17  -1.63684416585  -1.41960888459  -0.14482867503  0.00445492772189  0.0  
2.93416595459  -3.39472784709e-17  -1.63684416585  -1.41960888459  -0.14482867503  0.00445492772189  0.0  
2.94235301018  -0.342974118259  -2.38065932607  -0.433633141707  -0.145545926538  0.09547162155  0.0  
2.95031094551  -0.583292888173  -2.41762583738  -0.415135099478  -0.14555261736  0.173862293881  0.0  
2.95839095116  -0.612313099806  -2.42509695725  -0.396542767449  -0.145563764687  0.195189098084  0.0  
2.96653985977  -0.6158469595  -2.43230037354  -0.377856121368  -0.145579362456  0.196494120273  0.0  
2.97479104996  -0.619362791964  -2.43923602674  -0.359075127329  -0.145599402182  0.197802131032  0.0  
2.98258900642  -0.622860660027  -2.44590384057  -0.340199741815  -0.145623872962  0.199113131665  0.0  
2.99078702927  -0.626340640584  -2.45230372198  -0.321229911753  -0.145652761478  0.200427123762  0.0  
2.99882006645  -0.492215271292  -2.10731674833  -0.838818356195  -0.144803410061  0.183610785324  0.0  
3.00693798065  -0.414248136175  -1.90673461105  -1.14434523622  -0.144350458934  0.173101677408  0.0  
3.01507687569  -0.410745082092  -1.89712730613  -1.16297809589  -0.144385315795  0.171803982374  0.0  
3.02318692207  -0.407223882542  -1.88780108069  -1.1815579218  -0.144413491337  0.17050688851  0.0  
3.03128004074  -0.403684596466  -1.87875599405  -1.20008477321  -0.144434986076  0.169210394599  0.0  
3.03941702843  -0.307684778089  -1.86999209141  -1.21855869535  -0.144449800411  0.126106418622  0.0  
3.04757595062  -0.0677518073537  -1.69895037193  -1.23697971942  -0.144457934617  0.0477764607503  0.0  
3.05562591553  0.0743578165379  -1.43132956964  -1.70547521322  -0.144648892146  -0.00469274492738  0.0  
3.0663599968  -1.23586727664e-19  -1.62198274396  -1.41848881967  -0.14512999847  0.00451958577269  0.0  
3.07435798645  -1.23586727664e-19  -1.62198274396  -1.41848881967  -0.14512999847  0.00451958577269  0.0  
3.08246207237  -1.23586727664e-19  -1.62198274396  -1.41848881967  -0.14512999847  0.00451958577269  0.0  
3.09053587914  -0.993535901714  -1.53890584493  -0.988256751533  -0.139002747972  -0.157434392086  0.137826020416  
3.09863996506  -1.00573816812  -1.53893383586  -0.70127113985  -0.139014772038  -0.193352546971  0.205876060562  
3.10672497749  -1.01798970138  -1.53898046044  -0.695381052143  -0.139034808463  -0.195755176126  0.207562903186  
3.11478304863  -1.03029048801  -1.53904567824  -0.689463453935  -0.139062851716  -0.198164200382  0.209252537817  
3.12286996841  -0.527549073676  -1.62521281936  -0.832191868516  -0.145446649747  -0.167733498997  0.188339916818  
3.13097906113  -0.0499691277964  -1.70491824663  -0.970069961791  -0.151346794517  -0.137224195188  0.167337277977  
3.13925790787  -0.0377195026077  -1.70479564304  -0.978504966179  -0.151350560874  -0.134828842275  0.165650542059  
3.14734387398  -0.0255191446849  -1.70472284375  -1.27383853179  -0.151352797185  -0.0939248434366  0.0931590608698  
3.15531802177  0.465260815503  -1.70152655814  -1.55023670372  -0.151119315285  0.0326007634947  -0.0193131109149  
3.16332697868  -2.15555756995e-17  -1.62166988425  -1.4181738958  -0.145225805525  0.00449091010045  0.0  
3.17158889771  -2.15555756995e-17  -1.62166988425  -1.4181738958  -0.145225805525  0.00449091010045  0.0  
3.17955803871  -2.15555756995e-17  -1.62166988425  -1.4181738958  -0.145225805525  0.00449091010045  0.0  
3.18769288063  -0.522042396805  -1.59848478959  -1.42032640318  -0.144095307187  -0.216103261465  0.0  
3.19582700729  -0.705104553186  -1.59849502788  -1.42032599583  -0.144097568377  -0.220937415067  0.0  
3.20383191109  -0.710004113601  -1.59851209014  -1.42032531504  -0.144101334502  -0.225795374531  0.0  
3.21195888519  -0.374569460815  -1.63744056473  -1.41671182404  -0.146000657774  -0.135302955854  0.0  
3.22002387047  -0.23104665549  -1.64486297747  -1.41602367604  -0.146362812098  -0.113825597253  0.0  
3.22819685936  0.0940624102125  -1.64485821144  -1.41602473961  -0.146362703534  -0.0291110685948  0.0  
3.23623991013  0.0633998012713  -1.62910747327  -1.41748836976  -0.145594962372  0.0211054781436  0.0  
3.24436306953  -1.90911963997e-17  -1.62167496845  -1.41817901354  -0.145232674755  0.0044578561001  0.0  
3.25244092941  -1.90911963997e-17  -1.62167496845  -1.41817901354  -0.145232674755  0.0044578561001  0.0  
3.2605369091  -1.90911963997e-17  -1.62167496845  -1.41817901354  -0.145232674755  0.0044578561001  0.0  
3.26869702339  -0.993780919266  -1.53019872236  -1.05400749263  0.0944279651173  0.000142796351436  0.0  
3.27673792839  -1.00599114838  -1.53023944069  -0.808341962111  0.0983598724049  0.000143689292181  0.0  
3.28485608101  -1.01825594545  -1.53030727971  -0.715059739421  0.102284347803  0.000145177776861  0.0  
3.29295301437  -0.505258629025  -1.62710380462  -0.842643015294  0.0488788698654  0.00471475834951  0.0  
3.30105209351  -0.0371983346753  -1.71315121567  -1.06327498648  -0.00238804913232  0.00878059315585  0.0  
3.30929803848  -0.0249913127856  -1.71309860064  -1.30882264249  -0.00636432307039  0.00878186263122  0.0  
3.31727600098  0.455794980589  -1.70774633198  -1.53140068347  -0.192683292136  0.00853048226415  0.0  
3.32544088364  6.49594019263e-18  -1.62161862828  -1.41812230165  -0.145416208835  0.00446674949836  0.0  
3.33346796036  6.49594019263e-18  -1.62161862828  -1.41812230165  -0.145416208835  0.00446674949836  0.0  
3.3416030407  6.49594019263e-18  -1.62161862828  -1.41812230165  -0.145416208835  0.00446674949836  0.0  
3.3496670723  -0.89635604589  -1.59208387792  -1.4312251736  -0.387017266482  -0.157276654453  0.226182223906  
3.35775399208  -0.906156420572  -1.59209637806  -1.43119750042  -0.391867651745  -0.19252082034  0.229576287463  
3.36580896378  -0.9159881399  -1.59211719852  -1.43115136904  -0.396723272997  -0.194938501131  0.23298163511  
3.37397193909  -0.256022692166  -1.64166366877  -1.40912793546  -0.306199399465  -0.145750794293  0.162870800945  
3.38226985931  0.181345753847  -1.65105884917  -1.40492254504  -0.189596226697  -0.00996125802992  0.0354845834694  
3.39029192924  0.124710335708  -1.630988513  -1.4138217012  -0.128641515952  0.0135219167799  -0.0129424722501  
3.39835906029  3.48880972249e-18  -1.62151817395  -1.41802118455  -0.14528048562  0.00444346900999  0.0  
3.40637898445  3.48880972249e-18  -1.62151817395  -1.41802118455  -0.14528048562  0.00444346900999  0.0  
3.41447496414  3.48880972249e-18  -1.62151817395  -1.41802118455  -0.14528048562  0.00444346900999  0.0  
3.42255592346  -0.993803773494  -1.56538626363  -1.42399139839  -0.142805382032  0.000323006374332  0.0  
3.4306230545  -1.00601807485  -1.56542745301  -1.42398034421  -0.142809298595  0.000322841866727  0.0  
3.43875098228  -0.853365734526  -1.58412568398  -1.42198392027  -0.14363620083  0.00169175344172  0.0  
3.44687700272  -0.0338204341335  -1.67770200111  -1.41203703757  -0.147760525808  0.00856372429326  0.0  
3.45503497124  -0.0216251714903  -1.67766993569  -1.4120456431  -0.147757476814  0.00856385236038  0.0  
3.46310186386  0.323226311351  -1.65900837597  -1.41403222542  -0.146934061526  0.00719479432288  0.0  
3.47131299973  3.48880972249e-18  -1.62151817395  -1.41802118455  -0.14528048562  0.00444346900999  0.0  
3.47924995422  3.48880972249e-18  -1.62151817395  -1.41802118455  -0.14528048562  0.00444346900999  0.0  
3.48738598824  3.48880972249e-18  -1.62151817395  -1.41802118455  -0.14528048562  0.00444346900999  0.0  
3.49541091919  -0.32615122083  -1.5972799369  -1.41418877047  0.0776018742758  -0.0957156243633  0.237121674622  
3.50347805023  -0.529532200203  -1.59729280794  -1.41419602934  0.080569777283  -0.179245204307  0.241369518575  
3.51161193848  -0.630511627112  -1.59731425738  -1.41420812433  0.0835346008531  -0.180751295077  0.24563499371  
3.51973891258  -0.632939049778  -1.59746559999  -1.41424429264  0.0863092120963  -0.182168235797  0.249644001916  
3.52774906158  -0.382955725266  -1.64584386256  -1.42193086551  0.0146841137976  -0.147094970692  0.144691069644  
3.53584885597  -0.280970993063  -1.64585539576  -1.42195195291  0.0116747670392  -0.145181092425  0.140425682772  
3.54398107529  -0.0775950153668  -1.64586230334  -1.4219645858  0.00774806004974  -0.0616541037953  0.136177927082  
3.55229401588  0.123152027746  -1.64574323822  -1.42194953795  -0.179636813701  0.0211758203591  -0.0502086507751  
3.56019592285  -2.54650931774e-19  -1.62162366772  -1.41812737434  -0.145423017596  0.00443362225542  0.0  
3.56830000877  -2.54650931774e-19  -1.62162366772  -1.41812737434  -0.145423017596  0.00443362225542  0.0  
3.57635402679  -2.54650931774e-19  -1.62162366772  -1.41812737434  -0.145423017596  0.00443362225542  0.0  
3.58447194099  0.00201071659872  -1.62403301685  -1.20768129827  -0.38724379407  -0.0747046240981  0.0  
3.59252405167  0.00201202916159  -1.62400770263  -1.06014300124  -0.392095474095  -0.141482477237  0.0  
3.6006360054  0.00201421633025  -1.62396549984  -0.91193926997  -0.396953254187  -0.175522610213  0.0  
3.60874795914  0.00201727745  -1.62390638984  -0.774487799316  -0.401817121951  -0.176731536607  0.0  
3.61684608459  -0.000118963686352  -1.62125969491  -0.84206868786  -0.346147741484  -0.163410068285  0.0  
3.6249859333  -0.00201232746865  -1.61891830175  -1.04800002051  -0.29227663813  -0.150488844228  0.0  
3.63311886787  -0.00201445979147  -1.61887081441  -1.19607370407  -0.287362909799  -0.11243115344  0.0  
3.64129090309  -0.00201571749519  -1.61884279659  -1.34351855128  -0.282478377223  -0.0456651083294  0.0  
3.64927792549  -0.00189247814123  -1.61898299551  -1.47745098328  -0.0962623113393  0.0161278995288  0.0  
3.65736794472  2.44170635181e-17  -1.62126054888  -1.41776185975  -0.145192356824  0.00440584143656  0.0  
3.66543889046  2.44170635181e-17  -1.62126054888  -1.41776185975  -0.145192356824  0.00440584143656  0.0  
3.67357897758  2.44170635181e-17  -1.62126054888  -1.41776185975  -0.145192356824  0.00440584143656  0.0  
3.68174886703  -0.00206081435508  -1.61438559833  -1.41416109868  0.00285439021369  -0.127755749386  0.237121674622  
3.6897289753  -0.00206054573833  -1.61439267038  -1.41416706319  0.0668272471401  -0.184461184157  0.241369518575  
3.69783306122  -0.00206009795652  -1.61440445572  -1.4141770025  0.0688004956376  -0.186472254188  0.24563499371  
3.70595192909  -0.00205947087889  -1.61442095222  -1.41419091427  0.0707703262316  -0.188487963722  0.249918100028  
3.714179039  -0.00162930691141  -1.6158755033  -1.4149606882  0.0676223374858  -0.185709807655  0.242801180355  
3.72226405144  0.00206076069442  -1.62821338948  -1.42144125635  0.025224542663  -0.146076189459  0.148101221798  
3.73030686378  0.0020601708187  -1.62822755835  -1.42145805206  0.0232138932787  -0.144068706762  0.143821791043  
3.73852396011  0.00205976004173  -1.6282374194  -1.42146974203  0.0212120099159  -0.142063657678  0.139559991471  
3.74651098251  0.00205952848324  -1.62824297604  -1.42147632951  -0.0685827391069  -0.0625772141797  0.13531582308  
3.75459098816  0.00163013531786  -1.62681095155  -1.42072592078  -0.163178146408  0.0210020861117  -0.039941633177  
3.7626490593  -7.74084461357e-17  -1.62136862878  -1.41787065272  -0.145338382891  0.00437941009416  0.0  
3.77076792717  -7.74084461357e-17  -1.62136862878  -1.41787065272  -0.145338382891  0.00437941009416  0.0  
3.7788310051  -7.74084461357e-17  -1.62136862878  -1.41787065272  -0.145338382891  0.00437941009416  0.0  
3.78698706627  0.0022319651812  -1.59925810432  -1.05283605804  -0.142366323967  0.0736312840029  0.237121674622  
3.79508304596  0.00223293603736  -1.5992430889  -0.805858965168  -0.142372023316  0.13261070932  0.241369518575  
3.80315804482  0.00223455408349  -1.59921805479  -0.715111633581  -0.142381521327  0.191706216497  0.24563499371  
3.81141805649  0.00223681924833  -1.59918298939  -0.710175033196  -0.142394816644  0.192687062176  0.249918100028  
3.81948494911  0.00177418934756  -1.60373421244  -0.731190806087  -0.143030671901  0.191303177884  0.242818109933  
3.82746100426  -0.00223216018656  -1.64324583195  -0.95079954944  -0.148373581588  0.171714365735  0.148102547379  
3.83556985855  -0.00223429055112  -1.6431902694  -0.955643436257  -0.148384508976  0.158632596935  0.143823111174  
3.84368491173  -0.00223577368946  -1.6431515755  -1.09686289509  -0.148392115652  0.0995652284308  0.139561306151  
3.85176801682  -0.00223660966699  -1.64312976124  -1.34342921339  -0.148396402877  0.0406122072909  0.13531713231  
3.85991001129  -0.00177119697189  -1.63852866361  -1.5124580576  -0.147778427197  -0.00382560124005  -0.0399572317249  
3.86800694466  -4.60735117058e-18  -1.62104627368  -1.41754617082  -0.145423696278  0.00440019740485  0.0  
3.87607502937  -4.60735117058e-18  -1.62104627368  -1.41754617082  -0.145423696278  0.00440019740485  0.0  
3.88422298431  -4.60735117058e-18  -1.62104627368  -1.41754617082  -0.145423696278  0.00440019740485  0.0  
3.89251208305  0.00156030754031  -1.61656733424  -1.23874824868  -0.291523217722  0.00441193799757  0.237121674622  
3.90056085587  0.00156064169144  -1.61655212524  -1.11593512234  -0.35529486509  0.00441166566372  0.241369518575  
3.90864896774  0.00156119858526  -1.61652677414  -0.992662838091  -0.357310683106  0.00441121174572  0.24563499371  
3.91672205925  0.0015619781847  -1.61649127682  -0.868931391932  -0.359325689953  0.00441057620124  0.249918100028  
3.92484307289  0.00123738157141  -1.61737711554  -0.792846636897  -0.356541573648  0.00440728146472  0.242801180355  
3.93295907974  -0.00156037484079  -1.62533524687  -1.00754711963  -0.316899352771  0.00438516331185  0.148101221798  
3.9410610199  -0.00156110796304  -1.62529634462  -1.13111008305  -0.314858149632  0.00438451817912  0.143821791043  
3.94914007187  -0.00156161832375  -1.62526925816  -1.25423599125  -0.31282404285  0.00438406900601  0.139559991471  
3.95742297173  -0.00156190595693  -1.62525399083  -1.37692484772  -0.223331891698  0.00438381583355  0.13531582308  
3.96540403366  -0.00123635155018  -1.62431901372  -1.46195974811  -0.128718477614  0.00438623896367  -0.039941633177  
3.97360396385  -3.4379389666e-17  -1.62078309089  -1.41728125163  -0.14532893392  0.00439567242507  0.0  
3.9815890789  -3.4379389666e-17  -1.62078309089  -1.41728125163  -0.14532893392  0.00439567242507  0.0  
3.98969101906  -3.4379389666e-17  -1.62078309089  -1.41728125163  -0.14532893392  0.00439567242507  0.0  
3.99772691727  -0.215890416111  -1.61138366447  -1.41828787565  -0.144914426719  0.00370564787313  0.237121674622  
4.00590801239  -0.351144498106  -1.61138481828  -1.41828756371  -0.144914536543  0.00370564319271  0.241369518575  
4.01403093338  -0.586800987857  -1.61138943349  -1.41828631598  -0.144914975838  0.00370562447101  0.249918100028  
4.02213191986  -0.571536945316  -1.61334889017  -1.41807601936  -0.145001527181  0.00384925720632  0.242817458806  
4.03020405769  -0.424216738384  -1.63018843169  -1.41627302864  -0.145744004077  0.00508567298521  0.148102496396  
4.03845095634  -0.296397215241  -1.63018589961  -1.4162737132  -0.145743763063  0.00508568325665  0.1438230604  
4.04651594162  -0.16079184626  -1.63018413673  -1.41627418979  -0.145743595264  0.0050856904078  0.139561255587  
4.05454587936  -0.0256301179046  -1.63018314305  -1.41627445844  -0.145743500682  0.00508569443867  0.135317081956  
4.06261897087  0.0642013789454  -1.62822612267  -1.4164840964  -0.145657181237  0.00494205182045  -0.0399566317899  
4.07063007355  -3.4379389666e-17  -1.62078309089  -1.41728125163  -0.14532893392  0.00439567242507  0.0  
4.07874703407  -3.4379389666e-17  -1.62078309089  -1.41728125163  -0.14532893392  0.00439567242507  0.0  
4.08676886559  -3.4379389666e-17  -1.62078309089  -1.41728125163  -0.14532893392  0.00439567242507  0.0  
4.09490299225  -0.215193251871  -1.61150942867  -1.41833758405  -0.144941879499  0.0730418000332  0.237121674622  
4.10295987129  -0.350415494924  -1.61151044433  -1.4183371688  -0.144941785095  0.1320209605  0.241369518575  
4.11103606224  -0.486081178856  -1.61151213701  -1.41833647663  -0.144941627645  0.191116025997  0.24563499371  
4.11914205551  -0.586133617367  -1.6115145066  -1.41833550742  -0.144941406982  0.192096252777  0.249918100028  
4.12733697891  -0.57100874331  -1.61344722089  -1.41811450631  -0.14502160453  0.190837627254  0.242818109933  
4.13547301292  -0.424880470155  -1.63006072096  -1.41622154412  -0.145714099763  0.172333007059  0.148102547379  
4.1435148716  -0.296975458784  -1.6300578061  -1.41622176495  -0.145713380172  0.15925065639  0.143823111174  
4.15155887604  -0.161402081646  -1.63005577661  -1.4162219186  -0.145712879038  0.100182882466  0.139561306151  
4.1596570015  -0.0262721453871  -1.63005463262  -1.41622200516  -0.145712596513  0.0412296326909  0.13531713231  
4.17048096657  0.0636754053449  -1.62812392584  -1.41644199139  -0.145631976284  -0.00333424010633  -0.0399572317249  
4.17848587036  -3.64319106672e-17  -1.62078059266  -1.41727873691  -0.145325558574  0.00441222244174  0.0  
4.18659901619  -3.64319106672e-17  -1.62078059266  -1.41727873691  -0.145325558574  0.00441222244174  0.0  
4.1945939064  -3.64319106672e-17  -1.62078059266  -1.41727873691  -0.145325558574  0.00441222244174  0.0  
4.20267796516  -0.523824361003  -1.58173569287  -1.41105214947  0.100039152767  -0.216311024831  0.0  
4.21080303192  -0.706888486456  -1.58176128839  -1.41106176466  0.104795340093  -0.221144143509  0.0  
4.21889400482  -0.711791325315  -1.58180394348  -1.41107778355  0.109551640679  -0.226000383413  0.0  
4.22697687149  -0.373359429578  -1.64740430116  -1.42158608621  0.0137464798706  -0.135289486583  0.0  
4.23506498337  -0.229262123793  -1.65993172642  -1.42361359884  -0.00872243709843  -0.113769696325  0.0  
4.24312996864  0.095848016777  -1.65993544924  -1.42362618248  -0.10404221546  -0.0290546552788  0.0  
4.25132489204  0.0639722923812  -1.63340711513  -1.41938779027  -0.163130651554  0.0210745766901  0.0  
4.25957107544  -6.43918711318e-18  -1.62088849929  -1.41738735548  -0.145471350544  0.00438573638305  0.0  
4.26755404472  -6.43918711318e-18  -1.62088849929  -1.41738735548  -0.145471350544  0.00438573638305  0.0  
4.27570796013  -6.43918711318e-18  -1.62088849929  -1.41738735548  -0.145471350544  0.00438573638305  0.0  
4.28374505043  0.00338732291818  -1.63707721474  -1.42591747503  -0.389192361855  0.171114860242  0.226173616969  
4.29184699059  0.00338881127533  -1.63706173169  -1.42589629705  -0.394039514251  0.208346653705  0.229567009601  
4.29995203018  0.00339129118499  -1.63703591096  -1.42586098753  -0.398889743565  0.210700305811  0.232971681883  
4.30803489685  -0.00230086101439  -1.60980947289  -1.41150923323  -0.304802284892  0.166676707657  0.162874642215  
4.31617689133  -0.00338926454859  -1.60459787668  -1.40876195231  -0.282582280472  0.156230640335  0.146537706778  
4.32431793213  -0.00339007829943  -1.60458902869  -1.40875610356  -0.18752054566  0.024412860414  0.0354775908376  
4.3326048851  -0.00108688316461  -1.61559105999  -1.41454795229  -0.128008977013  -0.00370414835951  -0.0129399265239  
4.34049391747  -3.4379389666e-17  -1.62078309089  -1.41728125163  -0.14532893392  0.00439567242507  0.0  
4.3484890461  -3.4379389666e-17  -1.62078309089  -1.41728125163  -0.14532893392  0.00439567242507  0.0  
4.35666799545  -3.4379389666e-17  -1.62078309089  -1.41728125163  -0.14532893392  0.00439567242507  0.0  
4.36469197273  -0.00183798913305  -1.60489026311  -1.40887913952  0.0989095137316  0.00426620822659  0.226182223906  
4.3727710247  -0.00183655205674  -1.60490565303  -1.40888949713  0.103668129432  0.00426722931617  0.229576287463  
4.38093686104  -0.00183415617694  -1.60493129957  -1.40890675336  0.108428473497  0.0042689307719  0.23298163511  
4.38909697533  0.00124918865651  -1.63165931652  -1.42306716673  0.0145141542489  0.00448875439078  0.162870800945  
4.39719200134  0.00183611367707  -1.63677511714  -1.42578991683  -0.00759456697375  0.00453155184634  0.146530647432  
4.40550303459  0.0018353269698  -1.63678360559  -1.42580127203  -0.102914567393  0.00453208444496  0.0354845834694  
4.41348195076  0.000588394210786  -1.62598298791  -1.42008340405  -0.162766847365  0.00444392885115  -0.0129424722501  
4.42152690887  -1.58566122878e-17  -1.62088601314  -1.41738485292  -0.145467991522  0.0044023132014  0.0  
4.42961788177  -1.58566122878e-17  -1.62088601314  -1.41738485292  -0.145467991522  0.0044023132014  0.0  
4.43771600723  -1.58566122878e-17  -1.62088601314  -1.41738485292  -0.145467991522  0.0044023132014  0.0  
4.44580507278  0.00219518754186  -1.60985466675  -0.987423866833  -0.385459629826  -0.154130551628  0.0  
4.45392894745  0.00219708630582  -1.60982328879  -0.701851033785  -0.390315704132  -0.189374443661  0.0  
4.46195292473  0.00220025075203  -1.60977097463  -0.695918608644  -0.395180810813  -0.19179166907  0.0  
4.47013187408  -0.00219766493229  -1.63165606651  -1.16343306467  -0.286353629468  -0.137541413461  0.0  
4.47828507423  -0.00219870357286  -1.63163036401  -1.45860939361  -0.191295405885  -0.0132342728418  0.0  
4.48631906509  -0.000704930229202  -1.62415292422  -1.46058971588  -0.129251689252  0.0124302999793  0.0  
4.49441003799  3.59543702589e-17  -1.62062514062  -1.41712225925  -0.145376642264  0.00438122999719  0.0  
4.50260806084  3.59543702589e-17  -1.62062514062  -1.41712225925  -0.145376642264  0.00438122999719  0.0  
4.51060009003  3.59543702589e-17  -1.62062514062  -1.41712225925  -0.145376642264  0.00438122999719  0.0  
4.51869988441  0.0216118602184  -2.07434476167  -1.07959985179  -0.149569169283  0.143346401822  0.237121674622  
4.52674508095  0.0216121777349  -2.31329603258  -0.83231122024  -0.149566752226  0.203419364749  0.241369518575  
4.53485202789  0.0216127059279  -2.3175407749  -0.742227796227  -0.149562723175  0.205380441741  0.24563499371  
4.54297304153  0.0216134432958  -2.32164437765  -0.737326050141  -0.149557081197  0.207345987568  0.249918100028  
4.55100703239  0.0171150948076  -2.28624655385  -0.752604749334  -0.148677497894  0.204509543819  0.242817458806  
4.55914902687  -0.0216119280597  -1.95049105551  -0.922474351115  -0.141162881907  0.164701720221  0.148102496396  
4.56725788116  -0.0216126198643  -1.94543455019  -0.927395799297  -0.141160241465  0.162745908822  0.1438230604  
4.57534599304  -0.0216131002297  -1.9169776402  -1.06810082902  -0.141158402623  0.160791891921  0.139561255587  
4.58350205421  -0.0216133705323  -1.64590628271  -1.31502328702  -0.14115736594  0.076560534735  0.135317081956  
4.59158706665  -0.0171141197855  -1.47119953955  -1.49009777859  -0.142029479737  -0.0123136036119  -0.0399566317899  
4.59972000122  1.24388334897e-17  -1.61726275996  -1.41719811286  -0.145347709643  0.00441328395454  0.0  
4.60766196251  1.24388334897e-17  -1.61726275996  -1.41719811286  -0.145347709643  0.00441328395454  0.0  
4.61569595337  1.24388334897e-17  -1.61726275996  -1.41719811286  -0.145347709643  0.00441328395454  0.0  
4.62375402451  -0.000394572152874  -1.62203926585  -1.41974746404  -0.25592875011  -0.0945923073114  0.237121674622  
4.63187789917  -0.000394438732597  -1.62203487533  -1.41974245468  -0.35001489107  -0.178119233313  0.241369518575  
4.64001893997  -0.000394216337368  -1.62202755662  -1.41973410459  -0.351547963277  -0.179626947889  0.24563499371  
4.64812302589  -0.000393904925058  -1.62201730798  -1.41972241204  -0.353052562216  -0.18113791411  0.249918100028  
4.6562640667  -0.000393504436735  -1.62200412696  -1.41970737461  -0.354554734799  -0.182652131102  0.254218837528  
4.66435599327  -0.000119903492944  -1.61867332968  -1.41792163749  -0.343333271095  -0.172252870831  0.220538897344  
4.67244887352  0.000394494033748  -1.61241500892  -1.41457739281  -0.319821095673  -0.15027960286  0.150311345014  
4.68067789078  0.000394155242898  -1.61240279721  -1.41456659722  -0.318285679527  -0.148777104621  0.146022836915  
4.68864202499  0.000393905406152  -1.61239379221  -1.41455863626  -0.316756130514  -0.147275371404  0.141751959998  
4.69674706459  0.000393744570725  -1.6123879953  -1.41455351134  -0.250958448994  -0.0888633251894  0.137498714264  
4.70487093925  0.000393672766991  -1.61238540735  -1.41455122337  -0.157089727437  -0.00546819496955  0.0401636132573  
4.71302604675  0.000120610837822  -1.61570038913  -1.41631866029  -0.140062469418  0.00917430124453  -0.0154601496065  
4.72106194496  -4.52712041683e-19  -1.61716469804  -1.41709940396  -0.145215218794  0.00437355360806  0.0  
4.72915887833  -4.52712041683e-19  -1.61716469804  -1.41709940396  -0.145215218794  0.00437355360806  0.0  
4.73739886284  -4.52712041683e-19  -1.61716469804  -1.41709940396  -0.145215218794  0.00437355360806  0.0  
4.74538588524  0.0019376716625  -1.61753393545  -1.41724841817  -0.145297028222  0.212727430724  0.237121674622  
4.75368309021  0.00193768046263  -1.6175342542  -1.41724826536  -0.145296571659  0.215665814971  0.241369518575  
4.76175498962  0.00126592618747  -1.6174062035  -1.41719609102  -0.145267270257  0.206700076629  0.226660026071  
4.76978588104  -0.00193767635649  -1.61679282337  -1.41694798663  -0.14513031736  0.151820420154  0.138972328773  
4.77800798416  -0.00193768293923  -1.6167918591  -1.41694738016  -0.145129696656  0.088448002405  0.134730597297  
4.78601193428  -0.00126591700119  -1.61692013677  -1.41699914196  -0.145158104047  -0.0161359289346  -0.0329670711968  
4.79414486885  3.83726431643e-17  -1.61716220694  -1.41709689642  -0.145211853078  0.00439008437903  0.0  
4.80226898193  3.83726431643e-17  -1.61716220694  -1.41709689642  -0.145211853078  0.00439008437903  0.0  
4.81049203873  3.83726431643e-17  -1.61716220694  -1.41709689642  -0.145211853078  0.00439008437903  0.0  
4.81860303879  0.0324163408724  -2.29835945141  -0.910087670666  -0.151500805995  0.213010898912  0.237121674622  
4.82663989067  0.0324170453377  -2.40644557263  -0.696130280367  -0.151496718974  0.215949698027  0.241369518575  
4.83463287354  0.021179800113  -2.31451866014  -0.739205124017  -0.149310310842  0.206891545826  0.226660589576  
4.84269499779  -0.0324167152296  -1.84979076115  -0.974927232013  -0.138910331421  0.151568402425  0.138972372538  
4.85081887245  -0.0324172547354  -1.60274094287  -1.31469758687  -0.138909290344  0.088197186035  0.13473064088  
4.85889291763  -0.0211790589976  -1.4347505659  -1.50737473303  -0.141089083302  -0.0162955099446  -0.0329675907557  
4.86697793007  4.21891965307e-17  -1.61548106832  -1.41713475552  -0.145197361494  0.0044060811155  0.0  
4.87507987022  4.21891965307e-17  -1.61548106832  -1.41713475552  -0.145197361494  0.0044060811155  0.0  
4.88316988945  4.21891965307e-17  -1.61548106832  -1.41713475552  -0.145197361494  0.0044060811155  0.0  
4.89126586914  4.21891965307e-17  -1.61548106832  -1.41713475552  -0.145197361494  0.0044060811155  0.237121674622  
4.899518013  4.21891965307e-17  -1.61548106832  -1.41713475552  -0.145197361494  0.0044060811155  0.241369518575  
4.90766000748  4.21891965307e-17  -1.61548106832  -1.41713475552  -0.145197361494  0.0044060811155  0.226660026071  
4.91568803787  4.21891965307e-17  -1.61548106832  -1.41713475552  -0.145197361494  0.0044060811155  0.138972328773  
4.92374300957  4.21891965307e-17  -1.61548106832  -1.41713475552  -0.145197361494  0.0044060811155  0.134730597297  
4.93184089661  4.21891965307e-17  -1.61548106832  -1.41713475552  -0.145197361494  0.0044060811155  -0.0329670711968  
4.93997693062  4.21891965307e-17  -1.61548106832  -1.41713475552  -0.145197361494  0.0044060811155  0.0  
4.94804191589  4.21891965307e-17  -1.61548106832  -1.41713475552  -0.145197361494  0.0044060811155  0.0  
4.95621299744  4.21891965307e-17  -1.61548106832  -1.41713475552  -0.145197361494  0.0044060811155  0.0  
4.96429395676  4.21891965307e-17  -1.61548106832  -1.41713475552  -0.145197361494  0.0044060811155  0.237121674622  
4.97238588333  4.21891965307e-17  -1.61548106832  -1.41713475552  -0.145197361494  0.0044060811155  0.241369518575  
4.98058104515  4.21891965307e-17  -1.61548106832  -1.41713475552  -0.145197361494  0.0044060811155  0.226660026071  
4.98866200447  4.21891965307e-17  -1.61548106832  -1.41713475552  -0.145197361494  0.0044060811155  0.138972328773  
4.99665808678  4.21891965307e-17  -1.61548106832  -1.41713475552  -0.145197361494  0.0044060811155  0.134730597297  
5.00479507446  4.21891965307e-17  -1.61548106832  -1.41713475552  -0.145197361494  0.0044060811155  -0.0329670711968  
5.01284193993  4.21891965307e-17  -1.61548106832  -1.41713475552  -0.145197361494  0.0044060811155  0.0  
5.02095603943  4.21891965307e-17  -1.61548106832  -1.41713475552  -0.145197361494  0.0044060811155  0.0  
5.02906394005  4.21891965307e-17  -1.61548106832  -1.41713475552  -0.145197361494  0.0044060811155  0.0  
5.03721690178  4.21891965307e-17  -1.61548106832  -1.41713475552  -0.145197361494  0.0044060811155  -0.231733816215  
5.04532790184  4.21891965307e-17  -1.61548106832  -1.41713475552  -0.145197361494  0.0044060811155  -0.236144078149  
5.05353689194  4.21891965307e-17  -1.61548106832  -1.41713475552  -0.145197361494  0.0044060811155  -0.221541530698  
5.06163787842  4.21891965307e-17  -1.61548106832  -1.41713475552  -0.145197361494  0.0044060811155  -0.133690405275  
5.06962490082  4.21891965307e-17  -1.61548106832  -1.41713475552  -0.145197361494  0.0044060811155  -0.129286791857  
5.07779598236  4.21891965307e-17  -1.61548106832  -1.41713475552  -0.145197361494  0.0044060811155  0.0329670711968  
5.0858039856  4.21891965307e-17  -1.61548106832  -1.41713475552  -0.145197361494  0.0044060811155  0.0  
5.0938949585  4.21891965307e-17  -1.61548106832  -1.41713475552  -0.145197361494  0.0044060811155  0.0  
5.10212302208  4.21891965307e-17  -1.61548106832  -1.41713475552  -0.145197361494  0.0044060811155  0.237121674622  
5.11015701294  4.21891965307e-17  -1.61548106832  -1.41713475552  -0.145197361494  0.0044060811155  0.241369518575  
5.11827492714  4.21891965307e-17  -1.61548106832  -1.41713475552  -0.145197361494  0.0044060811155  0.226660026071  
5.12635493279  4.21891965307e-17  -1.61548106832  -1.41713475552  -0.145197361494  0.0044060811155  0.138972328773  
5.13457798958  4.21891965307e-17  -1.61548106832  -1.41713475552  -0.145197361494  0.0044060811155  0.134730597297  
5.14260601997  4.21891965307e-17  -1.61548106832  -1.41713475552  -0.145197361494  0.0044060811155  -0.0329670711968  
5.15067386627  4.21891965307e-17  -1.61548106832  -1.41713475552  -0.145197361494  0.0044060811155  0.0  
5.15869998932  4.21891965307e-17  -1.61548106832  -1.41713475552  -0.145197361494  0.0044060811155  0.0  
5.16679191589  4.21891965307e-17  -1.61548106832  -1.41713475552  -0.145197361494  0.0044060811155  0.0  
5.174877882  0.542456583189  -2.1135621884  -0.422122388924  0.100256582981  0.00594220300908  0.0  
5.18295001984  0.724105162254  -2.30010864518  -0.4044272524  0.10500564254  0.00594315609902  0.0  
5.19111704826  0.729126545541  -2.30519369174  -0.386644607314  0.109750080965  0.00594474269228  0.0  
5.19921708107  0.354768606659  -2.00740630443  -1.08621442091  0.0137115639744  0.00336943519989  0.0  
5.20734500885  0.204368586242  -1.86668989331  -1.23484921992  -0.008777546923  0.00288095092645  0.0  
5.2155919075  -0.118150632716  -1.54210011038  -1.54351996481  -0.104280060884  0.00288213668813  0.0  
5.22365689278  -0.0706511772766  -1.55767865761  -1.5479410892  -0.163078683999  0.00392548721976  0.0  
5.23176407814  -1.24583664085e-17  -1.61358398028  -1.41695569923  -0.145414178594  0.0044164698822  0.0  
5.2398250103  -1.24583664085e-17  -1.61358398028  -1.41695569923  -0.145414178594  0.0044164698822  0.0  
5.24790692329  -1.24583664085e-17  -1.61358398028  -1.41695569923  -0.145414178594  0.0044164698822  0.0  
5.25597286224  0.00183713520245  -1.62945132896  -1.42535403541  -0.389069601059  0.00454643734025  0.0  
5.26412606239  0.00183857275479  -1.62943580166  -1.42533326181  -0.393917167018  0.00454545964247  0.0  
5.27220392227  0.00184096792263  -1.62940990853  -1.42529862786  -0.398768086687  0.00454382978448  0.0  
5.28031992912  -0.00124876810513  -1.60271565689  -1.41116404243  -0.304757471757  0.00432304451673  0.0  
5.28849887848  -0.00183901065994  -1.59761759471  -1.40846438328  -0.28259109039  0.004280104979  0.0  
5.29664301872  -0.00183979600561  -1.59760917426  -1.40845871711  -0.187355340301  0.00427954441284  0.0  
5.30466103554  -0.000588774078032  -1.60840165065  -1.4141659625  -0.128008029825  0.00436810719027  0.0  
5.31261897087  -1.11619224922e-17  -1.61348101074  -1.41685205032  -0.145275057089  0.00440980272891  0.0  
5.32071995735  -1.11619224922e-17  -1.61348101074  -1.41685205032  -0.145275057089  0.00440980272891  0.0  
5.32878494263  -1.11619224922e-17  -1.61348101074  -1.41685205032  -0.145275057089  0.00440980272891  0.0  
5.33696699142  -0.648687575102  -1.58528867123  -1.41987967696  -0.144030827721  0.00234377105966  0.237121674622  
5.34506893158  -0.752727767297  -1.58529900921  -1.41987686973  -0.144031814631  0.00234372902995  0.241369518575  
5.35312986374  -0.672515604406  -1.59508426736  -1.41882409724  -0.144464272355  0.00305992369072  0.226660589576  
5.36129498482  -0.264751698803  -1.64168621582  -1.4138209301  -0.14652051466  0.00647578209242  0.138972372538  
5.36941885948  -0.0217145600575  -1.64167826711  -1.41382308853  -0.146519755842  0.00647581440836  0.13473064088  
5.37745690346  0.158710092732  -1.63190201438  -1.41487341565  -0.146088157815  0.00575958313552  -0.0329675907557  
5.3856048584  8.54316963665e-18  -1.61348101074  -1.41685205032  -0.145275057089  0.00440980272891  0.0  
5.39363408089  8.54316963665e-18  -1.61348101074  -1.41685205032  -0.145275057089  0.00440980272891  0.0  
5.40177488327  8.54316963665e-18  -1.61348101074  -1.41685205032  -0.145275057089  0.00440980272891  0.0  
5.40987205505  8.54316963665e-18  -1.61348101074  -1.41685205032  -0.145275057089  0.00440980272891  0.0  
5.41795802116  8.54316963665e-18  -1.61348101074  -1.41685205032  -0.145275057089  0.00440980272891  0.0  
5.42607092857  8.54316963665e-18  -1.61348101074  -1.41685205032  -0.145275057089  0.00440980272891  0.0  
5.43414592743  8.54316963665e-18  -1.61348101074  -1.41685205032  -0.145275057089  0.00440980272891  0.0  
5.4423148632  8.54316963665e-18  -1.61348101074  -1.41685205032  -0.145275057089  0.00440980272891  0.0  
5.45039391518  8.54316963665e-18  -1.61348101074  -1.41685205032  -0.145275057089  0.00440980272891  0.0  
5.45857000351  8.54316963665e-18  -1.61348101074  -1.41685205032  -0.145275057089  0.00440980272891  0.0  
5.46657705307  8.54316963665e-18  -1.61348101074  -1.41685205032  -0.145275057089  0.00440980272891  0.0  
5.47470498085  -0.00183936619575  -1.59761378285  -1.40846181833  0.0989633071864  0.00427985121866  0.0  
5.48263502121  -0.00183792943206  -1.59762918509  -1.40847218159  0.1037219094  0.00428087654297  0.0  
5.49077987671  -0.00183553407274  -1.59765485217  -1.40848944724  0.108482230983  0.00428258505545  0.0  
5.49899697304  0.00125120642434  -1.62434924586  -1.42263489383  0.0145333979835  0.00450331350645  0.0  
5.50706505775  0.00183749099654  -1.62944748689  -1.42534889487  -0.00754349361267  0.00454619539673  0.0  
5.51510500908  0.00183670502492  -1.62945597343  -1.42536024982  -0.103038462685  0.00454672983311  0.0  
5.52317404747  0.000587753525478  -1.6186633918  -1.4196454904  -0.162681205858  0.00445816542084  0.0  
5.53133296967  -2.60582034409e-18  -1.61358398028  -1.41695569923  -0.145414178594  0.0044164698822  0.0  
5.53952097893  -2.60582034409e-18  -1.61358398028  -1.41695569923  -0.145414178594  0.0044164698822  0.0  
5.54762601852  -2.60582034409e-18  -1.61358398028  -1.41695569923  -0.145414178594  0.0044164698822  0.0  
5.55560994148  -1.24583664085e-17  -1.61358398028  -1.41695569923  -0.145414178594  0.0044164698822  0.237121674622  
5.56367397308  -1.24583664085e-17  -1.61358398028  -1.41695569923  -0.145414178594  0.0044164698822  0.241369518575  
5.57173800468  -2.60582034409e-18  -1.61358398028  -1.41695569923  -0.145414178594  0.0044164698822  0.226660026071  
5.57991504669  -1.24583664085e-17  -1.61358398028  -1.41695569923  -0.145414178594  0.0044164698822  0.138972328773  
5.58797097206  -1.24583664085e-17  -1.61358398028  -1.41695569923  -0.145414178594  0.0044164698822  0.134730597297  
5.59607291222  -1.24583664085e-17  -1.61358398028  -1.41695569923  -0.145414178594  0.0044164698822  -0.0329670711968  
5.6041469574  -1.24583664085e-17  -1.61358398028  -1.41695569923  -0.145414178594  0.0044164698822  0.0  
5.61226391792  -1.24583664085e-17  -1.61358398028  -1.41695569923  -0.145414178594  0.0044164698822  0.0  
5.62042808533  -1.24583664085e-17  -1.61358398028  -1.41695569923  -0.145414178594  0.0044164698822  0.0  
5.62837696075  0.030485407087  -2.29441481709  -0.909595792417  -0.151606433041  0.00468446107636  0.237121674622  
5.63666391373  0.0304860886739  -2.40242609859  -0.695706080538  -0.151602794533  0.00468431613272  0.241369518575  
5.64469695091  0.0199019044598  -2.31050218233  -0.738955839457  -0.149447535853  0.00459104532947  0.226631285967  
5.65269088745  -0.0304857694512  -1.84665698505  -0.975070636329  -0.139212543813  0.00414802077539  0.138970096683  
5.66081905365  -0.0304862912594  -1.59944281624  -1.3149921197  -0.139212141009  0.00414797881324  0.134728374466  
5.66895508766  -0.0199011873881  -1.43161327661  -1.50734567501  -0.141361657376  0.00424101221996  -0.0329405724416  
5.67703986168  -7.33594753334e-18  -1.61190533628  -1.41699617768  -0.145403093399  0.00441593849075  0.0  
5.68512797356  -7.33594753334e-18  -1.61190533628  -1.41699617768  -0.145403093399  0.00441593849075  0.0  
5.69324302673  -7.33594753334e-18  -1.61190533628  -1.41699617768  -0.145403093399  0.00441593849075  0.0  
5.70132803917  -0.00309622630466  -1.61131157186  -1.41675589958  -0.145271451077  -0.214521291912  0.0  
5.70956993103  -0.00309620527305  -1.61131433258  -1.41675746911  -0.145272911891  -0.219355433274  0.0  
5.71756887436  0.00164304542294  -1.61222290569  -1.41712594674  -0.145475862465  -0.139851620501  0.0  
5.72565889359  0.0030962113485  -1.61250037982  -1.41723859353  -0.145538059139  -0.0705607625586  0.0  
5.73374986649  0.00145317735584  -1.61218589588  -1.41711128488  -0.14546824786  0.0279927433528  0.0  
5.74189090729  4.25901871886e-18  -1.611907833  -1.41699869087  -0.14540646671  0.00439937453537  0.0  
5.7499320507  4.25901871886e-18  -1.611907833  -1.41699869087  -0.14540646671  0.00439937453537  0.0  
5.75812506676  0.00193512968273  -1.61227822184  -1.41714857592  -0.145488585148  0.212752747185  0.237121674622  
5.76620006561  0.00193513803178  -1.61227853892  -1.41714842267  -0.145488127139  0.21569150834  0.241369518575  
5.77425503731  0.00126428450013  -1.61215009042  -1.41709594672  -0.145458716929  0.206726166672  0.226660589576  
5.78237104416  -0.0019351341371  -1.61153480222  -1.41684639735  -0.145321249511  0.151846395557  0.138972372538  
5.79038691521  -0.0019351403733  -1.61153383759  -1.41684578958  -0.145320627723  0.0884753720127  0.13473064088  
5.79864406586  -0.00126427578892  -1.61166251037  -1.41689785193  -0.145349141345  -0.0161103235438  -0.0329675907557  
5.8066470623  1.23691445955e-17  -1.61190533628  -1.41699617768  -0.145403093399  0.00441593849075  0.0  
5.81476807594  1.23691445955e-17  -1.61190533628  -1.41699617768  -0.145403093399  0.00441593849075  0.0  
5.82287192345  1.23691445955e-17  -1.61190533628  -1.41699617768  -0.145403093399  0.00441593849075  0.0  
5.8309340477  1.23691445955e-17  -1.61190533628  -1.41699617768  -0.145403093399  0.00441593849075  0.0  
5.83908987045  1.23691445955e-17  -1.61190533628  -1.41699617768  -0.145403093399  0.00441593849075  0.0  
5.84716892242  1.23691445955e-17  -1.61190533628  -1.41699617768  -0.145403093399  0.00441593849075  0.0  
5.85521292686  1.23691445955e-17  -1.61190533628  -1.41699617768  -0.145403093399  0.00441593849075  0.0  
5.86334204674  1.23691445955e-17  -1.61190533628  -1.41699617768  -0.145403093399  0.00441593849075  0.0  
5.87154793739  1.23691445955e-17  -1.61190533628  -1.41699617768  -0.145403093399  0.00441593849075  0.0  
5.87966990471  1.23691445955e-17  -1.61190533628  -1.41699617768  -0.145403093399  0.00441593849075  0.0  
5.8877620697  1.23691445955e-17  -1.61190533628  -1.41699617768  -0.145403093399  0.00441593849075  0.0  
5.89572787285  1.23691445955e-17  -1.61190533628  -1.41699617768  -0.145403093399  0.00441593849075  0.0  
5.90373587608  1.23691445955e-17  -1.61190533628  -1.41699617768  -0.145403093399  0.00441593849075  0.0  
5.91185808182  1.23691445955e-17  -1.61190533628  -1.41699617768  -0.145403093399  0.00441593849075  0.0  
5.9199359417  1.23691445955e-17  -1.61190533628  -1.41699617768  -0.145403093399  0.00441593849075  0.0  
5.92804789543  1.23691445955e-17  -1.61190533628  -1.41699617768  -0.145403093399  0.00441593849075  0.0  
5.93616390228  1.23691445955e-17  -1.61190533628  -1.41699617768  -0.145403093399  0.00441593849075  0.0  
5.94421601295  1.23691445955e-17  -1.61190533628  -1.41699617768  -0.145403093399  0.00441593849075  0.0  
5.95233988762  1.23691445955e-17  -1.61190533628  -1.41699617768  -0.145403093399  0.00441593849075  0.0  
5.96060204506  5.17793288531e-17  -1.61190533628  -1.41699617768  -0.145403093399  0.00441593849075  0.237121674622  
5.96875905991  5.17793288531e-17  -1.61190533628  -1.41699617768  -0.145403093399  0.00441593849075  0.241369518575  
5.97673892975  5.17793288531e-17  -1.61190533628  -1.41699617768  -0.145403093399  0.00441593849075  0.226660026071  
5.98474907875  5.17793288531e-17  -1.61190533628  -1.41699617768  -0.145403093399  0.00441593849075  0.138972328773  
5.99284887314  -7.33594753334e-18  -1.61190533628  -1.41699617768  -0.145403093399  0.00441593849075  0.134730597297  
6.00096106529  5.17793288531e-17  -1.61190533628  -1.41699617768  -0.145403093399  0.00441593849075  -0.0329670711968  
6.00904488564  5.17793288531e-17  -1.61190533628  -1.41699617768  -0.145403093399  0.00441593849075  0.0  
6.01712393761  5.17793288531e-17  -1.61190533628  -1.41699617768  -0.145403093399  0.00441593849075  0.0  
6.02530097961  5.17793288531e-17  -1.61190533628  -1.41699617768  -0.145403093399  0.00441593849075  0.0  
6.03338289261  5.17793288531e-17  -1.61190533628  -1.41699617768  -0.145403093399  0.00441593849075  0.237121674622  
6.04154586792  -7.33594753334e-18  -1.61190533628  -1.41699617768  -0.145403093399  0.00441593849075  0.241369518575  
6.0496840477  5.17793288531e-17  -1.61190533628  -1.41699617768  -0.145403093399  0.00441593849075  0.226660589576  
6.05777287483  5.17793288531e-17  -1.61190533628  -1.41699617768  -0.145403093399  0.00441593849075  0.138972372538  
6.06567502022  5.17793288531e-17  -1.61190533628  -1.41699617768  -0.145403093399  0.00441593849075  0.13473064088  
6.07383799553  5.17793288531e-17  -1.61190533628  -1.41699617768  -0.145403093399  0.00441593849075  -0.0329675907557  
6.08186006546  5.17793288531e-17  -1.61190533628  -1.41699617768  -0.145403093399  0.00441593849075  0.0  
6.08994793892  5.17793288531e-17  -1.61190533628  -1.41699617768  -0.145403093399  0.00441593849075  0.0  
6.09804797173  5.17793288531e-17  -1.61190533628  -1.41699617768  -0.145403093399  0.00441593849075  0.0  
6.10623192787  5.17793288531e-17  -1.61190533628  -1.41699617768  -0.145403093399  0.00441593849075  0.0  
6.11431503296  5.17793288531e-17  -1.61190533628  -1.41699617768  -0.145403093399  0.00441593849075  0.0  
6.1224360466  5.17793288531e-17  -1.61190533628  -1.41699617768  -0.145403093399  0.00441593849075  0.0  
6.13042402267  5.17793288531e-17  -1.61190533628  -1.41699617768  -0.145403093399  0.00441593849075  0.0  
6.13875102997  5.17793288531e-17  -1.61190533628  -1.41699617768  -0.145403093399  0.00441593849075  0.0  
6.146723032  5.17793288531e-17  -1.61190533628  -1.41699617768  -0.145403093399  0.00441593849075  0.0  
6.15471291542  5.17793288531e-17  -1.61190533628  -1.41699617768  -0.145403093399  0.00441593849075  0.0  
6.16290307045  5.17793288531e-17  -1.61190533628  -1.41699617768  -0.145403093399  0.00441593849075  0.0  
6.17090606689  5.17793288531e-17  -1.61190533628  -1.41699617768  -0.145403093399  0.00441593849075  0.0  
6.17897486687  5.17793288531e-17  -1.61190533628  -1.41699617768  -0.145403093399  0.00441593849075  0.0  
6.18709897995  5.17793288531e-17  -1.61190533628  -1.41699617768  -0.145403093399  0.00441593849075  0.0  
6.19518494606  5.17793288531e-17  -1.61190533628  -1.41699617768  -0.145403093399  0.00441593849075  0.0  
6.20331287384  5.17793288531e-17  -1.61190533628  -1.41699617768  -0.145403093399  0.00441593849075  0.0  
6.21141195297  5.17793288531e-17  -1.61190533628  -1.41699617768  -0.145403093399  0.00441593849075  0.0  
6.21965193748  5.17793288531e-17  -1.61190533628  -1.41699617768  -0.145403093399  0.00441593849075  0.0  
6.22769999504  5.17793288531e-17  -1.61190533628  -1.41699617768  -0.145403093399  0.00441593849075  0.0  
6.2357339859  5.17793288531e-17  -1.61190533628  -1.41699617768  -0.145403093399  0.00441593849075  0.237121674622  
6.24383306503  5.17793288531e-17  -1.61190533628  -1.41699617768  -0.145403093399  0.00441593849075  0.241369518575  
6.25186085701  -7.33594753334e-18  -1.61190533628  -1.41699617768  -0.145403093399  0.00441593849075  0.226660026071  
6.25999093056  -7.33594753334e-18  -1.61190533628  -1.41699617768  -0.145403093399  0.00441593849075  0.138972328773  
6.26809501648  1.23691445955e-17  -1.61190533628  -1.41699617768  -0.145403093399  0.00441593849075  0.134730597297  
6.27622103691  5.17793288531e-17  -1.61190533628  -1.41699617768  -0.145403093399  0.00441593849075  -0.0329670711968  
6.28437209129  5.17793288531e-17  -1.61190533628  -1.41699617768  -0.145403093399  0.00441593849075  0.0  
6.29256486893  5.17793288531e-17  -1.61190533628  -1.41699617768  -0.145403093399  0.00441593849075  0.0  
6.30068087578  5.17793288531e-17  -1.61190533628  -1.41699617768  -0.145403093399  0.00441593849075  0.0  
6.30874204636  0.0456839382904  -2.56336446202  -0.615435215357  -0.155176788346  -0.214092729362  0.0  
6.31679701805  0.0456856770591  -2.5738889434  -0.603655406215  -0.155170899662  -0.218927628849  0.0  
6.32487893105  -0.0242422674079  -1.89188603112  -0.949204477272  -0.140209156778  -0.140078932454  0.0  
6.33302903175  -0.0456851588907  -1.47248395848  -1.36205581584  -0.135623146419  -0.0709884168743  0.0  
6.34122490883  -0.0214419656424  -1.40311257789  -1.52107885576  -0.140808908987  0.0277917616336  0.0  
6.34925794601  6.03623457469e-17  -1.61022876668  -1.41703920214  -0.145395367328  0.00439884447218  0.0  
6.35746788979  6.03623457469e-17  -1.61022876668  -1.41703920214  -0.145395367328  0.00439884447218  0.0  
6.36545085907  6.03623457469e-17  -1.61022876668  -1.41703920214  -0.145395367328  0.00439884447218  0.0  
6.37368702888  6.03623457469e-17  -1.61022876668  -1.41703920214  -0.145395367328  0.00439884447218  0.0  
6.38170695305  6.03623457469e-17  -1.61022876668  -1.41703920214  -0.145395367328  0.00439884447218  0.0  
6.38980102539  6.03623457469e-17  -1.61022876668  -1.41703920214  -0.145395367328  0.00439884447218  0.0  
6.39787793159  6.03623457469e-17  -1.61022876668  -1.41703920214  -0.145395367328  0.00439884447218  0.0  
6.40594601631  6.03623457469e-17  -1.61022876668  -1.41703920214  -0.145395367328  0.00439884447218  0.0  
6.41412401199  6.03623457469e-17  -1.61022876668  -1.41703920214  -0.145395367328  0.00439884447218  0.0  
6.42223501205  6.03623457469e-17  -1.61022876668  -1.41703920214  -0.145395367328  0.00439884447218  0.0  
6.43033099174  6.03623457469e-17  -1.61022876668  -1.41703920214  -0.145395367328  0.00439884447218  0.237121674622  
6.43851089478  6.03623457469e-17  -1.61022876668  -1.41703920214  -0.145395367328  0.00439884447218  0.241369518575  
6.44640302658  6.03623457469e-17  -1.61022876668  -1.41703920214  -0.145395367328  0.00439884447218  0.226660026071  
6.45463395119  6.03623457469e-17  -1.61022876668  -1.41703920214  -0.145395367328  0.00439884447218  0.138972328773  
6.46264886856  6.03623457469e-17  -1.61022876668  -1.41703920214  -0.145395367328  0.00439884447218  0.134730597297  
6.47078585625  6.03623457469e-17  -1.61022876668  -1.41703920214  -0.145395367328  0.00439884447218  -0.0329670711968  
6.47885203362  6.03623457469e-17  -1.61022876668  -1.41703920214  -0.145395367328  0.00439884447218  0.0  
6.48694705963  6.03623457469e-17  -1.61022876668  -1.41703920214  -0.145395367328  0.00439884447218  0.0  
6.49508404732  6.03623457469e-17  -1.61022876668  -1.41703920214  -0.145395367328  0.00439884447218  0.0  
6.50320100784  -0.00432770194815  -1.64297480283  -1.98312652296  -0.149807090641  -0.193754827962  -0.231733816215  
6.51132488251  -0.0043255227145  -1.6430175827  -2.20730730927  -0.14980035612  -0.196769422186  -0.236144078149  
6.51943302155  -0.00282300080771  -1.63173106246  -2.14939487211  -0.14825836313  -0.187898293383  -0.221541530698  
6.52774000168  0.00432654465124  -1.57762170275  -1.84562286125  -0.140947826793  -0.133151468598  -0.133690405275  
6.53570604324  0.00432486881963  -1.57763589026  -1.48942535374  -0.140941172441  -0.073250685873  -0.129286791857  
6.54380607605  0.00282529657759  -1.58899362616  -1.29977843175  -0.14247036392  0.0248238245174  0.0329670711968  
6.55187487602  3.94105298587e-18  -1.61039185674  -1.41720336822  -0.14535438162  0.00438017107573  0.0  
6.5599899292  3.94105298587e-18  -1.61039185674  -1.41720336822  -0.14535438162  0.00438017107573  0.0  
6.56805491447  3.94105298587e-18  -1.61039185674  -1.41720336822  -0.14535438162  0.00438017107573  0.0  
6.57613897324  0.00193449322738  -1.6107608531  -1.41735268977  -0.145436191275  0.212734049757  0.237121674622  
6.58427906036  0.0019345020843  -1.61076117184  -1.41735253812  -0.145435735393  0.2156724387  0.241369518575  
6.5923640728  0.00126384978366  -1.61063320509  -1.41730025878  -0.145406435113  0.20670670809  0.226660026071  
6.60059595108  -0.0019344979515  -1.61002022579  -1.41705164563  -0.145269483196  0.151827058355  0.138972328773  
6.60868000984  -0.00193450457821  -1.6100192623  -1.41705103905  -0.145268863017  0.0884546442168  0.134730597297  
6.61672997475  -0.00126384053742  -1.61014745623  -1.41710290764  -0.145297270505  -0.0161292864548  -0.0329670711968  
6.6248459816  3.90963881998e-18  -1.61038936832  -1.41720086339  -0.145351019536  0.00439672685882  0.0  
6.63288903236  3.90963881998e-18  -1.61038936832  -1.41720086339  -0.145351019536  0.00439672685882  0.0  
6.64103293419  3.90963881998e-18  -1.61038936832  -1.41720086339  -0.145351019536  0.00439672685882  0.0  
6.64904904366  0.888717543563  -1.65493065984  -1.41212302975  -0.147209874616  -0.211237099596  0.0  
6.65711402893  0.89883585815  -1.65495826869  -1.41211785319  -0.147213562057  -0.216071354816  0.0  
6.66527485847  0.3035330919  -1.58677856313  -1.41989151586  -0.144369653102  -0.141623894879  0.0  
6.67342400551  -0.0836280210342  -1.56586054445  -1.42227783375  -0.143496620936  -0.073883390037  0.0  
6.68142485619  -0.180888167287  -1.58949059806  -1.41958525182  -0.144482401356  0.0264231125556  0.0  
6.68971896172  3.94105298587e-18  -1.61039185674  -1.41720336822  -0.14535438162  0.00438017107573  0.0  
6.6977159977  3.94105298587e-18  -1.61039185674  -1.41720336822  -0.14535438162  0.00438017107573  0.0  
6.70579195023  3.94105298587e-18  -1.61039185674  -1.41720336822  -0.14535438162  0.00438017107573  0.0  
6.71385598183  3.94105298587e-18  -1.61039185674  -1.41720336822  -0.14535438162  0.00438017107573  -0.231733816215  
6.72187995911  3.94105298587e-18  -1.61039185674  -1.41720336822  -0.14535438162  0.00438017107573  -0.236144078149  
6.73006796837  3.94105298587e-18  -1.61039185674  -1.41720336822  -0.14535438162  0.00438017107573  -0.221541530698  
6.73807501793  3.94105298587e-18  -1.61039185674  -1.41720336822  -0.14535438162  0.00438017107573  -0.133690405275  
6.74617505074  3.94105298587e-18  -1.61039185674  -1.41720336822  -0.14535438162  0.00438017107573  -0.129286791857  
6.75429606438  3.94105298587e-18  -1.61039185674  -1.41720336822  -0.14535438162  0.00438017107573  0.0329670711968  
6.76235198975  3.94105298587e-18  -1.61039185674  -1.41720336822  -0.14535438162  0.00438017107573  0.0  
6.77039003372  3.94105298587e-18  -1.61039185674  -1.41720336822  -0.14535438162  0.00438017107573  0.0  
6.77873587608  3.94105298587e-18  -1.61039185674  -1.41720336822  -0.14535438162  0.00438017107573  0.0  
6.78661799431  0.00600192551158  -1.52727784343  -0.379221297792  -0.134080223476  0.00406424514956  0.0  
6.79467487335  0.00342260459417  -1.56307043602  -0.563275599856  -0.138967145038  0.00420169691315  0.0  
6.80279588699  -0.00600560399057  -1.69330925238  -1.34123388609  -0.156679656733  0.00469852716923  0.0  
6.81098794937  -0.00341720007257  -1.65748205514  -1.67381623509  -0.151817001771  0.0045622284965  0.0  
6.81899905205  1.0954300096e-17  -1.61023125423  -1.41704170611  -0.145398728252  0.00438228071526  0.0  
6.82713508606  1.0954300096e-17  -1.61023125423  -1.41704170611  -0.145398728252  0.00438228071526  0.0  
6.83516407013  1.0954300096e-17  -1.61023125423  -1.41704170611  -0.145398728252  0.00438228071526  0.0  
6.84329199791  1.0954300096e-17  -1.61023125423  -1.41704170611  -0.145398728252  0.00438228071526  0.0  
6.85144495964  1.0954300096e-17  -1.61023125423  -1.41704170611  -0.145398728252  0.00438228071526  0.0  
6.85966396332  1.0954300096e-17  -1.61023125423  -1.41704170611  -0.145398728252  0.00438228071526  0.0  
6.86765599251  1.0954300096e-17  -1.61023125423  -1.41704170611  -0.145398728252  0.00438228071526  0.0  
6.87571692467  -0.00183624595676  -1.59437083956  -1.40863928509  0.098839803854  0.0042533038412  0.22618190513  
6.88376688957  -0.0018348084132  -1.59438623256  -1.40864962965  0.103598437141  0.00425432057483  0.229575943839  
6.89191699028  -0.00183241175538  -1.59441188422  -1.40866686413  0.108358810522  0.00425601477177  0.232981266471  
6.89991688728  0.00124800449634  -1.62108539738  -1.4228277644  0.0144443920684  0.00447500968881  0.162870943214  
6.90802097321  0.00183436989149  -1.62619076292  -1.42555059614  -0.00766433299164  0.00451764536441  0.146530908889  
6.91619706154  0.00183358292911  -1.62619923544  -1.42556194414  -0.102984323782  0.00451817567485  0.0354843244829  
6.92418193817  0.000587835062247  -1.61542066172  -1.41984386886  -0.162836549755  0.00443035201139  -0.012942377964  
6.93231987953  2.14781448428e-17  -1.61033408978  -1.41714522013  -0.145537668715  0.00438889306449  0.0  
6.94041585922  2.14781448428e-17  -1.61033408978  -1.41714522013  -0.145537668715  0.00438889306449  0.0  
6.9486219883  2.14781448428e-17  -1.61033408978  -1.41714522013  -0.145537668715  0.00438889306449  0.0  
6.95660185814  0.00183401315847  -1.62619460392  -1.4255557406  -0.389193259023  0.00451788577058  0.0  
6.96472287178  0.00183545148959  -1.6261791134  -1.42553499463  -0.394040856085  0.00451691631747  0.0  
6.97276902199  0.00183784795667  -1.62615328156  -1.42550040672  -0.398891827581  0.00451530020287  0.0  
6.98081302643  -0.00124556205045  -1.59947988163  -1.41135034599  -0.304915680407  0.00429624892529  0.0  
6.98896193504  -0.00183588948213  -1.59437465712  -1.40864185078  -0.282717464578  0.00425355600294  0.0  
6.99706888199  -0.00183667581916  -1.59436623567  -1.40863619076  -0.1876560578  0.00425299973387  0.0  
7.00520300865  -0.000588858239758  -1.60514472404  -1.41434676508  -0.128099847212  0.00434082176837  0.0  
7.01327395439  1.0954300096e-17  -1.61023125423  -1.41704170611  -0.145398728252  0.00438228071526  0.0  
7.02131295204  1.0954300096e-17  -1.61023125423  -1.41704170611  -0.145398728252  0.00438228071526  0.0  
7.02956295013  1.0954300096e-17  -1.61023125423  -1.41704170611  -0.145398728252  0.00438228071526  0.0  
7.03769898415  0.0611253508821  -2.6768275314  -0.556679499223  -0.157805999576  0.00491534132764  0.0  
7.04566693306  0.0606445992837  -2.68552068118  -0.54420502353  -0.157697467466  0.00491074710137  0.0  
7.05374193192  -0.0611259556087  -1.56806368325  -1.11178670141  -0.132981086515  0.00384871516403  0.0  
7.06187200546  -0.0606433972515  -1.05926472354  -1.69239287083  -0.133079886648  0.00385292488465  0.0  
7.06996107101  -1.96494299536e-18  -1.6085525226  -1.41708220283  -0.145387627647  0.00438175260239  0.0  
7.07802987099  -1.96494299536e-18  -1.6085525226  -1.41708220283  -0.145387627647  0.00438175260239  0.0  
7.08625602722  -1.96494299536e-18  -1.6085525226  -1.41708220283  -0.145387627647  0.00438175260239  0.0  
7.09434103966  -1.96494299536e-18  -1.6085525226  -1.41708220283  -0.145387627647  0.00438175260239  0.0  
7.10236501694  -1.96494299536e-18  -1.6085525226  -1.41708220283  -0.145387627647  0.00438175260239  0.0  
7.11055088043  -1.96494299536e-18  -1.6085525226  -1.41708220283  -0.145387627647  0.00438175260239  0.0  
7.11850905418  -0.00309364513087  -1.60796343321  -1.41684372952  -0.145256974152  -0.21455547776  0.0  
7.12674498558  -0.00309362167287  -1.60796618812  -1.41684529368  -0.145258427621  -0.219389619002  0.0  
7.13466787338  0.00164296553095  -1.60886784031  -1.41721109772  -0.14545990544  -0.139862841393  0.0  
7.14284801483  0.00309362847103  -1.60914287136  -1.41732279358  -0.145521577322  -0.0704835433157  0.0  
7.15087985992  0.00145067566226  -1.6088306237  -1.41719634397  -0.145452237005  0.0279376097716  0.0  
7.15898108482  -4.09353175524e-18  -1.60855500053  -1.41708469711  -0.145390975557  0.00436519214052  0.0  
7.16714096069  -4.09353175524e-18  -1.60855500053  -1.41708469711  -0.145390975557  0.00436519214052  0.0  
7.1751499176  -4.09353175524e-18  -1.60855500053  -1.41708469711  -0.145390975557  0.00436519214052  0.0  
7.18332004547  0.00309363470365  -1.60914320074  -1.41732281075  -0.145521432372  0.233330913593  0.0  
7.19155597687  0.00309365833719  -1.6091444668  -1.41732287621  -0.145520874214  0.238042339631  0.0  
7.19948291779  -0.00164295082882  -1.60824093933  -1.41695631215  -0.145318978837  0.158581067832  0.0  
7.20762705803  -0.00309365114378  -1.60796271671  -1.41684332264  -0.145256596013  0.0867652416051  0.0  
7.21570086479  -0.00145068791262  -1.60827585378  -1.41697013241  -0.145326133788  -0.0191906650287  0.0  
7.22374892235  -1.96494299536e-18  -1.6085525226  -1.41708220283  -0.145387627647  0.00438175260239  0.0  
7.23184704781  -1.96494299536e-18  -1.6085525226  -1.41708220283  -0.145387627647  0.00438175260239  0.0  
7.23990988731  -1.96494299536e-18  -1.6085525226  -1.41708220283  -0.145387627647  0.00438175260239  0.0  
7.24803686142  0.643064075916  -1.63638042688  -1.41390677317  -0.14654857579  -0.191798372322  -0.231733816215  
7.25611591339  0.746580136026  -1.63639136728  -1.41390492583  -0.146550249358  -0.194842388614  -0.236144078149  
7.26421403885  0.66724649656  -1.62675642585  -1.41500395819  -0.14615004022  -0.186643684139  -0.221541530698  
7.272315979  0.262895035418  -1.58073915082  -1.42025625437  -0.144230803928  -0.135108788754  -0.133690405275  
7.28044891357  0.0215995170102  -1.58073145425  -1.42025839471  -0.144230483551  -0.075188292183  -0.129286791857  
7.28869199753  -0.157283802515  -1.59037654601  -1.41915837825  -0.144632770643  0.0235395094366  0.0329670711968  
7.29680895805  -4.09353175524e-18  -1.60855500053  -1.41708469711  -0.145390975557  0.00436519214052  0.0  
7.3046939373  -4.09353175524e-18  -1.60855500053  -1.41708469711  -0.145390975557  0.00436519214052  0.0  
7.31281399727  -4.09353175524e-18  -1.60855500053  -1.41708469711  -0.145390975557  0.00436519214052  0.0  
7.32086491585  -0.518649587184  -1.57044033934  -1.41122077234  0.0997759201856  0.169155103798  0.22618190513  
7.3289949894  -0.701787307557  -1.57046235341  -1.41122970211  0.104534090606  0.206414144115  0.229575943839  
7.33716201782  -0.706689610915  -1.57049903984  -1.41124457859  0.109293693213  0.208770158119  0.232981266471  
7.34521889687  -0.376821344639  -1.63453929975  -1.42114025787  0.0138234960884  0.167965025982  0.162870943214  
7.35327506065  -0.234260961031  -1.6467707182  -1.42304933871  -0.00858068589401  0.158135864607  0.146530908889  
7.36153197289  0.0907734965244  -1.64677516367  -1.42306105285  -0.103899876525  0.0263114686605  0.0354843244829  
7.36954593658  0.0623376744163  -1.62087675343  -1.41906960776  -0.163122533151  -0.0030976797688  -0.012942377964  
7.37763690948  -1.81069097258e-17  -1.60865537219  -1.417185731  -0.145526587086  0.00438836552369  0.0  
7.38565993309  -1.81069097258e-17  -1.60865537219  -1.417185731  -0.145526587086  0.00438836552369  0.0  
7.39376187325  -1.81069097258e-17  -1.60865537219  -1.417185731  -0.145526587086  0.00438836552369  0.0  
7.40196204185  -0.0016264784521  -1.65068956373  -1.87802984238  -0.392715551757  -0.153913189262  -0.220761748481  
7.40999794006  -0.00162277460951  -1.65070639687  -2.17718615509  -0.39755690444  -0.189181891341  -0.224285350299  
7.41812205315  -0.00161660296797  -1.65073441554  -2.18250819757  -0.402397459629  -0.191599960393  -0.227821225597  
7.42626404762  0.0011062166267  -1.58014595364  -1.92337557036  -0.302475950996  -0.148150860353  -0.157622097385  
7.43435001373  0.0016216464774  -1.56666896341  -1.67323846731  -0.27913794202  -0.137764142453  -0.141152182698  
7.44255208969  0.00161962122798  -1.56666963866  -1.36378262761  -0.184073211471  -0.0134498850908  -0.0332713096775  
7.45066595078  0.000519213593249  -1.59523551352  -1.36846523233  -0.126915721094  0.0123462893212  0.012942377964  
7.45869708061  -1.29430724595e-17  -1.60871549841  -1.41724625391  -0.145346637009  0.00436309090753  0.0  
7.4668738842  -1.29430724595e-17  -1.60871549841  -1.41724625391  -0.145346637009  0.00436309090753  0.0  
