Ethan-CYM/ros_catkin_ws/test/movej_静止不动/ur_joint_actual_degree.txt
time  shoulder_pan_joint  shoulder_lift_joint  elbow_joint  wrist_1_joint  wrist_2_joint  wrist_3_joint
0.148657083511  1.56996500492  -1.22119456926  2.09332513809  -3.15335113207  -1.571331803  -0.188288036977  
0.156754016876  1.56998896599  -1.22114688555  2.09336090088  -3.15341121355  -1.57151157061  -0.188576046621  
0.16481590271  1.56997692585  -1.22120649019  2.09331321716  -3.153363053  -1.57178718248  -0.188887898122  
0.172927856445  1.56996500492  -1.22113448778  2.09334897995  -3.15337497393  -1.57188254992  -0.18899566332  
0.180989980698  1.56998896599  -1.22118264834  2.09336090088  -3.15337497393  -1.57187062899  -0.188959423696  
0.189085006714  1.57001292706  -1.22115880648  2.09332513809  -3.15335113207  -1.5718348662  -0.188935581838  
0.197205066681  1.56997692585  -1.22113448778  2.09332513809  -3.15338689486  -1.57176334063  -0.188779656087  
0.205343961716  1.56997692585  -1.22115880648  2.09337282181  -3.15338689486  -1.57176334063  -0.188792053853  
0.213509082794  1.57001292706  -1.22115880648  2.09338521957  -3.15338689486  -1.57173902193  -0.188767735158  
0.221590042114  1.57002484798  -1.22117072741  2.09332513809  -3.153363053  -1.57164317766  -0.188755814229  
0.229683876038  1.56997692585  -1.22114688555  2.09336090088  -3.15332729021  -1.57134372393  -0.188767735158  
0.237744092941  1.57001292706  -1.22114688555  2.09333705902  -3.15338689486  -1.5712240378  -0.188779656087  
0.245833873749  1.56998896599  -1.22115880648  2.09338521957  -3.153363053  -1.57129556337  -0.188779656087  
0.253921985626  1.56998896599  -1.22115880648  2.09334897995  -3.153363053  -1.57142764727  -0.188815895711  
0.262018918991  1.56998896599  -1.22111064592  2.09334897995  -3.15333921114  -1.57137948671  -0.188779656087  
0.270107030869  1.57000088692  -1.22117072741  2.09336090088  -3.15338689486  -1.57140380541  -0.188779656087  
0.278210878372  1.56998896599  -1.22114688555  2.0933971405  -3.1532552878  -1.57146341005  -0.188792053853  
0.286270856857  1.56997692585  -1.22114688555  2.09336090088  -3.15299159685  -1.57166749636  -0.188767735158  
0.294360876083  1.56998896599  -1.22117072741  2.09332513809  -3.15263206164  -1.5718348662  -0.188767735158  
0.302402019501  1.57001292706  -1.22119456926  2.09338521957  -3.15242845217  -1.57201463381  -0.188779656087  
0.310492992401  1.57002484798  -1.22113448778  2.09337282181  -3.15227300326  -1.57202655474  -0.188792053853  
0.318589925766  1.57003688812  -1.22114688555  2.09337282181  -3.15232068697  -1.57207423845  -0.188755814229  
0.326677083969  1.57004880905  -1.22118264834  2.09334897995  -3.15247661272  -1.57193071047  -0.1887438933  
0.334739923477  1.57001292706  -1.22115880648  2.09338521957  -3.15251237551  -1.57193071047  -0.188767735158  
0.342829942703  1.56997692585  -1.22118264834  2.09334897995  -3.15257245699  -1.57196647326  -0.188767735158  
0.350951910019  1.57000088692  -1.22113448778  2.09337282181  -3.15254861513  -1.57197839419  -0.188755814229  
0.359063863754  1.57003688812  -1.22114688555  2.0933971405  -3.1525366942  -1.5718348662  -0.188779656087  
0.367156982422  1.56998896599  -1.22113448778  2.09337282181  -3.15251237551  -1.57154733339  -0.188767735158  
0.375293970108  1.57000088692  -1.22117072741  2.09334897995  -3.15252477327  -1.57116395632  -0.188779656087  
0.383413076401  1.56997692585  -1.22119456926  2.09337282181  -3.15254861513  -1.57094842592  -0.188779656087  
0.391583919525  1.57000088692  -1.22115880648  2.09333705902  -3.15252477327  -1.57085258165  -0.188779656087  
0.399671077728  1.56997692585  -1.22117072741  2.09334897995  -3.15251237551  -1.57088882128  -0.188767735158  
0.407732963562  1.56995296478  -1.22113448778  2.09336090088  -3.15252477327  -1.57098466555  -0.188755814229  
0.415827989578  1.57000088692  -1.22119456926  2.09336090088  -3.1525366942  -1.57097274462  -0.188755814229  
0.423920869827  1.56997692585  -1.22112256685  2.09338521957  -3.15248853365  -1.57100850741  -0.188755814229  
0.432014942169  1.56997692585  -1.22114688555  2.09332513809  -3.15251237551  -1.57102042833  -0.188755814229  
0.440111875534  1.57001292706  -1.22114688555  2.09333705902  -3.15263206164  -1.57103234926  -0.188803974782  
0.448184013367  1.56997692585  -1.22113448778  2.09334897995  -3.1528356711  -1.57098466555  -0.188767735158  
0.456283092499  1.56998896599  -1.22117072741  2.09337282181  -3.15323144594  -1.57099658648  -0.188767735158  
0.464346885681  1.57000088692  -1.22113448778  2.09331321716  -3.15341121355  -1.57102042833  -0.188767735158  
0.472533941269  1.56997692585  -1.22115880648  2.09331321716  -3.15348273913  -1.57099658648  -0.188803974782  
0.480627059937  1.57001292706  -1.22112256685  2.09331321716  -3.15349466005  -1.57094842592  -0.188767735158  
0.488692045212  1.56998896599  -1.22115880648  2.09336090088  -3.15332729021  -1.57098466555  -0.188767735158  
0.496785879135  1.57002484798  -1.22114688555  2.09334897995  -3.15324336687  -1.57097274462  -0.188755814229  
0.504903078079  1.56998896599  -1.22117072741  2.09338521957  -3.15323144594  -1.57099658648  -0.188792053853  
0.512988090515  1.56998896599  -1.22115880648  2.09332513809  -3.15324336687  -1.57098466555  -0.188755814229  
0.5210750103  1.56998896599  -1.22113448778  2.09334897995  -3.15343505541  -1.57084066073  -0.188792053853  
0.529198884964  1.57002484798  -1.22114688555  2.09333705902  -3.15365058581  -1.57075673739  -0.188755814229  
0.537258863449  1.57003688812  -1.22119456926  2.09336090088  -3.15414172808  -1.57054120699  -0.188779656087  
0.545384883881  1.57001292706  -1.22114688555  2.09333705902  -3.15474063555  -1.57031375567  -0.188755814229  
0.553502082825  1.56997692585  -1.22113448778  2.09332513809  -3.15542346636  -1.56993037859  -0.188767735158  
0.561598062515  1.56998896599  -1.22119456926  2.09336090088  -3.15614205996  -1.56959516207  -0.188755814229  
0.569689035416  1.56998896599  -1.22120649019  2.09338521957  -3.15666944185  -1.56935531298  -0.188803974782  
0.577749013901  1.57000088692  -1.22113448778  2.09331321716  -3.157040898  -1.56915170351  -0.188792053853  
0.585838079453  1.57002484798  -1.22115880648  2.09333705902  -3.1572564284  -1.56902009646  -0.188815895711  
0.593931913376  1.56997692585  -1.22118264834  2.09336090088  -3.15728027025  -1.5689962546  -0.188779656087  
0.602056026459  1.57000088692  -1.22114688555  2.09338521957  -3.15728027025  -1.56903249422  -0.188815895711  
0.610190868378  1.56996500492  -1.22115880648  2.09338521957  -3.15712482134  -1.56912833849  -0.188792053853  
0.618278980255  1.56997692585  -1.22115880648  2.09338521957  -3.15713674227  -1.5691040198  -0.188779656087  
0.626342058182  1.56992900372  -1.22118264834  2.09337282181  -3.15718442598  -1.56908017794  -0.188803974782  
0.634465932846  1.57000088692  -1.22114688555  2.0933971405  -3.15700465838  -1.5691040198  -0.188803974782  
0.642541885376  1.56995296478  -1.22118264834  2.09333705902  -3.15670520464  -1.5692837874  -0.188803974782  
0.650640010834  1.56998896599  -1.22117072741  2.09337282181  -3.15630990664  -1.56929570833  -0.188839737569  
0.658701896667  1.56998896599  -1.22117072741  2.09337282181  -3.15592652956  -1.56954700152  -0.188792053853  
0.666799068451  1.57002484798  -1.22113448778  2.09337282181  -3.15526801745  -1.56963092486  -0.188803974782  
0.674925088882  1.56997692585  -1.22115880648  2.09338521957  -3.15445310274  -1.56993037859  -0.188815895711  
0.683050870895  1.56997692585  -1.22117072741  2.09333705902  -3.15373450914  -1.57009822527  -0.188803974782  
0.691166877747  1.57003688812  -1.22112256685  2.09334897995  -3.15313560167  -1.57030183474  -0.188851658498  
0.699255943298  1.56996500492  -1.22112256685  2.09333705902  -3.15275174776  -1.57045776049  -0.188803974782  
0.707351922989  1.56997692585  -1.22112256685  2.09333705902  -3.15244084993  -1.57056504885  -0.188792053853  
0.715503931046  1.56998896599  -1.22114688555  2.09338521957  -3.15229684511  -1.57056504885  -0.188839737569  
0.723603963852  1.56995296478  -1.22117072741  2.09334897995  -3.15227300326  -1.57060128847  -0.188803974782  
0.731667041779  1.56998896599  -1.22114688555  2.09334897995  -3.15232068697  -1.57055312792  -0.188803974782  
0.739753007889  1.56998896599  -1.22117072741  2.09336090088  -3.15250045458  -1.57046968142  -0.188792053853  
0.747871875763  1.56996500492  -1.22114688555  2.0933971405  -3.15250045458  -1.57045776049  -0.18882781664  
0.755934000015  1.56997692585  -1.22113448778  2.09334897995  -3.15250045458  -1.57048160235  -0.188815895711  
0.764023065567  1.56997692585  -1.22120649019  2.09337282181  -3.15247661272  -1.57054120699  -0.188767735158  
0.772114038467  1.56996500492  -1.22145778338  2.09338521957  -3.15234500567  -1.57058889071  -0.188671890889  
0.780200004578  1.57002484798  -1.22172099749  2.09344530106  -3.15250045458  -1.57049304644  -0.188612286245  
0.788290023804  1.57007277012  -1.22218782107  2.09349298477  -3.15218907992  -1.57064897219  -0.18850404421  
0.796351909637  1.57008481026  -1.22279817263  2.09351730347  -3.15241653124  -1.57056504885  -0.188383881246  
0.804442882538  1.57015669346  -1.22356444994  2.09357690811  -3.1521170775  -1.57068473497  -0.188240353261  
0.812526941299  1.57026493549  -1.22449857393  2.09364891052  -3.15224868456  -1.57070905367  -0.18808442751  
0.820586919785  1.57034885883  -1.22552758852  2.09373235703  -3.15199739138  -1.57069713274  -0.187808338796  
0.828635931015  1.57045674324  -1.22677261034  2.09381628036  -3.15204507509  -1.57091266314  -0.187544647847  
0.836731910706  1.57058846951  -1.22806531588  2.09393644333  -3.15190154711  -1.57078105608  -0.187221352254  
0.844843864441  1.57069671154  -1.22958594957  2.0940322876  -3.15190154711  -1.57103234926  -0.186849419271  
0.852957010269  1.57079267502  -1.23116571108  2.09415245056  -3.15178138414  -1.57102042833  -0.186513249074  
0.861068964005  1.57093644142  -1.23293763796  2.09430837631  -3.15169746081  -1.57105666796  -0.18611795107  
0.869157075882  1.57110464573  -1.23478109041  2.09441614151  -3.15164977709  -1.57125980059  -0.185638252889  
0.87726688385  1.57129633427  -1.23676759401  2.09463167191  -3.15158969561  -1.57118779818  -0.185098473226  
0.885384082794  1.57150006294  -1.23888618151  2.0947637558  -3.15147000948  -1.57141572634  -0.184606854116  
0.893486022949  1.57167983055  -1.24116069475  2.09497976303  -3.15143376986  -1.57131988207  -0.184078995381  
0.901606082916  1.57191991806  -1.2435429732  2.09520673752  -3.15133792559  -1.57154733339  -0.18349200884  
0.90970993042  1.57219588757  -1.24608070055  2.09539890289  -3.15125400225  -1.57145148913  -0.182892147695  
0.917806863785  1.57241165638  -1.24873811403  2.0956029892  -3.15106279055  -1.57166749636  -0.182280365621  
0.925893068314  1.57267570496  -1.25147897402  2.0959148407  -3.15107471148  -1.5717514197  -0.181596581136  
0.934023857117  1.57321536541  -1.256650273  2.09629821777  -3.15107471148  -1.5720503966  -0.18039781252  
0.942120075226  1.57346701622  -1.2589486281  2.09646558762  -3.15087110201  -1.57220632235  -0.179834190999  
0.950187921524  1.57362282276  -1.26099521319  2.09669399261  -3.15085918108  -1.57229024569  -0.17933065096  
0.958250045776  1.57379090786  -1.26288634935  2.09690952301  -3.15055972735  -1.57243377367  -0.178827110921  
0.96634888649  1.57399463654  -1.26457435289  2.0971493721  -3.15048772493  -1.57252961794  -0.178359333669  
0.974539995193  1.57412683964  -1.26622611681  2.09730529785  -3.15023595492  -1.57256585756  -0.177927796041  
0.982631921768  1.57425868511  -1.26781827608  2.0974612236  -3.15020019213  -1.57269698778  -0.177579704915  
0.990725040436  1.57442641258  -1.26918298403  2.0975689888  -3.15015203158  -1.572661225  -0.177207771932  
0.998813867569  1.57454669476  -1.27059489885  2.09770059586  -3.15005618731  -1.57280522982  -0.176884476339  
1.00689888  1.57465457916  -1.27179176012  2.0977845192  -3.15012818972  -1.57276899019  -0.176632229482  
1.01500892639  1.57476234436  -1.27282172838  2.09794044495  -3.15000802675  -1.57287675539  -0.176392857228  
1.02310204506  1.57483434677  -1.27375537554  2.09797668457  -3.15005618731  -1.57285291353  -0.176225010549  
1.03119707108  1.57494258881  -1.27454549471  2.09807252884  -3.14985257784  -1.57300883928  -0.176020447408  
1.0392999649  1.5749784708  -1.27520352999  2.09814405441  -3.14999610582  -1.57290107409  -0.175900761281  
1.04742097855  1.57501447201  -1.27569419542  2.09818029404  -3.14975673357  -1.57306892077  -0.175780598317  
1.05551290512  1.575050354  -1.27611285845  2.09816837311  -3.1499841849  -1.57297259966  -0.175637070333  
1.06360602379  1.575050354  -1.27632886568  2.09814405441  -3.14970904986  -1.57310468355  -0.175660912191  
1.07166600227  1.57503843307  -1.27650815645  2.09813213348  -3.14991218248  -1.57315236727  -0.175600830709  
1.07975387573  1.57502639294  -1.27649623552  2.09815597534  -3.1497929732  -1.57306892077  -0.17567283312  
1.08786702156  1.57502639294  -1.27642423311  2.09808444977  -3.14996034304  -1.57323629061  -0.175756756459  
1.09598493576  1.57501447201  -1.27629310289  2.09812021255  -3.14984065691  -1.57320052782  -0.175780598317  
1.10407996178  1.57500243187  -1.276161019  2.09815597534  -3.14978105227  -1.57320052782  -0.175756756459  
1.11221504211  1.57499051094  -1.27612525622  2.09818029404  -3.14981681505  -1.57320052782  -0.175756756459  
1.12034106255  1.57503843307  -1.27619678179  2.09815597534  -3.14963704744  -1.57312852541  -0.175648991262  
1.12843799591  1.57494258881  -1.2764843146  2.09789276123  -3.14944535891  -1.57304460207  -0.17550498644  
1.1365609169  1.5748462677  -1.27692681948  2.09754514694  -3.14900190035  -1.57304460207  -0.175312821065  
1.14465689659  1.57478642464  -1.27750140825  2.09723329544  -3.14861852327  -1.57290107409  -0.17509729067  
1.15274500847  1.57466650009  -1.27819615999  2.09678983688  -3.14802009264  -1.5728409926  -0.17484552065  
1.1608569622  1.57453465462  -1.27898532549  2.0963344574  -3.14738494555  -1.57278091112  -0.174533669149  
1.16897892952  1.57442641258  -1.27995568911  2.09567451477  -3.14660627047  -1.57261354128  -0.174221817647  
1.17709803581  1.57423472404  -1.28100854555  2.09494352341  -3.14575559298  -1.57248193422  -0.17386228243  
1.18522405624  1.57405459881  -1.28220540682  2.09415245056  -3.14472514788  -1.57230216662  -0.173406426107  
1.19333195686  1.57383882999  -1.28353435198  2.09332513809  -3.14356309572  -1.5720503966  -0.172878567372  
1.201431036  1.57365870476  -1.28499442736  2.09225845337  -3.14236528078  -1.57182294527  -0.1723874251  
1.20952796936  1.57333517075  -1.28658658663  2.09109544754  -3.14102346102  -1.57153541247  -0.171799484883  
1.21762394905  1.57304751873  -1.28829795519  2.08993244171  -3.13971740404  -1.5712240378  -0.171128098165  
1.22575592995  1.57273554802  -1.29010516802  2.08863782883  -3.13819581667  -1.57091266314  -0.170492474233  
1.23384785652  1.57243561745  -1.29211599032  2.08727121353  -3.1365907828  -1.57060128847  -0.169724766408  
1.24196791649  1.57205176353  -1.29421073595  2.08577299118  -3.13488990465  -1.57020599047  -0.168933693563  
1.2500910759  1.57164382935  -1.296377484  2.0842499733  -3.13298446337  -1.56978685061  -0.168154064809  
1.25815987587  1.57128429413  -1.29878312746  2.08256006241  -3.13106805483  -1.5692837874  -0.167242829  
1.26626086235  1.57084059715  -1.30118877092  2.08090543747  -3.12904340426  -1.56881648699  -0.166283432637  
1.27432394028  1.57034885883  -1.30383426348  2.07914304733  -3.12685138384  -1.56827813784  -0.165324036275  
1.28245592117  1.56983280182  -1.30661136309  2.07717752457  -3.1245988051  -1.56772691408  -0.16423255602  
1.29054188728  1.56931710243  -1.30954343477  2.07515144348  -3.12223893801  -1.56722385088  -0.163165871297  
1.29865503311  1.56871783733  -1.31257182757  2.07304143906  -3.11981898943  -1.56658918062  -0.162050549184  
1.30671286583  1.56816577911  -1.3157675902  2.07093143463  -3.11725551287  -1.56591827074  -0.160827461873  
1.31481099129  1.56751835346  -1.31910640398  2.06862974167  -3.11455995241  -1.56527167956  -0.159604374562  
1.32292604446  1.56695473194  -1.32240993181  2.06637573242  -3.11197215716  -1.56456500689  -0.158417050038  
1.33104491234  1.56639099121  -1.32564193407  2.0641579628  -3.10943252245  -1.56395417849  -0.157205883657  
1.33917188644  1.56580305099  -1.32862168947  2.06209611893  -3.10714418093  -1.56335527102  -0.156138722097  
1.34727501869  1.56532371044  -1.33138686815  2.06032180786  -3.10490399996  -1.56281596819  -0.155119721089  
1.35536789894  1.56483197212  -1.33398372332  2.05857133865  -3.10268813768  -1.5622771422  -0.154196087514  
1.363478899  1.56435227394  -1.33637744585  2.05688095093  -3.10051948229  -1.56181031862  -0.153249088918  
1.37160086632  1.56388413906  -1.33866340319  2.05532217026  -3.09853107134  -1.56130725542  -0.152325455342  
1.37966299057  1.56347620487  -1.34090167681  2.05380010605  -3.09661418596  -1.56087571779  -0.151510063802  
1.38775897026  1.56304478645  -1.34296018282  2.05236101151  -3.09479362169  -1.56045657793  -0.150742832814  
1.3958439827  1.56272089481  -1.34499484697  2.05092287064  -3.09324771563  -1.56007367769  -0.149998966848  
1.40393686295  1.56236100197  -1.34687406221  2.0496878624  -3.09169084231  -1.55970222155  -0.149327103292  
1.4120528698  1.56206130981  -1.34856158892  2.04847717285  -3.09031278292  -1.55931884447  -0.14869147936  
1.42017698288  1.56177341938  -1.35016519228  2.0473742485  -3.08906680742  -1.55906755129  -0.148128334676  
1.42832708359  1.5615093708  -1.35161382357  2.0463552475  -3.0878332297  -1.55875617663  -0.147564713155  
1.4364168644  1.56123411655  -1.35287028948  2.04543209076  -3.08676654497  -1.55849248568  -0.14704877535  
1.44450807571  1.56103003025  -1.35403091112  2.04462862015  -3.08568841616  -1.55824071566  -0.146641079579  
1.45256996155  1.56083786488  -1.35510808626  2.04389762878  -3.08485013643  -1.55801374117  -0.146197144185  
1.46066188812  1.56068205833  -1.35607797304  2.04325008392  -3.0840476195  -1.55779773394  -0.145837608968  
1.46868801117  1.56058621407  -1.3568909804  2.04265069962  -3.08344871203  -1.55765420595  -0.145549599324  
1.47679901123  1.56045401096  -1.35762101809  2.04217100143  -3.08282548586  -1.55752212206  -0.145322148  
1.48490786552  1.56033408642  -1.35821992556  2.04173994064  -3.082406346  -1.55748635927  -0.145130459462  
1.49299407005  1.56022632122  -1.35862666765  2.04147577286  -3.08203488985  -1.55736619631  -0.145010296498  
1.50108885765  1.56021428108  -1.35891372362  2.04125976562  -3.08184320131  -1.55734283129  -0.144913975392  
1.50919985771  1.56017839909  -1.35903388659  2.04116392136  -3.08165151278  -1.55736619631  -0.144854370748  
1.51726102829  1.56022632122  -1.35909396807  2.04121208191  -3.08172303835  -1.55728274981  -0.144950215017  
1.52536392212  1.56026220322  -1.35899764696  2.0412478447  -3.08179504076  -1.55737859408  -0.145010296498  
1.5334250927  1.56033408642  -1.35892612139  2.04136800766  -3.08183128039  -1.55745011965  -0.145142380391  
1.54148602486  1.56034612656  -1.35884219805  2.04143953323  -3.08180696169  -1.55742627779  -0.145142380391  
1.54959702492  1.56034612656  -1.35877019564  2.04141569138  -3.08180696169  -1.55742627779  -0.145082298909  
1.5576570034  1.56027424335  -1.35878211657  2.04134368896  -3.08159190813  -1.55735475222  -0.144974056874  
1.56578087807  1.56023824215  -1.35888988176  2.04107999802  -3.08131629625  -1.55722314516  -0.144890133535  
1.57390189171  1.56019032001  -1.35909396807  2.0407204628  -3.08087331453  -1.55709106127  -0.144722286855  
1.58199691772  1.56002223492  -1.35973960558  2.03967761993  -3.07972318331  -1.55650407473  -0.144302670156  
1.59006500244  1.55992627144  -1.36011106173  2.03899431229  -3.07889587084  -1.55607301394  -0.143966976796  
1.59821987152  1.55979442596  -1.36055404345  2.03827524185  -3.07796222368  -1.55563003222  -0.143619362508  
1.60639190674  1.55962669849  -1.3609846274  2.03735160828  -3.07691985766  -1.55510312716  -0.143283669149  
1.61449503899  1.55943500996  -1.36153537432  2.0364408493  -3.07578164736  -1.55450421969  -0.142947498952  
1.62260103226  1.55926680565  -1.36210948626  2.03534984589  -3.07439214388  -1.55380946795  -0.142467800771  
1.63068890572  1.55912303925  -1.36284000078  2.03417444229  -3.07295447985  -1.55317479769  -0.142000500356  
1.6387989521  1.5589312315  -1.36359388033  2.0329041481  -3.07137328783  -1.5524204413  -0.141472641622  
1.64689302444  1.55867922306  -1.36437160174  2.03151321411  -3.06967193285  -1.5516298453  -0.140873257314  
1.65501189232  1.55846309662  -1.36526900927  2.03005075455  -3.06773168245  -1.55079156557  -0.140297714864  
1.66310691833  1.5581754446  -1.36617881456  2.02845573425  -3.06582671801  -1.54985696474  -0.139638249074  
1.67121291161  1.55791151524  -1.36716014544  2.02676582336  -3.06363469759  -1.54882747332  -0.138894859944  
1.6793448925  1.55761146545  -1.36810571352  2.0249915123  -3.06138211886  -1.54783279101  -0.138150993978  
1.68743991852  1.5573362112  -1.36918241182  2.02302503586  -3.05905849138  -1.54670697847  -0.137323681508  
1.69553303719  1.55700027943  -1.37033158938  2.02109479904  -3.05665094057  -1.54553395907  -0.136448685323  
1.70367193222  1.55671226978  -1.37156421343  2.01898527145  -3.05407506624  -1.54427606264  -0.135560814534  
1.71178889275  1.55629241467  -1.37277299563  2.01677942276  -3.05130750338  -1.54298240343  -0.134649578725  
1.71987605095  1.55596852303  -1.37410146395  2.01451301575  -3.04834872881  -1.54164106051  -0.133666340505  
1.72798585892  1.5555729866  -1.37545425097  2.01212739944  -3.04540187517  -1.5401318709  -0.132623020803  
1.73610806465  1.55520117283  -1.37690240542  2.00962162018  -3.04223949114  -1.53865892092  -0.131495777761  
1.74424695969  1.55470943451  -1.37836200396  2.0070438385  -3.03901702562  -1.53709012667  -0.130392853414  
1.75235199928  1.55433750153  -1.37985831896  2.00433444977  -3.03554279009  -1.53546125094  -0.129217449819  
1.760420084  1.55386972427  -1.38142615954  2.00152873993  -3.03204518953  -1.53376037279  -0.128006283437  
1.76850605011  1.55337846279  -1.38307696978  1.99863958359  -3.02836734453  -1.53199989  -0.126783196126  
1.77660107613  1.55294620991  -1.38478881518  1.99560642242  -3.02467805544  -1.53022748629  -0.125440422689  
1.78472399712  1.55247843266  -1.38655978838  1.9924530983  -3.02071267763  -1.52839547793  -0.124085251485  
1.79284286499  1.55197477341  -1.38839131991  1.98925209045  -3.01661616961  -1.52653867403  -0.122742478048  
1.80093789101  1.55145943165  -1.3903058211  1.98600292206  -3.01251918474  -1.52458650271  -0.121327225362  
1.80902099609  1.55094337463  -1.39212543169  1.9827299118  -3.00866157213  -1.52267009417  -0.119936291371  
1.8171069622  1.55043971539  -1.39392072359  1.97970867157  -3.00494844118  -1.5208495299  -0.118629280721  
1.82520198822  1.54998385906  -1.39564353624  1.97684335709  -3.00130683581  -1.51911288897  -0.117405716573  
1.83329296112  1.54954051971  -1.39725953737  1.97406196594  -2.99777299563  -1.51744825045  -0.116206947957  
1.84135603905  1.54913258553  -1.39871961275  1.97137641907  -2.99441892305  -1.51586753527  -0.115007702504  
1.84947299957  1.54874873161  -1.40017921129  1.96882200241  -2.99119645754  -1.51429874102  -0.113964382802  
1.85758399963  1.54835295677  -1.40155584017  1.96641254425  -2.98799831072  -1.51280147234  -0.112909619008  
1.86570286751  1.54796898365  -1.40284806887  1.96402597427  -2.98494369188  -1.51141196886  -0.111950222646  
1.87383008003  1.5475975275  -1.40412885347  1.96177244186  -2.98222428957  -1.51002294222  -0.110990826284  
1.88195109367  1.54726159573  -1.40536100069  1.95962619781  -2.97950536409  -1.50871736208  -0.110115353261  
1.89006400108  1.54693770409  -1.40656978289  1.95757579803  -2.97696572939  -1.50753242174  -0.109276119863  
1.89815497398  1.54667365551  -1.40775520006  1.95563364029  -2.97448617617  -1.50632220904  -0.10848457018  
1.90621805191  1.54639804363  -1.40878421465  1.95385885239  -2.9722459952  -1.50523215929  -0.107681099569  
1.9143269062  1.54611003399  -1.40978938738  1.95212078094  -2.96995813051  -1.50425035158  -0.106937710439  
1.92239308357  1.54579842091  -1.41062719027  1.95042991638  -2.96788531939  -1.50323230425  -0.106194321309  
1.93046188354  1.54549884796  -1.41145259539  1.94887113571  -2.96588498751  -1.50229818026  -0.105534855519  
1.93856191635  1.54525876045  -1.41227847735  1.94739675522  -2.96424419085  -1.50147134462  -0.104923073445  
1.94664692879  1.54506659508  -1.41304427782  1.94613790512  -2.9625433127  -1.50063401857  -0.104311768209  
1.95470404625  1.54489886761  -1.41373855272  1.94486665726  -2.96104604403  -1.49991494814  -0.103771988546  
1.96281003952  1.5446947813  -1.41440898577  1.94370365143  -2.95959645907  -1.4992201964  -0.103304211293  
1.97093105316  1.54456293583  -1.41503125826  1.94268465042  -2.95832664171  -1.49860984484  -0.102824989949  
1.978992939  1.54435920715  -1.41547376314  1.94173717499  -2.9571407477  -1.49803477923  -0.102369133626  
1.98711705208  1.54421496391  -1.4160006682  1.94093418121  -2.95603877703  -1.49754363695  -0.102081123983  
1.99524092674  1.54411947727  -1.4163830916  1.94017887115  -2.95517617861  -1.49712449709  -0.101769272481  
2.00333690643  1.54399967194  -1.41674262682  1.93957948685  -2.95432550112  -1.49674112002  -0.101505581533  
2.01142501831  1.54393935204  -1.4170182387  1.93906354904  -2.9536913077  -1.49645406405  -0.101265732442  
2.01948690414  1.54387938976  -1.41724521319  1.93863201141  -2.95318776766  -1.49621421496  -0.101122204457  
2.02758193016  1.54383146763  -1.41738874117  1.93840408325  -2.95280439058  -1.49601060549  -0.101013962423  
2.03569698334  1.54377162457  -1.41749602953  1.93822431564  -2.95257693926  -1.49586660067  -0.100905720388  
2.04375886917  1.54378354549  -1.41755611101  1.93808078766  -2.95252877871  -1.49581891695  -0.10088187853  
2.05184388161  1.5438195467  -1.41753226915  1.93810462952  -2.95257693926  -1.49581891695  -0.100953880941  
2.05995392799  1.5438554287  -1.4174841086  1.93822431564  -2.9526365439  -1.49593860308  -0.101038281118  
2.06807088852  1.54384350777  -1.41738874117  1.93828439713  -2.95273238817  -1.49598676363  -0.101085964833  
2.07616591454  1.54386746883  -1.41735297838  1.93828439713  -2.95275670687  -1.49597436586  -0.101109806691  
2.08426594734  1.5438554287  -1.41730481783  1.93830823898  -2.9527443091  -1.49599868456  -0.101085964833  
2.0923640728  1.54379558563  -1.41732865969  1.9382724762  -2.95251685778  -1.49585467974  -0.101025883351  
2.1004679203  1.54378354549  -1.41744834581  1.93804454803  -2.95227796236  -1.49571115175  -0.101013962423  
2.10856509209  1.54371166229  -1.41765195528  1.9377450943  -2.95184642473  -1.49531633059  -0.101013962423  
2.11665892601  1.54368770123  -1.41792709032  1.93730115891  -2.95131904284  -1.49504071871  -0.100834194814  
2.12474799156  1.54351949692  -1.41821414629  1.93683338165  -2.95066053072  -1.49460965792  -0.100821797048  
2.132833004  1.54338765144  -1.41864520708  1.93627023697  -2.94986993471  -1.49409467379  -0.100654427205  
2.14092206955  1.54329180717  -1.41905194918  1.93562269211  -2.9488752524  -1.49344760576  -0.100654427205  
2.14905500412  1.54309976101  -1.41955501238  1.93480730057  -2.94784576098  -1.49275285402  -0.100390736257  
2.15717697144  1.54294395447  -1.42010528246  1.93396806717  -2.94661218325  -1.49189073244  -0.100366417562  
2.16526603699  1.54280006886  -1.4206793944  1.93304491043  -2.94529420534  -1.49102861086  -0.100114647542  
2.17336297035  1.54257202148  -1.4212659041  1.93200159073  -2.94379693667  -1.49001056353  -0.0999468008624  
2.18151807785  1.54232001305  -1.42196017901  1.93091058731  -2.94217950503  -1.48894483248  -0.0996707121478  
2.18960595131  1.54210460186  -1.42266637484  1.92967557907  -2.94049054781  -1.4877708594  -0.0994308630573  
2.19769906998  1.54187655449  -1.4234679381  1.9283452034  -2.93857413927  -1.48659783999  -0.0991314093219  
2.20575690269  1.54160094261  -1.42429382006  1.92697811127  -2.93665773073  -1.48528033892  -0.0988433996784  
2.21385788918  1.5413608551  -1.42516738573  1.92550325394  -2.93450099627  -1.48387891451  -0.0986035505878  
2.2219440937  1.54107284546  -1.42617255846  1.92394447327  -2.93228561083  -1.48234588305  -0.0982916990863  
2.23000597954  1.54044926167  -1.42833835283  1.92051553726  -2.92757779757  -1.47901660601  -0.0976441542255  
2.23806786537  1.54016172886  -1.42951137224  1.91862106323  -2.92494279543  -1.47723180452  -0.0972846190082  
2.24616599083  1.53976583481  -1.43068439165  1.91664218903  -2.92215139071  -1.47531587282  -0.0969126860248  
2.25425887108  1.53940594196  -1.43198854128  1.91464042664  -2.91927653948  -1.47343618075  -0.0965412298786  
2.26235508919  1.53898608685  -1.43325740496  1.91245794296  -2.91635400454  -1.47138768831  -0.0961335341083  
2.27044987679  1.53854227066  -1.43459731737  1.9102640152  -2.91320354143  -1.46924430529  -0.0957139174091  
2.27851295471  1.53817081451  -1.43603355089  1.90791368484  -2.90988570849  -1.46707660357  -0.0952938238727  
2.28657388687  1.53766715527  -1.43750602404  1.90553951263  -2.9064839522  -1.46480113665  -0.0949104467975  
2.29466795921  1.53719902039  -1.43904954592  1.90298557281  -2.90287858645  -1.46246606508  -0.0944188276874  
2.30275607109  1.53673124313  -1.44064122835  1.90039587021  -2.89929658571  -1.45990258852  -0.0939748922931  
2.31087207794  1.53623986244  -1.44228011767  1.89772176743  -2.89550000826  -1.45740014711  -0.0934589544879  
2.31899404526  1.53576016426  -1.44394380251  1.89495229721  -2.89151126543  -1.45470554033  -0.0929797331439  
2.3271009922  1.53524446487  -1.44564372698  1.89223051071  -2.88776189486  -1.45214254061  -0.0924399534809  
2.33521294594  1.53477668762  -1.44727069536  1.88956832886  -2.88413268725  -1.44965202013  -0.0919364134418  
2.34332203865  1.53429687023  -1.44888621966  1.88709878922  -2.88070661226  -1.44726831118  -0.0914686361896  
2.35145998001  1.53378117085  -1.45034629503  1.8847360611  -2.87730533281  -1.44490939776  -0.0910370985614  
2.35954904556  1.533421278  -1.45177013079  1.88248252869  -2.87402326265  -1.44271785418  -0.0906294027912  
2.3676469326  1.53298950195  -1.45305043856  1.88031196594  -2.87086087862  -1.44057399431  -0.0901854673969  
2.37573695183  1.5325820446  -1.45428306261  1.87824964523  -2.86790210405  -1.43857413927  -0.0898502508747  
2.38382792473  1.53225815296  -1.45547992388  1.87621116638  -2.8650153319  -1.4365623633  -0.0894539991962  
2.39191389084  1.53183829784  -1.45664054552  1.87429285049  -2.86227256456  -1.43469411532  -0.0890944639789  
2.40002393723  1.53151428699  -1.45772964159  1.87244606018  -2.85960179964  -1.43295795122  -0.0887468496906  
2.40813398361  1.53119039536  -1.45889026323  1.8707075119  -2.85712176958  -1.43124515215  -0.088422600423  
2.41622686386  1.53089082241  -1.45991975466  1.86908864975  -2.85482198397  -1.42961675326  -0.0881350676166  
2.42431902885  1.53065109253  -1.4608891646  1.86755371094  -2.8525946776  -1.42807180086  -0.087847057973  
2.43238306046  1.53036308289  -1.46187001864  1.86612701416  -2.85057002703  -1.42668229738  -0.0875952879535  
2.44044494629  1.53006315231  -1.46271974245  1.86466360092  -2.84862977663  -1.42537719408  -0.0873320738422  
2.44860291481  1.5298833847  -1.46346170107  1.86338090897  -2.8467853705  -1.42413121859  -0.0871155897724  
2.45666503906  1.52961933613  -1.46420365969  1.86219406128  -2.84503633181  -1.42299396196  -0.0868762175189  
2.46472501755  1.52946352959  -1.46488553682  1.86117506027  -2.84347898165  -1.42196351687  -0.0866478125202  
2.47282004356  1.52919983864  -1.46547204653  1.8601193428  -2.84198171297  -1.42089826265  -0.0864804426776  
2.48090791702  1.52903211117  -1.4660580794  1.85926818848  -2.84073621431  -1.42002422014  -0.0863602797138  
2.48903393745  1.52890026569  -1.4665611426  1.85840511322  -2.839574639  -1.41918546358  -0.0861805121051  
2.49715900421  1.52878010273  -1.46699172655  1.85769748688  -2.83848458925  -1.4185388724  -0.0860841909992  
2.50524497032  1.52866017818  -1.46738702456  1.85707426071  -2.83763391176  -1.41789228121  -0.0859764258014  
2.51333189011  1.52857637405  -1.46767360369  1.85647392273  -2.83683139483  -1.41731769243  -0.0858448187457  
2.5213739872  1.52851641178  -1.46798497835  1.85597085953  -2.83622056643  -1.41687471071  -0.0858328978168  
2.52951693535  1.52844417095  -1.46818858782  1.85568332672  -2.83568174044  -1.41646701494  -0.085688892995  
2.53761696815  1.52842009068  -1.46839172045  1.85535907745  -2.83529836336  -1.41613227526  -0.0857246557819  
2.54570889473  1.52840816975  -1.46857148806  1.85517930984  -2.83502275149  -1.41596442858  -0.0855811277973  
2.55379605293  1.52837216854  -1.46859532992  1.85509538651  -2.83493882815  -1.41591674486  -0.0856650511371  
2.56188392639  1.52842009068  -1.46858340899  1.85510730743  -2.83499890963  -1.41592866579  -0.0854852835285  
2.56997108459  1.52839612961  -1.46857148806  1.85516738892  -2.83504659334  -1.4160006682  -0.0857728163349  
2.57803201675  1.52840816975  -1.46848756472  1.85528707504  -2.83513051668  -1.41607219378  -0.0858448187457  
2.58609390259  1.52840816975  -1.46846372286  1.85534715652  -2.83513051668  -1.4161084334  -0.0857608954059  
2.59419703484  1.52842009068  -1.46836787859  1.85532331467  -2.83513051668  -1.41608411471  -0.0858448187457  
2.60229086876  1.52827632427  -1.46843940416  1.85529947281  -2.83497459093  -1.41601258913  -0.0858205000507  
2.61032390594  1.5279763937  -1.46860725084  1.85528707504  -2.83480722109  -1.41595250765  -0.0858567396747  
2.61842489243  1.52756857872  -1.46888286272  1.85521554947  -2.83438808123  -1.41583282152  -0.0858567396747  
2.62649393082  1.52707719803  -1.46926528612  1.85510730743  -2.8338730971  -1.41564113299  -0.0858205000507  
2.63455200195  1.52626144886  -1.46980411211  1.85495138168  -2.83333379427  -1.41543752352  -0.0858567396747  
2.64261293411  1.52544617653  -1.47036677996  1.85485553741  -2.83262759844  -1.41522199312  -0.0858448187457  
2.65067601204  1.52449834347  -1.47098905245  1.85471153259  -2.83178884188  -1.41492206255  -0.0858085791217  
2.65873789787  1.52349126339  -1.47173101107  1.85450792313  -2.83085424105  -1.41459924379  -0.0858328978168  
2.66683101654  1.52227973938  -1.47249681154  1.85432815552  -2.82980043093  -1.414168183  -0.0858085791217  
2.67491388321  1.52097272873  -1.47332221666  1.85414838791  -2.82857877413  -1.41376096407  -0.0858205000507  
2.68299794197  1.51950955391  -1.47424394289  1.85394430161  -2.82730895678  -1.41332990328  -0.0858448187457  
2.69110894203  1.51793849468  -1.47530872027  1.85372877121  -2.82596761385  -1.41282636324  -0.0857966581928  
2.69923591614  1.51623558998  -1.47646934191  1.8534526825  -2.82443410555  -1.41227609316  -0.0858085791217  
2.70732808113  1.51450872421  -1.4776781241  1.85320091248  -2.8228653113  -1.41171294848  -0.0858205000507  
2.71539187431  1.51254141331  -1.47900611559  1.85293674469  -2.82104522387  -1.41112643877  -0.0858328978168  
2.72351098061  1.51043069363  -1.48034650484  1.85257720947  -2.81916410128  -1.4104197661  -0.0857966581928  
2.73162508011  1.50823605061  -1.48182994524  1.85227775574  -2.81720000902  -1.40971309343  -0.0858085791217  
2.73971295357  1.50580179691  -1.48340970675  1.85194158554  -2.81515151659  -1.40898305575  -0.0857608954059  
2.74779605865  1.50323498249  -1.48507339159  1.85153388977  -2.81287604967  -1.40822822252  -0.0857608954059  
2.755879879  1.50054895878  -1.48680860201  1.85119867325  -2.81063634554  -1.40743762652  -0.0857489744769  
2.76400494576  1.49780237675  -1.48857957522  1.85080289841  -2.80833655993  -1.40661174456  -0.085688892995  
2.77208995819  1.49527215958  -1.49023086229  1.85043096542  -2.80620462099  -1.40588075319  -0.0855930487262  
2.78020191193  1.49294531345  -1.49183446566  1.85008335114  -2.8042400519  -1.40519839922  -0.0855811277973  
2.78828692436  1.49084663391  -1.49328214327  1.84971141815  -2.80241948763  -1.40451604525  -0.0855930487262  
2.79638290405  1.4889755249  -1.49463397661  1.84946012497  -2.8005750815  -1.40388089815  -0.0855811277973  
2.80451488495  1.48726069927  -1.49578315416  1.84919643402  -2.79887420336  -1.40331870714  -0.0855572859394  
2.81260108948  1.48560571671  -1.49700385729  1.84898042679  -2.79726916948  -1.40279180208  -0.0855572859394  
2.82069087029  1.48392689228  -1.49793702761  1.84876441956  -2.7957962195  -1.4023121039  -0.0855692068683  
2.82875394821  1.48246359825  -1.49889403978  1.84858417511  -2.79444247881  -1.40184575716  -0.0855572859394  
2.83687901497  1.48107266426  -1.49973184267  1.84834480286  -2.79330474535  -1.40147430102  -0.0855692068683  
2.84496593475  1.47989749908  -1.50055724779  1.84818840027  -2.79217845598  -1.40104324022  -0.0855811277973  
2.85308909416  1.47878181934  -1.50126392046  1.84803247452  -2.79124433199  -1.4007080237  -0.0855811277973  
2.86121988297  1.47782278061  -1.50187379519  1.8479847908  -2.79035789171  -1.40037233034  -0.0855692068683  
2.8693459034  1.47699511051  -1.50240022341  1.84780550003  -2.7895916144  -1.40013295809  -0.0855572859394  
2.87747693062  1.47619175911  -1.50289088884  1.84773302078  -2.78905231157  -1.39989358584  -0.0855572859394  
2.88557291031  1.47560381889  -1.50327378908  1.84763717651  -2.78851348559  -1.39972573916  -0.0855811277973  
2.89366889  1.47516036034  -1.50356132189  1.84761333466  -2.78810626665  -1.39958221117  -0.0855930487262  
2.90175294876  1.47480046749  -1.50376445452  1.8475651741  -2.78787881533  -1.39947396914  -0.0855448881732  
2.90987205505  1.47463274002  -1.50383645693  1.84757709503  -2.78777057329  -1.3994863669  -0.0855572859394  
2.91793489456  1.47457277775  -1.50390845934  1.84761333466  -2.78771096865  -1.39942628542  -0.0855572859394  
2.92599487305  1.47463274002  -1.50386077562  1.84763717651  -2.78772288958  -1.39941436449  -0.0855811277973  
2.93405890465  1.47482442856  -1.50366908709  1.84772109985  -2.78785449663  -1.39954597155  -0.0855811277973  
2.94212007523  1.47476458549  -1.50364476839  1.847697258  -2.7878425757  -1.39954597155  -0.0855692068683  
2.95019507408  1.47475254536  -1.50370484987  1.84778118134  -2.78790265719  -1.39947396914  -0.0855572859394  
2.95828700066  1.47463274002  -1.50390845934  1.84810447693  -2.78787881533  -1.39937812487  -0.0855329672443  
2.96634697914  1.47442853451  -1.5041235129  1.84852457047  -2.78791457811  -1.39930659929  -0.0855692068683  
2.97443604469  1.47434473038  -1.50447065035  1.84901618958  -2.78790265719  -1.39905530611  -0.0855930487262  
2.98250198364  1.47416496277  -1.50488931337  1.84961557388  -2.78792649904  -1.39893514315  -0.0855448881732  
2.99061489105  1.47392487526  -1.5054157416  1.85039520264  -2.78796273867  -1.39870769182  -0.0855692068683  
2.99873900414  1.47368514538  -1.50594264666  1.85135412216  -2.7879503409  -1.39845687548  -0.0855572859394  
3.00685191154  1.47338557243  -1.50650483767  1.85240936279  -2.7879503409  -1.39822894732  -0.0855930487262  
3.01496505737  1.47318148613  -1.50694781939  1.85322475433  -2.78791457811  -1.39806110064  -0.0855572859394  
3.02307987213  1.47297775745  -1.50733024279  1.85366868973  -2.78793841997  -1.39794141451  -0.0855448881732  
3.0311729908  1.47290587425  -1.50760585466  1.8540520668  -2.7879746596  -1.3977859656  -0.0855572859394  
3.03929901123  1.47285759449  -1.5077975432  1.85434007645  -2.78793841997  -1.39770204226  -0.0855448881732  
3.04739093781  1.47280955315  -1.50785714785  1.85450792313  -2.78792649904  -1.39769012133  -0.0855930487262  
3.05550193787  1.47285759449  -1.50788146654  1.85460424423  -2.7879746596  -1.39766627947  -0.0855448881732  
3.06618499756  1.47286987305  -1.50778514544  1.85450792313  -2.7879746596  -1.39771396319  -0.0855811277973  
3.07424902916  1.47290587425  -1.50771361986  1.854388237  -2.78796273867  -1.39775020281  -0.0855692068683  
3.08234190941  1.47291779518  -1.50773746172  1.85435199738  -2.7879503409  -1.39784604708  -0.0855448881732  
3.09042787552  1.47288191319  -1.5077012221  1.85435199738  -2.7879503409  -1.39784604708  -0.0855811277973  
3.09850406647  1.47278559208  -1.50772554079  1.85442399979  -2.78793841997  -1.39786988894  -0.0854614416706  
3.10659790039  1.47253394127  -1.50777370134  1.85451984406  -2.78798658053  -1.39808494249  -0.0853050390827  
3.11469388008  1.47206616402  -1.50778514544  1.85466384888  -2.7879503409  -1.39815694491  -0.0851491133319  
3.12278199196  1.4715385437  -1.50776130358  1.85480737686  -2.78798658053  -1.39842063585  -0.0849097410785  
3.13087201118  1.47084307671  -1.50776130358  1.8549990654  -2.78793841997  -1.39856464068  -0.0846932570087  
3.13897109032  1.47030305862  -1.50767738024  1.85523939133  -2.7879746596  -1.39879161516  -0.084621731435  
3.14706707001  1.4700397253  -1.50764161745  1.85528707504  -2.7879503409  -1.39873153368  -0.0845378080951  
3.15516996384  1.47001576424  -1.50756961504  1.85527515411  -2.78791457811  -1.39877969423  -0.0844419638263  
3.16323304176  1.47008764744  -1.50755769411  1.8552031517  -2.78791457811  -1.39870769182  -0.084621731435  
3.1713578701  1.47031497955  -1.50767738024  1.85519123077  -2.78792649904  -1.3985765616  -0.0846336523639  
3.17945194244  1.47048318386  -1.50765353838  1.85514354706  -2.78799850145  -1.39855271975  -0.0846336523639  
3.18757390976  1.47044718266  -1.507689778  1.85514354706  -2.78796273867  -1.39861232439  -0.0846455732929  
3.19566297531  1.47037529945  -1.50773746172  1.85515546799  -2.78796273867  -1.39877969423  -0.0846336523639  
3.20372605324  1.47023153305  -1.50773746172  1.85514354706  -2.7879503409  -1.39900714556  -0.0846455732929  
3.2118229866  1.46999180317  -1.50772554079  1.85516738892  -2.7879503409  -1.3994863669  -0.0846455732929  
3.21992206573  1.46982359886  -1.507689778  1.85515546799  -2.78792649904  -1.3998096625  -0.0846574942218  
3.22804999352  1.46977567673  -1.50762969652  1.85514354706  -2.7879503409  -1.40001327196  -0.0846336523639  
3.23613786697  1.46979963779  -1.50761777559  1.85517930984  -2.78793841997  -1.39991742769  -0.0846336523639  
3.24423193932  1.46985960007  -1.50764161745  1.8552031517  -2.78793841997  -1.39992982546  -0.0846336523639  
3.25232100487  1.46996748447  -1.50765353838  1.85515546799  -2.7879503409  -1.39989358584  -0.084609810506  
3.2604329586  1.46996748447  -1.50767738024  1.85514354706  -2.78798658053  -1.39995366732  -0.0846455732929  
3.26856207848  1.46993148327  -1.50771361986  1.85517930984  -2.78792649904  -1.39991742769  -0.0846574942218  
3.27662396431  1.46984767914  -1.50765353838  1.85515546799  -2.78781873385  -1.39990550676  -0.084609810506  
3.28474402428  1.46953606606  -1.50764161745  1.85527515411  -2.7875550429  -1.39989358584  -0.0846336523639  
3.29284000397  1.46906793118  -1.5077012221  1.85543107986  -2.78707629839  -1.39992982546  -0.0846336523639  
3.30094504356  1.46864807606  -1.507689778  1.85561132431  -2.78680068651  -1.39990550676  -0.084621731435  
3.30909705162  1.46827661991  -1.50765353838  1.85568332672  -2.78653699556  -1.39994174639  -0.0845854918109  
3.31718587875  1.46804881096  -1.50761777559  1.85565900803  -2.78657323519  -1.39995366732  -0.084621731435  
3.32524704933  1.46807289124  -1.50761777559  1.85561132431  -2.78656131426  -1.39995366732  -0.084621731435  
3.33334493637  1.46826457977  -1.5075934569  1.85557508469  -2.78668100039  -1.39994174639  -0.084621731435  
3.34144186974  1.46838474274  -1.50761777559  1.85559940338  -2.7867286841  -1.39990550676  -0.084621731435  
3.34953689575  1.46849262714  -1.50765353838  1.85559940338  -2.78671676317  -1.39990550676  -0.084621731435  
3.35759902  1.46838474274  -1.507689778  1.85557508469  -2.78688460985  -1.40006095568  -0.0844538847553  
3.36572098732  1.46803689003  -1.5077012221  1.85552740097  -2.78717214266  -1.40019303957  -0.0842140356647  
3.37384104729  1.46761703491  -1.50771361986  1.85556316376  -2.78753120104  -1.40046817461  -0.0838063398944  
3.38193702698  1.46726918221  -1.50767738024  1.85552740097  -2.78789073626  -1.40054017702  -0.0835903326618  
3.39008998871  1.46707701683  -1.50761777559  1.85552740097  -2.78789073626  -1.40071994463  -0.0835540930377  
3.39815306664  1.467233181  -1.50758153597  1.85558748245  -2.78789073626  -1.40054017702  -0.0836027304279  
3.40625190735  1.46734106541  -1.50764161745  1.85558748245  -2.78787881533  -1.40056401888  -0.0836027304279  
3.41434407234  1.46741294861  -1.507689778  1.85558748245  -2.78789073626  -1.40051585833  -0.0836384932147  
3.4224319458  1.46738898754  -1.50771361986  1.85552740097  -2.7878668944  -1.40055209795  -0.0836146513568  
3.43051505089  1.467233181  -1.50766545931  1.85559940338  -2.78789073626  -1.40052825609  -0.0836027304279  
3.43865203857  1.46693360806  -1.507689778  1.85557508469  -2.78783065477  -1.40055209795  -0.0835784117328  
3.44675993919  1.46647775173  -1.50772554079  1.8555393219  -2.78780681292  -1.40055209795  -0.0836027304279  
3.45488095284  1.46616590023  -1.50765353838  1.8555393219  -2.78781873385  -1.40058786074  -0.0836146513568  
3.46297597885  1.46609389782  -1.50764161745  1.85556316376  -2.7878668944  -1.40058786074  -0.0836146513568  
3.47103595734  1.46611785889  -1.50761777559  1.85558748245  -2.7878425757  -1.40057593981  -0.0836027304279  
3.47914004326  1.46620178223  -1.50764161745  1.85556316376  -2.7878425757  -1.40056401888  -0.0836027304279  
3.48723387718  1.46633398533  -1.50764161745  1.85555124283  -2.78785449663  -1.40052825609  -0.0835903326618  
3.49529504776  1.46645379066  -1.50772554079  1.85558748245  -2.7878425757  -1.40054017702  -0.0836146513568  
3.50338196754  1.46636998653  -1.5077012221  1.85556316376  -2.78773481051  -1.40061217943  -0.0833504835712  
3.51150107384  1.46617782116  -1.50764161745  1.85557508469  -2.78756696383  -1.40079194704  -0.0830867926227  
3.51959586143  1.46606993675  -1.507689778  1.85556316376  -2.78724366823  -1.40097123781  -0.0826552549945  
3.52765989304  1.46589016914  -1.50764161745  1.85558748245  -2.78695661226  -1.40112668673  -0.0821393171894  
3.53576087952  1.46575796604  -1.507689778  1.85558748245  -2.78670484224  -1.40130645434  -0.081755463277  
3.54389095306  1.46578192711  -1.50765353838  1.85561132431  -2.7866452376  -1.40133077303  -0.0815036932575  
3.55198502541  1.46574604511  -1.50766545931  1.85556316376  -2.78652507464  -1.40139037768  -0.0814197699176  
3.56008195877  1.46577000618  -1.50766545931  1.85555124283  -2.78659707705  -1.40136653582  -0.0814917723285  
3.56817793846  1.46579396725  -1.50767738024  1.85557508469  -2.78677684466  -1.40133077303  -0.0816357771503  
3.57627296448  1.46584188938  -1.50771361986  1.85556316376  -2.78676492373  -1.40130645434  -0.0815995375263  
3.58435702324  1.46584188938  -1.5077012221  1.85556316376  -2.7867530028  -1.40134269396  -0.0815876165973  
3.59241700172  1.46589016914  -1.50767738024  1.85556316376  -2.78683692614  -1.40133077303  -0.0815876165973  
3.60051107407  1.46582996845  -1.50764161745  1.85570716858  -2.7871483008  -1.40147430102  -0.0815275351154  
3.60864496231  1.46580588818  -1.50764161745  1.85576725006  -2.78751928011  -1.40157014528  -0.0815756956684  
3.61676597595  1.46581792831  -1.50761777559  1.85591077805  -2.78807050387  -1.4017255942  -0.0816238562213  
3.62486004829  1.46582996845  -1.507689778  1.85599470139  -2.78857356707  -1.40177375475  -0.0815995375263  
3.63295793533  1.46586620808  -1.50766545931  1.85606718063  -2.78888446489  -1.40188151995  -0.0816114584552  
3.64101886749  1.46585392952  -1.50767738024  1.85610294342  -2.78914815584  -1.40195352236  -0.0815876165973  
3.64916706085  1.46582996845  -1.5077012221  1.85605478287  -2.78922015825  -1.40195352236  -0.0815756956684  
3.65723586082  1.46585392952  -1.5077012221  1.85604286194  -2.7891719977  -1.4020374457  -0.0815876165973  
3.66533493996  1.46582996845  -1.50766545931  1.85604286194  -2.78899223009  -1.40189344088  -0.0815876165973  
3.67342805862  1.46581792831  -1.5077012221  1.85607910156  -2.78894454638  -1.40189344088  -0.0816238562213  
3.68154001236  1.46582996845  -1.50767738024  1.85605478287  -2.78894454638  -1.40188151995  -0.0816114584552  
3.68962693214  1.46581792831  -1.50767738024  1.85605478287  -2.78894454638  -1.40197736422  -0.0813601652728  
3.69774007797  1.46584188938  -1.50764161745  1.85606718063  -2.78875333468  -1.40209705034  -0.0810959974872  
3.70586800575  1.46586620808  -1.50767738024  1.85604286194  -2.78866941134  -1.4022043387  -0.080664459859  
3.71395397186  1.46579396725  -1.50767738024  1.85603094101  -2.78839379946  -1.40246802965  -0.08016091982  
3.72208786011  1.46582996845  -1.50767738024  1.85605478287  -2.78822642962  -1.40274364153  -0.0794895331012  
3.73018288612  1.46584188938  -1.5077012221  1.85604286194  -2.78803426424  -1.40294677416  -0.0790341536151  
3.73827791214  1.46581792831  -1.507689778  1.85607910156  -2.78799850145  -1.40315086046  -0.0786865393268  
3.7463760376  1.46579396725  -1.50766545931  1.85601902008  -2.78783065477  -1.40317470232  -0.078470055257  
3.75447487831  1.46584188938  -1.50767738024  1.85604286194  -2.78799850145  -1.40318662325  -0.078458134328  
3.7625579834  1.46578192711  -1.50765353838  1.85603094101  -2.78790265719  -1.40321046511  -0.078506294881  
3.7706489563  1.46578192711  -1.50764161745  1.85603094101  -2.7879746596  -1.40310269991  -0.0786264578449  
3.77874207497  1.46579396725  -1.507689778  1.85605478287  -2.78809434572  -1.40312654177  -0.0785782972919  
3.78686904907  1.46572208405  -1.50767738024  1.85607910156  -2.78802234331  -1.40311462084  -0.0786383787738  
3.7949988842  1.46579396725  -1.50766545931  1.85604286194  -2.78808242479  -1.40311462084  -0.0783866087543  
3.8030860424  1.46579396725  -1.5077012221  1.85619878769  -2.78810626665  -1.40305501619  -0.0780866781818  
3.81120085716  1.46578192711  -1.50771361986  1.85634231567  -2.78808242479  -1.40291148821  -0.0776551405536  
3.81931090355  1.46579396725  -1.5077012221  1.85645008087  -2.78809434572  -1.4029229323  -0.0771630446063  
3.82738494873  1.46574604511  -1.507689778  1.85665416718  -2.78808242479  -1.40271979967  -0.0764558951007  
3.83546805382  1.46578192711  -1.50767738024  1.85685777664  -2.78802234331  -1.40277940432  -0.0759881178485  
3.84355401993  1.46577000618  -1.50764161745  1.85699033737  -2.78807050387  -1.40261203447  -0.0756886641132  
3.8516728878  1.46579396725  -1.50766545931  1.85696601868  -2.78804666201  -1.40275556246  -0.0754364172565  
3.85976099968  1.46575796604  -1.50764161745  1.85694169998  -2.78802234331  -1.40261203447  -0.0753882567035  
3.86789298058  1.46574604511  -1.50767738024  1.85690593719  -2.78808242479  -1.40289956728  -0.0754483381854  
3.87597990036  1.46571004391  -1.50766545931  1.85691785812  -2.78805858294  -1.40291148821  -0.0755565802204  
3.88410401344  1.46568608284  -1.507689778  1.85688209534  -2.78805858294  -1.40291148821  -0.0755084196674  
3.89223098755  1.46573400497  -1.50767738024  1.85687017441  -2.78803426424  -1.4029229323  -0.0754964987384  
3.90039587021  1.46568608284  -1.5077012221  1.85691785812  -2.78810626665  -1.40291148821  -0.0752328077899  
3.90848302841  1.46568608284  -1.50767738024  1.85696601868  -2.78827411333  -1.40289956728  -0.0749691168415  
3.9165790081  1.46572208405  -1.50766545931  1.85702610016  -2.78828603426  -1.40293485323  -0.0745251814472  
3.92467498779  1.46567416191  -1.50764161745  1.85704994202  -2.78854924837  -1.4029229323  -0.074045483266  
3.9327878952  1.46566212177  -1.50764161745  1.85719394684  -2.78868133227  -1.40293485323  -0.0733502546894  
3.94090104103  1.46566212177  -1.50767738024  1.85730171204  -2.78887254397  -1.40291148821  -0.0728343168842  
3.94898796082  1.46568608284  -1.50765353838  1.85727787018  -2.78898030916  -1.40293485323  -0.0725467840778  
3.95712089539  1.46572208405  -1.507689778  1.85726594925  -2.78911239306  -1.40287524859  -0.07230645815  
3.96521902084  1.46567416191  -1.507689778  1.85725402832  -2.7890642325  -1.40288764635  -0.0722826162921  
3.97337794304  1.46567416191  -1.50767738024  1.8572177887  -2.78899223009  -1.4029229323  -0.072354618703  
3.98147392273  1.46572208405  -1.50766545931  1.85724163055  -2.78894454638  -1.40293485323  -0.0724628607379  
3.98955893517  1.46567416191  -1.50767738024  1.85726594925  -2.78888446489  -1.40291148821  -0.0725105444538  
3.99763894081  1.46565020084  -1.50767738024  1.85722970963  -2.78889638582  -1.40291148821  -0.072450939809  
4.00577187538  1.46571004391  -1.507689778  1.85725402832  -2.78889638582  -1.40285140673  -0.0722826162921  
4.01383590698  1.46559023857  -1.50766545931  1.8572177887  -2.78888446489  -1.4028394858  -0.0719469229328  
4.02194786072  1.46548235416  -1.5077012221  1.85722970963  -2.78887254397  -1.40285140673  -0.0714915434467  
4.03003191948  1.46517074108  -1.50767738024  1.85725402832  -2.78886062304  -1.40281564394  -0.0702560583698  
4.03813385963  1.46505093575  -1.50765353838  1.85722970963  -2.78886062304  -1.40281564394  -0.0697405974018  
4.04622197151  1.46495473385  -1.50766545931  1.85725402832  -2.78888446489  -1.40281564394  -0.0693929831134  
4.05434298515  1.46501493454  -1.50765353838  1.85722970963  -2.78886062304  -1.40282756487  -0.0692008177387  
4.06240606308  1.46505093575  -1.50766545931  1.85720586777  -2.78889638582  -1.40279180208  -0.0692127386676  
4.07049298286  1.46509885788  -1.50766545931  1.85727787018  -2.78890878359  -1.40279180208  -0.0693090597736  
4.07857894897  1.46515882015  -1.50767738024  1.85725402832  -2.78892070452  -1.40275556246  -0.0694411436664  
4.0866689682  1.46511089802  -1.507689778  1.85725402832  -2.78892070452  -1.40268356005  -0.0694049040424  
4.09475803375  1.46508693695  -1.507689778  1.8572177887  -2.78889638582  -1.40265971819  -0.0694049040424  
4.10286998749  1.46503889561  -1.5077012221  1.85720586777  -2.78890878359  -1.40264779726  -0.0691650549518  
4.11093091965  1.46497869492  -1.50767738024  1.85726594925  -2.78890878359  -1.40252811113  -0.0689252058612  
4.11905407906  1.46495473385  -1.50765353838  1.85725402832  -2.78887254397  -1.40246802965  -0.0683854261981  
4.12717103958  1.46489477158  -1.50767738024  1.85722970963  -2.78893262545  -1.40236026445  -0.0677860418903  
4.1353020668  1.4647629261  -1.50766545931  1.85726594925  -2.78894454638  -1.40222818056  -0.0671623388873  
4.14339590073  1.46460676193  -1.50765353838  1.85722970963  -2.78895646731  -1.4022043387  -0.0666707197772  
4.15145802498  1.46457076073  -1.507689778  1.85725402832  -2.78895646731  -1.40204936663  -0.0663712660419  
4.15954399109  1.46454679966  -1.50767738024  1.85724163055  -2.78899223009  -1.40216857592  -0.0661671797382  
4.17019200325  1.4646191597  -1.507689778  1.85724163055  -2.78896838823  -1.40202552477  -0.0661070982562  
4.17828392982  1.46467900276  -1.50764161745  1.85720586777  -2.78916007677  -1.40222818056  -0.0661791006671  
4.18639206886  1.46467900276  -1.50766545931  1.85725402832  -2.78911239306  -1.40218049685  -0.066299263631  
4.19448900223  1.46471500397  -1.50765353838  1.85719394684  -2.78916007677  -1.40216857592  -0.06631118456  
4.20257306099  1.46467900276  -1.50773746172  1.85726594925  -2.78913623491  -1.40222818056  -0.0663231054889  
4.21066594124  1.46463108063  -1.5077012221  1.85724163055  -2.78901654879  -1.40236026445  -0.066299263631  
4.21876096725  1.46446299553  -1.50767738024  1.85724163055  -2.78877717653  -1.40257579485  -0.0663469473468  
4.22685694695  1.46433115005  -1.50767738024  1.85726594925  -2.78835803667  -1.40294677416  -0.06631118456  
4.23495292664  1.46413898468  -1.50767738024  1.85724163055  -2.78813010851  -1.40321046511  -0.066299263631  
4.24304294586  1.46403110027  -1.50765353838  1.85726594925  -2.78796273867  -1.40333062807  -0.0663231054889  
4.25115203857  1.46400713921  -1.507689778  1.85724163055  -2.78801042238  -1.40327054659  -0.06631118456  
4.25932002068  1.46411502361  -1.50767738024  1.85727787018  -2.78804666201  -1.4032347838  -0.066287342702  
4.26742005348  1.46417498589  -1.50767738024  1.85724163055  -2.78811818758  -1.40322286287  -0.06631118456  
4.27553486824  1.46421086788  -1.507689778  1.85724163055  -2.78820211092  -1.40316278139  -0.066299263631  
4.28363108635  1.46425926685  -1.50774938265  1.85720586777  -2.78822642962  -1.40317470232  -0.066287342702  
4.29175806046  1.46421086788  -1.50774938265  1.8572177887  -2.78829795519  -1.40313893953  -0.0661309401142  
4.29984402657  1.46411502361  -1.50773746172  1.85726594925  -2.78853732744  -1.40298301378  -0.0659034887897  
4.3079419136  1.46416294575  -1.50767738024  1.85725402832  -2.78892070452  -1.40286332766  -0.0654476324665  
4.31606006622  1.46413898468  -1.50767738024  1.85725402832  -2.78922015825  -1.40268356005  -0.0652678648578  
4.32416200638  1.46423530579  -1.50765353838  1.85725402832  -2.78938800493  -1.40268356005  -0.065123860036  
4.33226108551  1.46421086788  -1.50767738024  1.85726594925  -2.78925592104  -1.40271979967  -0.0651958624469  
4.34032797813  1.46423530579  -1.50772554079  1.85724163055  -2.78918439547  -1.40275556246  -0.0652440229999  
4.34841609001  1.46417498589  -1.50772554079  1.85725402832  -2.78920823732  -1.40281564394  -0.0652797857868  
4.3565120697  1.46412706375  -1.5077012221  1.85725402832  -2.7891719977  -1.4028394858  -0.0652917067157  
4.3646068573  1.46417498589  -1.5077012221  1.85726594925  -2.78918439547  -1.40280372301  -0.0652797857868  
4.37268996239  1.46419894695  -1.5077012221  1.85719394684  -2.78899223009  -1.40280372301  -0.0650642553913  
4.38082098961  1.46423530579  -1.507689778  1.85719394684  -2.78874093691  -1.40280372301  -0.0648720900165  
4.38893198967  1.46416294575  -1.50771361986  1.85720586777  -2.78827411333  -1.40285140673  -0.0644167105304  
4.39705204964  1.46418690681  -1.50767738024  1.85724163055  -2.78802234331  -1.40281564394  -0.0642483870136  
4.40517401695  1.46417498589  -1.5077012221  1.85718202591  -2.7878668944  -1.40281564394  -0.0641043821918  
4.4133040905  1.46419894695  -1.507689778  1.85724163055  -2.78798658053  -1.4028394858  -0.0641883055316  
4.42139387131  1.46421086788  -1.50767738024  1.85724163055  -2.78801042238  -1.40282756487  -0.0642002264606  
4.42948889732  1.46419894695  -1.5077012221  1.85719394684  -2.78802234331  -1.40279180208  -0.0642002264606  
4.43760991096  1.46421086788  -1.50766545931  1.85722970963  -2.78803426424  -1.4028394858  -0.0642002264606  
4.4457218647  1.46418690681  -1.50764161745  1.85726594925  -2.78804666201  -1.40280372301  -0.0642002264606  
4.45378708839  1.46416294575  -1.507689778  1.85726594925  -2.78816634813  -1.40289956728  -0.0642002264606  
4.46187496185  1.46418690681  -1.5077012221  1.8573975563  -2.78841811815  -1.40305501619  -0.0642002264606  
4.46996903419  1.46418690681  -1.50771361986  1.85760164261  -2.78883678118  -1.40313893953  -0.0641883055316  
4.47802090645  1.46418690681  -1.50771361986  1.8577337265  -2.78920823732  -1.4032347838  -0.0642126242267  
4.48615098  1.46416294575  -1.50765353838  1.85767364502  -2.78910047213  -1.40331870714  -0.0641883055316  
4.49421405792  1.46417498589  -1.50765353838  1.85763788223  -2.7890642325  -1.40318662325  -0.0641883055316  
4.50230288506  1.46416294575  -1.5077012221  1.85762548447  -2.7890642325  -1.40316278139  -0.0641883055316  
4.51044392586  1.46422290802  -1.50772554079  1.85761356354  -2.78907615343  -1.40321046511  -0.0642126242267  
4.51853895187  1.46421086788  -1.50767738024  1.85761356354  -2.7890642325  -1.40316278139  -0.0642245451557  
4.5266289711  1.46419894695  -1.50777370134  1.85767364502  -2.78908807436  -1.40312654177  -0.0639846960651  
4.53472995758  1.46413898468  -1.50788146654  1.85775756836  -2.7890642325  -1.40295917193  -0.0637205282794  
4.54282903671  1.46419894695  -1.50798827807  1.85790109634  -2.78901654879  -1.40289956728  -0.0632651487934  
4.5509159565  1.46419894695  -1.50815612475  1.85810518265  -2.78900462786  -1.40263587633  -0.0626538435565  
4.55902886391  1.46419894695  -1.50843125979  1.85826063156  -2.78904039065  -1.40244418779  -0.0620062986957  
4.56714200974  1.46422290802  -1.5086701552  1.85842895508  -2.78902846972  -1.40230018297  -0.0615504423725  
4.57525587082  1.46418690681  -1.50875407854  1.85850095749  -2.78899223009  -1.40216857592  -0.061190430318  
4.58331489563  1.46412706375  -1.50889808336  1.85851287842  -2.7890642325  -1.40208512941  -0.0609868208515  
4.59133696556  1.46418690681  -1.50885039965  1.8584651947  -2.78904039065  -1.40215665499  -0.0609510580646  
4.59943890572  1.46421086788  -1.50882608095  1.85842895508  -2.7890642325  -1.40214473406  -0.0609748999225  
4.60750389099  1.46416294575  -1.50879031817  1.85844087601  -2.78905231157  -1.40222818056  -0.0610945860492  
4.61556792259  1.46416294575  -1.50876647631  1.85844087601  -2.78902846972  -1.40227634112  -0.0610707441913  
4.62367391586  1.46410310268  -1.50868255297  1.8584651947  -2.78899223009  -1.40230018297  -0.0610469023334  
4.63179397583  1.46417498589  -1.50865823427  1.85847711563  -2.78905231157  -1.40230018297  -0.0608547369586  
4.63991904259  1.46412706375  -1.50873023668  1.85845279694  -2.78923207918  -1.4024198691  -0.0606029669391  
4.64801192284  1.46412706375  -1.50871831576  1.8584651947  -2.78929216066  -1.40247995058  -0.060147587453  
4.65609788895  1.46412706375  -1.50870639483  1.85850095749  -2.78955585161  -1.4026239554  -0.059583965932  
4.66421985626  1.46418690681  -1.50873023668  1.85845279694  -2.78968698183  -1.4027317206  -0.0589001814472  
4.67235994339  1.46413898468  -1.50870639483  1.85845279694  -2.78996259371  -1.40300685564  -0.0582168737995  
4.68046998978  1.46415102482  -1.50870639483  1.85844087601  -2.79008275667  -1.4030306975  -0.0576532522785  
4.68855595589  1.46413898468  -1.5086701552  1.8584651947  -2.79019052187  -1.40312654177  -0.0572217146503  
4.696641922  1.46415102482  -1.5086944739  1.8584651947  -2.79028636614  -1.40328246752  -0.0569699446308  
4.70476007462  1.46417498589  -1.50870639483  1.85841703415  -2.79028636614  -1.40316278139  -0.0568855444538  
4.71285200119  1.46413898468  -1.50870639483  1.85844087601  -2.79025060335  -1.40325862566  -0.0569818655597  
4.72093892097  1.46417498589  -1.50874215761  1.85842895508  -2.79019052187  -1.40300685564  -0.0570295492755  
4.72903895378  1.46416294575  -1.5086701552  1.85845279694  -2.79010659853  -1.40307885805  -0.0570176283466  
4.73717403412  1.46418690681  -1.50871831576  1.85844087601  -2.79011851946  -1.40306693712  -0.0570419470416  
4.74530792236  1.46411502361  -1.50868255297  1.85845279694  -2.79014236132  -1.40301877657  -0.0570295492755  
4.75350904465  1.46416294575  -1.50864726702  1.8584651947  -2.79011851946  -1.40291148821  -0.0568135420429  
4.76161193848  1.46416294575  -1.50873023668  1.85845279694  -2.79011851946  -1.40274364153  -0.0565860907184  
4.76969695091  1.46415102482  -1.5086944739  1.8584651947  -2.79014236132  -1.40257579485  -0.0561421553241  
4.7778198719  1.46415102482  -1.50870639483  1.8584651947  -2.79016668001  -1.40252811113  -0.0559862295734  
4.78593087196  1.46416294575  -1.50874215761  1.8584651947  -2.79014236132  -1.40252811113  -0.0559862295734  
4.79404497147  1.46415102482  -1.50868255297  1.85851287842  -2.79015475908  -1.40247995058  -0.0559862295734  
4.8021569252  1.46413898468  -1.5086701552  1.85847711563  -2.79014236132  -1.40263587633  -0.0560343901264  
4.81024909019  1.46416294575  -1.50865823427  1.85844087601  -2.79014236132  -1.40267163912  -0.0560224691974  
4.81834506989  1.46411502361  -1.5086944739  1.8584651947  -2.7902024428  -1.40268356005  -0.0560224691974  
4.82644605637  1.46412706375  -1.50871831576  1.85847711563  -2.79016668001  -1.40254003206  -0.0558665434467  
4.83454608917  1.46410310268  -1.50891000429  1.85866880417  -2.7902024428  -1.40238410631  -0.0556147734271  
4.84260702133  1.46412706375  -1.50904161135  1.85887241364  -2.79011851946  -1.40219241778  -0.0551469961749  
4.85069394112  1.46417498589  -1.50926906267  1.85901641846  -2.79019052187  -1.40214473406  -0.0550273100482  
4.85879302025  1.46415102482  -1.5093053023  1.85901641846  -2.79021436373  -1.40209705034  -0.0550153891193  
4.86687707901  1.46421086788  -1.50934058825  1.85889673233  -2.79028636614  -1.40206081072  -0.0550392309772  
4.87496685982  1.46418690681  -1.5093053023  1.85880041122  -2.79036981264  -1.40225249926  -0.0551589171039  
4.88306188583  1.46413898468  -1.50925714174  1.85887241364  -2.79038173357  -1.40221625963  -0.055183235799  
4.89117908478  1.46413898468  -1.50920898119  1.8588848114  -2.79035789171  -1.40221625963  -0.0551589171039  
4.89927196503  1.46413898468  -1.50916129747  1.85887241364  -2.79038173357  -1.40222818056  -0.0549309889423  
4.90744900703  1.46407914162  -1.50918513933  1.85887241364  -2.79036981264  -1.40227634112  -0.0546553770648  
4.91554498672  1.46413898468  -1.50918513933  1.85887241364  -2.79040605227  -1.40222818056  -0.0541875998126  
4.92365193367  1.46412706375  -1.50914937655  1.85889673233  -2.79035789171  -1.40221625963  -0.053995911275  
4.93173789978  1.46411502361  -1.5091732184  1.85887241364  -2.79036981264  -1.4022043387  -0.0539839903461  
4.93984889984  1.46412706375  -1.50922137896  1.8588848114  -2.79036981264  -1.40221625963  -0.0539839903461  
4.9479598999  1.46415102482  -1.50922137896  1.85880041122  -2.79035789171  -1.40224010149  -0.0540798346149  
4.95608901978  1.46418690681  -1.5091975371  1.85889673233  -2.7903936545  -1.40221625963  -0.0541155974018  
4.96419000626  1.46416294575  -1.5091975371  1.85889673233  -2.79034644762  -1.40219241778  -0.0540798346149  
4.97230195999  1.46416294575  -1.50918513933  1.85884857178  -2.7903936545  -1.4022043387  -0.0538161436664  
4.98036408424  1.46415102482  -1.50922137896  1.85887241364  -2.79038173357  -1.40221625963  -0.0535524527179  
4.98848795891  1.46416294575  -1.5091732184  1.85894489288  -2.79035789171  -1.40218049685  -0.0531805197345  
4.99654793739  1.46415102482  -1.50923329989  1.85886049271  -2.79038173357  -1.4022043387  -0.052976910268  
5.00465607643  1.46417498589  -1.50918513933  1.8588848114  -2.7903936545  -1.4022043387  -0.0530126730548  
5.0127530098  1.46412706375  -1.50916129747  1.85886049271  -2.79036981264  -1.4022043387  -0.0530126730548  
5.020870924  1.46413898468  -1.5091732184  1.85889673233  -2.79035789171  -1.40216857592  -0.0531085173236  
5.02895689011  1.46416294575  -1.50916129747  1.85887241364  -2.79036981264  -1.40218049685  -0.0531085173236  
5.03712797165  1.46416294575  -1.50922137896  1.8588848114  -2.79033452669  -1.40215665499  -0.0531204382526  
5.0452170372  1.46412706375  -1.5091975371  1.85886049271  -2.79035789171  -1.40215665499  -0.0532887617694  
5.05334091187  1.46412706375  -1.50918513933  1.85886049271  -2.79035789171  -1.4021208922  -0.0535882155048  
5.06145095825  1.46415102482  -1.50923329989  1.85884857178  -2.7903936545  -1.40215665499  -0.0538638273822  
5.06954193115  1.46415102482  -1.50922137896  1.85887241364  -2.7903936545  -1.40215665499  -0.054007832204  
5.07763600349  1.46412706375  -1.5091975371  1.85887241364  -2.79038173357  -1.4020374457  -0.0539720694171  
5.08570098877  1.46415102482  -1.50918513933  1.85887241364  -2.79038173357  -1.40202552477  -0.054007832204  
5.09379887581  1.46416294575  -1.50918513933  1.85883665085  -2.79034644762  -1.4020374457  -0.0538161436664  
5.10191202164  1.46413898468  -1.50922137896  1.85886049271  -2.79036981264  -1.40204936663  -0.0538042227374  
5.11003494263  1.46413898468  -1.50923329989  1.85892057419  -2.79036981264  -1.40204936663  -0.0536125341998  
5.11813688278  1.46416294575  -1.5091975371  1.85886049271  -2.7903936545  -1.4020374457  -0.0533726851093  
5.12619996071  1.46412706375  -1.50920898119  1.85886049271  -2.79036981264  -1.402013127  -0.052976910268  
5.13432908058  1.46412706375  -1.50922137896  1.85883665085  -2.7903936545  -1.40202552477  -0.0528572241413  
5.14242005348  1.46415102482  -1.50920898119  1.85883665085  -2.7903936545  -1.40206081072  -0.0528329054462  
5.15048289299  1.46415102482  -1.50918513933  1.85887241364  -2.79038173357  -1.40202552477  -0.0528572241413  
5.15859389305  1.46415102482  -1.5091732184  1.85886049271  -2.79038173357  -1.4020374457  -0.0530369917499  
5.16665697098  1.46415102482  -1.50914937655  1.85889673233  -2.79038173357  -1.402013127  -0.0530007521259  
5.17475199699  1.46413898468  -1.50922137896  1.85887241364  -2.79036981264  -1.40206081072  -0.0529888311969  
5.1828520298  1.46415102482  -1.50925714174  1.85893249512  -2.79023820559  -1.402013127  -0.0530245939838  
5.19097208977  1.46427118778  -1.5093887488  1.85926818848  -2.79004651705  -1.402013127  -0.0530007521259  
5.19910502434  1.46441507339  -1.50955611864  1.85971164703  -2.78960353533  -1.40206081072  -0.0530126730548  
5.207228899  1.464594841  -1.50972396532  1.86023950577  -2.789376084  -1.40200120607  -0.0530369917499  
5.21533489227  1.46471500397  -1.50980741182  1.86041975021  -2.78924400011  -1.40200120607  -0.0530369917499  
5.22351694107  1.46467900276  -1.50983125368  1.86028718948  -2.789376084  -1.40198928515  -0.0530126730548  
5.23158407211  1.4645588398  -1.50980741182  1.86004781723  -2.78944760958  -1.40198928515  -0.0530007521259  
5.23968696594  1.46446299553  -1.50980741182  1.86007165909  -2.78954393068  -1.4020374457  -0.0530369917499  
5.24777388573  1.46440303326  -1.50974780718  1.86009550095  -2.78951961199  -1.40202552477  -0.0530007521259  
5.25587105751  1.46437907219  -1.50975972811  1.8601193428  -2.78953153292  -1.40200120607  -0.0530608336078  
5.26399302483  1.46441507339  -1.50973588625  1.86013174057  -2.78963977495  -1.40202552477  -0.0530245939838  
5.27208590508  1.46442699432  -1.50971156756  1.8601436615  -2.78989106814  -1.40200120607  -0.0530245939838  
5.28020787239  1.46443903446  -1.50972396532  1.8601436615  -2.79023820559  -1.402013127  -0.0530245939838  
5.28829407692  1.46442699432  -1.50971156756  1.86010742188  -2.79042989412  -1.402013127  -0.0530007521259  
5.29640698433  1.46434307098  -1.5097954909  1.86010742188  -2.79057342211  -1.40198928515  -0.0530007521259  
5.30447292328  1.46437907219  -1.5097840468  1.8601193428  -2.7905977408  -1.40198928515  -0.0530489126789  
5.31253695488  1.46442699432  -1.50974780718  1.86013174057  -2.79044181505  -1.40202552477  -0.0530245939838  
5.32062292099  1.46445095539  -1.50974780718  1.86016750336  -2.79038173357  -1.40198928515  -0.0530007521259  
5.3287088871  1.46443903446  -1.50977164904  1.86009550095  -2.79035789171  -1.40197736422  -0.0530245939838  
5.33680200577  1.46441507339  -1.50972396532  1.8601193428  -2.79035789171  -1.40200120607  -0.0530245939838  
5.34492993355  1.46435511112  -1.50972396532  1.86013174057  -2.7903936545  -1.4020374457  -0.0527489821063  
5.35301589966  1.46419894695  -1.50974780718  1.86009550095  -2.79036981264  -1.4020374457  -0.0524728933917  
5.36115002632  1.46404314041  -1.5097954909  1.8601193428  -2.79036981264  -1.40198928515  -0.0520175139057  
5.3692688942  1.46388733387  -1.50975972811  1.86010742188  -2.79040605227  -1.402013127  -0.051849667226  
5.37735295296  1.46394729614  -1.50973588625  1.86013174057  -2.79034644762  -1.40200120607  -0.0518134276019  
5.38544607162  1.46389937401  -1.50970012346  1.86013174057  -2.79033452669  -1.4020374457  -0.0518735090839  
5.39354300499  1.46406710148  -1.50971156756  1.8601436615  -2.79033452669  -1.402013127  -0.0519216696369  
5.40163207054  1.46404314041  -1.50974780718  1.86010742188  -2.79032212893  -1.40202552477  -0.0519216696369  
5.40972995758  1.46412706375  -1.50977164904  1.86016750336  -2.79032212893  -1.40200120607  -0.0519335905658  
5.41784596443  1.46411502361  -1.50977164904  1.8601436615  -2.79032212893  -1.40200120607  -0.0519459883319  
5.42596793175  1.46404314041  -1.50977164904  1.8601193428  -2.79033452669  -1.40200120607  -0.0519092718707  
5.43403100967  1.46403110027  -1.50975972811  1.8601193428  -2.790310208  -1.40200120607  -0.0519216696369  
5.44215297699  1.46409106255  -1.50975972811  1.86016750336  -2.790310208  -1.40202552477  -0.0519092718707  
5.45021605492  1.46411502361  -1.50972396532  1.86009550095  -2.79032212893  -1.40200120607  -0.0519335905658  
5.45827889442  1.46411502361  -1.50972396532  1.86017942429  -2.79033452669  -1.402013127  -0.0519216696369  
5.46634197235  1.46412706375  -1.50973588625  1.86013174057  -2.79033452669  -1.402013127  -0.0519092718707  
5.47446799278  1.46410310268  -1.50973588625  1.8601193428  -2.79033452669  -1.402013127  -0.0519698301898  
5.48255801201  1.46410310268  -1.50972396532  1.86009550095  -2.79017860094  -1.40197736422  -0.0519459883319  
5.49064993858  1.46410310268  -1.50975972811  1.86008358002  -2.78997499148  -1.402013127  -0.0519459883319  
5.4987719059  1.46411502361  -1.50975972811  1.8601193428  -2.78951961199  -1.40202552477  -0.0519335905658  
5.50685691833  1.46413898468  -1.50975972811  1.8601436615  -2.78928023974  -1.402013127  -0.0519579092609  
5.51497888565  1.46413898468  -1.50974780718  1.86013174057  -2.78908807436  -1.40198928515  -0.0519817511188  
5.5230948925  1.46409106255  -1.50973588625  1.86013174057  -2.78918439547  -1.40200120607  -0.0519335905658  
5.53121805191  1.46406710148  -1.50974780718  1.86015558243  -2.78925592104  -1.40197736422  -0.0519459883319  
5.53931593895  1.46409106255  -1.50970012346  1.86015558243  -2.78923207918  -1.40198928515  -0.0519335905658  
5.54741001129  1.46411502361  -1.50971156756  1.8601436615  -2.78932792345  -1.40200120607  -0.0519579092609  
5.55550003052  1.46409106255  -1.50975972811  1.86016750336  -2.78933984438  -1.40198928515  -0.0519459883319  
5.56356596947  1.46407914162  -1.50975972811  1.8601436615  -2.789376084  -1.40200120607  -0.0516698996173  
5.57165002823  1.46409106255  -1.50973588625  1.8601193428  -2.78936416308  -1.402013127  -0.0514538923847  
5.57973599434  1.46411502361  -1.50973588625  1.86013174057  -2.78928023974  -1.4020374457  -0.0509985128986  
5.5878329277  1.46409106255  -1.50973588625  1.8601193428  -2.78933984438  -1.40196544329  -0.0508545080768  
5.59592103958  1.46412706375  -1.50974780718  1.86010742188  -2.78931600252  -1.40197736422  -0.0508063475238  
5.60401391983  1.46413898468  -1.50973588625  1.86013174057  -2.78930408159  -1.40202552477  -0.0508664290058  
5.61214089394  1.46411502361  -1.50971156756  1.86019134521  -2.78933984438  -1.40200120607  -0.0508902708637  
5.62020492554  1.46407914162  -1.5097840468  1.86009550095  -2.78932792345  -1.40198928515  -0.0509265104877  
5.62829494476  1.46410310268  -1.50972396532  1.86010742188  -2.78932792345  -1.40198928515  -0.0509265104877  
5.63638806343  1.46411502361  -1.50983125368  1.86017942429  -2.78931600252  -1.40200120607  -0.0506146589862  
5.64450788498  1.46413898468  -1.50993901888  1.86035966873  -2.78926784197  -1.40204936663  -0.0504224936115  
5.65261006355  1.46410310268  -1.51007062594  1.86049127579  -2.78928023974  -1.402013127  -0.0499547163593  
5.66071105003  1.46406710148  -1.51030999819  1.86063528061  -2.78922015825  -1.40200120607  -0.0498588720905  
5.66883587837  1.46411502361  -1.51033384005  1.86061143875  -2.78926784197  -1.402013127  -0.0498469511615  
5.67693400383  1.46410310268  -1.51033384005  1.86051559448  -2.78930408159  -1.40202552477  -0.0498469511615  
5.68501901627  1.46412706375  -1.51033384005  1.860455513  -2.78932792345  -1.40200120607  -0.0500028769123  
5.69313097  1.46409106255  -1.51033384005  1.86047935486  -2.78930408159  -1.40202552477  -0.0499909559833  
5.70121908188  1.46412706375  -1.51023799578  1.86051559448  -2.78929216066  -1.402013127  -0.0499671141254  
5.70933890343  1.46412706375  -1.51019031206  1.86051559448  -2.78924400011  -1.40216857592  -0.0499547163593  
5.71745085716  1.46409106255  -1.51021415392  1.860455513  -2.78920823732  -1.40237218538  -0.0499790350543  
5.72553896904  1.46411502361  -1.51021415392  1.86050319672  -2.78924400011  -1.40256387392  -0.0499671141254  
5.73362398148  1.46410310268  -1.5101664702  1.86049127579  -2.78922015825  -1.40250379244  -0.0500028769123  
5.74173593521  1.46406710148  -1.51021415392  1.86047935486  -2.78926784197  -1.40243226687  -0.0499909559833  
5.74984788895  1.46411502361  -1.51026183764  1.86044359207  -2.78928023974  -1.40236026445  -0.0499790350543  
5.75795793533  1.46410310268  -1.51026183764  1.860455513  -2.78928023974  -1.40238410631  -0.0500147978412  
5.76604509354  1.46409106255  -1.51022607485  1.86046743393  -2.78923207918  -1.40228826204  -0.0497630278217  
5.77412104607  1.46409106255  -1.51023799578  1.86047935486  -2.78918439547  -1.40210897127  -0.0494874159442  
5.78221607208  1.46409106255  -1.51023799578  1.860455513  -2.7891719977  -1.40198928515  -0.0490439573871  
5.79030609131  1.46412706375  -1.51022607485  1.86050319672  -2.78914815584  -1.40190536181  -0.0488761107074  
5.79845786095  1.46411502361  -1.51022607485  1.86046743393  -2.78910047213  -1.40188151995  -0.0488041082965  
5.80652308464  1.46407914162  -1.51026183764  1.86049127579  -2.78914815584  -1.40188151995  -0.0487921873676  
5.81462192535  1.46413898468  -1.51020223299  1.860455513  -2.7891719977  -1.4020374457  -0.0488517920123  
5.82268500328  1.46410310268  -1.51020223299  1.86043167114  -2.7891719977  -1.40202552477  -0.0488880316364  
5.8307800293  1.46415102482  -1.51017839113  1.86046743393  -2.78914815584  -1.40202552477  -0.0488880316364  
5.83890891075  1.46407914162  -1.51020223299  1.86046743393  -2.78912431399  -1.4020374457  -0.0488880316364  
5.84699487686  1.46412706375  -1.51023799578  1.86049127579  -2.78913623491  -1.40204936663  -0.0488398710834  
5.85508489609  1.46405518055  -1.51026183764  1.86047935486  -2.78911239306  -1.40202552477  -0.0489118734943  
5.86319708824  1.46412706375  -1.51026183764  1.86049127579  -2.78914815584  -1.4020374457  -0.0488999525653  
5.87129306793  1.46409106255  -1.51024991671  1.86046743393  -2.78914815584  -1.402013127  -0.0488641897785  
5.87939286232  1.46411502361  -1.51020223299  1.86050319672  -2.78913623491  -1.4020374457  -0.0488641897785  
5.8874540329  1.46410310268  -1.51021415392  1.86044359207  -2.7891719977  -1.40202552477  -0.0488641897785  
5.89553999901  1.46411502361  -1.51019031206  1.86047935486  -2.78918439547  -1.40204936663  -0.0488517920123  
5.90359902382  1.46412706375  -1.51023799578  1.860455513  -2.78916007677  -1.402013127  -0.0488517920123  
5.91169595718  1.46412706375  -1.51021415392  1.86047935486  -2.78914815584  -1.40202552477  -0.0488398710834  
5.91979408264  1.46407914162  -1.51023799578  1.86047935486  -2.7891719977  -1.402013127  -0.0488398710834  
5.92789101601  1.46412706375  -1.51020223299  1.86046743393  -2.7891719977  -1.4020374457  -0.0488761107074  
5.93600201607  1.46410310268  -1.51023799578  1.86044359207  -2.78918439547  -1.402013127  -0.0488880316364  
5.94409108162  1.46412706375  -1.51023799578  1.86043167114  -2.78914815584  -1.4020374457  -0.0488641897785  
5.95218491554  1.46407914162  -1.51022607485  1.860455513  -2.7891719977  -1.402013127  -0.0488641897785  
5.96030497551  1.46409106255  -1.51026183764  1.86049127579  -2.78914815584  -1.402013127  -0.0488761107074  
5.96842908859  1.46412706375  -1.51020223299  1.86049127579  -2.78916007677  -1.40204936663  -0.0486357847797  
5.97651791573  1.46412706375  -1.51023799578  1.860455513  -2.78914815584  -1.4020374457  -0.0484083334552  
5.98460197449  1.46412706375  -1.51021415392  1.86047935486  -2.78914815584  -1.40202552477  -0.0480244795429  
5.9927239418  1.46407914162  -1.51023799578  1.86049127579  -2.78914815584  -1.4020374457  -0.0478447119342  
6.00081300735  1.46412706375  -1.51019031206  1.86044359207  -2.7891719977  -1.40202552477  -0.0478447119342  
6.00890302658  1.46409106255  -1.51022607485  1.86049127579  -2.78918439547  -1.40204936663  -0.0478203932392  
6.01699090004  1.46407914162  -1.51019031206  1.86049127579  -2.78914815584  -1.40204936663  -0.0479763189899  
6.02512097359  1.46410310268  -1.51017839113  1.860455513  -2.78912431399  -1.40204936663  -0.0480001608478  
6.03318500519  1.46411502361  -1.51021415392  1.86051559448  -2.7891963164  -1.40204936663  -0.0479882399188  
6.04130792618  1.46417498589  -1.51022607485  1.86049127579  -2.78913623491  -1.40202552477  -0.0477007071124  
6.0493979454  1.46410310268  -1.51022607485  1.860455513  -2.78918439547  -1.40202552477  -0.0474365393268  
6.05746197701  1.46411502361  -1.51026183764  1.86043167114  -2.78918439547  -1.40206081072  -0.0469935576068  
6.06555986404  1.46413898468  -1.51026183764  1.86049127579  -2.78913623491  -1.40206081072  -0.0468371550189  
6.07365489006  1.46411502361  -1.51022607485  1.86049127579  -2.78916007677  -1.40202552477  -0.04682523409  
6.08171701431  1.46410310268  -1.51020223299  1.86052751541  -2.78914815584  -1.4020374457  -0.0468729178058  
6.0898308754  1.46410310268  -1.51023799578  1.86051559448  -2.78916007677  -1.40204936663  -0.0469935576068  
6.09792804718  1.46412706375  -1.51022607485  1.86050319672  -2.78911239306  -1.4020374457  -0.0469573179828  
6.10604906082  1.46410310268  -1.51023799578  1.86050319672  -2.78916007677  -1.40202552477  -0.0469692389118  
6.11414408684  1.46415102482  -1.51024991671  1.86046743393  -2.78911239306  -1.40202552477  -0.0469449202167  
6.12223887444  1.46413898468  -1.51019031206  1.86051559448  -2.78913623491  -1.40206081072  -0.0469573179828  
6.13030099869  1.46412706375  -1.51023799578  1.86050319672  -2.78916007677  -1.40202552477  -0.0469449202167  
6.13844704628  1.46407914162  -1.51019031206  1.86049127579  -2.7891963164  -1.40207273165  -0.0469811598407  
6.14651298523  1.46406710148  -1.51021415392  1.86053943634  -2.78911239306  -1.40204936663  -0.0469573179828  
6.15462303162  1.46409106255  -1.51023799578  1.86049127579  -2.78914815584  -1.40200120607  -0.0470054785358  
6.16270899773  1.46412706375  -1.51021415392  1.86051559448  -2.78914815584  -1.40206081072  -0.0469811598407  
6.17079496384  1.46410310268  -1.51021415392  1.86050319672  -2.78912431399  -1.40204936663  -0.0469573179828  
6.17888498306  1.46407914162  -1.51023799578  1.86046743393  -2.7891719977  -1.4020374457  -0.0469692389118  
6.1869790554  1.46406710148  -1.51019031206  1.86046743393  -2.78913623491  -1.4020374457  -0.0469811598407  
6.19507598877  1.46413898468  -1.51023799578  1.86047935486  -2.78914815584  -1.4020374457  -0.0469449202167  
6.20317292213  1.46407914162  -1.51024991671  1.86050319672  -2.78913623491  -1.40206081072  -0.0469692389118  
6.21127009392  1.46409106255  -1.51022607485  1.86050319672  -2.78913623491  -1.40208512941  -0.0469329992877  
6.21939587593  1.46411502361  -1.51019031206  1.86047935486  -2.78916007677  -1.40204936663  -0.0469449202167  
6.22749996185  1.46412706375  -1.51023799578  1.86052751541  -2.78916007677  -1.4020374457  -0.0469692389118  
6.23561406136  1.46410310268  -1.51020223299  1.86050319672  -2.78918439547  -1.40206081072  -0.0469449202167  
6.24367499352  1.46406710148  -1.51021415392  1.86055135727  -2.78916007677  -1.40206081072  -0.0466335455524  
6.25177192688  1.46411502361  -1.51021415392  1.86051559448  -2.78916007677  -1.40202552477  -0.0464299360858  
6.25985789299  1.46411502361  -1.51020223299  1.86052751541  -2.78918439547  -1.4020374457  -0.0459621588336  
6.26797890663  1.46409106255  -1.51022607485  1.86049127579  -2.78914815584  -1.40202552477  -0.0457580725299  
6.27610301971  1.46410310268  -1.51020223299  1.86051559448  -2.78913623491  -1.40204936663  -0.0457103888141  
6.28422307968  1.46412706375  -1.51021415392  1.86052751541  -2.7891719977  -1.4020374457  -0.045746151601  
6.29234194756  1.46407914162  -1.51021415392  1.86047935486  -2.78912431399  -1.40200120607  -0.045782391225  
6.30050301552  1.46410310268  -1.51023799578  1.86052751541  -2.78914815584  -1.402013127  -0.045782391225  
6.30859899521  1.46411502361  -1.51021415392  1.86047935486  -2.78914815584  -1.402013127  -0.045794312154  
6.31669998169  1.46410310268  -1.5102742354  1.86058712006  -2.78916007677  -1.40216857592  -0.045794312154  
6.32478809357  1.46411502361  -1.51053744951  1.86088705063  -2.78912431399  -1.40245610872  -0.0457699934589  
6.33290505409  1.46409106255  -1.51071674029  1.8611869812  -2.78912431399  -1.40258771578  -0.0457699934589  
6.34100198746  1.46411502361  -1.51082450548  1.86123466492  -2.78916007677  -1.40254003206  -0.045794312154  
6.34912586212  1.46413898468  -1.51080066362  1.86109113693  -2.7891963164  -1.40250379244  -0.045794312154  
6.35722708702  1.46412706375  -1.51082450548  1.86101913452  -2.78920823732  -1.40245610872  -0.045734230672  
6.3653678894  1.46407914162  -1.51082450548  1.86103105545  -2.78911239306  -1.40247995058  -0.0457580725299  
6.37348294258  1.46410310268  -1.51072866121  1.86110305786  -2.78913623491  -1.40244418779  -0.0457580725299  
6.38157486916  1.46409106255  -1.51071674029  1.86106681824  -2.78912431399  -1.40244418779  -0.0457699934589  
6.38966989517  1.46407914162  -1.51071674029  1.86106681824  -2.78912431399  -1.40244418779  -0.0457699934589  
6.39775800705  1.46407914162  -1.51070481936  1.86109113693  -2.7891719977  -1.40243226687  -0.045746151601  
6.40585207939  1.46409106255  -1.510764424  1.861079216  -2.78913623491  -1.4024198691  -0.045782391225  
6.4139509201  1.46407914162  -1.51078826586  1.86109113693  -2.78914815584  -1.40243226687  -0.045782391225  
6.42204403877  1.46411502361  -1.510764424  1.861079216  -2.78914815584  -1.40244418779  -0.0457699934589  
6.4301469326  1.46412706375  -1.51074058214  1.86105489731  -2.78912431399  -1.40247995058  -0.045782391225  
6.43823504448  1.46411502361  -1.51071674029  1.86109113693  -2.78912431399  -1.40245610872  -0.0455301443683  
6.44630098343  1.46406710148  -1.51074058214  1.86110305786  -2.78916007677  -1.40246802965  -0.0452664534198  
6.45445489883  1.46406710148  -1.51068050066  1.861079216  -2.78911239306  -1.40247995058  -0.0448825995075  
6.46254301071  1.46410310268  -1.51074058214  1.86105489731  -2.78914815584  -1.40245610872  -0.0447266737567  
6.47063088417  1.46411502361  -1.51075250307  1.86106681824  -2.78916007677  -1.40245610872  -0.0447266737567  
6.47874307632  1.46413898468  -1.51075250307  1.86105489731  -2.78912431399  -1.40249187151  -0.0446909109699  
6.48684096336  1.46412706375  -1.51074058214  1.86106681824  -2.78914815584  -1.40245610872  -0.0447986761676  
6.49496102333  1.46409106255  -1.51072866121  1.86106681824  -2.78912431399  -1.40247995058  -0.0448225180255  
6.5030810833  1.46409106255  -1.51071674029  1.86106681824  -2.78910047213  -1.40247995058  -0.0448587576496  
6.51120901108  1.46410310268  -1.51071674029  1.86104297638  -2.78914815584  -1.40263587633  -0.0450146834003  
6.51932787895  1.46409106255  -1.51071674029  1.86088705063  -2.78913623491  -1.40280372301  -0.0453022162067  
6.5274310112  1.46411502361  -1.51072866121  1.86068296432  -2.78913623491  -1.40310269991  -0.0456379095661  
6.53555297852  1.46410310268  -1.510764424  1.86055135727  -2.78910047213  -1.40317470232  -0.045697991048  
6.54364800453  1.46411502361  -1.51075250307  1.86055135727  -2.78914815584  -1.40317470232  -0.045697991048  
6.55177688599  1.46407914162  -1.51081258455  1.86064720154  -2.78912431399  -1.40316278139  -0.0456140677082  
6.55989909172  1.46412706375  -1.51080066362  1.86069536209  -2.78916007677  -1.40311462084  -0.0454581419574  
6.56796002388  1.46412706375  -1.51075250307  1.86075496674  -2.78911239306  -1.40313893953  -0.0454581419574  
6.57604598999  1.46412706375  -1.51070481936  1.86071920395  -2.78912431399  -1.40310269991  -0.0454819838153  
6.58412599564  1.46407914162  -1.51070481936  1.86070728302  -2.78914815584  -1.40304309527  -0.0453265349018  
6.59224891663  1.46410310268  -1.51072866121  1.86077880859  -2.78916007677  -1.40281564394  -0.0450266043292  
6.60036301613  1.46412706375  -1.51077682177  1.86074304581  -2.78912431399  -1.4027317206  -0.044655148183  
6.60849785805  1.46413898468  -1.51075250307  1.86077880859  -2.78913623491  -1.40263587633  -0.0445469061481  
6.61659908295  1.46409106255  -1.510764424  1.86074304581  -2.78912431399  -1.40256387392  -0.044558827077  
6.62468504906  1.46413898468  -1.51074058214  1.86071920395  -2.78914815584  -1.40258771578  -0.0444992224323  
6.63279891014  1.46415102482  -1.51072866121  1.86075496674  -2.78914815584  -1.40277940432  -0.0447509924518  
6.64086008072  1.46411502361  -1.51074058214  1.86070728302  -2.78911239306  -1.40279180208  -0.0447266737567  
6.64895892143  1.46407914162  -1.51069289843  1.86076688766  -2.7891719977  -1.40277940432  -0.0447266737567  
6.65703701973  1.46417498589  -1.51074058214  1.86075496674  -2.78908807436  -1.40291148821  -0.0447147528278  
6.6651558876  1.46440303326  -1.51074058214  1.86077880859  -2.78913623491  -1.40318662325  -0.0447147528278  
6.67324399948  1.46467900276  -1.51074058214  1.86074304581  -2.78914815584  -1.40330630938  -0.0447147528278  
6.68134403229  1.46473896503  -1.51075250307  1.86076688766  -2.78911239306  -1.40329438845  -0.0447266737567  
6.68949007988  1.4646910429  -1.51074058214  1.86075496674  -2.78914815584  -1.40325862566  -0.0447147528278  
6.69760107994  1.4646191597  -1.51075250307  1.86073112488  -2.78916007677  -1.40321046511  -0.0447266737567  
6.70566391945  1.46452283859  -1.510764424  1.86073112488  -2.78912431399  -1.40322286287  -0.0447509924518  
6.71376204491  1.46446299553  -1.51074058214  1.86079120636  -2.78911239306  -1.40321046511  -0.0447385946857  
6.72178387642  1.46441507339  -1.51071674029  1.86073112488  -2.78911239306  -1.40321046511  -0.0449903647052  
6.7298719883  1.46453487873  -1.51072866121  1.86070728302  -2.7891719977  -1.40321046511  -0.045230690633  
6.73796200752  1.4646191597  -1.51077682177  1.86070728302  -2.78912431399  -1.40321046511  -0.0456140677082  
6.74604892731  1.4645588398  -1.51075250307  1.86073112488  -2.78913623491  -1.40321046511  -0.045686070119  
6.75410985947  1.46449887753  -1.51074058214  1.86070728302  -2.78912431399  -1.4032347838  -0.045661751424  
6.76222085953  1.46447491646  -1.51072866121  1.86073112488  -2.78913623491  -1.40319854418  -0.045649830495  
6.77028203011  1.4644869566  -1.510764424  1.86074304581  -2.78907615343  -1.40321046511  -0.0454819838153  
6.7783780098  1.46447491646  -1.51071674029  1.86070728302  -2.78910047213  -1.40321046511  -0.0454819838153  
6.78650093079  1.46453487873  -1.51074058214  1.86075496674  -2.78914815584  -1.40321046511  -0.0454943815814  
6.79456186295  1.46454679966  -1.510764424  1.86083936691  -2.78914815584  -1.40321046511  -0.0454943815814  
6.80265307426  1.46451091766  -1.51081258455  1.86104297638  -2.78916007677  -1.40321046511  -0.0454819838153  
6.81074595451  1.46454679966  -1.51077682177  1.86125898361  -2.78914815584  -1.40322286287  -0.0454581419574  
6.81885790825  1.46449887753  -1.51072866121  1.8611869812  -2.78910047213  -1.40322286287  -0.0454943815814  
6.8269879818  1.46451091766  -1.51070481936  1.86098337173  -2.78912431399  -1.4032347838  -0.0454819838153  
6.83505105972  1.4645588398  -1.51071674029  1.86091136932  -2.78911239306  -1.40322286287  -0.0454943815814  
6.84313297272  1.46453487873  -1.51077682177  1.86098337173  -2.78911239306  -1.40321046511  -0.0454819838153  
6.85124802589  1.46451091766  -1.51077682177  1.86098337173  -2.78916007677  -1.40319854418  -0.0454700628864  
6.85937690735  1.4644869566  -1.510764424  1.86089944839  -2.78913623491  -1.4032347838  -0.0454943815814  
6.86746788025  1.4644869566  -1.51078826586  1.86095905304  -2.78914815584  -1.4032347838  -0.0454943815814  
6.87555789948  1.46452283859  -1.51072866121  1.86091136932  -2.78911239306  -1.40319854418  -0.0454819838153  
6.88364291191  1.46452283859  -1.51075250307  1.86093521118  -2.78896838823  -1.40319854418  -0.0453265349018  
6.89173197746  1.46454679966  -1.51075250307  1.86093521118  -2.78860932985  -1.40321046511  -0.045170609151  
6.89983391762  1.46451091766  -1.51071674029  1.86085128784  -2.78816634813  -1.40322286287  -0.0448468367206  
6.90791988373  1.46449887753  -1.51075250307  1.86094713211  -2.78789073626  -1.40325862566  -0.0447028318988  
6.91603088379  1.46449887753  -1.51075250307  1.86092329025  -2.78772288958  -1.4032347838  -0.0446909109699  
6.92407894135  1.46451091766  -1.51074058214  1.86091136932  -2.78783065477  -1.4032347838  -0.0446909109699  
6.93218708038  1.46452283859  -1.51075250307  1.86092329025  -2.78779489199  -1.40319854418  -0.0448587576496  
6.94027996063  1.46452283859  -1.51074058214  1.86088705063  -2.7878668944  -1.4032347838  -0.0448825995075  
6.9483859539  1.46449887753  -1.510764424  1.86092329025  -2.78785449663  -1.4032347838  -0.0449183622943  
6.95648193359  1.46452283859  -1.51075250307  1.86089944839  -2.78785449663  -1.40321046511  -0.0448945204364  
6.96457099915  1.46451091766  -1.51070481936  1.86094713211  -2.78804666201  -1.4032347838  -0.0449183622943  
6.97263908386  1.46453487873  -1.51075250307  1.86091136932  -2.7882621924  -1.40324670473  -0.0449183622943  
6.98073387146  1.464594841  -1.51074058214  1.86093521118  -2.78868133227  -1.40322286287  -0.0448706785785  
6.98885607719  1.46457076073  -1.51078826586  1.86092329025  -2.78902846972  -1.4032347838  -0.0449183622943  
6.99697089195  1.46449887753  -1.51075250307  1.86094713211  -2.78914815584  -1.40322286287  -0.0449064413654  
7.00508189201  1.4644869566  -1.51080066362  1.86088705063  -2.78911239306  -1.4032347838  -0.0448945204364  
7.0131418705  1.46453487873  -1.51075250307  1.86092329025  -2.7890642325  -1.40324670473  -0.0448587576496  
7.02124190331  1.46453487873  -1.51077682177  1.86092329025  -2.78901654879  -1.40321046511  -0.0448587576496  
7.02933001518  1.46451091766  -1.51071674029  1.86095905304  -2.78890878359  -1.40318662325  -0.0449064413654  
7.0374879837  1.46452283859  -1.51077682177  1.86092329025  -2.78890878359  -1.40325862566  -0.0448825995075  
7.04554986954  1.46451091766  -1.51083642641  1.86100721359  -2.78892070452  -1.4032347838  -0.0449426809894  
7.05363488197  1.4645588398  -1.51114780108  1.86127090454  -2.78894454638  -1.40322286287  -0.0448945204364  
7.06173300743  1.46449887753  -1.51135093371  1.86153459549  -2.78889638582  -1.40321046511  -0.0448825995075  
7.06983399391  1.464594841  -1.51133853594  1.86149835587  -2.78893262545  -1.40324670473  -0.0449183622943  
7.0779209137  1.464594841  -1.51137477556  1.86127090454  -2.78896838823  -1.40322286287  -0.0449183622943  
7.08605694771  1.4645588398  -1.5113623778  1.86121082306  -2.78896838823  -1.4032347838  -0.0449064413654  
7.09414601326  1.46458280087  -1.51129085222  1.86119890213  -2.78889638582  -1.40322286287  -0.0449064413654  
7.10220909119  1.46458280087  -1.51126701037  1.86127090454  -2.78894454638  -1.4032347838  -0.0448825995075  
7.1102938652  1.464594841  -1.51129085222  1.8611869812  -2.78894454638  -1.40328246752  -0.0449064413654  
7.11835694313  1.4646191597  -1.51127940813  1.86124658585  -2.78889638582  -1.40324670473  -0.0448706785785  
7.12648391724  1.4646191597  -1.51132709185  1.86124658585  -2.78893262545  -1.40342647234  -0.0448706785785  
7.13457989693  1.46454679966  -1.51133853594  1.86122274399  -2.78895646731  -1.40366584459  -0.0448468367206  
7.14267706871  1.464594841  -1.51131517092  1.86119890213  -2.78894454638  -1.40388089815  -0.0448587576496  
7.1507730484  1.464594841  -1.51126701037  1.86122274399  -2.78893262545  -1.4038456122  -0.0448825995075  
7.15886807442  1.46460676193  -1.51127940813  1.86124658585  -2.78890878359  -1.40382129351  -0.0448105970966  
7.1669280529  1.46463108063  -1.51126701037  1.86122274399  -2.78893262545  -1.40377360979  -0.0448105970966  
7.17505288124  1.46460676193  -1.51127940813  1.86122274399  -2.78894454638  -1.40376168886  -0.0447748343097  
7.18317198753  1.46463108063  -1.51129085222  1.86122274399  -2.78898030916  -1.40376168886  -0.044655148183  
7.19129395485  1.464594841  -1.51129085222  1.86121082306  -2.78896838823  -1.40362960497  -0.0446427504169  
7.19935798645  1.46460676193  -1.51131517092  1.86119890213  -2.78905231157  -1.40340263048  -0.0446308294879  
7.20741987228  1.46463108063  -1.51132709185  1.86119890213  -2.78902846972  -1.40322286287  -0.044667069112  
7.21551394463  1.46464312077  -1.51133853594  1.86123466492  -2.78907615343  -1.40325862566  -0.0446308294879  
7.22359991074  1.46458280087  -1.51125508944  1.86121082306  -2.78910047213  -1.40335446993  -0.0445950667011  
7.2317109108  1.46457076073  -1.51126701037  1.86123466492  -2.78912431399  -1.40341455141  -0.044618908559  
7.23980498314  1.4645588398  -1.51129085222  1.86124658585  -2.78911239306  -1.4034503142  -0.0446308294879  
7.24789404869  1.46458280087  -1.51130324999  1.86122274399  -2.78911239306  -1.40340263048  -0.0446308294879  
7.25602388382  1.46465504169  -1.51130324999  1.86121082306  -2.78911239306  -1.40351039568  -0.0448945204364  
7.26413702965  1.4648348093  -1.51131517092  1.86119890213  -2.78908807436  -1.40371352831  -0.0450986067401  
7.27219891548  1.46508693695  -1.51129085222  1.86123466492  -2.78911239306  -1.4038456122  -0.0454581419574  
7.28031802177  1.46523070335  -1.51127940813  1.86122274399  -2.78910047213  -1.40394097963  -0.0455301443683  
7.28841090202  1.46526670456  -1.51130324999  1.86125898361  -2.78910047213  -1.40388089815  -0.0455659071552  
7.29649996758  1.46518278122  -1.51130324999  1.86119890213  -2.78910047213  -1.40392905871  -0.0455063025104  
7.30458593369  1.46514678001  -1.51129085222  1.86124658585  -2.78910047213  -1.40385753313  -0.0453265349018  
7.31267404556  1.46505093575  -1.51129085222  1.86121082306  -2.78911239306  -1.40380937258  -0.0453265349018  
7.32075786591  1.46500301361  -1.51129085222  1.86121082306  -2.78908807436  -1.4038456122  -0.0452902952777  
7.32887005806  1.46500301361  -1.51129085222  1.86122274399  -2.78898030916  -1.40374976793  -0.0452063719379  
7.33699202538  1.46494269371  -1.51129085222  1.86122274399  -2.78874093691  -1.40352231661  -0.0449665228473  
7.34507799149  1.46479892731  -1.51130324999  1.86124658585  -2.7883699576  -1.40346223513  -0.044655148183  
7.35316705704  1.46460676193  -1.51129085222  1.8612947464  -2.78814250628  -1.403342549  -0.044558827077  
7.36128497124  1.46447491646  -1.51126701037  1.86125898361  -2.78796273867  -1.40340263048  -0.0444505850421  
7.3693819046  1.46452283859  -1.51126701037  1.86130666733  -2.78802234331  -1.40331870714  -0.0445230642902  
7.37747502327  1.46460676193  -1.51131517092  1.86130666733  -2.78811818758  -1.40353423754  -0.044655148183  
7.38556599617  1.46465504169  -1.51127940813  1.86131858826  -2.78820211092  -1.40348607699  -0.04460698763  
7.39365506172  1.46481084824  -1.51129085222  1.86131858826  -2.78821403185  -1.40349847475  -0.0446308294879  
7.4017469883  1.46478688717  -1.51130324999  1.8612947464  -2.78825027147  -1.40349847475  -0.044618908559  
7.40987300873  1.46471500397  -1.51129085222  1.86128282547  -2.78828603426  -1.40360576311  -0.0448225180255  
7.41800999641  1.46464312077  -1.51126701037  1.86113882065  -2.78853732744  -1.40374976793  -0.0451105276691  
7.42613005638  1.46464312077  -1.51129085222  1.86104297638  -2.78893262545  -1.40392905871  -0.0454223791706  
7.43422698975  1.4647629261  -1.51130324999  1.86095905304  -2.7891963164  -1.40396482149  -0.0455659071552  
