Ethan-CYM/ros_catkin_ws/test/movej_静止不动/ur_joint_actual_current.txt
time  shoulder_pan_joint  shoulder_lift_joint  elbow_joint  wrist_1_joint  wrist_2_joint  wrist_3_joint
0.148793935776  -0.322820723057  -1.49080395699  -1.36077904701  -0.268407255411  -0.228756174445  -0.152504116297  
0.156832933426  -0.325062543154  -1.49752950668  -1.34956991673  -0.259256988764  -0.253156840801  -0.161654368043  
0.16486287117  -0.316095292568  -1.50873851776  -1.35853719711  -0.259256988764  -0.0991276800632  -0.132678583264  
0.172978878021  -0.347480624914  -1.49977123737  -1.37198805809  -0.262307077646  -0.178429812193  -0.141828835011  
0.181036949158  -0.349722445011  -1.49977123737  -1.35629534721  -0.256206929684  -0.100652717054  -0.0777771025896  
0.189131975174  -0.336271584034  -1.50425493717  -1.36974620819  -0.269932299852  -0.0152504118159  0.0381260290742  
0.197246074677  -0.329546153545  -1.49080395699  -1.34956991673  -0.271457344294  -0.0655767694116  -0.0793021395802  
0.205506086349  -0.331787973642  -1.49528765678  -1.37647163868  -0.272982358932  -0.106752879918  -0.0716769322753  
0.21363401413  -0.327304333448  -1.49528765678  -1.35405361652  -0.274507403374  -0.100652717054  -0.0533764399588  
0.221632957458  -0.336271584034  -1.49528765678  -1.37198805809  -0.272982358932  0.0854023098946  -0.048801317811  
0.229729890823  -0.354206055403  -1.49752950668  -1.35181176662  -0.280607581139  -0.00915024708956  -0.0442261956632  
0.237802028656  -0.331787973642  -1.49752950668  -1.37422990799  -0.289757817984  -0.106752879918  -0.0457512363791  
0.245882034302  -0.342997014523  -1.49977123737  -1.3675044775  -0.29738304019  -0.155554205179  -0.048801317811  
0.254023075104  -0.338513404131  -1.49304580688  -1.35629534721  -0.29738304019  -0.152504116297  -0.048801317811  
0.262089014053  -0.302644431591  -1.4863203764  -1.37198805809  -0.314158469439  -0.15860427916  -0.0427011549473  
0.27019906044  -0.360931485891  -1.49080395699  -1.3652626276  -0.306533277035  -0.163179412484  -0.0472762770951  
0.278295040131  -0.336271584034  -1.49752950668  -1.34508633614  -0.108277924359  -0.327883839607  -0.0472762770951  
0.286335945129  -0.340755194426  -1.49752950668  -1.3652626276  -0.126578420401  -0.111328005791  -0.0472762770951  
0.294440031052  -0.336271584034  -1.49977123737  -1.38768076897  -0.146403953433  -0.298908084631  -0.048801317811  
0.302545070648  -0.325062543154  -1.50425493717  -1.3630207777  -0.0381260290742  -0.0594766065478  -0.0472762770951  
0.31056189537  -0.347480624914  -1.50201308727  -1.34956991673  -0.0579515658319  -0.196730315685  -0.048801317811  
0.318630933762  -0.334029763937  -1.50425493717  -1.34956991673  -0.240956500173  0.114378087223  -0.048801317811  
0.326721906662  -0.349722445011  -1.50873851776  -1.3675044775  -0.178429812193  -0.106752879918  -0.0457512363791  
0.334784984589  -0.331787973642  -1.51098036766  -1.3675044775  -0.199780389667  -0.0884523913264  -0.048801317811  
0.342875957489  -0.347480624914  -1.50873851776  -1.35181176662  -0.207405596972  -0.0808271840215  -0.048801317811  
0.350993871689  -0.336271584034  -1.50201308727  -1.37647163868  -0.215030804276  -0.0747270211577  -0.048801317811  
0.359107017517  -0.331787973642  -1.50649666786  -1.35853719711  -0.198255360126  0.0732019767165  -0.0472762770951  
0.367202997208  -0.34523883462  -1.51322209835  -1.3652626276  -0.195205271244  0.0427011549473  -0.0457512363791  
0.375341892242  -0.351964265108  -1.51770579815  -1.35853719711  -0.196730315685  -0.100652717054  -0.048801317811  
0.383550882339  -0.347480624914  -1.50425493717  -1.35853719711  -0.192155182362  0.0549014806747  -0.048801317811  
0.391666889191  -0.351964265108  -1.50649666786  -1.38095533848  -0.18910510838  0.0274507403374  -0.0503263585269  
0.399714946747  -0.34523883462  -1.51994752884  -1.3630207777  -0.170804619789  -0.0808271840215  -0.048801317811  
0.407780885696  -0.336271584034  -1.50201308727  -1.35853719711  -0.160129323602  -0.0701518952847  -0.048801317811  
0.415977954865  -0.34523883462  -1.51098036766  -1.3630207777  -0.138778746128  -0.100652717054  -0.048801317811  
0.42396903038  -0.349722445011  -1.50873851776  -1.34508633614  -0.155554205179  -0.097602635622  -0.0518513992429  
0.432062864304  -0.327304333448  -1.51322209835  -1.37198805809  -0.138778746128  -0.097602635622  -0.0503263585269  
0.440159082413  -0.325062543154  -1.51546394825  -1.38095533848  -0.369059979916  -0.0915024727583  -0.0579515658319  
0.448256015778  -0.331787973642  -1.49528765678  -1.34060275555  -0.350759476423  -0.0884523913264  -0.0594766065478  
0.456332921982  -0.34523883462  -1.50873851776  -1.37198805809  -0.372110038996  -0.0808271840215  -0.0625266879797  
0.464493989944  -0.349722445011  -1.49080395699  -1.35629534721  -0.378210216761  -0.0793021395802  -0.0655767694116  
0.472579956055  -0.351964265108  -1.49080395699  -1.35853719711  -0.364484846592  -0.0640517324209  -0.0732019767165  
0.480679988861  -0.334029763937  -1.51098036766  -1.3675044775  -0.140303790569  -0.0655767694116  -0.0701518952847  
0.488770008087  -0.329546153545  -1.49304580688  -1.37647163868  -0.26688221097  -0.0549014806747  -0.0793021395802  
0.496870040894  -0.354206055403  -1.49080395699  -1.3675044775  -0.268407255411  -0.048801317811  -0.0777771025896  
0.504945993423  -0.354206055403  -1.50201308727  -1.37198805809  -0.23638138175  -0.0381260290742  -0.0838772654533  
0.513053894043  -0.340755194426  -1.49080395699  -1.35853719711  -0.230281218886  -0.0396510697901  -0.0884523913264  
0.521127939224  -0.342997014523  -1.51770579815  -1.34284448624  -0.311108410358  0.106752879918  -0.0915024727583  
0.529274940491  -0.349722445011  -1.50201308727  -1.36077904701  -0.398035734892  0.0823522210121  -0.0945525541902  
0.537302970886  -0.349722445011  -1.50873851776  -1.36974620819  -0.244006589055  0.0915024727583  -0.0945525541902  
0.545435905457  -0.334029763937  -1.50649666786  -1.3652626276  -0.240956500173  0.308058321476  -0.0915024727583  
0.553612947464  -0.338513404131  -1.50873851776  -1.35405361652  -0.327883839607  0.289757817984  -0.0945525541902  
0.561652898788  -0.318337112665  -1.50425493717  -1.35181176662  -0.399560779333  0.390410542488  -0.109802961349  
0.56973195076  -0.349722445011  -1.49977123737  -1.34956991673  -0.48801317811  0.343134254217  -0.102177761495  
0.577791929245  -0.336271584034  -1.48183679581  -1.3630207777  -0.451412200928  0.317208558321  -0.109802961349  
0.585877895355  -0.34523883462  -1.49080395699  -1.34508633614  -0.317208558321  0.23638138175  -0.112853050232  
0.593983888626  -0.347480624914  -1.47959494591  -1.3652626276  -0.326358824968  0.211980730295  -0.120478250086  
0.60214304924  -0.327304333448  -1.50425493717  -1.3630207777  -0.122003294528  0.097602635622  -0.120478250086  
0.610244035721  -0.334029763937  -1.50425493717  -1.35853719711  -0.262307077646  0.152504116297  -0.125053375959  
0.618366003036  -0.338513404131  -1.4885622263  -1.37871348858  -0.253156840801  0.192155182362  -0.117428168654  
0.626388072968  -0.322820723057  -1.50201308727  -1.38319706917  -0.250106751919  0.181479901075  -0.117428168654  
0.634540081024  -0.311611652374  -1.50201308727  -1.37422990799  -0.0305008236319  0.0716769322753  -0.117428168654  
0.642595052719  -0.349722445011  -1.49752950668  -1.35629534721  -0.208930641413  0.225706100464  -0.114378087223  
0.650697946548  -0.327304333448  -1.49080395699  -1.3652626276  -0.190630152822  0.0274507403374  -0.117428168654  
0.65874505043  -0.36765691638  -1.49304580688  -1.36974620819  -0.0732019767165  0.250106751919  -0.117428168654  
0.666842937469  -0.34523883462  -1.4885622263  -1.37198805809  0.0366009883583  -0.0701518952847  -0.115903131664  
0.674972057343  -0.342997014523  -1.50201308727  -1.3675044775  0.048801317811  0.122003294528  -0.115903131664  
0.683094024658  -0.336271584034  -1.49080395699  -1.35181176662  -0.00762520590797  -0.132678583264  -0.114378087223  
0.691210985184  -0.342997014523  -1.50649666786  -1.34508633614  -0.0350759476423  -0.0594766065478  -0.117428168654  
0.699307918549  -0.34523883462  -1.49977123737  -1.3652626276  -0.00457512354478  -0.166229486465  -0.114378087223  
0.707529067993  -0.347480624914  -1.51770579815  -1.3630207777  -0.00762520590797  -0.0472762770951  -0.115903131664  
0.715553998947  -0.325062543154  -1.50649666786  -1.3652626276  -0.0549014806747  -0.163179412484  -0.117428168654  
0.723649024963  -0.365415126085  -1.48183679581  -1.36077904701  -0.0930275097489  -0.0793021395802  -0.115903131664  
0.731724977493  -0.334029763937  -1.50873851776  -1.3652626276  -0.20435552299  0.0167754534632  -0.115903131664  
0.739801883698  -0.34523883462  -1.50425493717  -1.35853719711  -0.141828835011  -0.0427011549473  -0.115903131664  
0.747917890549  -0.327304333448  -1.50873851776  -1.3675044775  -0.155554205179  -0.0503263585269  -0.117428168654  
0.755979061127  -0.34523883462  -1.52443122864  -1.36077904701  -0.183004945517  -0.0457512363791  -0.114378087223  
0.764093875885  -0.134508639574  -2.57135677338  -1.23972117901  -0.0671018138528  -0.138778746128  -0.0167754534632  
0.772156953812  0.0829469934106  -2.69913983345  -1.03571653366  -0.234856337309  0.00762520590797  -0.0274507403374  
0.780237913132  0.134508639574  -3.0264441967  -0.986396670341  0.00152504118159  -0.186055019498  -0.0427011549473  
0.788368940353  0.307128041983  -3.2013053894  -0.892240583897  -0.398035734892  0.111328005791  0.0930275097489  
0.79640007019  0.300402611494  -3.38961744308  -0.764457404613  0.170804619789  -0.376685172319  0.0533764399588  
0.804569005966  0.316095292568  -3.53085160255  -0.905691444874  -0.448362112045  0.0533764399588  0.0686268508434  
0.812601089478  0.495440125465  -3.65863490105  -0.585112571716  0.253156840801  -0.248581707478  0.195205271244  
0.820631980896  0.437153071165  -3.45463013649  -0.813777208328  -0.340084195137  -0.167754530907  0.0594766065478  
0.82870388031  0.580628931522  -3.22372364998  -0.558210849762  0.219605922699  0.109802961349  0.294332951307  
0.836776018143  0.506649196148  -3.16095280647  -0.733072042465  -0.240956500173  -0.524614155293  0.237906426191  
0.844938993454  0.73531383276  -3.56447887421  -0.5940797925  0.190630152822  0.135728672147  0.26688221097  
0.85299706459  0.748764753342  -3.54878616333  -0.551485419273  -0.176904782653  -0.398035734892  0.26688221097  
0.861110925674  0.878789722919  -3.23941636086  -0.515616416931  0.102177761495  -0.15860427916  0.183004945517  
0.869198083878  0.901207864285  -3.09594035149  -0.468538403511  -0.0793021395802  -0.0442261956632  0.0747270211577  
0.877310037613  0.892240583897  -3.61155676842  -0.48647287488  0.146403953433  -0.512413859367  0.0305008236319  
0.885422945023  0.963978528976  -3.28201055527  -0.43939486146  -0.0838772654533  0.0579515658319  0.114378087223  
0.893534898758  1.00657296181  -3.51740074158  -0.466296583414  0.195205271244  -0.445312023163  0.184529989958  
0.901648044586  1.03795826435  -3.78193449974  -0.481989264488  -0.0518513992429  0.00610016472638  0.231806263328  
0.909748077393  1.02899098396  -3.31563782692  -0.443878501654  0.247056677938  -0.274507403374  0.20588055253  
0.917891025543  1.00433111191  -3.47480630875  -0.475263834  -0.0930275097489  -0.0472762770951  0.097602635622  
0.925951957703  0.919142305851  -3.09145665169  -0.446120291948  0.170804619789  -0.306533277035  0.0991276800632  
0.934092998505  0.692719459534  -2.40770459175  -0.244357347488  0.15860427916  -0.193680226803  0.265357166529  
0.942193031311  0.591838002205  -1.66790699959  -0.147959500551  -0.167754530907  -0.0991276800632  0.294332951307  
0.950227975845  0.623223304749  -2.02659678459  -0.18382845819  0.115903131664  -0.147928997874  0.225706100464  
0.958318948746  0.656850516796  -2.39649558067  -0.293677181005  -0.143353864551  -0.048801317811  0.118953213096  
0.966393947601  0.679268598557  -2.36735200882  -0.242115542293  0.0335509069264  -0.0244006589055  0.0610016472638  
0.974678993225  0.679268598557  -2.67672181129  -0.340755194426  -0.175379738212  -0.15860427916  0.0701518952847  
0.982677936554  0.623223304749  -3.06455492973  -0.307128041983  -0.0869273468852  0.105227842927  0.132678583264  
0.990794897079  0.68375223875  -2.80898857117  -0.338513404131  -0.0793021395802  -0.0701518952847  0.195205271244  
0.998883962631  0.600805222988  -2.28216314316  -0.230906486511  -0.172329649329  0.00762520590797  0.218080893159  
1.00696396828  0.5940797925  -2.16783070564  -0.322820723057  -0.129628494382  0.00152504118159  0.245531633496  
1.01504802704  0.488714694977  -2.36735200882  -0.204004764557  -0.155554205179  -0.0762520581484  0.250106751919  
1.02315306664  0.490956515074  -2.45478248596  -0.363173305988  -0.155554205179  -0.048801317811  0.227231130004  
1.03124189377  0.448362112045  -2.46374988556  -0.349722445011  -0.279082536697  0.134203627706  0.208930641413  
1.03934407234  0.475263834  -2.30233955383  -0.378865987062  -0.0701518952847  -0.283657670021  0.169279575348  
1.04756307602  0.526825487614  -2.22611784935  -0.490956515074  -0.436161786318  0.257731974125  0.227231130004  
1.05557799339  0.419218569994  -2.26647043228  -0.461812973022  0.103702798486  -0.355334609747  0.0625266879797  
1.06364393234  0.300402611494  -2.18128156662  -0.464054793119  -0.561215162277  0.109802961349  0.150979071856  
1.07172989845  0.246599167585  -1.93468248844  -0.600805222988  0.164704442024  0.0762520581484  0.0732019767165  
1.07981586456  0.147959500551  -1.54909110069  -0.75997376442  -0.504788637161  -0.224181056023  -0.0167754534632  
1.08790588379  0.138992249966  -1.79569029808  -0.766699194908  -0.0991276800632  0.00610016472638  0.0411761105061  
1.0960290432  0.145717680454  -1.98848593235  -0.742039263248  -0.216555848718  -0.0228756181896  0.0335509069264  
1.10412597656  0.174861222506  -2.0848839283  -0.733072042465  -0.280607581139  -0.00915024708956  0.0320258662105  
1.1122610569  0.15468493104  -2.18576526642  -0.75997376442  -0.219605922699  -0.0228756181896  0.0289757829159  
1.12038707733  -0.114332340658  -2.86055016518  -1.64324712753  -0.196730315685  0.0671018138528  0.160129323602  
1.12864208221  -0.143475875258  -2.93677186966  -1.36077904701  -0.0793021395802  0.0305008236319  0.164704442024  
1.13668298721  -0.206246569753  -3.05110406876  -1.31818461418  -0.105227842927  0.112853050232  0.0411761105061  
1.14472007751  -0.34523883462  -3.00626802444  -1.39216434956  0.0259256996214  0.137253701687  0.190630152822  
1.15278887749  -0.17261941731  -3.06679677963  -1.69032514095  0.0610016472638  0.0671018138528  0.0366009883583  
1.16090297699  -0.383349597454  -3.25286722183  -1.86967003345  0.0350759476423  0.227231130004  0.111328005791  
1.16902589798  -0.338513404131  -3.38289213181  -1.94364976883  -0.0701518952847  0.184529989958  0.175379738212  
1.17715001106  -0.488714694977  -3.41651916504  -1.88312089443  -0.0381260290742  0.167754530907  0.260782033205  
1.18527293205  -0.329546153545  -3.18785452843  -1.93692433834  0.0915024727583  0.181479901075  0.253156840801  
1.19340896606  -0.381107807159  -3.03989505768  -1.98176050186  0.0198255348951  0.0228756181896  0.26688221097  
1.20149493217  -0.39231684804  -3.13853478432  -1.96830964088  -0.0732019767165  0.117428168654  0.216555848718  
1.20957708359  -0.412493139505  -3.37168312073  -1.95037519932  0.123528338969  0.0320258662105  0.0335509069264  
1.21768307686  -0.443878501654  -3.18337106705  -2.02435493469  -0.0289757829159  0.0  0.0366009883583  
1.22581005096  -0.443878501654  -2.88745188713  -1.99745321274  0.0838772654533  0.108277924359  0.172329649329  
1.23390197754  -0.43939486146  -3.38289213181  -1.92347347736  -0.00305008236319  0.17385469377  0.202830478549  
1.24201893806  -0.490956515074  -3.38289213181  -1.92347347736  0.0198255348951  0.247056677938  0.170804619789  
1.25013804436  -0.580628931522  -2.88745188713  -1.93468248844  0.00152504118159  0.3461843431  0.0869273468852  
1.25823688507  -0.632190585136  -3.40979385376  -1.99072778225  0.0167754534632  0.318733602762  0.164704442024  
1.26633191109  -0.762215614319  -3.2057890892  -1.96606791019  -0.0930275097489  0.272982358932  0.250106751919  
1.27437186241  -0.860855221748  -3.46808099747  -2.09160923958  0.0655767694116  0.166229486465  0.163179412484  
1.28251695633  -0.804809987545  -3.60034775734  -2.13644552231  -0.0366009883583  0.183004945517  -0.0106752887368  
1.29059195518  -0.764457404613  -3.13405108452  -2.02883863449  -0.0122003294528  0.224181056023  0.198255360126  
1.29869890213  -0.697203099728  -3.35374855995  -1.97951877117  0.122003294528  0.349234431982  0.155554205179  
1.3067650795  -0.654608666897  -3.10490751266  -1.98848593235  0.0701518952847  0.359909713268  0.0579515658319  
1.31485700607  -0.582870721817  -3.36944127083  -2.12075281143  -0.0335509069264  0.277557492256  0.256206929684  
1.3229739666  -0.446120291948  -2.45029902458  -1.65669798851  0.0198255348951  0.0945525541902  0.181479901075  
1.33108997345  -0.390075027943  -2.30458116531  -1.45941865444  0.163179412484  0.17385469377  0.048801317811  
1.33921289444  -0.484231084585  -1.82707560062  -1.34508633614  0.169279575348  0.285182714462  0.276032447815  
1.34732699394  -0.632190585136  -2.05349850655  -1.43251693249  0.0716769322753  0.344659298658  0.222656011581  
1.3554110527  -0.703928530216  -1.79120659828  -1.70825958252  0.170804619789  0.294332951307  0.144878908992  
1.36351704597  -0.721862971783  -2.57808208466  -1.71050143242  0.0671018138528  0.234856337309  0.190630152822  
1.37165307999  -0.703928530216  -2.43460631371  -1.65669798851  0.0762520581484  0.123528338969  0.343134254217  
1.37970805168  -0.638916015625  -2.62067651749  -1.80241572857  0.179954856634  0.117428168654  0.219605922699  
1.3878030777  -0.576145291328  -2.87400102615  -1.88760447502  0.0152504118159  0.164704442024  0.122003294528  
1.39588093758  -0.587354362011  -2.33148288727  -1.73516142368  0.163179412484  0.242481544614  0.103702798486  
1.40398192406  -0.585112571716  -1.99296963215  -1.62082898617  0.0762520581484  0.279082536697  0.244006589055  
1.41209506989  -0.571661710739  -2.20818328857  -1.55805838108  0.0305008236319  0.3126334548  0.254681885242  
1.42022204399  -0.587354362011  -2.20594167709  -1.59168553352  0.147928997874  0.292807906866  0.193680226803  
1.42841291428  -0.547001779079  -2.08936738968  -1.75757944584  -0.0274507403374  0.244006589055  0.120478250086  
1.43645501137  -0.470780223608  -2.03556394577  -1.68135786057  0.0686268508434  0.201305434108  0.126578420401  
1.44455194473  -0.466296583414  -2.43236446381  -1.65221440792  0.138778746128  0.0930275097489  0.146403953433  
1.45263504982  -0.461812973022  -2.56911492348  -1.67239069939  0.0625266879797  0.0960775911808  0.181479901075  
1.46070504189  -0.506649196148  -2.45926618576  -1.70377600193  -0.0259256996214  0.00457512354478  0.242481544614  
1.4687268734  -0.535792708397  -2.22611784935  -1.6051363945  0.106752879918  0.0503263585269  0.263832122087  
1.47685790062  -0.571661710739  -1.87191176414  -1.54909110069  0.150979071856  -0.0167754534632  0.28213262558  
1.48494791985  -0.538034558296  -1.70377600193  -1.51770579815  0.199780389667  0.0701518952847  0.26688221097  
1.49304199219  -0.508890986443  -1.7822394371  -1.52443122864  0.132678583264  -0.00457512354478  0.23638138175  
1.50113487244  -0.360931485891  -1.88536262512  -1.54909110069  0.0945525541902  -0.0762520581484  0.256206929684  
1.50923991203  -0.30936986208  -1.85173547268  -1.45269322395  0.0442261956632  0.0427011549473  0.160129323602  
1.51740098  -0.15468493104  -1.60961997509  -1.20161044598  -0.0594766065478  -0.097602635622  0.0991276800632  
1.52544307709  -0.0739797502756  -1.27783203125  -0.92586773634  -0.109802961349  -0.115903131664  0.0594766065478  
1.53346586227  -0.197279334068  -1.75085401535  -1.25765573978  -0.0716769322753  -0.0671018138528  0.122003294528  
1.54152798653  -0.177103027701  -1.75757944584  -1.23299574852  -0.0793021395802  -0.0747270211577  0.122003294528  
1.54964494705  -0.163652166724  -1.7822394371  -1.21506130695  -0.0930275097489  -0.0747270211577  0.115903131664  
1.55769586563  -0.468538403511  -2.61395120621  -1.79793202877  -0.0427011549473  0.0289757829159  0.201305434108  
1.56582593918  -0.192795708776  -2.54221320152  -2.16334724426  -0.0396510697901  0.0442261956632  0.230281218886  
1.57394695282  -0.555968999863  -2.72379970551  -1.92123162746  -0.129628494382  0.0472762770951  0.135728672147  
1.58204102516  -0.605288863182  -2.60050034523  -2.04453110695  -0.00762520590797  0.126578420401  -0.0198255348951  
1.59012389183  -0.674784958363  -2.71707439423  -2.11626911163  0.0686268508434  0.237906426191  0.109802961349  
1.59827303886  -0.555968999863  -2.82019758224  -2.07143306732  0.0152504118159  0.233331307769  0.00762520590797  
1.60643696785  -0.596321582794  -3.0286860466  -2.0759165287  -0.0945525541902  0.18910510838  0.0350759476423  
1.614538908  -0.499923765659  -3.01523518562  -2.04677295685  0.115903131664  0.0625266879797  0.134203627706  
1.62267398834  -0.665817737579  -2.89866113663  -1.9032971859  0.00610016472638  0.0762520581484  0.172329649329  
1.63073301315  -0.652366876602  -2.71259069443  -1.99072778225  -0.0381260290742  0.181479901075  0.224181056023  
1.63889789581  -0.68823581934  -2.60498380661  -2.17231440544  0.0457512363791  0.272982358932  0.179954856634  
1.64693808556  -0.690477669239  -2.56687307358  -2.06919121742  -0.117428168654  0.213505759835  0.097602635622  
1.65505504608  -0.751006543636  -2.73725056648  -2.01090407372  0.0213505774736  0.0549014806747  0.0655767694116  
1.66316509247  -0.728588402271  -2.98160791397  -2.04453110695  -0.0671018138528  0.154029160738  0.147928997874  
1.67125797272  -0.775666475296  -3.16095280647  -2.22387599945  -0.0213505774736  0.321783691645  0.242481544614  
1.67939305305  -0.777908265591  -3.1475019455  -2.04901480675  0.131153538823  0.18910510838  0.210455685854  
1.6874859333  -0.829469919205  -2.90090274811  -2.01090407372  -0.048801317811  0.144878908992  0.0732019767165  
1.69557905197  -0.784633696079  -2.72379970551  -2.17455625534  0.0152504118159  0.36143475771  0.0686268508434  
1.70371699333  -0.748764753342  -2.69241452217  -2.06022381783  0.125053375959  0.141828835011  0.23638138175  
1.71183300018  -0.699444890022  -2.88296842575  -2.05574035645  0.0915024727583  0.152504116297  0.218080893159  
1.71992087364  -0.712895750999  -2.91435360909  -2.23060154915  -0.0381260290742  0.263832122087  0.118953213096  
1.72805500031  -0.717379391193  -2.81123042107  -2.15437984467  -0.0930275097489  0.105227842927  0.183004945517  
1.73615193367  -0.724104821682  -2.70362353325  -2.03108024597  -0.0503263585269  0.332458972931  0.22113096714  
1.74431800842  -0.672543168068  -2.90090274811  -2.20145797729  -0.0549014806747  0.0533764399588  0.109802961349  
1.75240302086  -0.629948735237  -3.19906353951  -2.20369982719  -0.0213505774736  0.213505759835  0.135728672147  
1.7604598999  -0.56941986084  -2.98833346367  -2.21715068817  -0.00915024708956  0.140303790569  0.219605922699  
1.76854705811  -0.564936280251  -2.62516021729  -2.0759165287  -0.0518513992429  0.306533277035  0.111328005791  
1.77664399147  -0.580628931522  -2.7282834053  -2.22835969925  -0.0518513992429  0.137253701687  0.244006589055  
1.78476905823  -0.663575947285  -3.00178432465  -2.19249081612  0.0335509069264  0.323308736086  0.22113096714  
1.7928788662  -0.68823581934  -2.70810723305  -2.2552614212  0.0533764399588  0.154029160738  0.0289757829159  
1.80098199844  -0.665817737579  -2.51755332947  -2.11178565025  0.120478250086  0.420911371708  0.225706100464  
1.80905890465  -0.614256083965  -2.70138168335  -1.74188685417  0.160129323602  0.109802961349  0.141828835011  
1.81715798378  -0.650125086308  -2.43012261391  -1.65221440792  0.192155182362  0.359909713268  0.190630152822  
1.8252658844  -0.672543168068  -1.7777557373  -1.82035017014  0.137253701687  0.141828835011  0.269932299852  
1.83342289925  -0.73531383276  -2.13868737221  -1.98400235176  0.106752879918  0.286707729101  0.111328005791  
1.84139609337  -0.706170320511  -2.40097904205  -1.81138288975  0.129628494382  0.0610016472638  0.208930641413  
1.84953999519  -0.63667422533  -2.34269213676  -1.76206314564  0.224181056023  0.294332951307  0.253156840801  
1.8576259613  -0.547001779079  -2.30458116531  -1.84725189209  0.18910510838  0.106752879918  0.160129323602  
1.8657438755  -0.502165555954  -2.51755332947  -2.10730195045  0.157079234719  0.289757817984  0.176904782653  
1.8738899231  -0.535792708397  -2.69913983345  -1.85846090317  0.15860427916  0.228756174445  0.295857995749  
1.88199400902  -0.571661710739  -2.62067651749  -1.7822394371  0.0549014806747  0.0930275097489  0.216555848718  
1.8901078701  -0.598563432693  -2.34493374825  -1.80241572857  0.0610016472638  0.335509061813  0.0305008236319  
1.89821004868  -0.706170320511  -2.0848839283  -1.79344844818  0.196730315685  0.225706100464  0.186055019498  
1.90634489059  -0.748764753342  -2.00642037392  -1.8427683115  0.179954856634  0.179954856634  0.239431470633  
1.91442394257  -0.717379391193  -2.18352341652  -1.91898977757  0.0610016472638  0.417861282825  0.218080893159  
1.92246389389  -0.737555682659  -2.36959385872  -1.78896486759  0.196730315685  0.269932299852  0.0945525541902  
1.9305369854  -0.726346611977  -2.46823334694  -1.75757944584  0.00915024708956  0.103702798486  0.125053375959  
1.93861103058  -0.697203099728  -2.43012261391  -1.74861228466  0.147928997874  0.26688221097  0.202830478549  
1.94669008255  -0.80705177784  -2.35838460922  -1.89432990551  -0.056426525116  0.379735261202  0.268407255411  
1.95474290848  -0.827228069305  -2.19249081612  -1.88536262512  0.154029160738  0.265357166529  0.247056677938  
1.96288108826  -0.818260848522  -2.04677295685  -1.76206314564  -0.0137253701687  0.157079234719  0.181479901075  
1.97097301483  -0.782391905785  -1.96606791019  -1.7799975872  0.170804619789  0.134203627706  0.0549014806747  
1.97905302048  -0.75997376442  -2.09160923958  -1.67911612988  0.109802961349  0.213505759835  0.0122003294528  
1.98716187477  -0.706170320511  -2.21266698837  -1.7239522934  -0.0396510697901  0.288232773542  0.0244006589055  
1.99531006813  -0.68823581934  -2.34941744804  -1.80914115906  0.128103464842  0.324833780527  0.0671018138528  
2.00345087051  -0.68375223875  -2.46374988556  -1.83155918121  0.150979071856  0.288232773542  0.117428168654  
2.01147389412  -0.629948735237  -2.45478248596  -1.76430487633  0.144878908992  0.211980730295  0.140303790569  
2.01953101158  -0.61649787426  -2.46150803566  -1.74637043476  0.0716769322753  0.128103464842  0.147928997874  
2.02762794495  -0.645641446114  -2.44133162498  -1.75085401535  0.00152504118159  0.0823522210121  0.201305434108  
2.03573799133  -0.511132776737  -2.45926618576  -1.71050143242  -0.0869273468852  0.0366009883583  0.0930275097489  
2.04380202293  -0.396800458431  -2.36735200882  -1.54909110069  -0.048801317811  -0.00762520590797  0.123528338969  
2.0518860817  -0.235390111804  -2.06470751762  -1.1859177351  -0.15860427916  -0.103702798486  0.0442261956632  
2.05999398232  -0.269017279148  -2.00417852402  -1.17022514343  -0.228756174445  -0.0823522210121  0.00457512354478  
2.06811499596  -0.298160791397  -2.24853587151  -1.37198805809  -0.192155182362  -0.0625266879797  0.0274507403374  
2.07622504234  -0.289193570614  -2.23284339905  -1.36077904701  -0.196730315685  -0.0777771025896  0.0274507403374  
2.08441591263  -0.32057890296  -2.23956871033  -1.32715189457  -0.20588055253  -0.056426525116  0.0183004941791  
2.092441082  -0.576145291328  -3.19009637833  -2.09385108948  -0.211980730295  -0.0106752887368  0.170804619789  
2.10053896904  -0.555968999863  -2.96143174171  -2.19249081612  0.0  0.0884523913264  0.00152504118159  
2.10861492157  -0.692719459534  -3.19009637833  -2.08712553978  -0.0533764399588  -0.0854023098946  0.294332951307  
2.11669898033  -0.692719459534  -2.95918989182  -2.02883863449  0.048801317811  0.0686268508434  -0.0396510697901  
2.12478709221  -0.645641446114  -2.86055016518  -2.02435493469  0.0579515658319  0.140303790569  0.242481544614  
2.13287401199  -0.614256083965  -2.7282834053  -2.04004764557  -0.0472762770951  0.211980730295  -0.00305008236319  
2.14100289345  -0.585112571716  -2.61843466759  -2.09160923958  -0.0869273468852  0.20435552299  0.218080893159  
2.14910101891  -0.645641446114  -2.50410246849  -2.06022381783  0.0930275097489  0.123528338969  0.00610016472638  
2.15723800659  -0.497681945562  -2.3785610199  -2.1992161274  0.00152504118159  0.048801317811  0.283657670021  
2.16532707214  -0.553727209568  -2.35838460922  -2.21490883827  -0.103702798486  0.201305434108  0.0167754534632  
2.17341208458  -0.513374626637  -2.51306962967  -2.1947324276  0.0366009883583  0.256206929684  0.237906426191  
2.18157887459  -0.531309127808  -2.64309453964  -2.17231440544  -0.144878908992  0.0869273468852  0.0152504118159  
2.18965601921  -0.459571152925  -2.90090274811  -2.16558909416  0.0793021395802  0.115903131664  0.132678583264  
2.19774198532  -0.452845722437  -3.05334591866  -2.22611784935  -0.0884523913264  0.276032447815  0.048801317811  
2.20584106445  -0.334029763937  -2.92780447006  -2.27319598198  0.0701518952847  0.115903131664  0.0396510697901  
2.21390104294  -0.340755194426  -2.67672181129  -2.1969742775  -0.0396510697901  0.303483188152  0.108277924359  
2.22198987007  -0.394558668137  -2.56911492348  -2.23956871033  0.0  0.178429812193  0.103702798486  
2.23005700111  -0.484231084585  -2.95470619202  -2.24853587151  -0.0289757829159  0.18910510838  0.195205271244  
2.23812198639  -0.549243569374  -3.06007146835  -2.21490883827  -0.0305008236319  0.193680226803  0.253156840801  
2.24623203278  -0.701686680317  -2.87624287605  -2.14092898369  0.0411761105061  0.15860427916  0.269932299852  
2.25431108475  -0.75997376442  -2.64533638954  -2.26198673248  0.102177761495  0.210455685854  0.199780389667  
2.26251292229  -0.730830252171  -2.60722565651  -2.31803202629  0.097602635622  0.097602635622  0.140303790569  
2.27055191994  -0.701686680317  -2.84261584282  -2.0804002285  0.0533764399588  0.332458972931  0.0472762770951  
2.27855491638  -0.625465154648  -2.96367359161  -2.23060154915  0.0259256996214  0.0991276800632  0.0305008236319  
2.28661894798  -0.612014293671  -2.81347227097  -2.1947324276  0.0198255348951  0.193680226803  0.0884523913264  
2.29471302032  -0.605288863182  -2.66551280022  -2.36062645912  -0.0305008236319  0.356859624386  0.184529989958  
2.30281305313  -0.567178070545  -2.78432869911  -2.23956871033  0.00457512354478  0.143353864551  0.222656011581  
2.31091594696  -0.540276348591  -3.0242023468  -2.15213823318  0.0960775911808  0.128103464842  0.260782033205  
2.31903791428  -0.533550918102  -2.81123042107  -2.1947324276  0.0930275097489  0.199780389667  0.198255360126  
2.32714486122  -0.495440125465  -2.16334724426  -1.95037519932  0.166229486465  0.314158469439  0.144878908992  
2.33525490761  -0.558210849762  -2.24405241013  -1.8427683115  0.179954856634  0.201305434108  0.100652717054  
2.3433868885  -0.647883236408  -2.15437984467  -1.74637043476  0.154029160738  0.169279575348  0.117428168654  
2.35154986382  -0.712895750999  -1.9032971859  -1.86742818356  0.147928997874  0.375160127878  0.193680226803  
2.35961890221  -0.782391905785  -1.73740315437  -2.00193691254  0.20435552299  0.242481544614  0.253156840801  
2.36769008636  -0.831711709499  -2.16334724426  -1.95261704922  0.228756174445  0.219605922699  0.268407255411  
2.37577795982  -0.80256819725  -2.56687307358  -1.92795705795  0.233331307769  0.413286149502  0.247056677938  
2.38387203217  -0.764457404613  -2.6744799614  -1.97951877117  0.122003294528  0.149454042315  0.207405596972  
2.39195799828  -0.694961249828  -2.30682301521  -1.85621917248  0.0228756181896  0.338559150696  0.143353864551  
2.40006709099  -0.712895750999  -2.09385108948  -1.901055336  0.0533764399588  0.0655767694116  0.0793021395802  
2.40817809105  -0.629948735237  -2.22163414955  -2.01538777351  0.20588055253  0.279082536697  0.0396510697901  
2.4162709713  -0.598563432693  -2.3830447197  -1.87191176414  0.118953213096  0.0808271840215  0.0610016472638  
2.42436504364  -0.598563432693  -2.36511015892  -1.86967003345  0.0701518952847  0.33093392849  0.108277924359  
2.43243694305  -0.627706944942  -2.16783070564  -1.91450619698  0.196730315685  0.141828835011  0.132678583264  
2.44059491158  -0.5940797925  -2.05125665665  -1.95037519932  0.0732019767165  0.240956500173  0.190630152822  
2.44866394997  -0.540276348591  -1.95934247971  -1.81586658955  0.149454042315  0.301958143711  0.211980730295  
2.45671105385  -0.535792708397  -2.01762938499  -1.87191176414  -0.00457512354478  0.114378087223  0.22113096714  
2.46477007866  -0.562694430351  -2.13644552231  -1.83604288101  0.152504116297  0.295857995749  0.257731974125  
2.47286605835  -0.549243569374  -2.27992129326  -1.89208805561  -0.0183004941791  0.338559150696  0.231806263328  
2.48096299171  -0.576145291328  -2.33372473717  -1.89657175541  0.114378087223  0.222656011581  0.248581707478  
2.48908090591  -0.526825487614  -2.34941744804  -1.86518633366  0.102177761495  0.164704442024  0.207405596972  
2.49720096588  -0.549243569374  -2.43460631371  -1.93692433834  -0.0808271840215  0.269932299852  0.176904782653  
2.50528907776  -0.479747444391  -2.45702433586  -1.88760447502  0.105227842927  0.327883839607  0.240956500173  
2.51340794563  -0.612014293671  -2.45029902458  -1.85397732258  0.138778746128  0.323308736086  0.0823522210121  
2.52142000198  -0.399042278528  -2.35390114784  -1.85397732258  0.114378087223  0.18910510838  0.18910510838  
2.52958202362  -0.582870721817  -2.25077772141  -1.77551400661  0.0366009883583  0.132678583264  0.0945525541902  
2.53769207001  -0.434911251068  -2.13196182251  -1.76878857613  -0.0152504118159  0.0823522210121  0.0122003294528  
2.54577493668  -0.354206055403  -2.06919121742  -1.73067772388  -0.0640517324209  0.0610016472638  0.187580063939  
2.55383896828  -0.21969743073  -1.97279334068  -1.64324712753  -0.115903131664  0.0640517324209  0.102177761495  
2.56194901466  -0.0986396670341  -1.62979626656  -1.32266819477  -0.115903131664  -0.0259256996214  -0.233331307769  
2.5700199604  -0.0560452640057  -1.63427984715  -1.19712686539  -0.26688221097  -0.0808271840215  0.0915024727583  
2.57807588577  -0.125541388988  -1.88984632492  -1.425791502  -0.228756174445  -0.0671018138528  0.0915024727583  
2.58613586426  -0.141234070063  -1.91674804688  -1.47286951542  -0.210455685854  -0.0533764399588  0.0289757829159  
2.59426093102  -0.1188159585  -1.92571520805  -1.39440619946  -0.237906426191  -0.056426525116  0.0137253701687  
2.60235500336  -0.977429389954  -2.8493411541  -1.79120659828  -0.146403953433  0.103702798486  0.0366009883583  
2.61036705971  -0.865338861942  -2.7305252552  -1.77327215672  -0.0106752887368  0.00610016472638  0.0381260290742  
2.61859989166  -0.937076807022  -2.7327671051  -2.20818328857  -0.0625266879797  0.210455685854  0.0472762770951  
2.62654209137  -0.981913030148  -2.62740206718  -1.87191176414  0.0152504118159  0.0610016472638  0.0396510697901  
2.63462400436  -1.00208926201  -2.51082777977  -2.11626911163  0.0777771025896  0.17385469377  0.0533764399588  
2.64265990257  -0.820502638817  -2.3740773201  -1.89657175541  0.0167754534632  0.199780389667  0.0610016472638  
2.65071892738  -0.883273363113  -2.33596658707  -2.03556394577  -0.0854023098946  0.138778746128  0.0625266879797  
2.65878200531  -1.02002382278  -2.48840975761  -1.99072778225  -0.00610016472638  0.324833780527  0.0793021395802  
2.666877985  -0.937076807022  -2.69689798355  -2.08712553978  0.0686268508434  0.279082536697  0.0793021395802  
2.67495393753  -1.03347468376  -2.80674672127  -2.07143306732  -0.0427011549473  0.254681885242  0.0884523913264  
2.68303894997  -1.08951997757  -2.75966882706  -2.06470751762  -0.00762520590797  0.152504116297  0.0915024727583  
2.69114995003  -0.975187599659  -2.62291836739  -2.15213823318  0.0732019767165  0.0518513992429  0.0960775911808  
2.69928002357  -0.771182835102  -2.45478248596  -2.12523651123  -0.0884523913264  0.0183004941791  0.102177761495  
2.70738101006  -0.979671239853  -2.5511803627  -2.15213823318  0.0960775911808  0.108277924359  0.0930275097489  
2.71545886993  -1.11193799973  -2.8470993042  -2.18128156662  -0.0777771025896  0.224181056023  0.109802961349  
2.72359800339  -0.851888000965  -2.91435360909  -2.23508501053  0.0594766065478  0.247056677938  0.109802961349  
2.7316699028  -1.09848713875  -2.53997135162  -2.1992161274  -0.117428168654  0.155554205179  0.125053375959  
2.73975801468  -0.955011308193  -2.31579041481  -2.20818328857  0.0167754534632  0.0640517324209  0.126578420401  
2.74783706665  -0.872064292431  -2.76191067696  -2.22387599945  0.0777771025896  0.163179412484  0.120478250086  
2.75591993332  -1.05813455582  -2.6722381115  -2.14541268349  -0.0625266879797  0.276032447815  0.131153538823  
2.76405096054  -0.502165555954  -2.15886354446  -2.02883863449  0.0549014806747  0.25163179636  0.132678583264  
2.77213287354  -0.351964265108  -2.32475757599  -1.901055336  0.150979071856  0.103702798486  0.0533764399588  
2.78024506569  -0.233148291707  -2.46374988556  -1.83155918121  0.117428168654  0.103702798486  0.0655767694116  
2.78832697868  -0.156926736236  -2.13196182251  -1.82259202003  0.237906426191  0.250106751919  0.0594766065478  
2.79642391205  -0.538034558296  -1.80914115906  -1.80241572857  0.00610016472638  0.311108410358  0.0671018138528  
2.80457901955  -0.822744488716  -1.81810832024  -1.81362473965  0.17385469377  0.271457344294  0.0594766065478  
2.8126540184  -0.842920780182  -2.11178565025  -1.78448116779  0.0106752887368  0.163179412484  0.0686268508434  
2.82074999809  -0.650125086308  -2.24405241013  -1.84949374199  0.138778746128  0.120478250086  0.0793021395802  
2.82879805565  -0.571661710739  -2.27319598198  -1.86967003345  0.0960775911808  0.140303790569  0.0747270211577  
2.83694791794  -0.452845722437  -2.14317083359  -1.85397732258  -0.00457512354478  0.230281218886  0.0777771025896  
2.84500288963  -0.251082777977  -2.0804002285  -1.7822394371  0.144878908992  0.239431470633  0.0579515658319  
2.85313296318  -0.199521139264  -2.03780579567  -1.85621917248  0.0869273468852  0.321783691645  0.0808271840215  
2.86126494408  -0.430427610874  -1.99969506264  -1.88087904453  -0.00610016472638  0.338559150696  0.0732019767165  
2.86939096451  -0.535792708397  -2.07143306732  -1.89432990551  0.00762520590797  0.285182714462  0.0777771025896  
2.87752509117  -0.450603932142  -2.12075281143  -1.8427683115  0.141828835011  0.23638138175  0.0747270211577  
2.88567399979  -0.289193570614  -2.12523651123  -1.88312089443  0.161654368043  0.190630152822  0.0732019767165  
2.89371395111  -0.188312083483  -2.21939253807  -1.79344844818  0.140303790569  0.181479901075  0.0777771025896  
2.90179586411  -0.215213805437  -2.1969742775  -1.64997255802  0.0213505774736  0.0823522210121  0.0716769322753  
2.90991592407  -0.237631917  -2.14989638329  -1.60737812519  0.00457512354478  0.114378087223  0.0625266879797  
2.91797995567  0.0224181059748  -1.94813334942  -1.46390223503  -0.0625266879797  0.0945525541902  0.0732019767165  
2.92610502243  -0.168135792017  -1.97727692127  -1.47959494591  -0.0594766065478  0.0335509069264  0.0716769322753  
2.93410301208  -0.161410361528  -2.00193691254  -1.4863203764  -0.0518513992429  0.0457512363791  0.0793021395802  
2.94223403931  -0.0941560417414  -1.97727692127  -1.45045137405  -0.0945525541902  0.0320258662105  0.0762520581484  
2.95023989677  -0.578387141228  -2.89641928673  -0.632190585136  -0.0945525541902  0.150979071856  0.0823522210121  
2.95833086967  -0.181586652994  -2.54669690132  -0.961736738682  -0.100652717054  0.0305008236319  0.0732019767165  
2.96639609337  -0.421460390091  -2.75966882706  -0.856371641159  -0.114378087223  0.250106751919  0.0762520581484  
2.974629879  -0.286951750517  -2.66551280022  -0.739797472954  -0.103702798486  -0.0625266879797  0.0579515658319  
2.98254704475  -0.591838002205  -2.56911492348  -0.540276348591  -0.0991276800632  0.201305434108  0.0823522210121  
2.99069499969  -0.43939486146  -2.50858592987  -0.618739724159  -0.0915024727583  0.0305008236319  0.0747270211577  
2.99878406525  -0.497681945562  -2.41891360283  -0.694961249828  -0.0915024727583  0.0671018138528  0.0747270211577  
3.00689888  -0.363173305988  -2.12971997261  -1.20833587646  -0.0930275097489  0.128103464842  0.0777771025896  
3.01501107216  -0.277984499931  -1.97279334068  -1.29576647282  -0.0915024727583  0.0838772654533  0.0686268508434  
3.02312302589  -0.269017279148  -1.88536262512  -1.03571653366  -0.0884523913264  0.160129323602  0.0747270211577  
3.03121805191  -0.347480624914  -1.78448116779  -0.771182835102  -0.0930275097489  0.216555848718  0.0777771025896  
3.03934288025  -0.419218569994  -1.71946871281  -0.777908265591  -0.0838772654533  0.0869273468852  0.0793021395802  
3.04743504524  -0.248840972781  -1.69929242134  -1.04244196415  -0.0869273468852  0.172329649329  0.0716769322753  
3.05554509163  -0.0941560417414  -1.49528765678  -1.45717680454  -0.0823522210121  0.0838772654533  0.0686268508434  
3.06624388695  -0.0156926736236  -1.3675044775  -1.53564023972  -0.0838772654533  0.0152504118159  0.0701518952847  
3.07429504395  -0.00224181055091  -1.58047640324  -1.21730315685  -0.0869273468852  -0.00152504118159  0.0671018138528  
3.08238697052  -0.0224181059748  -1.57375097275  -1.25317203999  -0.0854023098946  0.0152504118159  0.0762520581484  
3.09047293663  0.00448362110183  -1.52667295933  -1.32939362526  -0.0823522210121  0.0198255348951  0.0838772654533  
3.09855008125  -0.867580711842  -1.44596779346  -0.800326347351  -0.0838772654533  -0.146403953433  0.18910510838  
3.10664486885  -0.791359126568  -1.43475878239  -0.878789722919  -0.0777771025896  0.0106752887368  0.0442261956632  
3.11473894119  -1.0132983923  -1.40113162994  -0.681510388851  -0.0777771025896  -0.269932299852  0.15860427916  
3.1228249073  -1.05140912533  -1.40337336063  -0.721862971783  -0.0793021395802  -0.0625266879797  0.122003294528  
3.13091802597  -0.603047013283  -1.47511136532  -0.793600916862  -0.0655767694116  -0.294332951307  0.0716769322753  
3.13915300369  -0.0762215554714  -1.56030011177  -1.05140912533  -0.0823522210121  -0.0747270211577  0.114378087223  
3.14726495743  -0.0605288855731  -1.58720183372  -1.02674925327  -0.0762520581484  -0.20588055253  0.161654368043  
3.15522289276  0.188312083483  -1.69480872154  -1.32266819477  -0.0777771025896  -0.150979071856  -0.0625266879797  
3.16328597069  0.255566388369  -1.74861228466  -1.43027508259  -0.0732019767165  -0.00915024708956  0.0274507403374  
3.17143893242  -0.347480624914  -1.63876354694  -1.30921733379  -0.0762520581484  -0.132678583264  0.00305008236319  
3.17949700356  -0.414734959602  -1.62531268597  -1.28904104233  -0.0762520581484  -0.122003294528  -0.00610016472638  
3.18761897087  -0.354206055403  -1.5401238203  -1.31370103359  -0.0671018138528  -0.097602635622  -0.0152504118159  
3.19574809074  -0.549243569374  -1.50873851776  -1.32491004467  -0.0701518952847  -0.0915024727583  -0.0137253701687  
3.20376896858  -0.677026808262  -1.46390223503  -1.32715189457  -0.0686268508434  -0.317208558321  -0.00762520590797  
3.2118768692  -0.515616416931  -1.46614408493  -1.32939362526  -0.0625266879797  -0.0884523913264  -0.0167754534632  
3.21996808052  -0.289193570614  -1.5401238203  -1.31370103359  -0.0610016472638  -0.0503263585269  -0.00915024708956  
3.22810292244  -0.394558668137  -1.58496010303  -1.31818461418  -0.0533764399588  0.0899774283171  -0.00915024708956  
3.23618292809  -0.0538034513593  -1.58720183372  -1.30921733379  -0.0579515658319  0.0869273468852  -0.0137253701687  
3.24429392815  -0.199521139264  -1.6028945446  -1.32715189457  -0.0533764399588  0.0655767694116  -0.0106752887368  
3.25236606598  -0.26229184866  -1.58271825314  -1.30921733379  -0.0457512363791  0.0625266879797  -0.0137253701687  
3.26047492027  -0.246599167585  -1.58496010303  -1.29800832272  -0.0381260290742  0.0655767694116  -0.0167754534632  
3.26863408089  -0.244357347488  -1.55133295059  -1.28231561184  -0.0381260290742  0.0732019767165  -0.0106752887368  
3.2766699791  -0.867580711842  -1.49752950668  -0.670301377773  0.0716769322753  0.0625266879797  -0.0106752887368  
3.28479099274  -0.892240583897  -1.49528765678  -0.941560447216  0.102177761495  0.0518513992429  -0.0122003294528  
3.29288697243  -0.896724224091  -1.48183679581  -0.681510388851  -0.164704442024  0.0610016472638  -0.0122003294528  
3.30099701881  -0.513374626637  -1.55581653118  -1.0132983923  -0.0228756181896  0.0655767694116  -0.0122003294528  
3.30915403366  -0.1188159585  -1.63652169704  -1.09176170826  -0.143353864551  0.0610016472638  -0.00915024708956  
3.31723809242  0.322820723057  -1.69480872154  -1.21730315685  -0.108277924359  0.0549014806747  -0.0122003294528  
3.3253030777  0.609772443771  -1.67463243008  -1.41906607151  -0.277557492256  0.0518513992429  -0.00915024708956  
3.33339190483  -0.0986396670341  -1.61410355568  -1.21057772636  -0.169279575348  0.0457512363791  -0.0152504118159  
3.34151506424  -0.156926736236  -1.60737812519  -1.25317203999  -0.183004945517  0.0411761105061  -0.0106752887368  
3.34958386421  -0.228664681315  -1.59392726421  -1.27334845066  -0.195205271244  0.0274507403374  -0.0122003294528  
3.35765004158  -0.739797472954  -1.55581653118  -1.32266819477  -0.349234431982  -0.0244006589055  0.176904782653  
3.36576604843  -0.573903501034  -1.5423656702  -1.31370103359  -0.250106751919  -0.0655767694116  0.228756174445  
3.37388396263  -0.42818582058  -1.5446075201  -1.30025017262  -0.192155182362  0.150979071856  0.141828835011  
3.38211488724  -0.0224181059748  -1.60961997509  -1.28455746174  -0.129628494382  -0.0930275097489  0.211980730295  
3.3902220726  0.372140556574  -1.64100527763  -1.28679931164  -0.122003294528  0.202830478549  0.0915024727583  
3.39826107025  0.067254319787  -1.62979626656  -1.27783203125  -0.0884523913264  0.0366009883583  0.146403953433  
3.4063000679  -0.0313853472471  -1.62755441666  -1.3047337532  -0.0579515658319  0.0686268508434  0.126578420401  
3.41441893578  -0.0986396670341  -1.58496010303  -1.27334845066  -0.0472762770951  0.0793021395802  0.131153538823  
3.42247605324  -0.0986396670341  -1.62307083607  -1.27334845066  -0.0472762770951  0.0655767694116  0.125053375959  
3.43055701256  -0.591838002205  -1.55357468128  -1.27334845066  -0.0503263585269  0.0686268508434  0.117428168654  
3.43869805336  -0.659092307091  -1.56478381157  -1.26662302017  -0.0442261956632  0.056426525116  0.123528338969  
3.44680500031  -0.544759988785  -1.54909110069  -1.26662302017  -0.0442261956632  0.0625266879797  0.128103464842  
3.4549279213  0.0807051807642  -1.64324712753  -1.25765573978  -0.0472762770951  0.0549014806747  0.126578420401  
3.46302509308  0.0493198335171  -1.67014884949  -1.2464466095  -0.048801317811  0.0518513992429  0.129628494382  
3.47110700607  0.493198335171  -1.68135786057  -1.24420487881  -0.0579515658319  0.048801317811  0.129628494382  
3.47920608521  0.0403525903821  -1.63652169704  -1.25541388988  -0.0579515658319  0.0427011549473  0.129628494382  
3.48730897903  -0.127783194184  -1.63427984715  -1.21954488754  -0.0533764399588  0.0274507403374  0.125053375959  
3.49533605576  -0.170377597213  -1.63203811646  -1.22402858734  -0.0594766065478  0.0228756181896  0.120478250086  
3.50342798233  -0.715137541294  -1.55357468128  -1.21057772636  0.0579515658319  -0.109802961349  0.262307077646  
3.5115480423  -0.257808208466  -1.55805838108  -1.20385229588  -0.0228756181896  -0.0640517324209  0.373635083437  
3.5196518898  -0.325062543154  -1.58047640324  -1.20833587646  -0.178429812193  -0.129628494382  0.167754530907  
3.52770590782  -0.239873722196  -1.6006526947  -1.19488501549  -0.00610016472638  -0.157079234719  0.111328005791  
3.5358080864  -0.269017279148  -1.63876354694  -1.1859177351  -0.149454042315  -0.103702798486  0.0701518952847  
3.54394197464  -0.293677181005  -1.63427984715  -1.20161044598  -0.0167754534632  -0.155554205179  -0.0198255348951  
3.55205488205  -0.159168556333  -1.6656652689  -1.188159585  -0.176904782653  -0.117428168654  -0.0106752887368  
3.56013798714  0.091914229095  -1.65893983841  -1.16798329353  -0.274507403374  -0.0503263585269  -0.149454042315  
3.56822395325  -0.020176295191  -1.61410355568  -1.12314713001  -0.152504116297  -0.0396510697901  -0.0457512363791  
3.57631802559  -0.0358689688146  -1.62307083607  -1.15229058266  -0.198255360126  -0.0442261956632  -0.0716769322753  
3.58439993858  -0.0493198335171  -1.61186182499  -1.14556515217  -0.190630152822  -0.0442261956632  -0.0808271840215  
3.59245705605  -0.0582870729268  -1.61410355568  -0.766699194908  -0.385835409164  -0.147928997874  -0.0808271840215  
3.60055589676  -0.103123284876  -1.61858725548  -0.995363891125  -0.263832122087  -0.147928997874  -0.0686268508434  
3.60869002342  -0.067254319787  -1.63203811646  -0.737555682659  -0.228756174445  -0.22113096714  -0.0793021395802  
3.6168050766  -0.0896724238992  -1.6656652689  -0.892240583897  -0.152504116297  -0.164704442024  -0.0899774283171  
3.62490701675  -0.0829469934106  -1.65669798851  -0.883273363113  -0.193680226803  -0.163179412484  -0.0762520581484  
3.63301801682  -0.0874306112528  -1.61858725548  -0.946044027805  -0.291282862425  -0.298908084631  -0.0762520581484  
3.64117002487  -0.132266819477  -1.62755441666  -1.16349971294  -0.250106751919  -0.0518513992429  -0.0747270211577  
3.64921402931  -0.141234070063  -1.64548897743  -1.23299574852  -0.233331307769  -0.324833780527  -0.0610016472638  
3.65730690956  -0.134508639574  -1.62755441666  -1.20833587646  -0.0854023098946  0.00762520590797  -0.0625266879797  
3.66538095474  -0.170377597213  -1.64548897743  -1.1904014349  -0.149454042315  -0.175379738212  -0.0610016472638  
3.67348194122  -0.165893986821  -1.64100527763  -1.23299574852  -0.132678583264  -0.126578420401  -0.0518513992429  
3.68160104752  -0.168135792017  -1.64100527763  -1.22178673744  -0.115903131664  -0.0884523913264  -0.0533764399588  
3.68967294693  -0.181586652994  -1.62755441666  -1.23747944832  0.0274507403374  -0.291282862425  -0.00915024708956  
3.69779086113  -0.197279334068  -1.62979626656  -1.22851216793  -0.161654368043  -0.128103464842  0.170804619789  
3.70591402054  -0.221939250827  -1.63427984715  -1.23075401783  0.128103464842  -0.3126334548  0.0823522210121  
3.71407103539  -0.215213805437  -1.64324712753  -1.23972117901  -0.0808271840215  -0.225706100464  0.172329649329  
3.72218394279  -0.230906486511  -1.63652169704  -1.24420487881  0.155554205179  -0.102177761495  0.198255360126  
3.73023104668  -0.230906486511  -1.63876354694  -1.24196302891  -0.0427011549473  -0.144878908992  0.187580063939  
3.73838090897  -0.244357347488  -1.61410355568  -1.2464466095  0.143353864551  -0.0305008236319  0.111328005791  
3.74643301964  -0.253324598074  -1.61634540558  -1.23075401783  -0.154029160738  0.0228756181896  0.0549014806747  
3.7545208931  -0.275742709637  -1.65221440792  -1.2509303093  0.120478250086  -0.0732019767165  -0.0289757829159  
3.76260399818  -0.251082777977  -1.62307083607  -1.24420487881  -0.125053375959  0.0808271840215  -0.114378087223  
3.77069187164  -0.298160791397  -1.62979626656  -1.2464466095  -0.0823522210121  0.00305008236319  -0.0335509069264  
3.77878808975  -0.277984499931  -1.62307083607  -1.23299574852  -0.0167754534632  -0.00305008236319  -0.0320258662105  
3.78691387177  -0.300402611494  -1.63427984715  -1.24196302891  -0.0442261956632  -0.00457512354478  -0.0655767694116  
3.79504299164  -0.331787973642  -1.62979626656  -0.677026808262  -0.0472762770951  0.00457512354478  0.00915024708956  
3.8031270504  -0.304886221886  -1.61634540558  -0.780150055885  -0.0442261956632  0.140303790569  0.169279575348  
3.81124687195  -0.340755194426  -1.62531268597  -0.712895750999  -0.0411761105061  -0.102177761495  0.0655767694116  
3.81938886642  -0.349722445011  -1.61410355568  -0.793600916862  -0.0335509069264  0.222656011581  0.163179412484  
3.82742404938  -0.34523883462  -1.57823467255  -0.724104821682  -0.0335509069264  -0.169279575348  0.245531633496  
3.83551096916  -0.358689695597  -1.62755441666  -1.05589282513  -0.0274507403374  0.146403953433  0.276032447815  
3.84360003471  -0.354206055403  -1.67014884949  -0.979671239853  -0.0244006589055  -0.271457344294  0.172329649329  
3.85171890259  -0.374382376671  -1.64324712753  -1.19936859608  -0.0274507403374  0.311108410358  0.0671018138528  
3.85983490944  -0.39231684804  -1.66790699959  -1.41009879112  -0.0320258662105  -0.358384668827  0.0381260290742  
3.86793899536  -0.414734959602  -1.65445613861  -1.31145918369  -0.0213505774736  0.0350759476423  -0.0915024727583  
3.8760240078  -0.372140556574  -1.64997255802  -1.30249190331  -0.0167754534632  -0.0106752887368  0.0106752887368  
3.88415002823  -0.351964265108  -1.63203811646  -1.34060275555  -0.0122003294528  -0.0381260290742  0.00152504118159  
3.89239597321  -0.260050028563  -1.63203811646  -1.34060275555  -0.00762520590797  -0.0381260290742  -0.00762520590797  
3.90045595169  -0.334029763937  -1.64548897743  -1.00208926201  -0.190630152822  -0.0381260290742  0.0259256996214  
3.90855288506  -0.334029763937  -1.62082898617  -0.896724224091  -0.0152504118159  -0.0320258662105  0.140303790569  
3.91664886475  -0.322820723057  -1.6656652689  -0.87430614233  -0.265357166529  -0.0274507403374  -0.0350759476423  
3.92474603653  -0.316095292568  -1.64773070812  -0.762215614319  -0.0366009883583  -0.0244006589055  0.134203627706  
3.93286204338  -0.327304333448  -1.63203811646  -0.876547932625  -0.321783691645  -0.0152504118159  0.199780389667  
3.94097995758  -0.32057890296  -1.64100527763  -1.03123283386  -0.149454042315  -0.0106752887368  0.279082536697  
3.94905805588  -0.331787973642  -1.64773070812  -1.03795826435  -0.356859624386  -0.00610016472638  0.218080893159  
3.95719695091  -0.331787973642  -1.63652169704  -1.17919230461  -0.126578420401  -0.00305008236319  0.146403953433  
3.96527194977  -0.325062543154  -1.65445613861  -1.21730315685  -0.186055019498  0.00305008236319  0.0381260290742  
3.97347402573  -0.331787973642  -1.65669798851  -1.34508633614  -0.117428168654  0.00762520590797  -0.0244006589055  
3.98151493073  -0.32057890296  -1.64100527763  -1.30025017262  -0.0991276800632  0.0152504118159  0.0381260290742  
3.9896030426  -0.318337112665  -1.64100527763  -1.34060275555  -0.0899774283171  0.0213505774736  0.0594766065478  
3.99768400192  -0.347480624914  -1.64100527763  -1.33836090565  -0.0960775911808  0.0274507403374  0.048801317811  
4.00581789017  -0.661334097385  -1.64773070812  -1.33163547516  -0.103702798486  0.0289757829159  0.0442261956632  
4.01388406754  -0.43939486146  -1.64324712753  -1.34284448624  -0.097602635622  0.0244006589055  0.193680226803  
4.02200198174  -0.663575947285  -1.62979626656  -1.34284448624  -0.106752879918  0.0350759476423  0.0213505774736  
4.03011393547  -0.504407346249  -1.64548897743  -1.32715189457  -0.120478250086  0.0411761105061  0.279082536697  
4.03820109367  -0.266775459051  -1.6611815691  -1.32491004467  -0.120478250086  0.0228756181896  0.321783691645  
4.04641795158  -0.255566388369  -1.64548897743  -1.3047337532  -0.129628494382  0.0320258662105  0.294332951307  
4.05442094803  -0.206246569753  -1.67014884949  -1.32266819477  -0.141828835011  0.0411761105061  0.202830478549  
4.06251096725  -0.0694961249828  -1.6656652689  -1.32491004467  -0.150979071856  0.0472762770951  0.157079234719  
4.07053804398  -0.105365097523  -1.64548897743  -1.33387732506  -0.167754530907  0.048801317811  0.0716769322753  
4.07864189148  -0.186070278287  -1.65445613861  -1.32715189457  -0.167754530907  0.0320258662105  0.144878908992  
4.08671402931  -0.230906486511  -1.6611815691  -1.3069756031  -0.183004945517  0.00610016472638  0.152504116297  
4.09481287003  -0.163652166724  -1.65221440792  -1.32042646408  -0.181479901075  0.00305008236319  0.140303790569  
4.10291385651  -0.506649196148  -1.663423419  -1.29800832272  -0.18910510838  0.0549014806747  0.0991276800632  
4.11097407341  -0.271259069443  -1.65669798851  -1.3047337532  -0.196730315685  0.0366009883583  0.341609239578  
4.11910009384  -0.668059527874  -1.65669798851  -1.28231561184  -0.208930641413  0.00305008236319  0.0533764399588  
4.12721586227  -0.520100057125  -1.65445613861  -1.32266819477  -0.208930641413  0.143353864551  -0.00457512354478  
4.13541698456  -0.692719459534  -1.66790699959  -1.31145918369  -0.219605922699  -0.0747270211577  0.0945525541902  
4.14344286919  -0.365415126085  -1.66790699959  -1.31370103359  -0.222656011581  0.137253701687  0.265357166529  
4.15150308609  -0.334029763937  -1.65669798851  -1.31145918369  -0.237906426191  -0.176904782653  0.234856337309  
4.15959095955  -0.307128041983  -1.64548897743  -1.31370103359  -0.253156840801  0.208930641413  0.219605922699  
4.17036294937  -0.224181056023  -1.663423419  -1.32266819477  -0.253156840801  -0.289757817984  0.157079234719  
4.17839288712  -0.186070278287  -1.663423419  -1.32939362526  -0.239431470633  -0.00915024708956  0.0335509069264  
4.18648600578  -0.293677181005  -1.68584156036  -1.31594276428  -0.227231130004  -0.0579515658319  0.131153538823  
4.19453406334  -0.255566388369  -1.68808329105  -1.31594276428  -0.233331307769  -0.0747270211577  0.115903131664  
4.20261907578  -0.244357347488  -1.69256699085  -1.32042646408  -0.260782033205  -0.0777771025896  0.0960775911808  
4.21072292328  -0.730830252171  -1.65893983841  -1.32939362526  -0.00762520590797  -0.120478250086  0.108277924359  
4.21880698204  -0.730830252171  -1.65445613861  -1.33163547516  0.0396510697901  -0.213505759835  0.0960775911808  
4.22690391541  -0.766699194908  -1.66790699959  -1.29352474213  -0.0213505774736  -0.056426525116  0.108277924359  
4.23500108719  -0.450603932142  -1.71722686291  -1.30249190331  0.0808271840215  -0.0838772654533  0.114378087223  
4.24309301376  -0.479747444391  -1.75085401535  -1.28904104233  -0.0289757829159  0.00762520590797  0.123528338969  
4.25121092796  0.0291435364634  -1.7261941433  -1.34732818604  -0.0106752887368  0.0640517324209  0.108277924359  
4.25947499275  -0.114332340658  -1.74412858486  -1.33611905575  -0.0854023098946  0.0442261956632  0.138778746128  
4.26746797562  -0.304886221886  -1.70377600193  -1.31145918369  -0.0808271840215  0.056426525116  0.134203627706  
4.27559685707  -0.269017279148  -1.7217104435  -1.31370103359  -0.0381260290742  0.0533764399588  0.129628494382  
4.28367686272  -0.293677181005  -1.69480872154  -1.31370103359  -0.0457512363791  0.0579515658319  0.138778746128  
4.29180288315  -0.311611652374  -1.69929242134  -1.30921733379  -0.155554205179  0.196730315685  0.183004945517  
4.2998919487  -0.233148291707  -1.69256699085  -1.3047337532  -0.172329649329  0.0396510697901  0.338559150696  
4.30799007416  -0.19055390358  -1.70153415203  -1.30921733379  -0.22113096714  0.17385469377  0.164704442024  
4.31610488892  -0.233148291707  -1.66790699959  -1.29800832272  -0.289757817984  -0.0320258662105  0.181479901075  
4.32420706749  -0.289193570614  -1.66790699959  -1.3069756031  -0.276032447815  0.0274507403374  0.144878908992  
4.33242893219  -0.342997014523  -1.68584156036  -1.30025017262  -0.160129323602  -0.0655767694116  -0.0335509069264  
4.34040808678  -0.340755194426  -1.65893983841  -1.31370103359  -0.155554205179  -0.0549014806747  0.0594766065478  
4.34845304489  -0.280226320028  -1.67239069939  -1.32042646408  -0.147928997874  -0.0411761105061  0.0610016472638  
4.35658597946  -0.269017279148  -1.67014884949  -1.30921733379  -0.155554205179  -0.0350759476423  0.0411761105061  
4.36465406418  -0.271259069443  -1.6656652689  -1.32042646408  -0.141828835011  -0.0442261956632  0.0411761105061  
4.37273406982  -0.298160791397  -1.68135786057  -1.31818461418  -0.00610016472638  -0.0442261956632  0.0594766065478  
4.38086700439  -0.316095292568  -1.67239069939  -1.31818461418  0.0198255348951  -0.0411761105061  0.26688221097  
4.3889799118  -0.275742709637  -1.68135786057  -1.31370103359  -0.00610016472638  -0.0350759476423  -0.0167754534632  
4.39712285995  -0.275742709637  -1.69032514095  -1.30025017262  0.0762520581484  -0.0350759476423  0.196730315685  
4.40538907051  -0.311611652374  -1.69705057144  -1.29800832272  -0.0610016472638  -0.0274507403374  0.0305008236319  
4.4133849144  -0.248840972781  -1.69032514095  -1.31594276428  -0.0594766065478  -0.0259256996214  0.0228756181896  
4.42145895958  -0.298160791397  -1.69480872154  -1.30921733379  -0.0610016472638  -0.0259256996214  -0.0152504118159  
4.42954587936  -0.311611652374  -1.69480872154  -1.30921733379  -0.0686268508434  -0.0228756181896  -0.0366009883583  
4.43765592575  -0.300402611494  -1.68584156036  -1.28904104233  -0.0655767694116  -0.0183004941791  -0.0396510697901  
4.44576787949  -0.313853472471  -1.71722686291  -1.3047337532  -0.0701518952847  -0.0137253701687  -0.0381260290742  
4.45385193825  -0.327304333448  -1.70153415203  -0.600805222988  -0.111328005791  -0.20435552299  -0.0350759476423  
4.46191501617  -0.295919001102  -1.67911612988  -0.791359126568  -0.131153538823  0.0579515658319  -0.0366009883583  
4.47001504898  -0.340755194426  -1.68808329105  -0.782391905785  -0.179954856634  -0.234856337309  -0.0411761105061  
4.47813606262  -0.342997014523  -1.67687427998  -1.13211429119  -0.233331307769  -0.231806263328  -0.0396510697901  
4.48620986938  -0.336271584034  -1.69929242134  -1.41906607151  -0.144878908992  0.288232773542  -0.0381260290742  
4.49427390099  -0.329546153545  -1.7261941433  -1.29128289223  -0.141828835011  0.00152504118159  -0.0289757829159  
4.50246596336  -0.347480624914  -1.71050143242  -1.23747944832  -0.132678583264  0.048801317811  -0.0350759476423  
4.51051187515  -0.336271584034  -1.67014884949  -1.27783203125  -0.106752879918  0.0457512363791  -0.0350759476423  
4.51859998703  -0.383349597454  -1.69929242134  -1.29352474213  -0.097602635622  0.0457512363791  -0.0320258662105  
4.52667498589  -0.369898736477  -2.17231440544  -0.681510388851  -0.0945525541902  0.201305434108  0.0762520581484  
4.53477787971  -0.349722445011  -1.95485877991  -0.914658725262  -0.100652717054  -0.0228756181896  0.262307077646  
4.5428750515  -0.34523883462  -2.30682301521  -0.784633696079  -0.103702798486  0.262307077646  0.199780389667  
4.55096197128  -0.360931485891  -2.20818328857  -0.833953499794  -0.105227842927  -0.0183004941791  0.248581707478  
4.55907392502  -0.376624166965  -2.23060154915  -0.80705177784  -0.100652717054  0.105227842927  0.224181056023  
4.56718397141  -0.40352588892  -1.88984632492  -1.04020011425  -0.102177761495  0.0152504118159  0.230281218886  
4.57529997826  -0.408009529114  -1.93468248844  -0.975187599659  -0.102177761495  0.108277924359  0.0838772654533  
4.58337688446  -0.425944000483  -1.64324712753  -0.977429389954  -0.102177761495  -0.0960775911808  0.0244006589055  
4.59140491486  -0.42818582058  -1.31145918369  -1.2464466095  -0.100652717054  0.00610016472638  0.0366009883583  
4.59959387779  -0.443878501654  -1.4235496521  -1.27559018135  -0.103702798486  -0.109802961349  -0.146403953433  
4.60754704475  -0.434911251068  -1.59392726421  -1.26213932037  -0.0960775911808  -0.0762520581484  -0.0625266879797  
4.61563706398  -0.443878501654  -1.57599282265  -1.28007388115  -0.103702798486  -0.0625266879797  -0.0716769322753  
4.6237180233  -0.457329362631  -1.57823467255  -1.30249190331  -0.105227842927  -0.0686268508434  -0.0808271840215  
4.63183999062  -0.43939486146  -1.663423419  -1.29800832272  -0.289757817984  -0.129628494382  -0.0655767694116  
4.63996505737  -0.410251319408  -1.62979626656  -1.30921733379  -0.233331307769  -0.123528338969  0.15860427916  
4.64805603027  -0.40352588892  -1.61186182499  -1.30921733379  -0.422436416149  -0.106752879918  0.0701518952847  
4.65618395805  -0.432669430971  -1.56926739216  -1.31818461418  -0.28213262558  -0.143353864551  0.155554205179  
4.66427993774  -0.410251319408  -1.6028945446  -1.29352474213  -0.484963089228  -0.138778746128  0.202830478549  
4.67240190506  -0.430427610874  -1.59168553352  -1.29128289223  -0.340084195137  0.00610016472638  0.178429812193  
4.68057990074  -0.390075027943  -1.61634540558  -1.31594276428  -0.416336238384  -0.0305008236319  0.147928997874  
4.688601017  -0.421460390091  -1.59841096401  -1.31145918369  -0.431586652994  -0.17385469377  0.137253701687  
4.69668197632  -0.425944000483  -1.59392726421  -1.27334845066  -0.33093392849  0.132678583264  0.118953213096  
4.70480489731  -0.410251319408  -1.59168553352  -1.28679931164  -0.335509061813  -0.213505759835  0.0884523913264  
4.71290493011  -0.401284098625  -1.57599282265  -1.28679931164  -0.228756174445  0.326358824968  -0.0381260290742  
4.72099208832  -0.394558668137  -1.58720183372  -1.29576647282  -0.268407255411  -0.0594766065478  -0.0427011549473  
4.72908592224  -0.394558668137  -1.57823467255  -1.27559018135  -0.289757817984  0.00610016472638  -0.0518513992429  
4.73724007607  -0.412493139505  -1.58047640324  -1.28679931164  -0.26688221097  0.0442261956632  -0.0594766065478  
4.74535393715  -0.405767709017  -1.58944368362  -1.28231561184  -0.274507403374  0.0381260290742  -0.0610016472638  
4.75362992287  -0.394558668137  -1.62307083607  -1.29352474213  -0.271457344294  0.115903131664  0.0396510697901  
4.76165890694  -0.405767709017  -1.6028945446  -1.28455746174  -0.277557492256  0.0823522210121  0.274507403374  
4.76973986626  -0.401284098625  -1.56030011177  -1.26213932037  -0.288232773542  -0.0411761105061  0.190630152822  
4.77787899971  -0.408009529114  -1.59392726421  -1.23972117901  -0.298908084631  -0.0106752887368  0.172329649329  
4.78597092628  -0.410251319408  -1.57375097275  -1.2486884594  -0.303483188152  0.0762520581484  0.25163179636  
4.79408407211  -0.414734959602  -1.57599282265  -1.23299574852  -0.317208558321  -0.178429812193  0.0671018138528  
4.80221295357  -0.419218569994  -1.55805838108  -1.23972117901  -0.323308736086  -0.00610016472638  0.0686268508434  
4.81039690971  -0.423702180386  -1.58047640324  -1.23972117901  -0.333984017372  -0.0411761105061  0.0762520581484  
4.8184158802  -0.401284098625  -1.6006526947  -1.21954488754  -0.341609239578  -0.0549014806747  0.0747270211577  
4.82650995255  -0.374382376671  -2.51531147957  -0.582870721817  -0.356859624386  0.0350759476423  0.22113096714  
4.83459091187  -0.385591417551  -2.18800711632  -0.795842766762  -0.362959802151  0.0854023098946  0.364484846592  
4.84264492989  -0.396800458431  -2.41442990303  -0.869822502136  -0.373635083437  -0.0366009883583  0.230281218886  
4.85074687004  -0.425944000483  -1.85846090317  -1.22851216793  -0.376685172319  -0.0198255348951  0.210455685854  
4.85883903503  -0.416976749897  -1.75533771515  -1.40113162994  -0.378210216761  0.123528338969  0.160129323602  
4.86691808701  -0.412493139505  -1.49528765678  -1.29128289223  -0.36143475771  -0.187580063939  0.0106752887368  
4.8750128746  -0.410251319408  -1.61634540558  -1.17919230461  -0.314158469439  0.00915024708956  0.117428168654  
4.88310599327  -0.396800458431  -1.67239069939  -1.22851216793  -0.306533277035  -0.0427011549473  0.100652717054  
4.89122390747  -0.414734959602  -1.65893983841  -1.26662302017  -0.321783691645  -0.0396510697901  0.108277924359  
4.89934301376  -0.414734959602  -1.73964500427  -1.27110660076  -0.324833780527  -0.0503263585269  0.097602635622  
4.90753388405  -0.421460390091  -1.77551400661  -1.28231561184  -0.327883839607  -0.0442261956632  0.244006589055  
4.9156088829  -0.423702180386  -1.7239522934  -1.30249190331  -0.326358824968  -0.0366009883583  0.0533764399588  
4.92370486259  -0.43939486146  -1.68135786057  -1.3047337532  -0.327883839607  -0.0335509069264  0.0274507403374  
4.93178200722  -0.412493139505  -1.71498501301  -1.30249190331  -0.326358824968  -0.0335509069264  0.0411761105061  
4.93991708755  -0.414734959602  -1.70153415203  -1.31594276428  -0.324833780527  -0.0259256996214  -0.115903131664  
4.94800496101  -0.423702180386  -1.69929242134  -1.28904104233  -0.324833780527  -0.0183004941791  -0.0869273468852  
4.95613408089  -0.414734959602  -1.70601785183  -1.31818461418  -0.33093392849  -0.0152504118159  -0.0472762770951  
4.9642329216  -0.396800458431  -1.69929242134  -1.34732818604  -0.327883839607  -0.0106752887368  -0.0671018138528  
4.9723470211  -0.414734959602  -1.73964500427  -1.30249190331  -0.33093392849  -0.00762520590797  -0.0198255348951  
4.98041200638  -0.416976749897  -1.71722686291  -1.31145918369  -0.326358824968  -0.00152504118159  0.135728672147  
4.98857307434  -0.40352588892  -1.7217104435  -1.29576647282  -0.326358824968  0.00152504118159  0.122003294528  
4.99660897255  -0.405767709017  -1.69256699085  -1.29128289223  -0.33093392849  0.00762520590797  0.100652717054  
5.00472307205  -0.425944000483  -1.70825958252  -1.31145918369  -0.333984017372  0.0213505774736  0.184529989958  
5.01279902458  -0.414734959602  -1.70153415203  -1.32491004467  -0.329408884048  0.0198255348951  -0.0427011549473  
5.02091097832  -0.421460390091  -1.72843599319  -1.30025017262  -0.327883839607  0.0335509069264  0.00152504118159  
5.02900099754  -0.40352588892  -1.7217104435  -1.32715189457  -0.332458972931  0.0366009883583  0.00457512354478  
5.03717494011  -0.414734959602  -1.73964500427  -1.3069756031  -0.333984017372  0.0259256996214  -0.00305008236319  
5.04526090622  -0.405767709017  -1.71498501301  -1.29800832272  -0.332458972931  0.0442261956632  -0.134203627706  
5.05338692665  -0.412493139505  -1.74861228466  -1.28904104233  -0.329408884048  0.0457512363791  -0.179954856634  
5.06156206131  -0.419218569994  -1.71498501301  -1.30249190331  -0.332458972931  0.0457512363791  -0.17385469377  
5.06958699226  -0.421460390091  -1.71274328232  -1.3047337532  -0.337034106255  0.0427011549473  -0.100652717054  
5.07770991325  -0.410251319408  -1.71946871281  -1.30025017262  -0.33093392849  0.0198255348951  -0.239431470633  
5.08574104309  -0.410251319408  -1.71946871281  -1.31370103359  -0.333984017372  -0.00457512354478  0.0259256996214  
5.0938539505  -0.414734959602  -1.75757944584  -1.31145918369  -0.335509061813  -0.00305008236319  -0.137253701687  
5.10196089745  -0.399042278528  -1.73740315437  -1.31370103359  -0.332458972931  0.00457512354478  -0.0960775911808  
5.11008095741  -0.399042278528  -1.76654672623  -1.3047337532  -0.33093392849  0.0106752887368  -0.0167754534632  
5.11820101738  -0.416976749897  -1.77103030682  -1.32042646408  -0.332458972931  0.0137253701687  0.128103464842  
5.12624597549  -0.414734959602  -1.76206314564  -1.31145918369  -0.332458972931  0.00915024708956  0.103702798486  
5.13445091248  -0.405767709017  -1.7777557373  -1.31594276428  -0.333984017372  0.0106752887368  0.111328005791  
5.14251089096  -0.412493139505  -1.75309586525  -1.29128289223  -0.332458972931  0.0122003294528  0.169279575348  
5.15053796768  -0.40352588892  -1.76206314564  -1.32042646408  -0.333984017372  0.0137253701687  -0.0152504118159  
5.15863800049  -0.419218569994  -1.79344844818  -1.29576647282  -0.335509061813  0.0122003294528  0.0244006589055  
5.16671895981  -0.416976749897  -1.7777557373  -1.32715189457  -0.333984017372  0.0152504118159  0.0320258662105  
5.17479896545  -0.408009529114  -1.77551400661  -1.28679931164  -0.335509061813  0.0152504118159  0.00915024708956  
5.18289899826  0.336271584034  -2.43460631371  -0.466296583414  -0.250106751919  0.0167754534632  0.00610016472638  
5.19103002548  0.141234070063  -2.259745121  -0.585112571716  -0.0899774283171  0.0137253701687  0.00915024708956  
5.19915103912  0.430427610874  -2.45254063606  -0.694961249828  -0.179954856634  0.0152504118159  0.00457512354478  
5.20727086067  -0.0762215554714  -2.15213823318  -1.26213932037  -0.0442261956632  0.0137253701687  0.0152504118159  
5.21540594101  -0.0717379376292  -2.04453110695  -1.43475878239  -0.0610016472638  0.0137253701687  0.0198255348951  
5.22358489037  -0.484231084585  -1.75982129574  -1.3630207777  -0.125053375959  0.0106752887368  0.0228756181896  
5.23166489601  -0.26229184866  -1.71498501301  -1.27334845066  -0.211980730295  0.0152504118159  0.0259256996214  
5.2397339344  -0.152443110943  -1.79120659828  -1.15677428246  -0.20588055253  0.0198255348951  0.0335509069264  
5.24781489372  -0.17261941731  -1.81362473965  -1.25989747047  -0.201305434108  0.0122003294528  0.0335509069264  
5.25592303276  -0.159168556333  -1.84501004219  -1.32939362526  -0.202830478549  0.0137253701687  0.0396510697901  
5.26403808594  -0.186070278287  -1.88312089443  -1.34732818604  -0.3461843431  0.0228756181896  0.0427011549473  
5.27213287354  -0.260050028563  -1.87863719463  -1.34060275555  -0.356859624386  0.0137253701687  0.0381260290742  
5.28025197983  -0.277984499931  -1.88087904453  -1.33611905575  -0.352284520864  0.0213505774736  0.0503263585269  
5.28835606575  -0.255566388369  -1.87415361404  -1.34508633614  -0.367534935474  0.0198255348951  0.0549014806747  
5.29647803307  -0.170377597213  -1.84501004219  -1.34060275555  -0.349234431982  0.0137253701687  0.0640517324209  
5.30455899239  -0.168135792017  -1.85397732258  -1.30249190331  -0.141828835011  0.0183004941791  0.0671018138528  
5.3125770092  -0.150201305747  -1.82259202003  -1.31594276428  -0.231806263328  0.0137253701687  0.0701518952847  
5.32066488266  -0.195037513971  -1.86518633366  -1.31818461418  -0.219605922699  0.0152504118159  0.0716769322753  
5.32874894142  -0.161410361528  -1.83380103111  -1.32266819477  -0.20435552299  0.0167754534632  0.0747270211577  
5.33687591553  -0.221939250827  -1.84949374199  -1.3069756031  -0.20588055253  0.0137253701687  0.0762520581484  
5.34499788284  -0.645641446114  -1.83155918121  -1.31594276428  -0.207405596972  0.0152504118159  0.0838772654533  
5.35306096077  -0.587354362011  -1.8405264616  -1.32042646408  -0.202830478549  0.0167754534632  0.3126334548  
5.36119508743  -0.706170320511  -1.84501004219  -1.30921733379  -0.208930641413  0.0106752887368  0.233331307769  
5.36932206154  -0.204004764557  -1.84949374199  -1.3069756031  -0.207405596972  0.0183004941791  0.20435552299  
5.37739396095  -0.217455625534  -1.87639546394  -1.31818461418  -0.207405596972  0.0213505774736  0.248581707478  
5.38550305367  0.0269017256796  -1.87415361404  -1.32266819477  -0.202830478549  0.0183004941791  0.0640517324209  
5.39358901978  -0.127783194184  -1.83380103111  -1.31145918369  -0.215030804276  0.0167754534632  0.128103464842  
5.40167593956  -0.210730195045  -1.87863719463  -1.3069756031  -0.213505759835  0.0213505774736  0.126578420401  
5.40978002548  -0.244357347488  -1.85846090317  -1.3069756031  -0.210455685854  0.0183004941791  0.126578420401  
5.41789007187  -0.237631917  -1.84725189209  -1.29352474213  -0.208930641413  0.0183004941791  0.106752879918  
5.42601394653  -0.188312083483  -1.86518633366  -1.31594276428  -0.215030804276  0.0183004941791  0.120478250086  
5.43407702446  -0.206246569753  -1.8405264616  -1.31370103359  -0.213505759835  0.0183004941791  0.128103464842  
5.44222998619  -0.197279334068  -1.85173547268  -1.31145918369  -0.215030804276  0.0198255348951  0.126578420401  
5.45029091835  -0.17261941731  -1.82931745052  -1.30249190331  -0.211980730295  0.0213505774736  0.125053375959  
5.4584980011  -0.161410361528  -1.85621917248  -1.29800832272  -0.215030804276  0.0183004941791  0.128103464842  
5.46650695801  -0.20176294446  -1.84949374199  -1.33387732506  -0.22113096714  0.0198255348951  0.128103464842  
5.47459101677  -0.147959500551  -1.88087904453  -1.33387732506  -0.22113096714  0.0167754534632  0.128103464842  
5.48259806633  -0.177103027701  -1.84501004219  -1.31818461418  -0.216555848718  0.0244006589055  0.123528338969  
5.49069690704  -0.156926736236  -1.84949374199  -1.3069756031  -0.0793021395802  0.0106752887368  0.120478250086  
5.49882888794  -0.177103027701  -1.82707560062  -1.31594276428  -0.126578420401  0.0228756181896  0.126578420401  
5.50692605972  -0.18382845819  -1.86294460297  -1.31145918369  0.0183004941791  0.0167754534632  0.117428168654  
5.51502299309  -0.168135792017  -1.8382846117  -1.33611905575  -0.0533764399588  0.0183004941791  0.123528338969  
5.5231359005  -0.181586652994  -1.87415361404  -1.30025017262  -0.131153538823  0.0198255348951  0.128103464842  
5.53126692772  -0.156926736236  -1.86742818356  -1.32715189457  -0.154029160738  0.0213505774736  0.131153538823  
5.53935790062  -0.170377597213  -1.87191176414  -1.32939362526  -0.166229486465  0.0198255348951  0.123528338969  
5.54746007919  -0.170377597213  -1.87639546394  -1.29576647282  -0.179954856634  0.0183004941791  0.126578420401  
5.55554795265  -0.215213805437  -1.87639546394  -1.31370103359  -0.186055019498  0.0167754534632  0.134203627706  
5.56361198425  -0.197279334068  -1.88760447502  -1.31145918369  -0.175379738212  0.0198255348951  0.169279575348  
5.57169103622  -0.181586652994  -1.8382846117  -1.33387732506  -0.175379738212  0.0152504118159  0.301958143711  
5.5798060894  -0.177103027701  -1.84725189209  -1.32042646408  -0.170804619789  0.0198255348951  0.103702798486  
5.58788895607  -0.179344847798  -1.87415361404  -1.32715189457  -0.170804619789  0.0122003294528  0.0823522210121  
5.59597802162  -0.17261941731  -1.86070275307  -1.32715189457  -0.166229486465  0.0183004941791  0.112853050232  
5.60408496857  -0.20176294446  -1.88536262512  -1.32266819477  -0.15860427916  0.0198255348951  -0.0625266879797  
5.6121969223  -0.168135792017  -1.85846090317  -1.29800832272  -0.160129323602  0.0152504118159  -0.00305008236319  
5.62029099464  -0.161410361528  -1.88312089443  -1.29352474213  -0.150979071856  0.0167754534632  0.0  
5.62834405899  -0.199521139264  -1.86967003345  -1.29800832272  -0.150979071856  0.0152504118159  -0.00915024708956  
5.63650894165  -0.17261941731  -2.6699962616  -0.513374626637  -0.144878908992  0.0137253701687  0.0274507403374  
5.64456391335  -0.161410361528  -2.44357347488  -0.977429389954  -0.138778746128  0.0213505774736  0.22113096714  
5.65265893936  -0.152443110943  -2.63412737846  -0.811535418034  -0.125053375959  0.0122003294528  0.0625266879797  
5.66075897217  -0.186070278287  -2.18352341652  -1.1859177351  -0.114378087223  0.0183004941791  0.0579515658319  
5.66888189316  -0.179344847798  -1.87639546394  -1.23747944832  -0.115903131664  0.0152504118159  0.120478250086  
5.67698097229  -0.199521139264  -1.65893983841  -1.26213932037  -0.102177761495  0.0152504118159  -0.0610016472638  
5.68506407738  -0.210730195045  -1.8405264616  -1.17919230461  -0.0960775911808  0.0152504118159  0.00762520590797  
5.69317889214  -0.192795708776  -1.85397732258  -1.20385229588  -0.0945525541902  0.0213505774736  -0.00915024708956  
5.70126605034  -0.195037513971  -1.89208805561  -1.26213932037  -0.0869273468852  0.0137253701687  -0.0152504118159  
5.70938301086  -0.181586652994  -1.91674804688  -1.29576647282  -0.0854023098946  -0.112853050232  -0.0122003294528  
5.71751499176  -0.177103027701  -1.98400235176  -1.28231561184  -0.0899774283171  -0.219605922699  -0.0167754534632  
5.72558689117  -0.195037513971  -1.95037519932  -1.30025017262  -0.0884523913264  -0.0915024727583  -0.00762520590797  
5.73366904259  -0.18382845819  -1.92123162746  -1.28679931164  -0.0823522210121  -0.0457512363791  -0.00610016472638  
5.74177908897  -0.197279334068  -1.92795705795  -1.28904104233  -0.0762520581484  0.0137253701687  -0.00305008236319  
5.74989199638  -0.18382845819  -1.91674804688  -1.28904104233  -0.0716769322753  -0.0289757829159  0.00457512354478  
5.75800204277  -0.206246569753  -1.91898977757  -1.28231561184  -0.0518513992429  -0.0305008236319  0.00915024708956  
5.76610302925  -0.186070278287  -1.95934247971  -1.27559018135  -0.0518513992429  0.132678583264  0.183004945517  
5.77420186996  -0.18382845819  -1.95710062981  -1.28231561184  -0.048801317811  -0.0442261956632  0.286707729101  
5.78228497505  -0.20176294446  -1.94364976883  -1.28455746174  -0.0411761105061  0.118953213096  0.227231130004  
5.79034900665  -0.199521139264  -1.92571520805  -1.28455746174  -0.0411761105061  -0.0274507403374  0.256206929684  
5.79851794243  -0.186070278287  -1.91450619698  -1.27110660076  -0.0472762770951  0.128103464842  0.247056677938  
5.80657696724  -0.19055390358  -1.94364976883  -1.28904104233  -0.048801317811  -0.138778746128  0.122003294528  
5.81469106674  -0.197279334068  -1.9032971859  -1.28231561184  -0.0518513992429  0.0  0.149454042315  
5.82273888588  -0.170377597213  -1.93244063854  -1.28007388115  -0.048801317811  -0.0472762770951  0.160129323602  
5.8308339119  -0.186070278287  -1.92123162746  -1.26886475086  -0.0457512363791  -0.0610016472638  0.140303790569  
5.83896493912  -0.179344847798  -1.91674804688  -1.25765573978  -0.0427011549473  -0.0640517324209  0.176904782653  
5.84705400467  -0.18382845819  -1.93692433834  -1.26213932037  -0.0457512363791  -0.0671018138528  0.15860427916  
5.85513687134  -0.192795708776  -1.94364976883  -1.25317203999  -0.048801317811  -0.0747270211577  0.160129323602  
5.86325907707  -0.195037513971  -1.88984632492  -1.24196302891  -0.0518513992429  -0.0732019767165  0.160129323602  
5.87141895294  -0.174861222506  -1.89657175541  -1.2509303093  -0.0457512363791  -0.0732019767165  0.15860427916  
5.8795440197  -0.174861222506  -1.901055336  -1.22851216793  -0.0457512363791  -0.0686268508434  0.154029160738  
5.88759899139  -0.186070278287  -1.90778076649  -1.21506130695  -0.0457512363791  -0.0701518952847  0.152504116297  
5.89565491676  -0.181586652994  -1.92795705795  -1.23299574852  -0.0442261956632  -0.0732019767165  0.167754530907  
5.90366697311  -0.179344847798  -1.91002261639  -1.21730315685  -0.0427011549473  -0.0701518952847  0.150979071856  
5.91177797318  -0.192795708776  -1.93019890785  -1.20833587646  -0.0457512363791  -0.0777771025896  0.154029160738  
5.91984796524  -0.181586652994  -1.92123162746  -1.1859177351  -0.048801317811  -0.0686268508434  0.154029160738  
5.92795085907  -0.19055390358  -1.93916606903  -1.19488501549  -0.0427011549473  -0.0701518952847  0.150979071856  
5.93606090546  -0.177103027701  -1.94589149952  -1.18367600441  -0.0518513992429  -0.0762520581484  0.154029160738  
5.94414496422  -0.177103027701  -1.88984632492  -1.18143415451  -0.0472762770951  -0.0701518952847  0.150979071856  
5.95225095749  -0.18382845819  -1.93916606903  -1.17695057392  -0.0442261956632  -0.0732019767165  0.149454042315  
5.96038603783  -0.18382845819  -1.93468248844  -1.16349971294  -0.048801317811  -0.0716769322753  0.154029160738  
5.96848607063  -0.17261941731  -1.93244063854  -1.15453243256  -0.0457512363791  -0.0716769322753  0.247056677938  
5.9766368866  -0.188312083483  -1.94364976883  -1.14556515217  -0.0442261956632  -0.0686268508434  0.387360453606  
5.98465394974  -0.192795708776  -1.91674804688  -1.14108157158  -0.0472762770951  -0.0732019767165  0.161654368043  
5.99277997017  -0.186070278287  -1.93468248844  -1.1298725605  -0.0503263585269  -0.0716769322753  0.126578420401  
6.00086688995  -0.192795708776  -1.9032971859  -1.12090528011  -0.048801317811  -0.0747270211577  0.117428168654  
6.00895690918  -0.163652166724  -1.93468248844  -1.1253888607  -0.048801317811  -0.0732019767165  -0.0320258662105  
6.0170609951  -0.208488374949  -1.93019890785  -1.11193799973  -0.0457512363791  -0.0747270211577  0.0655767694116  
6.02520489693  -0.170377597213  -1.93468248844  -1.11866343021  -0.0396510697901  -0.0716769322753  0.0701518952847  
6.03324103355  -0.188312083483  -1.92571520805  -1.08951997757  -0.0411761105061  -0.0716769322753  0.0518513992429  
6.0413839817  -0.192795708776  -1.92123162746  -1.10297083855  -0.0442261956632  -0.0686268508434  0.0915024727583  
6.04945993423  -0.21969743073  -1.91674804688  -1.08727812767  -0.0457512363791  -0.0747270211577  0.181479901075  
6.05761885643  -0.19055390358  -1.91226434708  -1.08951997757  -0.0472762770951  -0.0732019767165  -0.0198255348951  
6.06563806534  -0.210730195045  -1.91002261639  -1.0693436861  -0.0457512363791  -0.0732019767165  -0.00152504118159  
6.07372093201  -0.195037513971  -1.91898977757  -1.05589282513  -0.0457512363791  -0.0762520581484  -0.00305008236319  
6.08176994324  -0.186070278287  -1.95485877991  -1.04692554474  -0.0442261956632  -0.0701518952847  -0.146403953433  
6.08987593651  -0.206246569753  -1.93244063854  -1.05365097523  -0.0457512363791  -0.0747270211577  -0.0854023098946  
6.09797406197  -0.163652166724  -1.9032971859  -1.03347468376  -0.048801317811  -0.0732019767165  -0.0655767694116  
6.10609793663  -0.18382845819  -1.92571520805  -1.03795826435  -0.0411761105061  -0.0732019767165  -0.0777771025896  
6.11422085762  -0.195037513971  -1.92347347736  -1.02226555347  -0.048801317811  -0.0701518952847  -0.0793021395802  
6.12231302261  -0.215213805437  -1.91002261639  -1.00208926201  -0.0411761105061  -0.0716769322753  -0.0777771025896  
6.13034796715  -0.221939250827  -1.91898977757  -1.0132983923  -0.0427011549473  -0.0716769322753  -0.0762520581484  
6.13853096962  -0.18382845819  -1.901055336  -0.995363891125  -0.0457512363791  -0.0762520581484  -0.0640517324209  
6.14659500122  -0.195037513971  -1.91674804688  -0.986396670341  -0.048801317811  -0.0762520581484  -0.0579515658319  
6.15467190742  -0.199521139264  -1.95261704922  -0.984154820442  -0.048801317811  -0.0747270211577  -0.0518513992429  
6.16276288033  -0.19055390358  -1.93692433834  -0.970703959465  -0.0411761105061  -0.0762520581484  -0.0579515658319  
6.17084097862  -0.18382845819  -1.93019890785  -0.959494888783  -0.0472762770951  -0.0716769322753  -0.0442261956632  
6.17893385887  -0.19055390358  -1.92123162746  -0.950527667999  -0.0472762770951  -0.0716769322753  -0.0396510697901  
6.18702697754  -0.192795708776  -1.94589149952  -0.939318597317  -0.0427011549473  -0.0701518952847  -0.0320258662105  
6.19512295723  -0.197279334068  -1.93019890785  -0.930351376534  -0.0472762770951  -0.0716769322753  -0.0228756181896  
6.20322203636  -0.197279334068  -1.91674804688  -0.914658725262  -0.048801317811  -0.0732019767165  -0.0167754534632  
6.21132302284  -0.179344847798  -1.92123162746  -0.914658725262  -0.048801317811  -0.0701518952847  -0.0167754534632  
6.21957302094  -0.179344847798  -1.92123162746  -0.905691444874  -0.0472762770951  -0.0762520581484  -0.0106752887368  
6.22765493393  -0.188312083483  -1.95710062981  -0.898966014385  -0.048801317811  -0.0747270211577  -0.00457512354478  
6.23566508293  -0.177103027701  -1.92795705795  -0.889998793602  -0.0427011549473  -0.0732019767165  0.00457512354478  
6.24373292923  -0.197279334068  -1.93468248844  -0.907933294773  -0.0457512363791  -0.0716769322753  0.00305008236319  
6.25182008743  -0.212972000241  -1.93019890785  -0.928109586239  -0.0427011549473  -0.0732019767165  0.250106751919  
6.25990796089  -0.197279334068  -1.94589149952  -0.92586773634  -0.048801317811  -0.0747270211577  0.149454042315  
6.26802587509  -0.20176294446  -1.91674804688  -0.939318597317  -0.0427011549473  -0.0747270211577  0.170804619789  
6.27615189552  -0.177103027701  -1.93916606903  -0.943802237511  -0.0472762770951  -0.0762520581484  0.216555848718  
6.28427100182  -0.206246569753  -1.91898977757  -0.950527667999  -0.0472762770951  -0.0747270211577  0.0732019767165  
6.29239702225  -0.177103027701  -1.94364976883  -0.950527667999  -0.048801317811  -0.0716769322753  0.0808271840215  
6.30055999756  -0.17261941731  -1.94589149952  -0.943802237511  -0.0411761105061  -0.0747270211577  0.112853050232  
6.30865693092  -0.165893986821  -1.95037519932  -0.955011308193  -0.0472762770951  -0.0732019767165  0.102177761495  
6.31675004959  -0.132266819477  -2.7260415554  -0.277984499931  -0.0533764399588  -0.102177761495  0.109802961349  
6.32484006882  -0.132266819477  -2.60274195671  -0.703928530216  -0.0503263585269  -0.224181056023  0.0930275097489  
6.3329539299  -0.179344847798  -2.21490883827  -1.13659799099  -0.048801317811  -0.048801317811  0.0945525541902  
6.34108185768  -0.215213805437  -1.88312089443  -1.6051363945  -0.0457512363791  -0.0350759476423  0.0838772654533  
6.349173069  -0.228664681315  -1.82259202003  -1.1276307106  -0.0427011549473  0.00762520590797  0.0960775911808  
6.3573050499  -0.204004764557  -1.91226434708  -0.957253098488  -0.0411761105061  -0.0305008236319  0.0945525541902  
6.36541891098  -0.195037513971  -1.90778076649  -1.0088146925  -0.0442261956632  -0.0579515658319  0.0854023098946  
6.37356495857  -0.204004764557  -1.96830964088  -1.09624540806  -0.0350759476423  -0.0472762770951  0.0915024727583  
6.38162088394  -0.177103027701  -2.06919121742  -1.12090528011  -0.0305008236319  -0.048801317811  0.0869273468852  
6.38971805573  -0.210730195045  -2.00642037392  -1.13659799099  -0.0305008236319  -0.0533764399588  0.0930275097489  
6.39780306816  -0.186070278287  -2.04677295685  -1.11642169952  -0.0274507403374  -0.056426525116  0.0899774283171  
6.40590000153  -0.226422861218  -2.01090407372  -1.1276307106  -0.0274507403374  -0.0671018138528  0.0915024727583  
6.41399598122  -0.186070278287  -1.9638260603  -1.12314713001  -0.0289757829159  -0.0686268508434  0.0884523913264  
6.42214202881  -0.18382845819  -1.98848593235  -1.1253888607  -0.0259256996214  -0.0808271840215  0.0869273468852  
6.43023395538  -0.17261941731  -1.99296963215  -1.1276307106  -0.0320258662105  -0.0793021395802  0.0960775911808  
6.43830895424  -0.212972000241  -1.99521136284  -1.12090528011  -0.0350759476423  -0.0930275097489  0.227231130004  
6.44635105133  -0.177103027701  -2.00642037392  -1.12314713001  -0.0274507403374  -0.0991276800632  0.355334609747  
6.45455908775  -0.192795708776  -2.02659678459  -1.1298725605  -0.0259256996214  -0.0991276800632  0.176904782653  
6.46259093285  -0.186070278287  -2.01762938499  -1.1253888607  -0.0289757829159  -0.105227842927  0.129628494382  
6.4706799984  -0.192795708776  -1.99969506264  -1.13435614109  -0.0274507403374  -0.109802961349  0.225706100464  
6.47878193855  -0.199521139264  -1.96606791019  -1.1253888607  -0.0335509069264  -0.114378087223  0.0167754534632  
6.48689007759  -0.195037513971  -1.99745321274  -1.13211429119  -0.0228756181896  -0.125053375959  0.0625266879797  
6.49500894547  -0.18382845819  -1.99521136284  -1.11866343021  -0.0274507403374  -0.128103464842  0.103702798486  
6.50312805176  -0.181586652994  -1.99521136284  -1.1253888607  -0.0305008236319  -0.138778746128  0.0854023098946  
6.51125192642  -0.21969743073  -2.06022381783  -1.93019890785  -0.0305008236319  -0.0960775911808  -0.0594766065478  
6.51937603951  -0.186070278287  -2.06246566772  -1.65669798851  -0.0289757829159  -0.195205271244  -0.0427011549473  
6.52763485909  -0.188312083483  -2.01314592361  -1.61858725548  -0.0366009883583  0.0457512363791  -0.00152504118159  
6.53565096855  -0.186070278287  -1.99072778225  -1.23972117901  -0.0350759476423  -0.0533764399588  -0.0122003294528  
6.54372906685  -0.192795708776  -1.97951877117  -1.12314713001  -0.0320258662105  -0.0396510697901  0.0472762770951  
6.55183005333  -0.195037513971  -1.9638260603  -1.10072898865  -0.0396510697901  0.0762520581484  0.150979071856  
6.55994987488  -0.197279334068  -1.97727692127  -1.28455746174  -0.0305008236319  0.00152504118159  0.0777771025896  
6.56800889969  -0.212972000241  -1.97727692127  -1.25989747047  -0.0381260290742  -0.00457512354478  0.0793021395802  
6.57609605789  -0.181586652994  -1.98848593235  -1.17470872402  -0.0396510697901  -0.00152504118159  0.112853050232  
6.584182024  -0.20176294446  -2.01987123489  -1.17022514343  -0.0335509069264  0.22113096714  0.230281218886  
6.5922908783  -0.179344847798  -2.04004764557  -1.20161044598  -0.0289757829159  -0.0549014806747  0.176904782653  
6.60040807724  -0.195037513971  -2.00866222382  -1.17695057392  -0.0274507403374  0.20435552299  0.170804619789  
6.60855698586  -0.188312083483  -2.00866222382  -1.18143415451  -0.0274507403374  -0.0655767694116  0.0396510697901  
6.61664700508  -0.19055390358  -1.99745321274  -1.20609402657  -0.0289757829159  -0.0701518952847  0.216555848718  
6.62473297119  -0.18382845819  -1.99296963215  -1.21506130695  -0.0320258662105  -0.175379738212  -0.103702798486  
6.63284397125  -0.210730195045  -2.00642037392  -1.21281945705  -0.0350759476423  0.00610016472638  0.0899774283171  
6.64092493057  -0.195037513971  -2.03108024597  -1.24196302891  -0.0305008236319  -0.0259256996214  0.0716769322753  
6.6490020752  -0.168135792017  -2.00193691254  -1.23747944832  -0.0305008236319  -0.0442261956632  0.0289757829159  
6.65707707405  0.51785826683  -2.06470751762  -1.24420487881  -0.0305008236319  -0.0899774283171  0.0305008236319  
6.66519808769  0.430427610874  -2.04901480675  -1.23523759842  -0.0320258662105  -0.0854023098946  0.0350759476423  
6.67331790924  0.00448362110183  -2.00193691254  -1.2486884594  -0.0366009883583  0.0305008236319  0.0274507403374  
6.68138599396  -0.325062543154  -2.00417852402  -1.30025017262  -0.0289757829159  -0.0228756181896  0.0350759476423  
6.68960189819  -0.307128041983  -1.97279334068  -1.28455746174  -0.0335509069264  0.0777771025896  0.0305008236319  
6.69765686989  -0.163652166724  -2.01090407372  -1.28007388115  -0.0305008236319  0.056426525116  0.0228756181896  
6.70572090149  -0.15468493104  -2.00866222382  -1.30249190331  -0.0320258662105  0.0396510697901  0.0198255348951  
6.71381402016  -0.020176295191  -2.00193691254  -1.32042646408  -0.0350759476423  0.0503263585269  0.0259256996214  
6.72182893753  0.0134508628398  -2.02435493469  -1.35181176662  -0.0305008236319  0.0396510697901  0.00610016472638  
6.72995591164  -0.0694961249828  -2.00193691254  -1.33387732506  -0.0320258662105  0.0457512363791  -0.0899774283171  
6.73800802231  -0.298160791397  -2.02211308479  -1.33836090565  -0.0289757829159  0.0427011549473  -0.0274507403374  
6.74609303474  -0.264533638954  -2.01538777351  -1.35405361652  -0.0259256996214  0.0320258662105  0.0427011549473  
6.75419306755  -0.161410361528  -1.99521136284  -1.35853719711  -0.0335509069264  0.0350759476423  0.00610016472638  
6.76226997375  -0.0784633681178  -1.97951877117  -1.38095533848  -0.0350759476423  0.0533764399588  0.131153538823  
6.77032899857  -0.0605288855731  -2.00642037392  -1.38768076897  -0.0335509069264  0.048801317811  0.0472762770951  
6.77842593193  -0.091914229095  -2.02659678459  -1.41009879112  -0.0320258662105  0.0427011549473  0.0533764399588  
6.78655004501  -0.1188159585  -1.98848593235  -1.40785706043  -0.0320258662105  0.0411761105061  0.0701518952847  
6.7946190834  -0.13675044477  -1.94589149952  -0.479747444391  -0.0305008236319  0.0442261956632  0.0808271840215  
6.80270791054  -0.091914229095  -1.95037519932  -0.694961249828  -0.0274507403374  0.048801317811  0.0625266879797  
6.81083607674  -0.10088147223  -2.05125665665  -1.76430487633  -0.0381260290742  0.0503263585269  0.0640517324209  
6.81890296936  -0.103123284876  -2.05574035645  -1.60737812519  -0.0396510697901  0.0472762770951  0.0701518952847  
6.82705807686  -0.0874306112528  -2.06022381783  -1.17919230461  -0.0396510697901  0.0457512363791  0.0503263585269  
6.83509993553  -0.105365097523  -2.02659678459  -1.1253888607  -0.0381260290742  0.0427011549473  0.0472762770951  
6.84321093559  -0.0829469934106  -2.05125665665  -1.27110660076  -0.0396510697901  0.0472762770951  0.0366009883583  
6.85132408142  -0.0986396670341  -2.01762938499  -1.32266819477  -0.0335509069264  0.0427011549473  0.0320258662105  
6.85954999924  -0.0717379376292  -2.01314592361  -1.36077904701  -0.0381260290742  0.0442261956632  0.0305008236319  
6.86753988266  -0.0851887986064  -2.01538777351  -1.3630207777  -0.0350759476423  0.0457512363791  0.0259256996214  
6.87565302849  -0.0941560417414  -2.06470751762  -1.29128289223  -0.0427011549473  0.0457512363791  0.0183004941791  
6.88368487358  -0.0717379376292  -2.01090407372  -1.27559018135  0.117428168654  0.0427011549473  0.201305434108  
6.89179491997  -0.0694961249828  -2.01090407372  -1.28679931164  0.0854023098946  0.0503263585269  0.222656011581  
6.89987587929  -0.0717379376292  -2.00417852402  -1.30025017262  0.0289757829159  0.0442261956632  0.0945525541902  
6.90796399117  -0.0493198335171  -2.02659678459  -1.29128289223  0.0808271840215  0.0427011549473  0.152504116297  
6.91610789299  -0.0246599167585  -2.00193691254  -1.33387732506  -0.0838772654533  0.0518513992429  0.199780389667  
6.92412185669  -0.00896724220365  -2.01538777351  -1.3069756031  -0.0335509069264  0.0472762770951  0.0335509069264  
6.93224000931  -0.0538034513593  -2.02211308479  -1.30025017262  -0.0625266879797  0.0366009883583  0.0366009883583  
6.94033789635  -0.0246599167585  -2.00866222382  -1.31145918369  -0.0640517324209  0.0442261956632  0.0671018138528  
6.94851303101  -0.0156926736236  -2.04004764557  -1.30025017262  -0.0671018138528  0.048801317811  0.0686268508434  
6.95654392242  0.00448362110183  -2.02883863449  -1.3069756031  -0.0747270211577  0.0457512363791  0.0503263585269  
6.96464300156  0.0313853472471  -2.01987123489  -1.31145918369  -0.0899774283171  0.0549014806747  0.0472762770951  
6.97268295288  0.020176295191  -2.03556394577  -1.29576647282  -0.150979071856  0.048801317811  0.0518513992429  
6.98078203201  0.00224181055091  -2.03108024597  -1.29576647282  -0.131153538823  0.0457512363791  0.0518513992429  
6.9888958931  0.020176295191  -2.02211308479  -1.3047337532  -0.233331307769  0.0472762770951  0.0610016472638  
6.99700903893  0.0156926736236  -2.00193691254  -1.31145918369  -0.186055019498  0.0427011549473  0.0716769322753  
7.00512695312  0.020176295191  -2.00866222382  -1.30249190331  -0.097602635622  0.0381260290742  0.0671018138528  
7.01320385933  0.00672543141991  -2.02211308479  -1.29576647282  -0.097602635622  0.0381260290742  0.0808271840215  
7.0212829113  0.0538034513593  -2.01314592361  -1.30025017262  -0.0930275097489  0.0320258662105  0.0823522210121  
7.0293879509  0.00672543141991  -2.01987123489  -1.29128289223  -0.0747270211577  0.0259256996214  0.0899774283171  
7.03758597374  0.0425943993032  -1.99969506264  -1.28904104233  -0.0777771025896  0.0152504118159  0.097602635622  
7.0455930233  0.112090528011  -2.82019758224  -0.573903501034  -0.105227842927  0.0213505774736  0.102177761495  
7.05367588997  0.143475875258  -2.71259069443  -0.685994029045  -0.114378087223  0.0137253701687  0.105227842927  
7.06177997589  0.0650125071406  -1.77327215672  -1.49977123737  -0.0899774283171  0.0152504118159  0.111328005791  
7.06988286972  0.0336271598935  -1.57823467255  -1.663423419  -0.0884523913264  0.00915024708956  0.115903131664  
7.07796287537  0.0986396670341  -1.96606791019  -1.07382726669  -0.097602635622  0.00305008236319  0.120478250086  
7.08613801003  0.0134508628398  -1.80465745926  -1.13883972168  -0.108277924359  0.00152504118159  0.120478250086  
7.09421205521  0.0112090529874  -2.02435493469  -1.26662302017  -0.114378087223  0.00305008236319  0.128103464842  
7.10225486755  0.114332340658  -2.00417852402  -1.30025017262  -0.123528338969  0.0  0.131153538823  
7.11034798622  0.0963978543878  -1.99296963215  -1.29352474213  -0.128103464842  0.00305008236319  0.144878908992  
7.11845397949  0.0538034513593  -1.95710062981  -1.27559018135  -0.134203627706  0.00610016472638  0.157079234719  
7.12664699554  0.0739797502756  -1.94813334942  -1.24420487881  -0.140303790569  -0.0411761105061  0.170804619789  
7.13462996483  0.067254319787  -1.94140791893  -1.2509303093  -0.144878908992  -0.178429812193  0.157079234719  
