Ethan-CYM/ros_catkin_ws/test/movej_静止不动/ur_joint_actual_velocity.txt
time  shoulder_pan_joint  shoulder_lift_joint  elbow_joint  wrist_1_joint  wrist_2_joint  wrist_3_joint
0.148771047592  0.0  0.0  -0.0  0.000719053496141  -0.0463310144842  -0.0502378717065  
0.156785964966  0.0  0.0  -0.0  0.000647148175631  -0.0137099539861  -0.0371990352869  
0.164849042892  0.0  0.0  -0.0  0.000599211256485  -0.0380618982017  -0.0491353236139  
0.172956943512  0.0  0.0  -0.0  0.000551274395548  -0.00807736814022  -0.00862864218652  
0.181024074554  0.0  0.0  -0.0  0.000527305935975  -0.00774180982262  -0.00680703995749  
0.189116954803  0.0  0.0  -0.0  0.00047936901683  0.00103064335417  0.00424241600558  
0.197232961655  0.0  0.0  -0.0  0.00035952674807  0.0112172346562  0.0168737899512  
0.205374956131  0.0  0.0  -0.0  0.00035952674807  0.00615989184007  0.00719053531066  
0.213557004929  0.0  0.0  -0.0  0.00035952674807  0.00349939381704  0.00381098361686  
0.221618890762  0.0  0.0  -0.0  0.00035952674807  0.0575722195208  0.00258859270252  
0.229716062546  0.0  0.0  -0.0  0.00035952674807  0.0307035855949  0.00194144446868  
0.237775087357  0.0  0.0  -0.0  0.00035952674807  0.0117685096338  0.00155794934835  
0.245867013931  0.0  0.0  -0.0  0.00035952674807  0.00448210025206  0.00131826475263  
0.25400686264  0.0  0.0  -0.0  0.00035952674807  -0.00719053531066  0.000982706435025  
0.262050867081  0.0  0.0  -0.0  0.00035952674807  -0.00381098361686  0.000886832654942  
0.270137071609  0.0  0.0  -0.0  0.00035952674807  -0.00258859270252  0.000790958874859  
0.278241872787  0.0  0.0  -0.0  0.0546001307666  -0.0163704510778  0.000719053496141  
0.286306858063  0.0  0.0  -0.0  0.0334359891713  -0.0204450879246  0.000647148175631  
0.29438996315  0.0  0.0  -0.0  0.0551274381578  -0.0424481257796  0.000599211256485  
0.302450895309  0.0  0.0  -0.0  0.017041567713  -0.0117685096338  0.000551274395548  
0.310528039932  0.0  0.0  -0.0  0.0117445411161  -0.004889564123  0.000527305935975  
0.318616867065  0.0  0.0  -0.0  -0.00239684502594  -0.0159629881382  0.00047936901683  
0.326708078384  0.0  0.0  -0.0  -0.0207806471735  0.0215955749154  0.000455400557257  
0.334770917892  0.0  0.0  -0.0  -0.0103543708101  0.0092038847506  0.000431432126788  
0.342861890793  0.0  0.0  -0.0  -0.00563258584589  0.00479369005188  0.000407463667216  
0.350980043411  0.0  0.0  -0.0  -0.00330764614046  0.00299605634063  0.000383495207643  
0.359091997147  0.0  0.0  -0.0  -0.00234890822321  0.0602566860616  0.00035952674807  
0.367188930511  0.0  0.0  -0.0  -0.00182160222903  0.038685079664  0.00035952674807  
0.375320911407  0.0  0.0  -0.0  -0.00148604391143  0.053713299334  0.000335558317602  
0.383459091187  0.0  0.0  -0.0  -0.00124635943212  0.0129429632798  0.000335558317602  
0.391615867615  0.0  0.0  -0.0  -0.00107858027332  0.0178085584193  0.000311589858029  
0.399700880051  0.0  0.0  -0.0  -0.00095873803366  -0.0271802227944  0.000287621398456  
0.407767057419  0.0  0.0  -0.0  -0.000838895794004  -0.00994690693915  0.000287621398456  
0.415859937668  0.0  0.0  -0.0  -0.000766990415286  -0.00445813173428  0.000287621398456  
0.42395401001  0.0  0.0  -0.0  -0.000695085094776  -0.00287621398456  0.000263652967988  
0.432048082352  0.0  0.0  -0.0  -0.000647148175631  -0.0021092237439  0.000263652967988  
0.440145015717  0.0  0.0  -0.0  -0.0479848384857  -0.00167779158801  0.000239684508415  
0.448214054108  0.0  0.0  -0.0  -0.0333401151001  -0.00139017018955  0.000239684508415  
0.456316947937  0.0  0.0  -0.0  -0.0539769493043  -0.00117445411161  0.000239684508415  
0.464377880096  0.0  0.0  -0.0  -0.0185036435723  -0.00103064335417  0.000215716063394  
0.472565889359  0.0  0.0  -0.0  -0.0104981809855  -0.000910801114514  0.000215716063394  
0.480656862259  0.0  0.0  -0.0  0.0024447820615  -0.000814927334432  0.000215716063394  
0.488724946976  0.0  0.0  -0.0  0.0250230617821  -0.000743021955714  0.000215716063394  
0.49681186676  0.0  0.0  -0.0  0.0107858031988  -0.000671116635203  0.000191747603822  
0.504931926727  0.0  0.0  -0.0  0.00462591089308  -0.000623179716058  0.000191747603822  
0.513016939163  0.0  0.0  -0.0  0.00292415102012  -0.000455400557257  0.000191747603822  
0.521106004715  0.0  0.0  -0.0  -0.0621981285512  0.0444854460657  0.000191747603822  
0.529229879379  0.0  0.0  -0.0  -0.0438622646034  0.0117685096338  0.000191747603822  
0.53728890419  0.0  0.0  -0.0  -0.065625615418  0.0489675439894  0.000167779158801  
0.545414924622  0.0  0.0  -0.0  -0.0740864798427  0.0386131741107  0.000167779158801  
0.553559064865  0.0  0.0  -0.0  -0.0906966179609  0.0477211847901  0.000167779158801  
0.561629056931  0.0  0.0  -0.0  -0.0798868462443  0.0408662073314  0.000167779158801  
0.569717884064  0.0  0.0  -0.0  -0.0478889644146  0.0243519451469  0.000167779158801  
0.577777862549  0.0  0.0  -0.0  -0.0325251892209  0.0236808285117  0.000167779158801  
0.585865020752  0.0  0.0  -0.0  -0.0161787047982  0.00929975882173  0.000143810699228  
0.593962907791  0.0  0.0  -0.0  -0.00889229495078  0.00807736814022  0.000143810699228  
0.602084875107  0.0  0.0  -0.0  0.0021092237439  0.00402669981122  0.000143810699228  
0.610223054886  0.0  0.0  -0.0  0.0217154156417  -0.0120561309159  0.000143810699228  
0.61830496788  0.0  0.0  -0.0  0.00870054773986  -0.00615989184007  0.000143810699228  
0.626374006271  0.0  0.0  -0.0  0.00496146921068  -0.00349939381704  0.000143810699228  
0.634505987167  0.0  0.0  -0.0  0.0563018918037  0.0  0.000143810699228  
0.642572879791  0.0  0.0  -0.0  0.0393561944366  -0.0319259762764  0.000143810699228  
0.650675058365  0.0  0.0  -0.0  0.0560622066259  -0.00692688208073  0.000119842254207  
0.658731937408  0.0  0.0  -0.0  0.0641635432839  -0.0323813781142  0.000119842254207  
0.666828870773  0.0  0.0  -0.0  0.0892824828625  -0.00944356992841  0.000119842254207  
0.674957990646  0.0  0.0  -0.0  0.0999484360218  -0.0372469723225  0.000119842254207  
0.683079957962  0.0  0.0  -0.0  0.0878683403134  -0.0374387204647  0.000119842254207  
0.691196918488  0.0  0.0  -0.0  0.0640676692128  -0.0185515806079  0.000119842254207  
0.699290990829  0.0  0.0  -0.0  0.0433109886944  -0.0221228804439  0.000119842254207  
0.707387924194  0.0  0.0  -0.0  0.0242081359029  -0.0129429632798  0.000119842254207  
0.715538024902  0.0  0.0  -0.0  0.0147405974567  -0.00496146921068  0.000119842254207  
0.723634958267  0.0  0.0  -0.0  0.0100427810103  -0.00306796166115  0.000119842254207  
0.731695890427  0.0  0.0  -0.0  -0.0214757323265  -0.00194144446868  0.000119842254207  
0.739779949188  0.0  0.0  -0.0  -0.0214517638087  0.0147166289389  9.58738019108e-05  
0.747902870178  0.0  0.0  -0.0  -0.00587227055803  0.00587227055803  9.58738019108e-05  
0.755964040756  0.0  0.0  -0.0  -0.00340351997875  0.00340351997875  9.58738019108e-05  
0.764052867889  0.0  -0.0294652152807  -0.0  -0.00203731842339  -0.000671116635203  0.0  
0.772142887115  0.0  -0.033990457654  -0.0  0.00740625150502  -0.00925182178617  0.0253825895488  
0.780225038528  0.00318301026709  -0.0512988753617  0.00479369005188  -0.0138777326792  0.011528824456  0.00994690693915  
0.788321018219  0.00387330166996  -0.0679297819734  0.00342589057982  0.0259098950773  -0.0141413863748  0.0398115962744  
0.796386003494  0.0101242735982  -0.0853660330176  0.00815566442907  -0.0185036435723  -0.0335078947246  0.00925182178617  
0.804478883743  0.00764433760196  -0.104476876557  0.0101370569319  0.0275157820433  -0.0108097717166  0.0450367182493  
0.812582969666  0.012898221612  -0.120264098048  0.011389807798  0.00342748849653  -0.0497105680406  0.0154356826097  
0.8206179142  0.0120417494327  -0.143503904343  0.0132305845618  -0.00481765856966  0.0315664485097  0.0439821071923  
0.828667879105  0.0144449863583  -0.161234170198  0.0148156983778  0.0539050474763  -0.0414174832404  0.047409594059  
0.836762905121  0.0139592252672  -0.175615236163  0.0151224946603  -0.00328367785551  0.0185036435723  0.0406265258789  
0.844871997833  0.0166564751416  -0.192284494638  0.0165030770004  0.0620782859623  0.00469781644642  0.0458276793361  
0.852982997894  0.0173084177077  -0.207509249449  0.0151352770627  -0.0187193602324  -0.0644991025329  0.0487518273294  
0.861096858978  0.0187912657857  -0.227374300361  0.0197883527726  0.0544802881777  0.0245197247714  0.0545282252133  
0.869184970856  0.0223194211721  -0.238572373986  0.0207343082875  -0.00481765856966  -0.0511247068644  0.0628692433238  
0.877296924591  0.0251572858542  -0.253260225058  0.0221404563636  0.0457557737827  0.0133264586329  0.0625097230077  
0.885410070419  0.0269597135484  -0.272984683514  0.0247610062361  -0.00304399314336  -0.0185036435723  0.0629171803594  
0.893517971039  0.0273176413029  -0.286240816116  0.0258859265596  0.0490873865783  0.0087724532932  0.0694605708122  
0.90163397789  0.0286854412407  -0.300954252481  0.0273304246366  0.00941960141063  -0.0144290076569  0.0724566280842  
0.909734964371  0.0315233059227  -0.320103436708  0.0289155393839  0.0225063748658  -0.00762196723372  0.077801592648  
0.91784286499  0.0328527577221  -0.333985984325  0.0317917540669  0.0107858031988  -0.0323813781142  0.0838895812631  
0.925920963287  0.0318428836763  -0.340377569199  0.0322008132935  0.0273000653833  -0.00790958851576  0.0816844776273  
0.934056043625  0.0289027560502  -0.29203158617  0.024185763672  0.0  -0.00980309676379  0.0746617242694  
0.942151069641  0.0273943413049  -0.278404742479  0.0259881913662  0.0215955749154  -0.0269405394793  0.0646668821573  
0.950216054916  0.0234059914947  -0.252544373274  0.0252979006618  0.00620782887563  -0.00755006214604  0.0593219138682  
0.958281040192  0.0218208767474  -0.230467841029  0.0244542118162  0.0297688152641  -0.0286902356893  0.062222097069  
0.966379880905  0.020389162004  -0.215409263968  0.021220067516  0.00838895794004  -0.00925182178617  0.0529223382473  
0.974608898163  0.0177046954632  -0.19821588695  0.021168936044  0.0263652950525  -0.0047217849642  0.0460673607886  
0.982663869858  0.0194176398218  -0.180792421103  0.0194432064891  0.00680703995749  -0.0143810706213  0.0433349572122  
0.990756034851  0.015096927993  -0.170936599374  0.0139847919345  0.0257421154529  -0.00517718540505  0.0430473387241  
0.998842000961  0.0145728178322  -0.158434659243  0.0161962807178  0.00860467366874  -0.0248552840203  0.0373668149114  
1.00692892075  0.0156338214874  -0.13946442306  0.0112491929904  -0.0045540058054  0.0022770029027  0.0301283430308  
1.01503491402  0.0124508114532  -0.122628986835  0.0144322030246  0.0274678450078  -0.0385652370751  0.0296969097108  
1.02313089371  0.0120161827654  -0.107723802328  0.0116710374132  -0.0180722121149  0.0221947859973  0.0216674786061  
1.03122806549  0.00851359311491  -0.089955188334  0.00802783295512  0.0323813781142  -0.0431911498308  0.0219790693372  
1.03933000565  0.00595695897937  -0.0743725001812  0.00802783295512  -0.0249032210559  0.0161787047982  0.0170175991952  
1.04746007919  0.00405226601288  -0.0581506565213  0.00579077750444  0.0323813781142  -0.0174969695508  0.0155555242673  
1.05554509163  0.00396278360859  -0.0387713648379  0.00259498413652  -0.0259098950773  -0.00414654193446  0.0107858031988  
1.06363105774  0.00214757304639  -0.0263844709843  0.00129110051785  0.0185036435723  0.0434787683189  0.00453003728762  
1.07169699669  0.00147006497718  -0.0116454707459  0.00129110051785  0.0047217849642  -0.0431911498308  0.00678307143971  
1.07977795601  0.000856472644955  0.00993252545595  0.00129110051785  -0.0406504906714  0.0342988520861  -0.00913198012859  
1.08789300919  0.000856472644955  0.00833462923765  -0.00178964424413  -0.0185036435723  -0.024447819218  -0.0129429632798  
1.0960149765  0.000856472644955  0.00689013069496  -0.00178964424413  0.0176407806575  -0.00719053531066  -0.00496146921068  
1.10411190987  0.000856472644955  0.00764433760196  -0.00178964424413  0.00680703995749  -0.00381098361686  -0.00306796166115  
1.1122469902  0.000856472644955  0.00837297830731  -0.00134223327041  -0.00115048559383  -0.00258859270252  -0.00222906586714  
1.12036895752  0.000856472644955  -0.0408166721463  -0.0327632725239  0.0531620234251  0.000575242796913  0.0360006131232  
1.12856793404  -0.0123868947849  -0.0397301018238  -0.0283147301525  0.0330045558512  0.0133504271507  0.00807736814022  
1.13660287857  -0.00788721814752  -0.0612953156233  -0.0451629534364  0.0469781644642  0.00680703995749  0.0428316220641  
1.14469003677  -0.0186634324491  -0.0760854482651  -0.049764893949  0.0627733692527  0.0336037687957  0.0245676618069  
1.15277385712  -0.0134223317727  -0.0919110178947  -0.0604516267776  0.0748295038939  0.0107858031988  0.0341790094972  
1.16088294983  -0.0197244361043  -0.108235128224  -0.0714068040252  0.08671785146  0.0399554073811  0.0471219755709  
1.1690120697  -0.018957445398  -0.121900342405  -0.084547907114  0.100499711931  0.0116007300094  0.0446771904826  
1.1771299839  -0.0234954729676  -0.139605045319  -0.0960911139846  0.108361363411  0.0426398739219  0.0545521937311  
1.18525099754  -0.0271258950233  -0.158063933253  -0.105780757964  0.130364403129  0.0161787047982  0.0603525601327  
1.19336605072  -0.0306668337435  -0.173390969634  -0.117784157395  0.137794628739  0.0400273129344  0.0628213062882  
1.20147204399  -0.0328783206642  -0.187823161483  -0.130247756839  0.152679026127  0.0414654202759  0.0718813836575  
1.20955896378  -0.037032853812  -0.205246627331  -0.142417341471  0.167443603277  0.0365279205143  0.0776338130236  
1.21765589714  -0.0378765426576  -0.224178507924  -0.154382392764  0.175137475133  0.0431911498308  0.0781850889325  
1.22579193115  -0.0410723350942  -0.2411801368  -0.165171384811  0.194623813033  0.0448449701071  0.089378349483  
1.23388695717  -0.0438846349716  -0.254091143608  -0.175615236163  0.206751853228  0.0440540127456  0.0970961973071  
1.24200487137  -0.0472977422178  -0.269648253918  -0.185854554176  0.21631526947  0.0538810789585  0.101314641535  
1.25012397766  -0.0497265458107  -0.287097305059  -0.197551161051  0.23462715745  0.0583871454  0.10697119683  
1.25820088387  -0.0552744418383  -0.299573659897  -0.207215249538  0.244526132941  0.0586268305779  0.112052507699  
1.26630187035  -0.0578438602388  -0.321228355169  -0.217045500875  0.261040389538  0.0640676692128  0.118595898151  
1.27435708046  -0.061078004539  -0.333743095398  -0.228243559599  0.273360192776  0.0705391541123  0.126217857003  
1.28249597549  -0.0649129524827  -0.349044561386  -0.241934344172  0.281629294157  0.0678546875715  0.128710582852  
1.29057693481  -0.0674440264702  -0.366749256849  -0.252186447382  0.294787973166  0.070946611464  0.135517627001  
1.29868507385  -0.0713301077485  -0.381028056145  -0.264777868986  0.311949372292  0.0833622738719  0.139975756407  
1.30673909187  -0.0746153816581  -0.406747788191  -0.273355394602  0.32060199976  0.0789760425687  0.146471202374  
1.31484293938  -0.075650818646  -0.414609462023  -0.285154253244  0.334719419479  0.0844648182392  0.155219689012  
1.32295489311  -0.0757147371769  -0.399780958891  -0.277650535107  0.3315795362  0.082475438714  0.145392626524  
1.33107590675  -0.0681854486465  -0.37762773037  -0.261198580265  0.311565905809  0.0685497671366  0.133839830756  
1.33919906616  -0.065015219152  -0.364333242178  -0.247367188334  0.296657502651  0.0700118467212  0.1326174438  
1.34730505943  -0.0613720156252  -0.335481613874  -0.230199381709  0.286782503128  0.0718094781041  0.123581334949  
1.35539698601  -0.0574092306197  -0.323759436607  -0.218080937862  0.276476085186  0.0628213062882  0.118260338902  
1.36350393295  -0.0556579381227  -0.291929334402  -0.208685308695  0.257612913847  0.0615270137787  0.11020693928  
1.37163186073  -0.0539577752352  -0.286828845739  -0.195672035217  0.249535545707  0.0609038323164  0.109535820782  
1.37969303131  -0.0496242791414  -0.266618639231  -0.185522198677  0.232014596462  0.0535215511918  0.0999724045396  
1.387789011  -0.0486527569592  -0.247673988342  -0.177277043462  0.221132934093  0.0488477014005  0.0978392139077  
1.39586901665  -0.0432838238776  -0.245309099555  -0.167600184679  0.199681162834  0.0473856255412  0.0854235589504  
1.40396785736  -0.0394744388759  -0.22681184113  -0.155622348189  0.189015209675  0.046235140413  0.0822836905718  
1.41207885742  -0.0360996834934  -0.208889842033  -0.144104719162  0.170008227229  0.0405306518078  0.0762676075101  
1.42020893097  -0.0325203947723  -0.193716213107  -0.132420897484  0.160660520196  0.0357609279454  0.0719532892108  
1.42838597298  -0.031625572592  -0.178286924958  -0.120762638748  0.15469238162  0.0345385372639  0.0666322931647  
1.43644189835  -0.0290945023298  -0.160032555461  -0.111226394773  0.131922349334  0.0275397505611  0.0575722195208  
1.44453907013  -0.0257197450846  -0.143503904343  -0.0996320545673  0.121711790562  0.033795516938  0.049662631005  
1.45259904861  -0.0217569619417  -0.126630112529  -0.0866571366787  0.109032481909  0.0249511580914  0.0460433922708  
1.46069192886  -0.0182799380273  -0.112121216953  -0.0776322111487  0.0911759883165  0.0214997008443  0.0423762202263  
1.46871399879  -0.0160300992429  -0.0984432175756  -0.0665492042899  0.0770106315613  0.0188152343035  0.0322855040431  
1.4768269062  -0.0132817169651  -0.084522344172  -0.0563098788261  0.0678307190537  0.0162985473871  0.0263173598796  
1.48493504524  -0.0107634318992  -0.065513767302  -0.0441786460578  0.0504775568843  0.00647148163989  0.022482406348  
1.49302196503  -0.00921666808426  -0.0476045385003  -0.0315488725901  0.0327888391912  0.0178085584193  0.0134463012218  
1.50112104416  -0.00579077750444  -0.0286982245743  -0.0192131102085  0.0171614103019  -0.0022770029027  0.00989896990359  
1.50922703743  -0.00259498413652  -0.0107889985666  -0.00791278481483  0.0158910825849  -0.0022770029027  0.0116966040805  
1.51729607582  -0.00161067990121  -0.00529223401099  -0.00442297803238  0.0081972097978  0.00158191774972  -0.00134223327041  
1.52541708946  0.00378381926566  0.0107889985666  0.00802783295512  -0.0134463012218  -0.0169936306775  -0.00906007457525  
1.533452034  0.0062765381299  0.00685178115964  0.011261976324  -0.0144050391391  -0.0144290076569  -0.0127272475511  
1.54151391983  0.00268446654081  0.0027867318131  0.00342589057982  -0.00563258584589  -0.00539290159941  -0.00496146921068  
1.54962491989  0.00171294528991  0.00821958016604  0.00300404569134  -0.00330764614046  -0.00323574081995  -0.00306796166115  
1.55768299103  -0.00814288109541  -0.0266912654042  -0.0311014614999  0.0464268885553  0.0365518890321  0.0313267633319  
1.56581187248  -0.00752928899601  -0.0132178012282  -0.0313699096441  0.0404587462544  0.0129429632798  0.00807736814022  
1.57393288612  -0.00286343088374  -0.030193855986  -0.0537660270929  0.0570928491652  0.0509089902043  0.0429994016886  
1.58202791214  -0.00706909503788  -0.0434500053525  -0.074858263135  0.0819481313229  0.0439821071923  0.0429754331708  
1.59009289742  -0.0206192582846  -0.0507491976023  -0.085902929306  0.102489098907  0.0580515861511  0.0446052886546  
1.59825396538  -0.0153653742746  -0.0553127899766  -0.0994403064251  0.11375426501  0.0586987361312  0.0433109886944  
1.60642194748  -0.0229585804045  -0.0611419193447  -0.112440794706  0.133983641863  0.0681183338165  0.0465946681798  
1.61452507973  -0.0209132712334  -0.0696171596646  -0.124904386699  0.155027940869  0.0767949149013  0.0543125085533  
1.62263298035  -0.0221532396972  -0.0803038924932  -0.138288363814  0.169840440154  0.0775619074702  0.0608798637986  
1.63071894646  -0.0226390007883  -0.0878076180816  -0.151429474354  0.1823759377  0.0877724662423  0.0644032284617  
1.63882899284  -0.0261671561748  -0.0959377139807  -0.162768155336  0.200376242399  0.0990616083145  0.0729839354753  
1.64692401886  -0.028800489381  -0.101498395205  -0.177277043462  0.216195419431  0.103495769203  0.0791198536754  
1.65504097939  -0.0293118171394  -0.108861505985  -0.190418154001  0.23462715745  0.114353477955  0.0810852721334  
1.66313791275  -0.03310842067  -0.115265876055  -0.203405857086  0.247162669897  0.112747594714  0.0862864255905  
1.67124390602  -0.0334535650909  -0.119318142533  -0.215230286121  0.266672968864  0.127727881074  0.0975036546588  
1.67937803268  -0.0365598760545  -0.127767816186  -0.229432404041  0.28299549222  0.135996982455  0.0949629992247  
1.68747186661  -0.037812627852  -0.136370897293  -0.23978677392  0.290090173483  0.136979699135  0.109727568924  
1.69556498528  -0.0397684536874  -0.143209889531  -0.252748906612  0.308569848537  0.154740318656  0.105389274657  
1.70370292664  -0.0434500053525  -0.150598570704  -0.265468150377  0.331124156713  0.162314355373  0.118452087045  
1.71181893349  -0.0439613349736  -0.157948896289  -0.279670268297  0.347422689199  0.156993359327  0.119434788823  
1.71990704536  -0.0459555089474  -0.163535133004  -0.29100894928  0.360509455204  0.173939049244  0.125594675541  
1.72801399231  -0.049061819911  -0.172023162246  -0.305696815252  0.377622932196  0.181249424815  0.129693284631  
1.73613905907  -0.0510048605502  -0.182313621044  -0.318850696087  0.396534055471  0.19143602252  0.135158091784  
1.74428701401  -0.052807290107  -0.186532065272  -0.329217851162  0.416811347008  0.199753075838  0.143618956208  
1.75238704681  -0.0551849603653  -0.193038702011  -0.344468176365  0.428795576096  0.199920848012  0.142276719213  
1.7604470253  -0.0568595565856  -0.203278020024  -0.359335005283  0.446580171585  0.212672069669  0.151240929961  
1.76853394508  -0.0579461269081  -0.213440641761  -0.369574338198  0.459642976522  0.217777341604  0.158000022173  
1.77663087845  -0.0602343119681  -0.215690493584  -0.37981364131  0.473185151815  0.228611081839  0.161763072014  
1.78475499153  -0.0618066452444  -0.224996641278  -0.394757181406  0.488644808531  0.232398092747  0.163872301579  
1.79286599159  -0.0641203969717  -0.235657796264  -0.406645536423  0.504463970661  0.240858957171  0.173004284501  
1.80096793175  -0.0660378709435  -0.235287085176  -0.409687936306  0.50784355402  0.246731236577  0.175496995449  
1.80904698372  -0.0636857673526  -0.21659809351  -0.383674174547  0.485313177109  0.230408713222  0.165550082922  
1.81713700294  -0.0601959638298  -0.215792745352  -0.371210575104  0.472753733397  0.224128976464  0.156058579683  
1.82524108887  -0.0577288120985  -0.207726567984  -0.352138072252  0.451230049133  0.213247299194  0.151432678103  
1.8333170414  -0.0531396530569  -0.194380939007  -0.339188724756  0.437088668346  0.205625340343  0.151169016957  
1.84138298035  -0.0523343123496  -0.183860391378  -0.329473525286  0.4238101542  0.198842272162  0.139208763838  
1.84950399399  -0.051401142031  -0.1774815768  -0.315680474043  0.404203951359  0.192203000188  0.131874412298  
1.85761189461  -0.049854375422  -0.16849501431  -0.300954252481  0.387785553932  0.183885961771  0.130963608623  
1.86573004723  -0.0477707199752  -0.160722836852  -0.28855457902  0.370887815952  0.175329223275  0.121328294277  
1.8738629818  -0.0452013015747  -0.155315563083  -0.277650535107  0.34979557991  0.166796445847  0.122934184968  
1.88197994232  -0.0420055091381  -0.149396955967  -0.265238076448  0.335510373116  0.15308649838  0.113394737244  
1.89009404182  -0.0394360907376  -0.143861830235  -0.251713454723  0.325156003237  0.151169016957  0.109943285584  
1.89819502831  -0.0374291315675  -0.139093711972  -0.235747292638  0.30734744668  0.144673570991  0.102848619223  
1.90624594688  -0.0371479019523  -0.129173964262  -0.224881589413  0.287022203207  0.128566771746  0.1001881212  
1.91440606117  -0.0364448279142  -0.120123483241  -0.212226241827  0.276787668467  0.131155356765  0.0936926752329  
1.92242789268  -0.0356139205396  -0.110676713288  -0.201526731253  0.256869882345  0.118020653725  0.0893543809652  
1.93050694466  -0.031715054065  -0.104476876557  -0.188935309649  0.237862899899  0.114305540919  0.0831944942474  
1.93859291077  -0.0294652152807  -0.0974589139223  -0.173467665911  0.223409935832  0.100260026753  0.0775619074702  
1.94667601585  -0.0264611691236  -0.0922945141792  -0.159661844373  0.201958164573  0.100020341575  0.0720012262464  
1.95473003387  -0.0229585804045  -0.0869127959013  -0.147364422679  0.190189659595  0.0898097828031  0.0608798637986  
1.96284389496  -0.0223194211721  -0.0804189443588  -0.136958926916  0.175233349204  0.0849441885948  0.0601608119905  
1.97095894814  -0.0203252453357  -0.0723783299327  -0.123511023819  0.162122607231  0.0734393298626  0.0582673028111  
1.97902202606  -0.0192898083478  -0.0640053525567  -0.111712150276  0.145081028342  0.0663207024336  0.0471699126065  
1.98714804649  -0.0164775103331  -0.0561692640185  -0.0988650619984  0.125067383051  0.0627973377705  0.0363601408899  
1.99528503418  -0.0137546947226  -0.0476812385023  -0.0855833441019  0.111405357718  0.0518437586725  0.0339153595269  
2.00339102745  -0.0135629475117  -0.0401008166373  -0.073209233582  0.0975755602121  0.0387330166996  0.0255983062088  
2.01145792007  -0.0107634318992  -0.0321752466261  -0.0599914342165  0.0783049315214  0.0312548615038  0.0284505505115  
2.01951694489  -0.00673673255369  -0.0249527543783  -0.0474255755544  0.0639478266239  0.0311110485345  0.0167060103267  
2.02761387825  -0.00480647338554  -0.0168354399502  -0.0324692614377  0.0324772521853  0.0188392028213  0.0173291899264  
2.03572487831  -0.00375825306401  -0.0100987069309  -0.0195071231574  0.0215955749154  0.0167539473623  0.00994690693915  
2.04378795624  -0.00180242746137  -0.00470420764759  -0.00942119862884  0.00994690693915  0.00719053531066  0.00407463684678  
2.051872015  -0.00180242746137  -0.00199417513795  0.00760598806664  -0.00112651719246  0.00337955146097  0.0  
2.05998086929  0.00253106839955  0.00618705619127  0.00802783295512  -0.012439626269  -0.0105700865388  -0.0129669317976  
2.06810092926  0.00253106839955  0.0062765381299  0.00851359311491  -0.0158431455493  -0.00925182178617  -0.0117445411161  
2.07619595528  0.00198139180429  0.00268446654081  0.00342589057982  -0.00467384792864  -0.0049375006929  -0.00615989184007  
2.0843129158  0.00136779958848  0.0021092237439  0.00198139180429  -0.00467384792864  -0.00479369005188  -0.00349939381704  
2.09241604805  -0.000281229818938  -0.0176152139902  -0.0281996801496  0.0607120841742  0.0394041314721  0.000671116635203  
2.10049986839  -0.00827071350068  -0.0176791287959  -0.0274710394442  0.0389727018774  0.0190549176186  0.0076459357515  
2.1085960865  -0.00582912703976  -0.0292351171374  -0.0457893274724  0.0596335045993  0.0378222167492  0.00524909049273  
2.11668586731  -0.0162985455245  -0.0351537279785  -0.0529734715819  0.0777776241302  0.0510048642755  0.0129429632798  
2.12477397919  -0.0121823642403  -0.0433477424085  -0.0652197524905  0.0875327810645  0.0571407862008  0.00822117831558  
2.1328599453  -0.0187017824501  -0.0517846345901  -0.0760471001267  0.103327989578  0.0732715576887  0.0310391429812  
2.14095306396  -0.0190597120672  -0.0570385195315  -0.0905048698187  0.118571929634  0.0811811462045  0.00680703995749  
2.14908790588  -0.0192131102085  -0.0649513080716  -0.0991974249482  0.138345897198  0.0975515916944  0.0406265258789  
2.15720391273  -0.0232525933534  -0.0712534114718  -0.109730757773  0.151552513242  0.103256084025  0.00776577787474  
2.16529202461  -0.0226773489267  -0.0756891667843  -0.121389016509  0.167994871736  0.114569194615  0.0359766446054  
2.17339396477  -0.0266912654042  -0.0809814035892  -0.131577208638  0.182471811771  0.125906273723  0.0311110485345  
2.18155694008  -0.0273304246366  -0.0879993662238  -0.144206985831  0.200951486826  0.141821324825  0.024783378467  
2.18964099884  -0.031024761498  -0.0945443511009  -0.157948896289  0.218975767493  0.139975756407  0.0380379296839  
2.19772791862  -0.0313699096441  -0.100117817521  -0.168354392052  0.231870800257  0.157904148102  0.02940928936  
2.2057890892  -0.0335174798965  -0.110446617007  -0.178900510073  0.248720616102  0.171997606754  0.0365518890321  
2.21388792992  -0.0352304279804  -0.119075261056  -0.190865561366  0.255935102701  0.179883226752  0.0342509150505  
2.221971035  -0.037020072341  -0.126553416252  -0.203201323748  0.275709092617  0.195486679673  0.036863476038  
2.23003602028  -0.0404331795871  -0.139515548944  -0.225814759731  0.30842602253  0.215524315834  0.0436465479434  
2.23809885979  -0.0436801053584  -0.142711356282  -0.235836774111  0.333137512207  0.222451195121  0.044557351619  
2.24621200562  -0.0451629534364  -0.152439340949  -0.250486284494  0.350131124258  0.238965451717  0.0446771904826  
2.25428986549  -0.049074601382  -0.159725755453  -0.258999884129  0.363625377417  0.242680564523  0.046235140413  
2.26239204407  -0.0498799420893  -0.164059251547  -0.269405394793  0.379660248756  0.260656893253  0.0519875697792  
2.27051401138  -0.0531524345279  -0.169249221683  -0.28287884593  0.393753707409  0.26974093914  0.0540488548577  
2.27854204178  -0.0541111752391  -0.17675293982  -0.293220430613  0.410028278828  0.274007320404  0.0516999475658  
2.28660488129  -0.0568212047219  -0.184601813555  -0.30361315608  0.42467302084  0.293206065893  0.0531620234251  
2.29469895363  -0.0593139268458  -0.195850998163  -0.31509244442  0.440348386765  0.305837422609  0.0571407862008  
2.30278587341  -0.0600297823548  -0.201616212726  -0.327990651131  0.45374673605  0.308953344822  0.0596574731171  
2.31090188026  -0.0618066452444  -0.205757960677  -0.336580961943  0.471914827824  0.323837727308  0.0609757378697  
2.31902503967  -0.0633534044027  -0.215907797217  -0.34770232439  0.488644808531  0.3358938694  0.062845274806  
2.32713103294  -0.0618066452444  -0.205438375473  -0.331301510334  0.473808348179  0.32026642561  0.0629411488771  
2.33524107933  -0.0577799454331  -0.195109575987  -0.318185985088  0.455688178539  0.303584396839  0.0591062009335  
2.34335494041  -0.0553127899766  -0.191837087274  -0.303229659796  0.441642671824  0.300995796919  0.0543125085533  
2.35151100159  -0.0533186160028  -0.183208435774  -0.290459275246  0.422443956137  0.2833070755  0.0516040734947  
2.35957789421  -0.0497776791453  -0.17546184361  -0.277906179428  0.406049519777  0.266553133726  0.053713299334  
2.36767697334  -0.0471826940775  -0.163854718208  -0.269405394793  0.391860187054  0.269621104002  0.0501659661531  
2.37576389313  -0.0465179681778  -0.153525918722  -0.259178847075  0.370887815952  0.255287975073  0.044557351619  
2.38385796547  -0.0446899756789  -0.145843222737  -0.246970906854  0.354397505522  0.240211814642  0.0430473387241  
2.39194393158  -0.0438974164426  -0.144616037607  -0.234494537115  0.340040415525  0.232086509466  0.045611962676  
2.40005302429  -0.04007524997  -0.138019919395  -0.222555056214  0.332058906555  0.220150217414  0.0430713072419  
2.40816402435  -0.0385668352246  -0.130158275366  -0.210487738252  0.308018565178  0.207614719868  0.036024581641  
2.4162569046  -0.0367899723351  -0.123664423823  -0.199570909142  0.289371103048  0.195990025997  0.0345385372639  
2.42435097694  -0.0328144058585  -0.116787075996  -0.188590154052  0.277866244316  0.187648996711  0.0321656614542  
2.43241286278  -0.0318556688726  -0.111277528107  -0.178900510073  0.262598335743  0.179140195251  0.0297688152641  
2.44047307968  -0.0304623022676  -0.102303735912  -0.166654229164  0.239780381322  0.156993359327  0.033459957689  
2.44864201546  -0.0277394857258  -0.0963595584035  -0.156031414866  0.225854709744  0.149227574468  0.0262214858085  
2.45669603348  -0.026320554316  -0.0874752551317  -0.142417341471  0.20737503469  0.142612278461  0.0294332578778  
2.46475505829  -0.0243135951459  -0.0817611813545  -0.132714912295  0.193041905761  0.126865014434  0.0215236693621  
2.47285199165  -0.0210794527084  -0.0734393298626  -0.121363446116  0.178253367543  0.114353477955  0.0234171766788  
2.48093795776  -0.0198011361063  -0.0657438635826  -0.110983513296  0.15835955739  0.112747594714  0.0162266418338  
2.48906707764  -0.0160812325776  -0.0590454787016  -0.099005676806  0.145632311702  0.0936687067151  0.0185995176435  
2.49718689919  -0.0173978991807  -0.0520019493997  -0.0886001735926  0.127823755145  0.0818522572517  0.0129429632798  
2.50527501106  -0.0114792902023  -0.0434500053525  -0.0752161964774  0.111141704023  0.0793116018176  0.012439626269  
2.51336193085  -0.0139208761975  -0.0373396500945  -0.0655393302441  0.0969044491649  0.0607120841742  0.0161787047982  
2.52140498161  -0.00924223475158  -0.031715054065  -0.0528456382453  0.0784727111459  0.0553431510925  0.00539290159941  
2.52955198288  -0.0050621367991  -0.0262694209814  -0.0426574498415  0.0620543174446  0.0376544371247  0.0209004897624  
2.5376470089  -0.00659611774608  -0.0192258935422  -0.0316127873957  0.0368155390024  0.0281149931252  -0.0138537641615  
2.5457379818  -0.00283786444925  -0.0138058271259  -0.018778482452  0.0201334990561  0.0202054046094  0.036024581641  
2.55382490158  -0.00283786444925  -0.00575242796913  -0.0104438532144  0.0117685096338  0.0128950262442  -0.0386611111462  
2.56191205978  -0.00208365730941  -0.00470420764759  -0.00429514609277  -0.00141413859092  -0.00151001242921  0.0323813781142  
2.56999802589  0.00144449865911  0.00582912703976  0.00931893382221  -0.0084368949756  -0.00778974639252  -0.036863476038  
2.5780608654  0.00144449865911  0.00470420764759  0.0107634318992  -0.0174490325153  -0.00965928565711  -0.0107858031988  
2.58612203598  0.00144449865911  0.0023521038238  0.00502378726378  -0.00615989184007  -0.00587227055803  0.00177366530988  
2.59422898293  0.00144449865911  0.006787864957  0.00242880289443  -0.00349939381704  -0.00340351997875  -0.00129429635126  
2.60232186317  -0.0385412685573  -0.0303856041282  -0.00861585885286  0.0473137199879  0.0206368360668  -0.00129429635126  
2.61035299301  -0.0423890016973  -0.0243008136749  -0.00418009795249  0.0302961226553  0.00970722269267  -0.00129429635126  
2.61854100227  -0.0614103637636  -0.0425679683685  -0.0132178012282  0.0484642088413  0.0268206968904  -0.00129429635126  
2.62652301788  -0.0755229890347  -0.0511838272214  -0.0130260540172  0.0690051689744  0.0117685096338  -0.00129429635126  
2.63457894325  -0.0939435437322  -0.0645805895329  -0.0188040491194  0.077585875988  0.0450367182493  -0.00129429635126  
2.64264392853  -0.111392572522  -0.0741807594895  -0.0171933677047  0.0911040827632  0.019342539832  -0.00129429635126  
2.65070486069  -0.123370409012  -0.0844200775027  -0.0219231434166  0.106132298708  0.049231197685  -0.00112651719246  
2.65876793861  -0.13856959343  -0.093598395586  -0.0208877064288  0.11483284831  0.0485121458769  -0.000982706435025  
2.6668639183  -0.155673488975  -0.102367654443  -0.0237639192492  0.136404454708  0.0481286495924  -0.000886832654942  
2.67494106293  -0.171882554889  -0.11342509836  -0.0241601970047  0.147334069014  0.0533058345318  -0.000790958874859  
2.68302607536  -0.189804553986  -0.124866038561  -0.0288516227156  0.161691173911  0.0614071711898  -0.000719053496141  
2.69113588333  -0.207726567984  -0.137559726834  -0.0290945023298  0.180506408215  0.0659611746669  -0.000671116635203  
2.69926595688  -0.223667189479  -0.148591607809  -0.0329678058624  0.189734250307  0.0662487968802  -0.000599211256485  
2.70735907555  -0.238943085074  -0.158063933253  -0.0343483872712  0.209628075361  0.0669678524137  0.000143810699228  
2.71542000771  -0.254998743534  -0.169185295701  -0.036943372339  0.224128976464  0.080246374011  0.000143810699228  
2.72354793549  -0.273227542639  -0.178197443485  -0.0392571240664  0.236832261086  0.0820679739118  0.000143810699228  
2.73165607452  -0.287749230862  -0.192655205727  -0.041494179517  0.245101377368  0.0900015309453  0.000143810699228  
2.73974394798  -0.305364459753  -0.200631901622  -0.0434244386852  0.261999130249  0.092805840075  0.000143810699228  
2.74782395363  -0.321739703417  -0.20952899754  -0.0456614941359  0.277554661036  0.0935968011618  0.000143810699228  
2.75590705872  -0.334037095308  -0.220650359988  -0.0484737940133  0.291144758463  0.106180235744  0.000143810699228  
2.76403808594  -0.319988399744  -0.212673664093  -0.0458532422781  0.281413584948  0.0987500175834  0.0115527929738  
2.77211904526  -0.291558623314  -0.19363951683  -0.0425551831722  0.260656893253  0.0947472825646  0.0160588622093  
2.78023099899  -0.27591201663  -0.18143157661  -0.0425935350358  0.254185408354  0.0834102109075  0.00601608119905  
2.78831195831  -0.255778521299  -0.174209088087  -0.036240298301  0.234459385276  0.0802943110466  0.00563258584589  
2.79641008377  -0.235708937049  -0.160914584994  -0.0358568020165  0.224848031998  0.080246374011  0.00330764614046  
2.80456209183  -0.217544049025  -0.148540481925  -0.0306029170752  0.207063451409  0.0661529228091  0.00234890822321  
2.81262803078  -0.205438375473  -0.13432559371  -0.030155505985  0.199010044336  0.0683100819588  0.00182160222903  
2.8207218647  -0.196042746305  -0.122194357216  -0.0257197450846  0.179044321179  0.0603046230972  0.00148604391143  
2.82878398895  -0.181342095137  -0.113808594644  -0.0245436932892  0.162578001618  0.0538091734052  0.00124635943212  
2.83690905571  -0.163995325565  -0.102955676615  -0.0222299378365  0.144961193204  0.0493270717561  0.0  
2.84499001503  -0.148962318897  -0.0944165214896  -0.0202485471964  0.137195408344  0.0483203977346  0.0  
2.85312008858  -0.129007786512  -0.0876542180777  -0.0177174787968  0.117948748171  0.0404587462544  0.0  
2.86125087738  -0.112555839121  -0.0732859373093  -0.0143810706213  0.104478478432  0.0358568020165  0.0  
2.86937689781  -0.0991079434752  -0.0634940192103  -0.0140487076715  0.0846325978637  0.0275876875967  0.0  
2.87750601768  -0.0844200775027  -0.0542006567121  -0.0108401309699  0.0749014094472  0.0257421154529  0.0  
2.88560390472  -0.0680192634463  -0.0419288091362  -0.00940841529518  0.0592979490757  0.0185276120901  0.0  
2.89369988441  -0.0518741197884  -0.0311142448336  -0.00671116588637  0.0351856872439  0.0185036435723  0.0  
2.90178203583  -0.0319323688745  -0.0184716861695  -0.00418009795249  0.0259098950773  0.0155075872317  0.0  
2.90990185738  -0.0148029150441  -0.0101370569319  -0.00221148901619  0.0147645659745  0.0  0.0  
2.91796588898  -0.00579077750444  -0.0038605183363  -0.00149563129526  0.00762196723372  0.0  0.0  
2.92602801323  0.0118755679578  0.00710744457319  0.00488317245618  -0.0215955749154  -0.0149563131854  0.0  
2.93408894539  0.00342589057982  0.00418009795249  0.00259498413652  -0.00994690693915  -0.00647148163989  0.0  
2.94215106964  0.00198139180429  0.00237767025828  0.00167459575459  -0.00445813173428  -0.00359526765533  0.0  
2.9502248764  -0.000357928860467  -0.0262694209814  0.0374419167638  0.0  0.0285224560648  0.0  
2.9583170414  -0.0137035623193  -0.0233420748264  0.0444598756731  0.0  0.0123197836801  0.0  
2.96637606621  -0.0208110064268  -0.0351537279785  0.0601703971624  0.0  0.0287621412426  0.0  
2.9745759964  -0.0211050193757  -0.0444726608694  0.0728385224938  0.0  0.0215955749154  0.0  
2.98253297806  -0.0259881913662  -0.0558113344014  0.0881783291698  0.0  0.0444135405123  0.0  
2.99064707756  -0.0306029170752  -0.06415874511  0.107723802328  0.0  0.0204450879246  0.0  
2.99876999855  -0.0344123020768  -0.0735415965319  0.12407348305  0.0  0.0476492792368  0.0  
3.00688385963  -0.0308330152184  -0.0646828562021  0.108235128224  0.0  0.0141174178571  0.0  
3.01499605179  -0.0237767025828  -0.0481542162597  0.0832184627652  0.0  0.0313986688852  0.0  
3.0231089592  -0.0178708769381  -0.0408038906753  0.0609118230641  0.0  0.00994690693915  0.0  
3.03120398521  -0.0121056651697  -0.0285703931004  0.0419032424688  -0.000790958874859  0.0264372006059  0.0  
3.03932785988  -0.00833462923765  -0.0164008121938  0.0294396486133  -0.000790958874859  0.0107858031988  0.0  
3.04742097855  -0.00375825306401  -0.0109935291111  0.0150202289224  -0.000790958874859  0.00462591089308  0.0  
3.05553102493  0.0070051793009  -0.00342589057982  0.00752928899601  -0.000790958874859  0.00292415102012  0.0  
3.06622385979  0.00418009795249  0.00894822180271  -0.015058577992  -0.000790958874859  0.00215716054663  0.0  
3.07428097725  0.00221148901619  0.00696682976559  -0.0136652123183  -0.000790958874859  -0.0125115308911  0.0  
3.08237290382  0.00149563129526  0.00342589057982  -0.00726084271446  -0.000790958874859  -0.00680703995749  0.0  
3.09045886993  0.001137702493  0.00198139180429  0.000856472644955  -0.000790958874859  -0.00369114149362  0.0  
3.09853601456  -0.035383824259  0.00139336590655  0.0143938530236  -0.000790958874859  -0.0177606213838  0.0262933913618  
3.1066300869  -0.0423762202263  0.00107378652319  0.0152503261343  -0.000790958874859  -0.0260057691485  0.0129429632798  
3.1147248745  -0.0612953156233  0.000869255803991  0.0217186119407  -0.000790958874859  -0.0273480024189  0.0441498868167  
3.12281107903  -0.075446292758  0.00072864087997  0.024965537712  -0.000719053496141  -0.0323813781142  0.0219790693372  
3.1309030056  -0.0661657080054  0.000626375491265  0.0224983859807  -0.000671116635203  -0.0243519451469  0.0298646893352  
3.13901305199  -0.0416092313826  0.0  0.0148412641138  -0.000599211256485  -0.0143810706213  0.00925182178617  
3.14710307121  -0.0199289675802  0.00348980631679  0.00782330241054  -0.000575242796913  -0.00517718540505  0.0112172346562  
3.15520095825  -0.00837297830731  0.00609757378697  0.00375825306401  -0.000527305935975  -0.00313986698166  -0.00400273129344  
3.16326594353  0.0203763786703  0.00396278360859  -0.00649385200813  -0.000503337476403  -0.00191747606732  -0.0149802817032  
3.17139005661  0.0188807472587  0.00214757304639  -0.00426957989112  -0.000455400557257  0.017736652866  -0.00719053531066  
3.17948389053  0.0100092245266  0.00147006497718  -0.00426957989112  -0.000431432126788  0.00680703995749  -0.00381098361686  
3.18760490417  0.00470420764759  -0.000319579325151  -0.0023521038238  -0.000407463667216  0.00369114149362  -0.00258859270252  
3.19569706917  -0.0293885152787  -0.000319579325151  -0.00155954714864  -0.000383495207643  -0.0432151183486  -0.00194144446868  
3.20375490189  -0.0159917492419  -0.00265890010633  -0.0011760519119  -0.000383495207643  -0.0538571104407  -0.00155794934835  
3.21185398102  -0.0313699096441  -0.00250550196506  -0.00093317165738  -0.00035952674807  -0.061598919332  -0.00131826475263  
3.21995401382  -0.0125658595935  0.000472977408208  -0.000651941867545  -0.000335558317602  -0.023177491501  -0.00112651719246  
3.22808504105  -0.00673673255369  0.000472977408208  -0.000651941867545  -0.000335558317602  -0.0161787047982  -0.000982706435025  
3.23616886139  0.000818123109639  0.000472977408208  -0.000651941867545  -0.000311589858029  0.0189830139279  -0.000886832654942  
3.24426293373  0.00695404643193  0.000472977408208  -0.000651941867545  -0.000287621398456  0.00973119121045  -0.000790958874859  
3.25235199928  0.00470420764759  0.000472977408208  -0.000651941867545  -0.000287621398456  0.00539290159941  -0.000719053496141  
3.26046204567  0.0024799357634  0.000703074561898  -0.000651941867545  -0.000287621398456  0.00323574081995  -0.000647148175631  
3.2685918808  0.0024799357634  0.000703074561898  -0.000651941867545  -0.000263652967988  0.00230097118765  -0.000599211256485  
3.27665495872  -0.0392699092627  0.000703074561898  0.000626375491265  0.0566614158452  0.00179763382766  -0.000551274395548  
3.28477597237  -0.0457509793341  0.0  0.0161195825785  0.0345864742994  0.00146207551006  -0.000527305935975  
3.29287195206  -0.0631233081222  0.0  0.0219487082213  0.0540488548577  0.00122239103075  -0.00047936901683  
3.30098104477  -0.0483076125383  0.0  0.0139720086008  0.0351377502084  0.00107858027332  -0.000455400557257  
3.30913186073  -0.0220637582242  0.0  0.00752928899601  0.0215955749154  0.000934769574087  -0.000431432126788  
3.31721806526  -0.0125658595935  0.0  0.00286343088374  0.00587227055803  0.000838895794004  -0.000407463667216  
3.32527589798  0.00178964424413  0.0  -0.00405226601288  -0.000838895794004  0.000766990415286  -0.000383495207643  
3.33337688446  0.0156210381538  0.0  -0.00685178115964  -0.0202293731272  0.000695085094776  -0.00035952674807  
3.34147405624  0.0062765381299  0.0  -0.00290178041905  -0.00647148163989  0.000647148175631  -0.00035952674807  
3.34956908226  0.0119650503621  0.0  -0.00290178041905  -0.00359526765533  0.000599211256485  -0.000335558317602  
3.35763096809  -0.0404203943908  0.0  -0.0  -0.0534496456385  -0.051052801311  0.0531620234251  
3.36575198174  -0.0381194241345  0.0  -0.0  -0.0403868407011  -0.00862864218652  0.022482406348  
3.37386989594  -0.0562459640205  0.0  -0.0  -0.0639238581061  -0.0431911498308  0.0512205809355  
3.38197493553  -0.00942119862884  0.0  -0.0  -0.0177126843482  -0.0179044324905  0.0175209380686  
3.39016008377  0.00256941793486  0.0  -0.0  0.0284505505115  0.00448210025206  -0.0245676618069  
3.39819502831  0.00957459677011  0.0  -0.0  0.00762196723372  0.0129429632798  -0.00615989184007  
3.40628600121  0.00602087471634  0.0  -0.0  0.00390685768798  0.00402669981122  -0.00615989184007  
3.41437506676  0.00801504962146  0.0  -0.0  0.00263652950525  0.00402669981122  -0.00402669981122  
3.42246198654  0.00650663534179  0.0  -0.0  0.00198938138783  0.00381098361686  -0.00268446654081  
3.43054294586  -0.0439996831119  0.0  -0.0  0.00158191774972  0.00258859270252  -0.00201334990561  
3.43868398666  -0.0461600385606  0.0  -0.0  0.00131826475263  0.00194144446868  -0.00160588615108  
3.44679093361  -0.0536509789526  0.0  -0.0  0.00112651719246  0.0  -0.00134223327041  
3.45491504669  -0.0160812325776  0.0  -0.0  0.000982706435025  0.0  -0.00115048559383  
3.46300697327  -0.00478090671822  0.0  -0.0  0.000886832654942  0.0  -0.00100667495281  
3.47107887268  -0.00396278360859  0.0  -0.0  0.000790958874859  0.0  -0.000886832654942  
3.47917294502  0.0124763771892  0.0  -0.0  0.000719053496141  0.0  -0.000790958874859  
3.48726701736  0.00899935420603  0.0  -0.0  0.000671116635203  0.0  -0.000719053496141  
3.49532198906  0.011223626323  0.0  -0.0  0.000599211256485  0.0  -0.000671116635203  
3.50341296196  -0.0244797766209  -0.00240323669277  -0.0  0.0490394495428  -0.0302721541375  0.0577879361808  
3.51153302193  -0.0128854392096  -0.00240323669277  -0.0  0.0215955749154  -0.0147645659745  0.0389727018774  
3.51962900162  -0.0273304246366  0.000600809173193  -0.0  0.045611962676  -0.0434308312833  0.0580515861511  
3.52769088745  -0.0213223341852  0.000600809173193  -0.0  0.0517478846014  -0.0212839841843  0.0765072926879  
3.53579306602  -0.0112747587264  0.000600809173193  -0.0  0.0201574675739  -0.018647454679  0.0305118374527  
3.5439260006  -0.00375825306401  0.000600809173193  -0.0  0.0081972097978  -0.00719053531066  0.0185036435723  
3.5520260334  -0.00182799377944  0.000600809173193  -0.0  0.0107858031988  -0.00381098361686  0.00862864218652  
3.56012201309  0.00382216880098  0.000600809173193  -0.0  -0.0215236693621  -0.00258859270252  -0.0131826475263  
3.56820893288  0.00382216880098  0.000600809173193  -0.0  -0.0185036435723  -0.00184557074681  -0.0143810706213  
3.57630395889  0.00221148901619  0.000588025955949  -0.0  -0.00546480668709  -0.00184557074681  -0.00894023198634  
3.58438587189  0.00191747606732  -0.000140614909469  -0.0  -0.00546480668709  -0.00184557074681  -0.00431432109326  
3.59244394302  0.00191747606732  -0.000140614909469  0.00464029191062  -0.0522991605103  -0.00184557074681  -0.00280430866405  
3.60054206848  0.00189190963283  0.00052411010256  0.0133200669661  -0.042184472084  -0.0317581966519  -0.00208525522612  
3.60867595673  0.00189190963283  0.00052411010256  0.00882038939744  -0.0614790767431  -0.00961134862155  -0.00165382307023  
3.6167910099  0.00171294528991  0.00052411010256  0.0204147286713  -0.0740385428071  -0.0350898131728  -0.00136620167177  
3.62489199638  -0.000984304351732  0.00052411010256  0.0094339819625  -0.0565655454993  -0.0107858031988  -0.00117445411161  
3.63298892975  -0.000984304351732  0.00052411010256  0.0092038847506  -0.0287142042071  -0.0298167522997  -0.00100667495281  
3.64104795456  0.00190469285008  0.00052411010256  0.00469142477959  -0.0215955749154  0.00407463684678  -0.000910801114514  
3.64919996262  0.00190469285008  0.00052411010256  -0.0042312303558  -0.00862864218652  -0.0367196649313  -0.000814927334432  
3.65726709366  0.00190469285008  0.00052411010256  -0.00396278360859  0.016202673316  0.00292415102012  -0.000743021955714  
3.66536688805  0.00139336590655  0.00052411010256  -0.00214757304639  0.0211401730776  0.0154596511275  -0.000671116635203  
3.67346000671  0.00107378652319  0.000498543784488  -0.00139336590655  0.00469781644642  -0.00270843482576  -0.000623179716058  
3.68157100677  0.000869255803991  0.0  -0.00139336590655  0.00469781644642  -0.00270843482576  -0.000575242796913  
3.68965792656  0.00072864087997  0.0  -0.00139336590655  0.00117445411161  -0.0219311323017  0.0615509822965  
3.69777202606  0.000626375491265  0.0  -0.00129110051785  0.0264372006059  -0.0143810706213  0.044749096036  
3.70589900017  0.000562459637877  0.0  -0.0  0.0272760968655  -0.0475054681301  0.0566614158452  
3.71398305893  0.000498543784488  0.0  -0.0  0.0290018245578  -0.0241362303495  0.0735112354159  
3.72213196754  0.000447411061032  0.0  -0.0  0.0410579554737  -0.0421125665307  0.0849441885948  
3.73021388054  0.000409061554819  0.0  -0.0  0.0117685096338  -0.0164663251489  0.0493510402739  
3.73831295967  0.000370712019503  0.0  -0.0  0.00556068075821  -0.027923244983  0.0286183301359  
3.74640893936  0.000345145672327  0.0  -0.0  0.0129429632798  -0.0107858031988  0.020037624985  
3.75450706482  -0.000332362513291  0.0  -0.0  -0.0258140210062  0.00179763382766  0.0129429632798  
3.76258897781  -0.000332362513291  0.0  -0.0  0.00287621398456  -0.00256462418474  -0.0120321623981  
3.77067804337  -0.000332362513291  0.0  -0.0  -0.0273240339011  0.0160828307271  -0.0141174178571  
3.77877402306  -0.000332362513291  0.0  -0.0  -0.0117685096338  0.00762196723372  -0.00587227055803  
3.78690004349  -0.000332362513291  0.0  -0.0  -0.00479369005188  0.00496146921068  0.0  
3.79502892494  -0.000332362513291  0.0  0.00768268713728  -0.00299605634063  0.00306796166115  0.060328591615  
3.8031129837  -0.000818123109639  0.0  0.014355503954  -0.00218112906441  0.000575242796913  0.0464748255908  
3.81123209  -0.000818123109639  0.0  0.0215140804648  -0.00172572850715  0.021307952702  0.0583392083645  
3.81934785843  -0.000818123109639  0.0  0.0217825267464  -0.00141413859092  0.00366717297584  0.0783768370748  
3.82741093636  -0.000818123109639  0.0  0.0246459580958  -0.00119842251297  0.0259098950773  0.0863583311439  
3.83549690247  -0.000818123109639  0.0  0.0160812325776  -0.00103064335417  -0.0117205725983  0.0409381128848  
3.84358501434  -0.000805339950603  0.0  0.010584468022  0.000215716063394  0.0259098950773  0.0288580153137  
3.85170388222  -0.000690291344654  0.0  0.00538171594962  0.000215716063394  -0.0125115308911  0.0203731823713  
3.85979008675  -0.000626375491265  0.0  0.00325970933773  0.000215716063394  -0.0046019423753  0.00807736814022  
3.86792492867  -0.000626375491265  0.0  -0.00502378726378  0.000215716063394  -0.0215955749154  0.00359526765533  
3.8760099411  -0.00302961212583  0.0  -0.00242880289443  0.000215716063394  -0.00862864218652  -0.0188392028213  
3.88413596153  -0.00268446654081  0.0  -0.00159789668396  0.000215716063394  -0.00417051045224  -0.00587227055803  
3.89235496521  -0.00171294528991  0.0  -0.00118883512914  0.000215716063394  -0.00275637186132  -0.00340351997875  
3.90043401718  -0.00125275098253  0.0  -0.000715857720934  -0.023177491501  -0.00203731842339  0.0608558952808  
3.90851402283  -0.000984304351732  0.0  0.00577799463645  -0.0207087416202  -0.00162985466886  0.0432630553842  
3.91661095619  -0.000818123109639  0.0  0.00657055107877  -0.00671116635203  -0.00134223327041  0.0552712492645  
3.92470598221  -0.000690291344654  0.0  0.0132050178945  -0.0323813781142  -0.00115048559383  0.0764353871346  
3.93281888962  -0.000600809173193  0.0  0.0143299372867  -0.0420646294951  -0.00100667495281  0.0858070552349  
3.94092988968  -0.000536893261597  0.0  0.00942119862884  -0.0161787047982  -0.000886832654942  0.041896853596  
3.94901609421  -0.000472977408208  0.0  0.00554789742455  -0.00560861732811  -0.000814927334432  0.0296010375023  
3.95715999603  -0.000434627901996  0.0  0.00288899731822  -0.0215955749154  -0.000719053496141  0.0209963619709  
3.96525192261  -0.000396278366679  0.0  -0.000536893261597  0.0216914471239  -0.000671116635203  0.0107858031988  
3.97340893745  -0.000357928860467  0.0  -0.000536893261597  0.00762196723372  -0.000623179716058  -0.00201334990561  
3.98150086403  -0.000332362513291  0.0  -0.000536893261597  0.00395479425788  -0.000575242796913  -0.0146926604211  
3.98958897591  -0.000306796166115  0.0  -0.000536893261597  0.00395479425788  -0.000527305935975  -0.00615989184007  
3.99766993523  -0.000294012977974  0.0  -0.000536893261597  0.00738228298724  0.000119842254207  -0.00349939381704  
4.00580406189  -0.000281229818938  0.0  -0.000536893261597  0.00417051045224  0.000119842254207  0.048608019948  
4.01387000084  -0.0154804233462  0.0  -0.000536893261597  0.00275637186132  0.000119842254207  0.0533298030496  
4.02198004723  -0.00866699125618  0.0  -0.000536893261597  0.00203731842339  0.000119842254207  0.0593698509037  
4.03007698059  -0.0170911028981  0.0  -0.000485760596348  0.00134223327041  0.00165382307023  0.0861426144838  
4.03816699982  -0.012092881836  0.0  -0.000447411061032  0.00115048559383  0.00165382307023  0.048176586628  
4.04625487328  -0.00857750978321  0.0  -0.000409061554819  0.00100667495281  0.00165382307023  0.0249990932643  
4.05438709259  -0.00313187739812  0.0  -0.000370712019503  0.000886832654942  0.00165382307023  0.0215955749154  
4.06243801117  0.000511326943524  0.0  -0.000345145672327  0.000814927334432  0.00165382307023  -0.00270843482576  
4.07052397728  0.000511326943524  0.0  -0.000319579325151  0.000719053496141  0.00143810699228  -0.0089881690219  
4.07861208916  0.00334919150919  0.0  -0.000294012977974  0.000671116635203  0.00143810699228  -0.0149563131854  
4.08669900894  0.00259498413652  0.0  -0.000281229818938  0.000623179716058  0.00666322931647  -0.00680703995749  
4.09478998184  0.00167459575459  0.0  -0.000268446630798  0.000575242796913  0.00522512244061  -0.00369114149362  
4.10289907455  -0.000332362513291  0.0  -0.000242880298174  0.000527305935975  0.00522512244061  0.0499262847006  
4.11096000671  -0.00875647366047  0.0  -0.000230097124586  0.000503337476403  0.0348980650306  0.0521313808858  
4.11908602715  -0.00357928848825  0.0  -0.000217313950998  -0.000119842254207  0.0129429632798  0.0584111139178  
4.12720108032  -0.0205553434789  0.0  -0.000217313950998  -0.000119842254207  0.0363122038543  0.0736310780048  
4.13535690308  -0.0123868947849  0.0  -0.00020453077741  -0.000119842254207  0.0117685096338  0.0833143368363  
4.14342808723  -0.0111469272524  0.0  -0.000191747603822  -0.000119842254207  0.00515321688727  0.051460262388  
4.15148806572  -0.00470420764759  0.0  -0.000191747603822  -0.000119842254207  0.0146686919034  0.0289778579026  
4.15957593918  -0.00317022693343  0.0  -0.000178964430233  -0.000119842254207  -0.00946753844619  0.0185036435723  
4.17023396492  0.0  0.0  -0.000166181256645  -0.00134223327041  -0.00556068075821  0.00862864218652  
4.17836809158  0.00435906229541  0.0  -0.000166181256645  -0.0174010954797  -0.0244717877358  -0.00124635943212  
4.18643403053  0.0062765381299  0.0  -0.000153398083057  -0.0107858031988  -0.00615989184007  -0.0161787047982  
4.19451904297  0.00268446654081  0.0  -0.000153398083057  -0.00462591089308  -0.00349939381704  -0.00539290159941  
4.2026040554  0.00186634331476  0.0  -0.000153398083057  0.0  0.0  -0.00323574081995  
4.2107000351  -0.0223449878395  0.0  -0.000140614909469  0.055942364037  -0.0474814996123  -0.00230097118765  
4.21879291534  -0.0158383511007  0.0  -0.000140614909469  0.0365518890321  -0.0432870239019  -0.00179763382766  
4.22688889503  -0.0269213635474  0.0  -0.000140614909469  0.0591781064868  -0.0587946102023  -0.00146207551006  
4.23498702049  -0.00853915978223  0.0  -0.000127831735881  0.0215955749154  -0.0174969695508  -0.00122239103075  
4.24307703972  -0.00480647338554  0.0  -0.000127831735881  0.0161787047982  -0.0141893224791  -0.00107858027332  
4.25118303299  -0.00470420764759  0.0  -0.000127831735881  -0.0194623824209  0.0278753079474  -0.000934769574087  
4.25938487053  0.000843689427711  0.0  -0.000115048562293  -0.00647148163989  0.00762196723372  -0.000838895794004  
4.26745295525  0.00502378726378  0.0  -0.000115048562293  -0.00992293842137  0.00390685768798  -0.000766990415286  
4.27556705475  0.00311909429729  0.0  -0.000115048562293  -0.00807736814022  0.00263652950525  -0.000695085094776  
4.28366303444  0.00503657013178  -0.000345145672327  -0.000115048562293  -0.00402669981122  0.00198938138783  -0.000647148175631  
4.29178905487  0.00327249243855  -0.000345145672327  -0.000115048562293  -0.0424001887441  0.0229857452214  0.0414893887937  
4.29987692833  -0.000741424039006  -0.000345145672327  -0.000115048562293  -0.0407943017781  0.020732710138  0.0370552241802  
4.30797505379  -0.000741424039006  -0.000345145672327  -0.000115048562293  -0.0574044398963  0.044964812696  0.0487757958472  
4.31609106064  -0.00149563129526  -0.000345145672327  -0.000115048562293  -0.0243519451469  0.0100667495281  0.0179044324905  
4.32418990135  0.00388608477078  -0.000345145672327  -0.0  -0.00975515972823  0.00719053531066  0.0119123198092  
4.33229994774  0.00357928848825  0.0  -0.0  0.0207806471735  0.0  -0.00232493970543  
4.34036207199  0.00203252467327  0.0  -0.0  0.00807736814022  -0.00989896990359  -0.0171374417841  
4.34844088554  0.00141893222462  0.0  -0.0  0.00589623907581  -0.00771784130484  -0.00587227055803  
4.35654306412  -0.000319579325151  0.0  -0.0  0.00496146921068  -0.00517718540505  -0.00340351997875  
4.36463999748  -0.000319579325151  0.0  -0.0  0.00306796166115  -0.00313986698166  -0.00239684502594  
4.37272000313  -0.000319579325151  0.0  -0.0  0.0586987361312  -0.00225303438492  0.0569969750941  
4.3808529377  -0.000319579325151  0.0  -0.0  0.0496386624873  -0.00177366530988  0.0229617767036  
4.38896393776  -0.000319579325151  0.0  -0.0  0.0559903010726  -0.00143810699228  0.0452524349093  
4.39708304405  -0.000319579325151  0.0  -0.0  0.0221228804439  -0.00122239103075  0.0160828307271  
4.40521407127  0.0  0.0  -0.0  0.0143810706213  -0.00105461187195  0.0143810706213  
4.41336107254  0.0  0.0  -0.0  -0.023872576654  -0.000934769574087  -0.0191747602075  
4.42144298553  0.0  0.0  -0.0  -0.00644751312211  -0.000838895794004  -0.00647148163989  
4.42952895164  0.0  0.0  -0.0  -0.00644751312211  -0.000743021955714  -0.00359526765533  
4.43764090538  0.0  0.0  -0.0  -0.00381098361686  -0.000695085094776  -0.00246875034645  
4.44575285912  0.0  0.0  -0.0  -0.00258859270252  -0.000623179716058  -0.00189350766595  
4.45381999016  0.0  0.0  0.0129493549466  -0.0531380549073  -0.0267727598548  -0.00153398083057  
4.46190094948  0.0  0.0  0.0161579307169  -0.0423043146729  -0.0196780972183  -0.00129429635126  
4.47000002861  0.0  0.0  0.0238150525838  -0.0540248863399  -0.0387090481818  -0.0011025487911  
4.47807192802  0.0  0.0  0.00442297803238  -0.0143810706213  -0.00325970933773  -0.000862864253577  
4.48619294167  0.0  0.0  0.00231375452131  0.0227460600436  0.0396917536855  -0.000766990415286  
4.49424600601  0.0  0.0  -0.00743980705738  0.012152004987  0.0129429632798  -0.000719053496141  
4.50233387947  0.0  0.0  -0.00375825306401  0.00587227055803  0.00464987941086  -0.000647148175631  
4.5104830265  0.0  0.0  -0.00208365730941  0.0  0.00464987941086  -0.000599211256485  
4.51857209206  0.0  0.0  -0.00144449865911  0.0  0.00349939381704  -0.000551274395548  
4.52666091919  0.0  -0.0178964436054  0.000281229818938  0.0  0.0221708174795  0.0543604455888  
4.53476285934  0.0  -0.0170527528971  0.0156977362931  0.0  0.0215955749154  0.0473616570234  
4.5428609848  0.0  -0.0204530768096  0.0206831749529  0.0  0.0294332578778  0.0595855675638  
4.55094790459  0.0  -0.0258092265576  0.0220509748906  0.0  0.0313986688852  0.0746137872338  
4.55905890465  0.0  -0.0296825282276  0.0243008136749  0.0  0.0482724606991  0.0816125720739  
4.56716990471  0.0  -0.0176663454622  0.0153270252049  0.0  0.0107858031988  0.0457557737827  
4.57528305054  0.0  -0.0126425586641  0.00759320519865  0.0  0.0252867154777  0.0344666317105  
4.58334589005  0.0  -0.00942119862884  0.00442297803238  0.0  0.0107858031988  0.0185036435723  
4.59137487411  0.0  0.00126553419977  0.00224983855151  0.0  -0.00206128670834  0.00563258584589  
4.59948587418  0.0  0.00530501687899  -0.00622540572658  0.0  -0.00206128670834  0.00273240334354  
4.60753297806  0.0  0.00442297803238  -0.00412896508351  0.0  -0.0137818595394  -0.0117685096338  
4.61559796333  0.0  0.00227540498599  -0.00288899731822  0.0  -0.00587227055803  -0.00479369005188  
4.6237039566  0.0  0.00735032465309  -0.00178964424413  0.0  -0.00340351997875  -0.00299605634063  
4.63182497025  -0.000332362513291  0.00442297803238  -0.00129110051785  -0.018287928775  -0.00249271886423  0.0455160886049  
4.63995099068  -0.000332362513291  0.00205809087493  -0.0010098706698  -0.0192946027964  -0.0311110485345  0.045180529356  
4.64804196358  -0.000332362513291  0.00205809087493  -0.000830906268675  -0.0214757323265  -0.00862864218652  0.0538091734052  
4.65612602234  -0.000332362513291  0.00203252467327  -0.000703074561898  -0.0259098950773  -0.0391644500196  0.0756444334984  
4.664249897  -0.000332362513291  0.00141893222462  -0.000613592332229  -0.0261016432196  -0.0160588622093  0.0874848440289  
4.67238807678  -0.000332362513291  0.00108656974044  -0.000536893261597  -0.0267248228192  -0.0350418761373  0.0888031125069  
4.68051600456  -0.000332362513291  0.000882038963027  -0.000485760596348  -0.0117685096338  -0.0117685096338  0.0607360526919  
4.6885869503  -0.000332362513291  0.000741424039006  -0.000434627901996  -0.0226262174547  -0.00529702752829  0.0343947261572  
4.69666790962  0.0  0.000639158650301  -0.000396278366679  -0.00807736814022  -0.0108097717166  0.0189350768924  
4.70478987694  0.0  0.000562459637877  -0.000370712019503  -0.00402669981122  0.0123437521979  0.0129429632798  
4.71287798882  0.0  0.000498543784488  -0.000345145672327  -0.00232493970543  0.0461872033775  -0.00148604391143  
4.72097587585  0.0  0.000447411061032  -0.000319579325151  0.0139496382326  0.0215955749154  -0.0117685096338  
4.72907090187  0.0  0.000409061554819  -0.000294012977974  0.00680703995749  -0.00162985466886  -0.00479369005188  
4.73720502853  0.0  0.000383495207643  -0.000281229818938  0.0  -0.00162985466886  -0.00299605634063  
4.74533987045  0.0  0.000345145672327  -0.000255663471762  0.0  -0.00162985466886  -0.00218112906441  
4.75360608101  0.0  0.000319579325151  -0.000242880298174  0.0  0.0395719110966  0.0522512234747  
4.76164388657  0.0  0.000306796166115  -0.000230097124586  0.0  0.0143810706213  0.0451565608382  
4.76972603798  0.0  0.000281229818938  -0.000217313950998  0.0  0.0467624478042  0.0528024956584  
4.77784991264  0.0  0.000268446630798  -0.000217313950998  0.0  -0.00342748849653  0.0143810706213  
4.78595805168  0.0  0.000255663471762  -0.00020453077741  0.0  -0.00630370248109  0.00517718540505  
4.79407000542  0.0  0.000242880298174  -0.000191747603822  0.0  0.012918994762  0.00313986698166  
4.8021979332  0.0  0.000230097124586  -0.000178964430233  0.0  -0.0215955749154  -0.000719053496141  
4.81028103828  0.0  0.000217313950998  -0.000178964430233  0.0  -0.00587227055803  -0.000719053496141  
4.81839203835  0.0  0.00020453077741  -0.000166181256645  0.0  -0.00340351997875  -0.000719053496141  
4.82647895813  0.0  -0.0269341468811  0.0132689345628  0.0  0.0450367182493  0.0503577142954  
4.83457589149  0.0  -0.021092236042  0.0221532396972  0.0  0.0129429632798  0.04357464239  
4.84263300896  0.0  -0.0245309099555  0.0237767025828  0.0  0.0441498868167  0.0470740385354  
4.85072398186  0.0  -0.00942119862884  0.0116199050099  -0.000119842254207  -0.00318780401722  0.0104262763634  
4.85882496834  0.0  -0.00313187739812  -0.001137702493  -0.000119842254207  0.016682041809  0.00647148163989  
4.86690402031  0.0  -0.00143171544187  -0.00864142552018  -0.0129909003153  -0.00256462418474  -0.0135421743616  
4.87499904633  0.0  -0.00143171544187  -0.00766990426928  -0.0107378661633  -0.0259098950773  -0.0161787047982  
4.88309192657  0.0  -0.00143171544187  -0.00327249243855  -0.00647148163989  -0.00702275615185  -0.00546480668709  
4.8912088871  0.0  0.00155954714864  -0.00193025916815  -0.00359526765533  -0.00563258584589  -0.00546480668709  
4.89930295944  0.0  0.00451246043667  -0.00136779958848  -0.00246875034645  -0.00330764614046  0.0464748255908  
4.90749192238  0.0  0.00451246043667  -0.00106100342236  -0.00189350766595  -0.00234890822321  0.053713299334  
4.91557788849  0.0  0.0  -0.000856472644955  -0.00153398083057  -0.00182160222903  0.0531859919429  
4.92368507385  0.0  0.0  -0.00072864087997  -0.00129429635126  -0.00148604391143  0.0185036435723  
4.93176794052  0.0  0.0  -0.000626375491265  0.0  -0.00124635943212  0.00563258584589  
4.93987798691  0.0  0.0  -0.00054967647884  0.0  -0.00107858027332  0.00330764614046  
4.94798994064  0.0  0.0  -0.000498543784488  0.0  -0.00095873803366  -0.0117685096338  
4.95612001419  0.0  0.0  -0.0  0.0  -0.000838895794004  -0.00680703995749  
4.96421909332  0.0  0.0  -0.0  0.0  -0.000766990415286  0.0  
4.97233295441  0.0  0.0  -0.0  0.0  -0.000695085094776  0.0538810789585  
4.98039388657  0.0  0.0  -0.0  0.0  -0.000647148175631  0.0480567440391  
4.98855090141  0.0  0.0  -0.0  0.0  -0.000599211256485  0.0513883568347  
4.99658703804  0.0  0.0  -0.0  0.0  -0.000551274395548  0.0117685096338  
5.00469303131  0.0  0.0  -0.0  0.0  0.000527305935975  0.00479369005188  
5.01278400421  0.0  0.0  -0.0  0.0  0.000527305935975  0.0027803403791  
5.0208978653  0.0  0.0  -0.0  0.0  0.000527305935975  -0.0167779158801  
5.02898597717  0.0  0.0  -0.0  0.0  0.000527305935975  -0.00587227055803  
5.03715991974  0.0  0.0  -0.0  0.0  0.000527305935975  -0.00340351997875  
5.04524588585  0.0  0.0  -0.0  0.0  0.000527305935975  -0.0495427884161  
5.05337190628  0.0  0.0  -0.0  0.0  0.000527305935975  -0.0381098352373  
5.06149792671  0.0  0.0  -0.0  0.0  0.000527305935975  -0.0450846552849  
5.06956887245  0.0  0.0  -0.0  0.0  0.00103064335417  0.0029481195379  
5.07766604424  0.0  0.0  -0.0  0.0  0.00778974639252  -0.00206128670834  
5.08572793007  0.0  0.0  -0.0  0.0  0.00925182178617  -0.00848483201116  
5.09383797646  0.0  0.0  -0.0  0.0  0.00431432109326  0.0215955749154  
5.10194206238  0.0  0.0  -0.0  0.0  0.00280430866405  0.00587227055803  
5.11006593704  0.0  0.0  -0.0  0.0  0.00165382307023  0.0538810789585  
5.11818194389  0.0  0.0  -0.0  0.0  0.00136620167177  0.0364799834788  
5.1262319088  0.0  0.0  -0.0  0.0  0.00117445411161  0.0503337457776  
5.13436198235  0.0  0.0  -0.0  0.0  0.00100667495281  0.0107858031988  
5.14245700836  0.0  0.0  -0.0  0.0  0.000910801114514  0.0  
5.15052008629  0.0  0.0  -0.0  0.0  0.000814927334432  0.0  
5.15862488747  0.0  0.0  -0.0  0.0  0.000743021955714  -0.0156513992697  
5.16669106483  0.0  0.0  -0.0  0.0  0.000671116635203  -0.00807736814022  
5.17478489876  0.0  0.0  -0.0  0.0  0.000623179716058  -0.00402669981122  
5.18288493156  0.0161707140505  -0.0133200669661  0.0332618169487  0.0479608699679  0.000575242796913  -0.00268446654081  
5.19100594521  0.0134990308434  -0.0201974138618  0.0445621423423  0.0370312556624  0.000527305935975  -0.00201334990561  
5.19913601875  0.0262182895094  -0.0254001654685  0.0633278414607  0.0547439418733  0.000503337476403  -0.00160588615108  
5.20725703239  0.013677995652  -0.0148284817114  0.0329805873334  0.0202293731272  0.00047936901683  -0.00134223327041  
5.21537590027  0.00357928848825  -0.00579077750444  0.0125658595935  0.0154596511275  0.000431432126788  -0.00115048559383  
5.22355294228  0.00155954714864  -0.00291456351988  -0.0163113288581  -0.0276595912874  0.000407463667216  -0.00100667495281  
5.23162508011  -0.0115304226056  -0.00288899731822  -0.0123613290489  -0.012439626269  0.000407463667216  -0.000886832654942  
5.23971986771  -0.00685178115964  -0.00178964424413  -0.00958738010377  -0.0110973929986  0.000383495207643  -0.000790958874859  
5.24780106544  -0.00704352837056  -0.00129110051785  0.0010098706698  -0.00807736814022  0.00035952674807  -0.000719053496141  
5.25590801239  -0.00712022744119  0.001137702493  0.0010098706698  -0.00402669981122  0.000335558317602  -0.000671116635203  
5.26402401924  0.000830906268675  0.001137702493  0.0010098706698  -0.0429035276175  0.000335558317602  -0.000599211256485  
5.27211904526  0.000830906268675  0.001137702493  0.0010098706698  -0.0360725186765  0.000311589858029  -0.000575242796913  
5.28023695946  0.000830906268675  0.001137702493  0.0010098706698  -0.0515561364591  0.000311589858029  -0.000527305935975  
5.28832292557  0.00154676404782  0.00103543710429  0.000894822122063  -0.0132545530796  0.000287621398456  -0.000503337476403  
5.2964348793  -0.00360485492274  0.000856472644955  0.000741424039006  -0.0125354994088  0.000287621398456  -0.000455400557257  
5.3045129776  -0.00300404569134  0.000715857720934  -0.0  0.0220509748906  0.000263652967988  -0.000431432126788  
5.3125629425  -0.00182799377944  0.000626375491265  -0.0  0.0141174178571  0.000263652967988  -0.000407463667216  
5.32065105438  0.000421844713856  0.00054967647884  -0.0  0.00680703995749  0.000239684508415  -0.000383495207643  
5.32873606682  0.000421844713856  0.000485760596348  -0.0  0.00369114149362  0.000239684508415  -0.000383495207643  
5.33683300018  0.00153398083057  0.000447411061032  -0.0  0.00254065566696  0.000239684508415  -0.00035952674807  
5.34496188164  -0.0238534025848  0.000409061554819  -0.0  0.00191747606732  0.000215716063394  0.0489435754716  
5.3530459404  -0.0202868971974  0.000370712019503  -0.0  0.00155794934835  0.000215716063394  0.0532099604607  
5.36118102074  -0.0239045340568  0.000345145672327  -0.0  0.00129429635126  0.000215716063394  0.0523950345814  
5.36930608749  -0.00752928899601  0.000319579325151  -0.0  0.00112651719246  0.000215716063394  0.0107858031988  
5.37737989426  0.00102265388705  0.000294012977974  -0.0  0.000982706435025  0.000191747603822  0.00462591089308  
5.38547706604  0.00382216880098  0.000281229818938  -0.0  0.000886832654942  0.000191747603822  0.00239684502594  
5.3935739994  0.00478090671822  0.000191747603822  -0.0  0.000886832654942  0.000191747603822  -0.012223909609  
5.40166187286  0.00480647338554  0.000191747603822  -0.0  0.000886832654942  0.000191747603822  -0.00496146921068  
5.40976500511  0.00535614974797  0.000191747603822  -0.0  0.000886832654942  0.000191747603822  -0.00306796166115  
5.4178750515  0.00342589057982  0.000191747603822  -0.0  0.000886832654942  0.000167779158801  -0.00222906586714  
5.42599892616  0.00214757304639  0.000191747603822  -0.0  0.000886832654942  0.000167779158801  -0.00174969690852  
5.43406295776  0.00214757304639  0.000191747603822  -0.0  0.000886832654942  0.000167779158801  -0.00143810699228  
5.44220495224  0.00171294528991  0.000191747603822  -0.0  0.000886832654942  0.000167779158801  -0.00122239103075  
5.45024490356  -0.00122718466446  0.000191747603822  -0.0  0.000886832654942  0.000167779158801  -0.00105461187195  
5.45831298828  -0.00122718466446  0.000191747603822  -0.0  0.000862864253577  0.000167779158801  -0.000934769574087  
5.46637296677  -0.00122718466446  0.000191747603822  -0.0  0.000766990415286  0.000143810699228  -0.000838895794004  
5.47453188896  -0.00121440144721  0.000191747603822  -0.0  0.000719053496141  0.000143810699228  -0.000743021955714  
5.48258399963  -0.00095873803366  0.000191747603822  -0.0  0.0586507990956  0.000143810699228  -0.000695085094776  
5.49068188667  -0.000792556733359  0.000191747603822  -0.0  0.0389247648418  0.000143810699228  -0.000623179716058  
5.49880504608  -0.000677508185618  0.000191747603822  -0.0  0.0562060177326  0.000143810699228  -0.000575242796913  
5.50688886642  -0.000588025955949  0.000191747603822  -0.0  0.0206608045846  0.000143810699228  -0.000551274395548  
5.51500797272  -0.00052411010256  0.000191747603822  -0.0  0.0117685096338  0.000143810699228  -0.000503337476403  
5.52312207222  -0.000472977408208  0.000191747603822  -0.0  -0.020948426798  0.000143810699228  -0.00047936901683  
5.53125190735  0.000332362513291  0.000191747603822  -0.0  -0.0121999410912  0.000119842254207  -0.000455400557257  
5.53934407234  0.000332362513291  0.000191747603822  -0.0  -0.00539290159941  0.000119842254207  -0.000431432126788  
5.54744291306  0.000332362513291  0.000191747603822  -0.0  -0.00366717297584  0.000119842254207  -0.000407463667216  
5.55553293228  0.000332362513291  0.000191747603822  -0.0  -0.00366717297584  0.000119842254207  -0.000383495207643  
5.56359696388  0.000332362513291  0.000191747603822  -0.0  -0.00359526765533  0.000119842254207  0.0618625730276  
5.57167696953  0.000332362513291  0.000191747603822  -0.0  -0.00246875034645  0.000119842254207  0.0452044978738  
5.57976102829  0.000332362513291  0.000191747603822  -0.0  -0.00189350766595  0.000119842254207  0.0528983697295  
5.58786606789  0.000332362513291  0.000191747603822  -0.0  -0.00153398083057  0.000119842254207  0.0107858031988  
5.59594988823  0.000332362513291  0.000178964430233  -0.0  -0.00129429635126  0.000119842254207  0.00462591089308  
5.60404586792  0.000332362513291  0.000178964430233  -0.0  -0.0011025487911  0.000119842254207  0.00230097118765  
5.61217403412  0.000332362513291  0.000166181256645  -0.0  -0.00095873803366  0.000119842254207  -0.0125354994088  
5.62023591995  0.000332362513291  0.000166181256645  -0.0  -0.000671116635203  9.58738019108e-05  -0.00539290159941  
5.62832808495  0.000332362513291  0.000153398083057  -0.0  -0.000671116635203  9.58738019108e-05  -0.00323574081995  
5.63642406464  0.000332362513291  -0.0235082563013  0.0170016214252  -0.000671116635203  9.58738019108e-05  0.0556068047881  
5.64454197884  0.000319579325151  -0.0215779971331  0.0200823657215  -0.000671116635203  9.58738019108e-05  0.0420166924596  
5.65264296532  0.000294012977974  -0.0259626246989  0.0228179655969  -0.000671116635203  9.58738019108e-05  0.0515801049769  
5.6607439518  0.000281229818938  -0.00634045386687  0.00759320519865  -0.000671116635203  9.58738019108e-05  0.0117685096338  
5.66886591911  0.000268446630798  -0.00470420764759  -0.00186634331476  -0.000671116635203  9.58738019108e-05  0.0  
5.67696499825  0.000255663471762  -0.0023521038238  -0.00859029218554  -0.000671116635203  9.58738019108e-05  -0.00189350766595  
5.68504786491  0.000242880298174  0.0  -0.0086030755192  -0.000671116635203  9.58738019108e-05  -0.0143810706213  
5.69316291809  0.000230097124586  0.0  -0.00375825306401  -0.000671116635203  9.58738019108e-05  -0.00517718540505  
5.70125007629  0.000217313950998  0.000575242796913  -0.00208365730941  -0.000671116635203  9.58738019108e-05  -0.00313986698166  
5.70936894417  0.00020453077741  0.00414174841717  -0.00144449865911  0.000743021955714  -0.0506453365088  -0.00230097118765  
5.71749186516  0.000191747603822  0.00396278360859  -0.00109935295768  0.000743021955714  -0.0389966703951  -0.00179763382766  
5.72556686401  0.000191747603822  0.00214757304639  -0.000894822122063  0.000743021955714  -0.0107858031988  -0.00146207551006  
5.73365402222  0.000178964430233  0.00108656974044  -0.000741424039006  0.000743021955714  0.00297208782285  -0.00122239103075  
5.74176502228  0.000166181256645  0.00108656974044  -0.000651941867545  0.000743021955714  0.00896420050412  -0.00107858027332  
5.74987888336  0.000166181256645  0.00108656974044  -0.000575242796913  0.000743021955714  0.0113610457629  -0.000934769574087  
5.75798797607  0.000153398083057  0.00108656974044  -0.000511326943524  0.000743021955714  0.00496146921068  -0.000838895794004  
5.76607489586  0.000153398083057  0.00093317165738  -0.000409061554819  0.000743021955714  0.0235370192677  0.0531859919429  
5.77416491508  0.000140614909469  0.000779773574322  -0.000383495207643  0.000886832654942  0.0215955749154  0.0430952757597  
5.78224492073  0.000140614909469  0.000664725026581  -0.000345145672327  0.000886832654942  0.0435267053545  0.0546240992844  
5.79033493996  0.000140614909469  0.000588025955949  -0.000319579325151  0.000886832654942  -0.00412257341668  0.0138058280572  
5.79849386215  0.000127831735881  0.000511326943524  -0.000306796166115  0.000886832654942  0.0268206968904  0.00762196723372  
5.80655193329  0.000127831735881  0.000460194249172  -0.000281229818938  0.000886832654942  -0.0232254285365  0.0  
5.81465101242  0.000127831735881  0.000421844713856  -0.000268446630798  0.000886832654942  -0.0143810706213  -0.0100907180458  
5.82271504402  0.000115048562293  0.000383495207643  -0.000255663471762  0.000886832654942  -0.00517718540505  -0.00462591089308  
5.83081197739  0.000115048562293  0.000357928860467  -0.000242880298174  0.000886832654942  -0.00313986698166  -0.00292415102012  
5.83894205093  0.000115048562293  0.000332362513291  -0.000230097124586  0.000886832654942  -0.00225303438492  -0.00215716054663  
5.84702706337  0.000115048562293  0.000306796166115  -0.000217313950998  0.000862864253577  -0.00177366530988  -0.00170175998937  
5.8551158905  0.000102265388705  0.000294012977974  -0.00020453077741  0.000766990415286  -0.00143810699228  -0.00139017018955  
5.86322808266  0.000102265388705  0.000268446630798  -0.000191747603822  0.000695085094776  -0.00122239103075  -0.00119842251297  
5.8713259697  0.000102265388705  0.000255663471762  -0.000191747603822  0.000647148175631  -0.00105461187195  -0.00103064335417  
5.87943100929  0.000102265388705  0.000242880298174  -0.000178964430233  0.000599211256485  -0.000934769574087  -0.000910801114514  
5.8874900341  0.000102265388705  0.000230097124586  -0.000178964430233  0.000551274395548  -0.000838895794004  -0.000814927334432  
5.89558196068  8.94822151167e-05  0.000217313950998  -0.000166181256645  0.000527305935975  -0.000743021955714  -0.000743021955714  
5.90362787247  8.94822151167e-05  0.00020453077741  -0.000166181256645  0.00047936901683  -0.000695085094776  -0.000671116635203  
5.91172790527  8.94822151167e-05  0.00020453077741  -0.000153398083057  0.000455400557257  -0.000623179716058  -0.000623179716058  
5.91982388496  8.94822151167e-05  0.000191747603822  -0.000153398083057  0.000431432126788  -0.000575242796913  -0.000575242796913  
5.9279229641  8.94822151167e-05  0.000178964430233  -0.000140614909469  0.000407463667216  -0.000551274395548  -0.000527305935975  
5.93603301048  8.94822151167e-05  0.000178964430233  -0.000140614909469  0.000383495207643  -0.000503337476403  -0.000503337476403  
5.94412207603  8.94822151167e-05  0.000166181256645  -0.000140614909469  0.00035952674807  -0.00047936901683  -0.00047936901683  
5.95221686363  7.66990415286e-05  0.000166181256645  -0.000127831735881  0.00035952674807  -0.000455400557257  -0.000455400557257  
5.96033191681  7.66990415286e-05  0.000153398083057  -0.000127831735881  0.000335558317602  -0.000431432126788  -0.000431432126788  
5.96846199036  7.66990415286e-05  0.000153398083057  -0.000127831735881  0.000311589858029  -0.000407463667216  0.0527545586228  
5.97655200958  7.66990415286e-05  0.000140614909469  -0.000115048562293  0.000311589858029  -0.000383495207643  0.0422324091196  
5.98462891579  7.66990415286e-05  0.000140614909469  -0.000115048562293  0.000287621398456  -0.00035952674807  0.0504056513309  
5.99275708199  7.66990415286e-05  0.000140614909469  -0.000115048562293  0.000287621398456  -0.000335558317602  0.0107858031988  
6.00084400177  7.66990415286e-05  0.000127831735881  -0.000115048562293  0.000263652967988  -0.000335558317602  0.00867657922208  
6.00893092155  7.66990415286e-05  0.000127831735881  -0.000102265388705  0.000263652967988  -0.000311589858029  -0.00117445411161  
6.01701903343  7.66990415286e-05  0.000127831735881  -0.000102265388705  0.000263652967988  -0.000311589858029  -0.0171134732664  
6.02515697479  6.39158679405e-05  0.000115048562293  -0.000102265388705  0.000263652967988  -0.000287621398456  -0.00680703995749  
6.03321504593  6.39158679405e-05  0.000115048562293  -0.000102265388705  0.000263652967988  -0.000287621398456  -0.00369114149362  
6.04133987427  6.39158679405e-05  0.000115048562293  -0.000102265388705  0.000263652967988  -0.000263652967988  0.0607839897275  
6.04942703247  6.39158679405e-05  0.000115048562293  -8.94822151167e-05  0.000263652967988  -0.000263652967988  0.0545761622488  
6.05749607086  6.39158679405e-05  0.000102265388705  -8.94822151167e-05  0.000263652967988  -0.000263652967988  0.0535215511918  
6.06558990479  6.39158679405e-05  0.000102265388705  -8.94822151167e-05  0.000263652967988  -0.000239684508415  0.0131586799398  
6.07368707657  6.39158679405e-05  0.000102265388705  -8.94822151167e-05  0.000263652967988  -0.000239684508415  0.00647148163989  
6.08175206184  6.39158679405e-05  0.000102265388705  -8.94822151167e-05  0.000263652967988  -0.000239684508415  0.0  
6.08985996246  6.39158679405e-05  0.000102265388705  -8.94822151167e-05  0.000263652967988  -0.000215716063394  -0.011456919834  
6.09795808792  6.39158679405e-05  0.000102265388705  -8.94822151167e-05  0.000263652967988  -0.000215716063394  -0.00680703995749  
6.10608196259  6.39158679405e-05  8.94822151167e-05  -7.66990415286e-05  0.000263652967988  -0.000215716063394  -0.00369114149362  
6.1141910553  6.39158679405e-05  8.94822151167e-05  -7.66990415286e-05  0.000263652967988  -0.000191747603822  -0.00254065566696  
6.12226986885  5.11326943524e-05  8.94822151167e-05  -7.66990415286e-05  0.000263652967988  -0.000191747603822  -0.00191747606732  
6.1303319931  5.11326943524e-05  8.94822151167e-05  -7.66990415286e-05  0.000263652967988  -0.000191747603822  -0.00155794934835  
6.13849186897  5.11326943524e-05  8.94822151167e-05  -7.66990415286e-05  0.000263652967988  -0.000191747603822  -0.00129429635126  
6.14656305313  5.11326943524e-05  8.94822151167e-05  -7.66990415286e-05  0.000263652967988  -0.000191747603822  -0.00112651719246  
6.15465593338  5.11326943524e-05  7.66990415286e-05  1.27831735881e-05  0.000263652967988  -0.000167779158801  -0.000982706435025  
6.16273903847  5.11326943524e-05  7.66990415286e-05  1.27831735881e-05  0.000263652967988  -0.000167779158801  -0.000862864253577  
6.17082500458  5.11326943524e-05  7.66990415286e-05  1.27831735881e-05  0.000263652967988  -0.000167779158801  -0.000790958874859  
6.17891788483  5.11326943524e-05  7.66990415286e-05  1.27831735881e-05  0.000263652967988  -0.000167779158801  -0.000719053496141  
6.18701195717  5.11326943524e-05  7.66990415286e-05  1.27831735881e-05  0.000263652967988  -0.000167779158801  -0.000647148175631  
6.19510793686  5.11326943524e-05  7.66990415286e-05  1.27831735881e-05  0.000263652967988  -0.000167779158801  -0.000599211256485  
6.20320606232  5.11326943524e-05  7.66990415286e-05  1.27831735881e-05  0.000263652967988  -0.000143810699228  -0.000551274395548  
6.2113058567  5.11326943524e-05  7.66990415286e-05  1.27831735881e-05  0.000263652967988  -0.000143810699228  0.000119842254207  
6.21954298019  5.11326943524e-05  7.66990415286e-05  1.27831735881e-05  0.000263652967988  -0.000143810699228  0.000119842254207  
6.22761106491  5.11326943524e-05  6.39158679405e-05  1.27831735881e-05  0.000263652967988  -0.000143810699228  0.000119842254207  
6.23564386368  5.11326943524e-05  6.39158679405e-05  1.27831735881e-05  0.000263652967988  -0.000143810699228  0.000119842254207  
6.24370789528  5.11326943524e-05  6.39158679405e-05  1.27831735881e-05  0.000263652967988  -0.000143810699228  0.0598492212594  
6.25180387497  5.11326943524e-05  6.39158679405e-05  1.27831735881e-05  0.000263652967988  -0.000143810699228  0.0452044978738  
6.25988698006  5.11326943524e-05  6.39158679405e-05  1.27831735881e-05  0.000263652967988  -0.000143810699228  0.0583152398467  
6.26801109314  3.83495207643e-05  6.39158679405e-05  1.27831735881e-05  0.000239684508415  -0.000119842254207  0.0185036435723  
6.2761349678  3.83495207643e-05  6.39158679405e-05  1.27831735881e-05  0.000239684508415  -0.000119842254207  0.00563258584589  
6.28425502777  3.83495207643e-05  6.39158679405e-05  1.27831735881e-05  0.000239684508415  -0.000119842254207  0.00258859270252  
6.29237389565  3.83495207643e-05  6.39158679405e-05  1.27831735881e-05  0.000239684508415  -0.000119842254207  -0.00922785326838  
6.30053901672  3.83495207643e-05  6.39158679405e-05  1.27831735881e-05  0.000215716063394  -0.000119842254207  -0.00647148163989  
6.30863308907  3.83495207643e-05  6.39158679405e-05  1.27831735881e-05  0.000215716063394  -0.000119842254207  -0.00359526765533  
6.3167309761  3.83495207643e-05  -0.03232864663  0.0323669947684  0.000215716063394  -0.0530901178718  -0.00246875034645  
6.32481908798  3.83495207643e-05  -0.033913757652  0.0352176427841  0.000191747603822  -0.0473137199879  -0.00189350766595  
6.33293890953  3.83495207643e-05  -0.0125658595935  0.0193153750151  0.000191747603822  -0.0143810706213  -0.00153398083057  
6.34103298187  3.83495207643e-05  0.00163624621928  0.0062765381299  0.000191747603822  0.00139017018955  -0.00129429635126  
6.34915685654  3.83495207643e-05  0.00603365805  -0.0108912633732  0.000191747603822  0.00139017018955  -0.0011025487911  
6.35725307465  3.83495207643e-05  -0.0012399678817  -0.00825793016702  0.000191747603822  0.0103783393279  -0.00095873803366  
6.36540293694  3.83495207643e-05  -0.00317022693343  -0.00342589057982  0.000167779158801  0.00719053531066  -0.000862864253577  
6.37352895737  3.83495207643e-05  0.00479369005188  0.000651941867545  0.000167779158801  0.00381098361686  -0.000766990415286  
6.3816049099  3.83495207643e-05  0.00342589057982  0.000651941867545  0.000167779158801  0.00258859270252  -0.000719053496141  
6.38970208168  3.83495207643e-05  0.00198139180429  0.000651941867545  0.000167779158801  0.00194144446868  -0.000647148175631  
6.39778804779  3.83495207643e-05  0.00139336590655  0.000651941867545  0.000167779158801  0.00155794934835  -0.000599211256485  
6.40588402748  3.83495207643e-05  0.00107378652319  0.000651941867545  0.000167779158801  0.00131826475263  -0.000551274395548  
6.41398096085  3.83495207643e-05  0.000869255803991  0.000651941867545  0.000143810699228  0.00112651719246  -0.000527305935975  
6.42211699486  3.83495207643e-05  0.000626375491265  0.000613592332229  0.000143810699228  0.000886832654942  -0.000455400557257  
6.43019604683  3.83495207643e-05  0.000562459637877  0.00054967647884  0.000143810699228  0.000790958874859  -0.000431432126788  
6.43826293945  3.83495207643e-05  0.000498543784488  0.000485760596348  0.000143810699228  0.000719053496141  0.0602566860616  
6.44633197784  3.83495207643e-05  0.000447411061032  0.000434627901996  0.000143810699228  0.000647148175631  0.046570699662  
6.45449590683  3.83495207643e-05  0.000409061554819  0.000396278366679  0.000143810699228  0.000599211256485  0.0483443662524  
6.4625749588  3.83495207643e-05  0.000370712019503  0.000370712019503  0.000143810699228  0.000551274395548  0.01459678635  
6.47066092491  3.83495207643e-05  0.000345145672327  0.000345145672327  0.000119842254207  0.000527305935975  0.0  
6.47876787186  3.83495207643e-05  0.000319579325151  0.000319579325151  0.000119842254207  0.00047936901683  0.00225303438492  
6.48687386513  3.83495207643e-05  0.000294012977974  0.000294012977974  0.000119842254207  0.000455400557257  -0.0176168121397  
6.49499297142  3.83495207643e-05  0.0  0.000281229818938  0.000119842254207  0.000431432126788  -0.0107858031988  
6.50311207771  3.83495207643e-05  0.0  0.000255663471762  0.000119842254207  0.000407463667216  -0.00462591089308  
6.51123690605  2.55663471762e-05  0.0  -0.0169760547578  0.000119842254207  -0.0550075955689  -0.0521793179214  
6.51936006546  2.55663471762e-05  0.0  -0.018995795399  0.000119842254207  -0.0186234861612  -0.0365039519966  
6.52747297287  2.55663471762e-05  0.0  -0.0255919136107  0.000119842254207  -0.042951464653  -0.0450127497315  
6.5355899334  2.55663471762e-05  0.0  -0.0125658595935  0.000119842254207  -0.00862864218652  -0.010761834681  
6.54367899895  2.55663471762e-05  0.0  -0.00342589057982  0.000119842254207  -0.00417051045224  -0.00647148163989  
6.55180907249  2.55663471762e-05  -0.000153398083057  0.012834305875  0.000119842254207  -0.00266049802303  0.00412257341668  
6.55993103981  2.55663471762e-05  -0.000153398083057  0.00671116588637  9.58738019108e-05  0.00929975882173  0.0185036435723  
6.56798887253  2.55663471762e-05  -0.000153398083057  0.00470420764759  9.58738019108e-05  0.00673513486981  0.00563258584589  
6.57607507706  2.55663471762e-05  0.000485760596348  0.0023521038238  9.58738019108e-05  0.00431432109326  0.00330764614046  
6.58415699005  2.55663471762e-05  0.000485760596348  0.00155954714864  9.58738019108e-05  0.0332682095468  0.0476492792368  
6.59227585793  2.55663471762e-05  0.000485760596348  0.0011760519119  9.58738019108e-05  0.0185036435723  0.038685079664  
6.60039305687  2.55663471762e-05  0.000485760596348  0.00093317165738  9.58738019108e-05  0.0530901178718  0.0493989773095  
6.60853385925  2.55663471762e-05  0.000485760596348  0.000779773574322  9.58738019108e-05  -0.02940928936  0.0143810706213  
6.6166229248  2.55663471762e-05  0.000485760596348  0.000664725026581  9.58738019108e-05  0.0417770110071  0.00225303438492  
6.62471103668  2.55663471762e-05  0.000485760596348  0.000588025955949  9.58738019108e-05  -0.0327648706734  -0.00304399314336  
6.63282895088  2.55663471762e-05  0.000485760596348  0.000511326943524  9.58738019108e-05  -0.0164902936667  -0.0220509748906  
6.64089298248  2.55663471762e-05  0.000485760596348  0.000460194249172  9.58738019108e-05  -0.00762196723372  -0.00719053531066  
6.64898705482  2.55663471762e-05  0.000472977408208  0.000421844713856  9.58738019108e-05  -0.00390685768798  0.0  
6.65706300735  0.0337731428444  0.000421844713856  0.000383495207643  9.58738019108e-05  -0.0527785271406  0.0  
6.66518306732  0.0337731428444  0.000396278366679  0.000357928860467  9.58738019108e-05  -0.0431192442775  0.0  
6.67327594757  0.0144705520943  0.000357928860467  0.000332362513291  9.58738019108e-05  -0.0185036435723  0.0  
6.68137097359  0.00342589057982  0.000332362513291  0.000306796166115  9.58738019108e-05  0.00220509758219  0.0  
6.68955302238  -0.00772103667259  0.000306796166115  0.000294012977974  9.58738019108e-05  0.00220509758219  0.0  
6.69763207436  -0.00313187739812  0.000294012977974  0.000268446630798  7.19053496141e-05  0.0047217849642  0.0  
6.70569586754  -0.00237767025828  0.0  0.000255663471762  7.19053496141e-05  0.00445813173428  0.0  
6.71379208565  -0.0125275095925  0.0  0.000242880298174  7.19053496141e-05  0.00287621398456  0.0  
6.72181296349  -0.00942119862884  0.0  0.000230097124586  7.19053496141e-05  0.0021092237439  -0.0554629936814  
6.72990489006  0.000971521192696  0.0  -5.11326943524e-05  7.19053496141e-05  0.00167779158801  -0.0410339869559  
6.73799204826  0.00697961263359  0.0  -5.11326943524e-05  7.19053496141e-05  0.00139017018955  -0.0470261014998  
6.7460770607  -0.0012399678817  0.0  -5.11326943524e-05  7.19053496141e-05  0.00117445411161  -0.0117685096338  
6.75413799286  -0.00424401368946  0.0  -5.11326943524e-05  7.19053496141e-05  0.00103064335417  -0.00479369005188  
6.76225304604  -0.00424401368946  0.0  -5.11326943524e-05  7.19053496141e-05  0.000910801114514  0.000814927334432  
6.7703139782  -0.00227540498599  0.0  -5.11326943524e-05  7.19053496141e-05  0.000814927334432  0.0161787047982  
6.77840995789  -0.00153398083057  0.0  -5.11326943524e-05  7.19053496141e-05  0.000743021955714  0.00862864218652  
6.78653407097  0.000294012977974  0.0  -5.11326943524e-05  7.19053496141e-05  0.000671116635203  0.00417051045224  
6.79459404945  0.000294012977974  0.0  0.0360996834934  7.19053496141e-05  0.000623179716058  0.00275637186132  
6.80268597603  0.000294012977974  0.0  0.0280334986746  7.19053496141e-05  0.000575242796913  0.00203731842339  
6.81077885628  0.000294012977974  0.0  0.00685178115964  7.19053496141e-05  0.000527305935975  0.00162985466886  
6.81888699532  0.000294012977974  0.0  -0.00911440234631  4.79369009554e-05  0.000503337476403  0.00134223327041  
6.82701992989  0.000294012977974  0.0  -0.0160684492439  4.79369009554e-05  0.00047936901683  0.00115048559383  
6.83508491516  0.000294012977974  0.0  -0.00752928899601  4.79369009554e-05  0.000431432126788  0.00100667495281  
6.84316396713  0.0  0.0  -0.0029529130552  4.79369009554e-05  0.000407463667216  0.000886832654942  
6.85127902031  0.0  0.0  -0.0029529130552  4.79369009554e-05  0.000407463667216  0.000814927334432  
6.85947394371  0.0  0.0  0.00201974133961  4.79369009554e-05  0.000383495207643  0.000719053496141  
6.8675069809  0.0  0.0  -0.00294012995437  4.79369009554e-05  0.00035952674807  0.000671116635203  
6.87559199333  0.0  0.0  -0.00294012995437  4.79369009554e-05  0.000335558317602  -0.000143810699228  
6.8836710453  0.0  0.0  -0.00221148901619  0.0597054101527  0.000335558317602  0.0452524349093  
6.89176607132  0.0  0.0  -0.00149563129526  0.0458995848894  0.000311589858029  0.0189111083746  
6.89986205101  0.0  0.0  -0.001137702493  0.0639717951417  0.000311589858029  0.049015481025  
6.90794992447  0.0  0.0  -0.000907605339307  0.0218592267483  0.000287621398456  0.0161787047982  
6.9160630703  0.0  0.0  -0.000766990415286  0.0161787047982  0.000287621398456  0.00539290159941  
6.92410802841  0.0  0.0  -0.000651941867545  -0.0255503691733  0.000263652967988  0.00254065566696  
6.93221688271  0.0  0.0  -0.000575242796913  -0.00783768296242  0.000263652967988  -0.0193904768676  
6.94031095505  0.0  0.0  -0.000511326943524  -0.00587227055803  0.000239684508415  -0.0133504271507  
6.94842290878  0.0  0.0  -0.000460194249172  -0.00340351997875  0.000239684508415  -0.00517718540505  
6.95652508736  0.0  0.0  -0.000421844713856  -0.00239684502594  0.000239684508415  0.0  
6.96460199356  0.0  0.0  -0.000383495207643  -0.0510767698288  0.000215716063394  0.0  
6.97266888618  0.0  0.0  -0.000357928860467  -0.0444854460657  0.000215716063394  0.0  
6.98076796532  0.0  0.0  -0.000332362513291  -0.0571647547185  0.000215716063394  0.0  
6.98888206482  0.0  0.0  -0.000306796166115  -0.0246395673603  0.000215716063394  0.0  
6.9969959259  0.0  0.0  -0.000281229818938  -0.0161787047982  0.000191747603822  0.0  
7.00511097908  0.0  0.0  -0.000268446630798  0.018863171339  0.000191747603822  0.0  
7.01317596436  0.0  0.0  -0.000255663471762  0.00956341158599  0.000191747603822  0.0  
7.02126908302  0.0  0.0  -0.000242880298174  0.00680703995749  0.000191747603822  0.0  
7.02936005592  0.0  0.0  -0.000230097124586  0.00572845991701  0.000191747603822  0.0  
7.03752803802  0.0  0.0  -0.000217313950998  0.00529702752829  0.000167779158801  0.0  
7.0455789566  0.0  -0.0373268648982  0.0307946652174  0.00529702752829  0.000167779158801  0.0  
7.05366206169  0.0  -0.0438590683043  0.0368155390024  0.00359526765533  0.000167779158801  0.0  
7.06176495552  0.0  -0.00782330241054  0.0107634318992  0.0  0.000167779158801  0.0  
7.06986808777  0.000242880298174  0.0129110049456  -0.0104310698807  0.0  0.000167779158801  0.0  
7.07794904709  0.00471699098125  -0.00162346300203  -0.0201846305281  0.0  0.000167779158801  0.0  
7.08611607552  0.00212200684473  0.00126553419977  -0.00502378726378  0.0  0.000119842254207  0.0  
7.09418606758  -0.00281229824759  0.00685178115964  0.0011760519119  0.0  0.000119842254207  0.0  
7.10224103928  -0.00281229824759  0.0027867318131  0.0011760519119  0.0  0.000119842254207  0.0  
7.11032485962  -0.00221148901619  0.00175129482523  0.0011760519119  0.0  0.000119842254207  0.0  
7.1183950901  -0.00149563129526  0.00126553419977  -0.0  0.0  0.000119842254207  7.19053496141e-05  
7.12653493881  -0.001137702493  0.000997087568976  -0.0  0.0  -0.0621741600335  7.19053496141e-05  
7.13461399078  -0.000907605339307  0.000639158650301  -0.0  0.0  -0.0371990352869  7.19053496141e-05  
7.1427090168  0.000613592332229  0.000639158650301  -0.0  -0.000167779158801  -0.0191028546542  7.19053496141e-05  
7.15080308914  0.000613592332229  0.000639158650301  -0.0  -0.000167779158801  0.00201334990561  7.19053496141e-05  
7.15889906883  0.000613592332229  0.000639158650301  -0.0  -0.000167779158801  0.00201334990561  7.19053496141e-05  
7.16695594788  0.0  0.000639158650301  -0.0  -0.000167779158801  0.00601608119905  7.19053496141e-05  
7.17508006096  0.0  0.000639158650301  -0.0  -0.000167779158801  0.00395479425788  0.00119842251297  
7.1832010746  0.0  0.000639158650301  -0.0  -0.000167779158801  0.0  0.0140455123037  
7.19132494926  0.0  0.000639158650301  -0.0  -0.000167779158801  0.051460262388  0.00750212511048  
7.19939494133  0.0  0.0  -0.0  -0.000167779158801  0.0392363555729  0.00615989184007  
7.20745491982  0.0  0.0  -0.0  -0.00107858027332  0.0119602568448  0.00349939381704  
7.2155559063  0.0  0.0  -0.0  -0.00671116635203  -0.00850879959762  0.0024447820615  
7.22363090515  0.0  0.0  -0.0  -0.00738228298724  -0.0084368949756  0.00186953914817  
7.23175406456  0.0  0.0  -0.0  -0.00517718540505  -0.00771784130484  0.00151001242921  
7.239839077  0.0  0.0  -0.0  -0.00313986698166  -0.00505734328181  0.00127032783348  
7.24792408943  0.0  0.0  -0.0  -0.00225303438492  -0.00505734328181  0.0011025487911  
7.25605797768  0.0249783210456  0.0  -0.0  -0.00177366530988  -0.0296969097108  -0.0590342953801  
7.26416301727  0.0239684507251  0.0  -0.0  -0.00143810699228  -0.0185036435723  -0.0376784056425  
7.2722299099  0.0288388393819  0.0  -0.0  -0.00122239103075  -0.0448210015893  -0.040914144367  
7.28034591675  0.0104949856177  0.0  -0.0  -0.00105461187195  0.00321177230217  -0.0107858031988  
7.28854393959  -0.000984304351732  0.0  -0.0  -0.000934769574087  0.00321177230217  -0.00462591089308  
7.29653692245  -0.000984304351732  0.0  -0.0  0.0  0.00491353264078  0.00385892065242  
7.30461788177  -0.00249271886423  0.0  -0.0  0.0  0.00146207551006  0.0181680861861  
7.31270503998  -0.00653220154345  0.0  -0.0  0.0  0.00958738010377  0.00719053531066  
7.32078790665  -0.00685178115964  0.0  -0.0  0.0  0.00496146921068  0.0  
7.32890295982  -0.00636602053419  0.0  -0.0  0.0488956384361  0.00325970933773  0.0457797423005  
7.33702301979  -0.0189318805933  0.0  0.000166181256645  0.0425679683685  0.0244238507003  0.0187912657857  
7.34510993958  -0.0223961193115  0.0  0.000166181256645  0.0548158474267  0.0318301022053  0.0470500700176  
7.35319590569  -0.0150713613257  0.0  0.000166181256645  0.0180961806327  0.0126793105155  0.0108577078208  
7.36131596565  -0.00538171594962  0.0  0.00190469285008  0.0133743956685  -0.0121280364692  0.0144529761747  
7.36941194534  -0.00185356021393  0.0  0.00190469285008  -0.00213319202885  -0.0350898131728  -0.0393561944366  
7.37750792503  0.00714579410851  0.0  0.00175129482523  -0.0161787047982  -0.0240643247962  -0.00925182178617  
7.38559293747  0.00884595606476  0.0  0.00126553419977  -0.00994690693915  0.00167779158801  -0.00431432109326  
7.39368200302  0.0100092245266  0.0  0.000997087568976  -0.00445813173428  0.00167779158801  -0.00280430866405  
7.40177798271  0.00632767099887  0.0  0.000856472644955  -0.00287621398456  0.00167779158801  -0.00208525522612  
7.40990400314  -0.00118883512914  0.0  -0.00131666683592  -0.0546480678022  -0.0299605634063  -0.0517478846014  
