Ethan-CYM/ros_catkin_ws/test/servol_静止不动/ur_joint_target_current.txt
time  shoulder_pan_joint  shoulder_lift_joint  elbow_joint  wrist_1_joint  wrist_2_joint  wrist_3_joint
0.161799907684  1.56428876896e-05  -2.16590316944  -1.01592694599  -0.199852901232  0.0612634961507  -0.140326993793  
0.16971206665  9.14638322495e-06  -2.16592339622  -1.01593367058  -0.191081726957  0.0656735999098  -0.111444195311  
0.177799940109  3.10006217763e-06  -2.1659446822  -1.01594092059  -0.182808557306  0.0693338171948  -0.0896386906382  
0.18594789505  0.000190012693021  -2.16596671367  -1.01594858824  -0.17504572933  0.0929241173815  -0.0536378634495  
0.194009065628  0.000158198397409  -2.16681972463  -1.0162564332  -0.189706504118  0.100675983366  -0.022390767006  
0.202112913132  0.000320387931063  -2.16760284157  -1.01653860686  -0.221643005434  0.119090978494  0.00397312184519  
0.210211992264  1.83304672898e-05  -2.16582521161  -1.01589544727  -0.203526669649  0.12345204367  0.0281261998936  
0.218498945236  -8.89843716932e-05  -2.16584991762  -1.01590373704  -0.193244363933  0.117928012271  0.0473273902949  
0.226562023163  -9.11473090028e-05  -2.1658757741  -1.01591261501  -0.18356505341  0.113657030277  0.0670532687345  
0.234627962112  -9.25735438538e-05  -2.16590252994  -1.01592197467  -0.174501493129  0.109011348189  0.443427193778  
0.242795944214  -9.33136030326e-05  -2.16592994952  -1.01593172107  -0.166061754391  0.104049083852  0.459191182797  
0.250828027725  0.00471090936608  -2.33838523404  -1.07814344845  -0.182640905074  0.109156488171  0.479158612854  
0.258987903595  0.0258959912835  -3.08882595573  -1.56236678629  -0.23439027293  0.105312036347  0.526346674545  
0.267143964767  0.0374050041309  -3.28199326011  -1.82902280006  -0.265091429348  0.0964706040566  0.553583241708  
0.275192975998  0.044163667675  -3.41972887207  -1.9039648221  -0.269722515798  0.0996025380252  0.578745751307  
0.283436059952  0.0837888677783  -3.55961818983  -1.96567988259  -0.233129362422  0.100417793748  0.597550122316  
0.291547060013  0.107541966905  -3.68456917106  -2.01403834738  -0.139634276986  0.100442750001  0.614378754829  
0.299482107162  0.161505977474  -3.80058671133  -2.05871264295  -0.0412060174564  0.0999440708042  0.62667365115  
0.307569026947  0.231169977747  -3.90017035528  -2.07160998013  0.0168127089439  0.109191288411  0.642425497962  
0.315741062164  0.31505914271  -3.98369759886  -2.04530412994  0.029821832687  0.105156054235  0.653658626842  
0.323807954788  0.408430978449  -4.0299598257  -2.02527389089  0.0401431486935  0.10233722735  0.660548015156  
0.331940889359  0.509626564682  -4.02165464989  -1.98230043796  0.055760259687  0.0991009973283  0.660674872329  
0.340033054352  0.587494674294  -4.00666285437  -1.94051415006  0.0712786893564  0.0953974528062  0.659566658223  
0.348126888275  0.610559964202  -3.94330877859  -1.89655984383  0.0843205826983  0.101612309431  0.646896457127  
0.356229066849  0.597154650444  -3.82462167051  -1.87592942686  0.0983142809486  0.0949317369249  0.633645934003  
0.364599943161  0.583325298443  -3.69378932148  -1.85517594124  0.108540152118  0.100063124403  0.614727953721  
0.372498035431  0.569866660944  -3.56566859576  -1.83543978331  0.118125224267  0.102617582281  0.590487990644  
0.380662918091  0.556734108206  -3.43997961862  -1.81648358293  0.130716003902  0.0940085726208  0.569100300217  
0.388586044312  0.544538844169  -3.31979432449  -1.79927117556  0.135345759594  0.0973671798439  0.545366690833  
0.396679878235  0.532712542185  -3.20458170718  -1.78348349094  0.135630377791  0.0776528841506  0.519369418009  
0.404764890671  0.521108128925  -3.09428056763  -1.78644951164  0.142294042617  0.082749532122  0.493127459919  
0.412831068039  0.496977162122  -2.99043671447  -1.799876789  0.140969693933  0.0733992969006  0.465960066014  
0.420972108841  0.486864202156  -2.89289899914  -1.82154807197  0.142526539332  0.0659799825452  0.440608609804  
0.429013967514  0.477540579543  -2.79966146086  -1.84230757926  0.147227566716  0.0690449470121  0.419216561725  
0.437201976776  0.468707783697  -2.71457074994  -1.87215817901  0.143995958257  0.0595697269312  0.392802011127  
0.44541311264  0.462465294063  -2.64706099743  -1.88386197392  0.140105208285  0.0520190061985  0.367710140486  
0.45355796814  0.45640018207  -2.58451431299  -1.90383538063  0.139341148299  0.0344221682392  0.343994119043  
0.461579084396  0.451327920486  -2.50967495928  -1.88564401583  0.13193637197  0.0195430648106  0.319087036557  
0.469548940659  0.458747030179  -2.46004121784  -1.92298991879  0.133801121772  0.00580711768726  0.300951967473  
0.477647066116  0.453564602682  -2.39765962207  -1.9220827314  0.125561848445  -0.0165394572883  0.278958463806  
0.485728979111  0.449848658491  -2.35461765528  -1.93087938424  0.123769122588  -0.0252556078589  0.261152517751  
0.493848085403  0.433631812759  -2.31492384279  -1.92113870027  0.118455312169  -0.0346984589064  0.242210972613  
0.501939058304  0.412407677824  -2.28120658499  -1.9295769296  0.116378933568  -0.0530114278873  0.227447707166  
0.509999990463  0.390452419998  -2.25276612447  -1.9378116393  0.110571732924  -0.0680240014713  0.211522345841  
0.518101930618  0.369181651596  -2.24188955298  -1.93769837741  0.10438864833  -0.0814547303704  0.197124778768  
0.526217937469  0.346903342562  -2.23453215812  -1.94615827572  0.101735859271  -0.0933416993765  0.184225830307  
0.534501075745  0.324307843026  -2.23023237496  -1.954025796  0.0991533597192  -0.0939001588375  0.175396552671  
0.542512893677  0.30164490951  -2.2276686086  -1.95217034739  0.0967950772363  -0.0953888887077  0.167874485401  
0.550580024719  0.279571969936  -2.24535746071  -1.97014278871  0.0901112885466  -0.0961690274842  0.156390078361  
0.558691978455  0.257681864663  -2.26251221321  -1.97757367813  0.0873700314275  -0.0962908331747  0.151539644595  
0.566812038422  0.234677385802  -2.2656427705  -1.9826679838  0.0889186081481  -0.0958046767276  0.145228324786  
0.574845075607  0.212897307569  -2.28726537349  -1.99815663461  0.0863443581979  -0.104590467159  0.140109957079  
0.582979917526  0.191976981562  -2.30859661016  -2.00350791305  0.0840763296754  -0.100656807753  0.136123761256  
0.591109991074  0.170885365151  -2.33287666014  -2.0265925446  0.0816708062408  -0.0979600611527  0.123526935375  
0.599354028702  0.151989313007  -2.36890206126  -2.03107316559  0.0829294721765  -0.0948639549458  0.11234209516  
0.607393026352  0.133286512352  -2.40558295275  -2.04409296786  0.0842422047858  -0.101247909721  0.102634382748  
0.61558508873  0.085968602009  -2.46716124492  -2.04096036277  0.0851587075585  -0.095222547471  0.0943425475518  
0.623590946198  0.0538910911976  -2.52864274834  -2.04626663311  0.0860860260418  -0.0905285349054  0.0873991873823  
0.631520986557  0.0243020374863  -2.58618787313  -2.0417293791  0.0873658211777  -0.0856369167836  0.0817321077626  
0.639677047729  -0.00344251781863  -2.64025843805  -2.04543573221  0.0959832463454  -0.0707692110752  0.0799874123582  
0.647754907608  -0.0290855058313  -2.69134527402  -2.04863105062  0.104773477714  -0.0483609287656  0.0739116483225  
0.655916929245  -0.0529405263409  -2.74048455543  -2.0605164411  0.113522673797  -0.0191490200229  0.0743099687683  
0.663985013962  -0.0749533656501  -2.7875236461  -2.08072810364  0.122178492498  0.00643077881069  0.0729403271801  
0.672082901001  -0.0943143977887  -2.83085316669  -2.09090571841  0.127338096896  0.041636388066  -0.28687231855  
0.680190086365  -0.11201384555  -2.87104699063  -2.10906008933  0.135947624064  0.0723302630112  -0.28702983349  
0.688323974609  -0.127259799146  -2.90660302156  -2.11686772303  0.144647010477  0.11055209997  -0.286553551005  
0.696494102478  -0.138975401187  -2.95311539943  -2.11655389346  0.149249235189  0.153948334164  -0.285483954228  
0.704524993896  -0.150502076097  -2.98108694798  -2.12312666865  0.157692243866  0.183734267264  -0.283862989025  
0.712613105774  -0.159869439087  -3.00659962476  -2.12938790703  0.162301993851  0.187007652399  -0.281733777877  
0.720715045929  -0.166939512039  -3.04378671929  -2.14528041541  0.169732223797  0.185126013248  -0.28187224954  
0.728843927383  -0.172762263658  -3.05976742863  -2.14024464639  0.17778091988  0.188291644288  -0.276129543082  
0.736917972565  -0.177363308801  -3.0747983589  -2.14457010333  0.181759357343  0.188008962923  -0.272724867807  
0.745048999786  -0.181798130485  -3.0732597234  -2.15604761197  0.185773451533  0.189367996514  -0.268991195391  
0.753160953522  -0.184573424227  -3.06833345397  -2.15757408851  0.189635484204  0.188969834045  -0.264972748588  
0.761267900467  -0.18605614227  -3.06059496795  -2.15838114969  0.19684875265  0.188510222214  -0.257977838083  
0.76953291893  -0.186136865504  -3.0520313233  -2.15926360265  0.200095908445  0.18799682709  -0.253514386852  
0.777615070343  -0.185025740729  -3.04184780308  -2.15987339995  0.203009664329  0.187436848017  -0.251646429454  
0.785584926605  -0.184026785623  -3.01453239324  -2.15835297282  0.20974753572  0.188543759633  -0.246946276836  
0.79363489151  -0.181942040535  -2.9877114051  -2.15715552039  0.212480535292  0.187917587913  -0.242163669282  
0.80179309845  -0.180079285737  -2.94579285737  -2.15437957973  0.215324958621  0.187253659317  -0.237334693426  
0.809904098511  -0.177377905958  -2.90586903907  -2.16089833611  0.217612908008  0.188266199833  -0.232493290714  
0.817931890488  -0.17364277207  -2.86550762737  -2.15796106771  0.219696914496  0.18755446992  -0.22767119163  
0.826016902924  -0.16934978681  -2.82749657145  -2.16435216986  0.221250688817  0.186814185112  -0.222897811736  
0.834136962891  -0.164236712202  -2.79062504687  -2.17050127435  0.220525454598  0.187759078279  -0.215465481269  
0.842309951782  -0.156942107202  -2.77039787935  -2.16956206337  0.211943290644  0.18698894919  -0.21359914927  
0.850490093231  -0.149433682378  -2.74882097411  -2.16782212078  0.210589225219  0.186197975688  -0.209142015274  
0.858490943909  -0.141377758939  -2.72789994054  -2.16614441984  0.209223991304  0.188807135818  -0.202092121853  
0.866570949554  -0.134799800475  -2.69408378563  -2.17215609795  0.208172519393  0.186300234691  -0.200664440672  
0.874646902084  -0.126150764088  -2.67542346195  -2.17040291779  0.206783389075  0.188883897213  -0.193963957916  
0.882714986801  -0.116559108605  -2.67383825334  -2.17956178596  0.204747173755  0.188061347055  -0.192910420382  
0.890794038773  -0.109433151537  -2.64227394677  -2.18507795455  0.203760758452  0.187214805791  -0.189337735734  
0.899002075195  -0.0922648156256  -2.61319348917  -2.19880579516  0.200629714623  0.188903308503  -0.18007130161  
0.907082080841  -0.0822025960277  -2.61212744557  -2.18845278377  0.19911501382  0.188032450177  -0.177136699492  
0.915240049362  -0.0771820335035  -2.55297657431  -2.17272863127  0.192846246429  0.187140552164  -0.174432344909  
0.923222064972  -0.0660549546262  -2.57044548196  -2.16536249531  0.191291617782  0.186240411198  -0.174685609262  
0.931399106979  -0.0600588036966  -2.52663602365  -2.14289082991  0.188621418386  0.185331912354  -0.172435034797  
0.939595937729  -0.0491326729265  -2.56477613917  -2.17486605338  0.192947999612  0.186135926099  -0.167663457448  
0.947582006454  -0.0415405738536  -2.55228640301  -2.16451644679  0.192449744378  0.185243139615  -0.168552162817  
0.955683946609  -0.0340748314256  -2.54155001561  -2.15521938117  0.188591384542  0.186058389128  -0.166926089055  
0.963567018509  -0.0272738836468  -2.52971213484  -2.14568482888  0.191805306565  0.185178363812  -0.165491690083  
0.971702098846  -0.0206249799823  -2.51967032261  -2.13728889409  0.19143080534  0.18600589401  -0.161517983351  
0.979824066162  -0.0146426724543  -2.51272250856  -2.1392472888  0.187503765098  0.183432237497  -0.160453749347  
0.987826108932  -0.0102078379874  -2.48939487249  -2.13887311809  0.19115545614  0.185970396697  -0.159578109369  
0.996011972427  -0.00642788273299  -2.46999320817  -2.14861524478  0.190996677982  0.183417587784  -0.158881412564  
1.00407910347  -0.00251731399702  -2.45060344569  -2.14912157145  0.191046366838  0.184269809173  -0.158353690785  
1.01214909554  -0.0327147505458  -2.41769891675  -2.15771108488  0.191465483691  0.183332171259  -0.0975638666798  
1.0204179287  -0.0479056557792  -2.38703147122  -2.15687453912  0.191994117369  0.182513543778  0.0100713228345  
1.02855205536  -0.0628138505327  -2.34354959383  -2.15471815704  0.192989196432  0.183412657023  0.112003686105  
1.03656601906  -0.075996374249  -2.30280924124  -2.14433754672  0.190699794658  0.182627808698  0.201324284063  
1.04449009895  -0.120379032673  -2.26598751883  -2.15311676369  0.191611077094  0.183455736452  0.20384028621  
1.05256295204  -0.148132358971  -2.23319824414  -2.15298662044  0.189059793525  0.182708243442  0.200812533849  
1.06065988541  -0.205065695625  -2.20223509106  -2.15353656462  0.185453777017  0.183569793443  0.200407439336  
1.06879806519  -0.244190440288  -2.1757450401  -2.15425419036  0.181750248092  0.182852766971  0.202638303592  
1.0768969059  -0.278501138973  -2.15319917938  -2.1558369951  0.174359806393  0.18555251252  0.202069522835  
1.08513689041  -0.308558662572  -2.13202717112  -2.14851350681  0.167164283251  0.18315087622  0.198706751747  
1.0931251049  -0.332822147627  -2.12655590757  -2.13401139975  0.163362884432  0.184145339151  0.200721210497  
1.10120105743  -0.354113615936  -2.12956549941  -2.16627473906  0.162335502891  0.185152768898  0.197247675756  
1.10946106911  -0.370713625351  -2.13147740291  -2.17076344864  0.154797671625  0.187871290732  0.196452395864  
1.11753201485  -0.384606033256  -2.11506250232  -2.14574927069  0.148517000446  0.188884083706  0.195631121293  
1.12564396858  -0.396004661152  -2.08378596654  -2.10230422682  0.139575000883  0.188168819002  0.194790852843  
1.13354492188  -0.404413907009  -2.05894672862  -2.07976689283  0.130251159138  0.187424380691  0.1939382521  
1.14163398743  -0.470062904607  -2.12319282983  -2.16794803524  0.134651752015  0.191581920119  0.19307955708  
1.14987802505  -0.539318338432  -2.11363485809  -2.16269486622  0.136195222946  0.194145757891  0.194937140761  
1.15779995918  -0.572317819606  -2.09263477092  -2.15708945366  0.131116024907  0.194980532195  0.194070703584  
1.16581201553  -0.592179917495  -2.08589557163  -2.14445815423  0.129553476756  0.195670363363  0.1931983454  
1.1739730835  -0.611749870059  -2.0676442939  -2.13181311535  0.121332560727  0.194617464128  0.192326011791  
1.18211603165  -0.629842481214  -2.0500879184  -2.11916666486  0.120530591471  0.195226799042  0.191459131339  
1.19037008286  -0.646339176978  -2.03616178603  -2.10807506956  0.116221435017  0.194103386576  0.190602686939  
1.19843387604  -0.661115811901  -2.02318811137  -2.08874954852  0.112260240611  0.192944406675  0.189761217153  
1.20649504662  -0.661652390718  -2.01248614795  -2.06139228296  0.108591731088  0.191863262383  0.191655235724  
1.21454000473  -0.674077354174  -2.00533787373  -2.04585977907  0.10123921728  0.190655907861  0.188126442528  
1.22261190414  -0.685187290488  -1.99940245486  -2.0312488884  0.0976990809161  0.189440559566  0.190053141701  
1.23069190979  -0.694761328651  -1.99403622888  -2.00882044926  0.0945675513659  0.188225575744  0.189280947982  
1.23890304565  -0.690500961715  -1.99367307309  -1.99729178763  0.0913467385556  0.188830830683  0.19124166654  
1.24697804451  -0.685690510664  -1.99602294378  -1.98769034742  0.0846733899709  0.187743889504  0.190493372333  
1.25504803658  -0.692824983913  -1.99700599024  -1.97037547734  0.0784735323556  0.186554529691  0.192468034721  
1.26330590248  -0.699251936616  -2.00082714394  -1.97227155221  0.0793663291271  0.187089363693  0.194441763024  
1.27143597603  -0.716634543065  -2.00351816883  -1.95776506516  0.0737055998121  0.187551256157  0.196401940472  
1.27950692177  -0.719946505589  -2.01058929102  -1.95389631627  0.0679661110652  0.186443384086  0.198337546523  
1.28755497932  -0.734796741667  -2.0148776921  -1.94158512586  0.066392645426  0.185241627148  0.200238661103  
1.2956430912  -0.735147097301  -2.02117340694  -1.9218464898  0.0615593773645  0.184170761961  0.202096355491  
1.3037250042  -0.747383133469  -1.82479396655  -1.91342270006  0.0567712759817  0.183020095045  0.201185813064  
1.31178689003  -0.745442424426  -1.60465103851  -1.8964411527  0.0560336907321  0.182008127881  0.202945704454  
1.31990909576  -0.730308929355  -1.41756628581  -1.89035030262  0.0552553870192  0.181133523934  0.204656748529  
1.32798695564  -0.715207659791  -1.25210770195  -1.88613503765  0.0510629404264  0.178580491439  0.203594934203  
1.3360710144  -0.700133995836  -1.11429232413  -1.88317392619  0.0470909352491  0.177758655687  0.202483257502  
1.34441804886  -0.672680822232  -1.12774336654  -1.88069190388  0.0469446504758  0.17879134163  0.204049326506  
1.35250711441  -0.658895603289  -1.1393605286  -1.87080940761  0.043663580574  0.174643323241  0.200140792757  
1.36057090759  -0.645339409164  -1.15279558266  -1.87163463921  0.0403579300144  0.175640027507  0.204359933694  
1.36854195595  -0.644931389352  -1.16487870517  -1.87360031122  0.0373276711528  0.17489179099  0.203112233287  
1.37661790848  -0.631613648629  -1.17574390971  -1.86647088616  0.0383276903423  0.174302259217  0.204549434738  
1.38470101357  -0.618696756184  -1.18762541349  -1.86112014375  0.0358812196476  0.17376219756  0.205953076169  
1.39286208153  -0.593711146965  -1.20073453445  -1.8567462498  0.0335588347982  0.173374301924  0.201881217452  
1.40088891983  -0.595288983021  -1.21087100579  -1.85385855426  0.0315321921118  0.172815917633  0.205940504608  
1.4089910984  -0.571520527711  -1.22356937713  -1.85161517879  0.0295683357889  0.17252136043  0.204534845107  
1.41711211205  -0.574618250549  -1.23479117978  -1.85997229636  0.0276778069718  0.170348987704  0.203099528842  
1.42517900467  -0.564752616738  -1.24539664932  -1.85933898396  0.0261383501588  0.170033030163  0.204363984116  
1.43348503113  -0.542912409675  -1.25696697436  -1.85932696197  0.0247134072224  0.154918550223  0.202891305407  
1.4414908886  -0.522564437028  -1.26800738144  -1.86007302813  0.0234593026289  0.103344330293  0.201404325225  
1.44956707954  -0.516161260134  -1.27715564341  -1.86170030416  0.0224244633958  0.0566698144206  0.202631642767  
1.45757508278  -0.510450740121  -1.28584258533  -1.86394167995  0.0174478225343  0.0133424035589  0.201135400607  
1.46562099457  -0.505415051349  -1.29404923412  -1.8667347409  -0.0773191058725  -0.0254792968333  0.19963757791  
1.4737739563  -0.488395011107  -1.30310109663  -1.86983324145  -0.164888026844  -0.0600164091589  0.20086536457  
1.48181390762  -0.485482574709  -1.30921355179  -1.75101483511  -0.223306961678  -0.0916350535688  0.202099166351  
1.4898879528  -0.470439548429  -1.31819200278  -1.51265492294  -0.302272129586  -0.129981239132  0.200612152442  
1.49796199799  -0.456735369614  -1.32450933093  -1.29240162626  -0.347534933837  -0.153177293892  0.199126112118  
1.50616002083  -0.444332227321  -1.33223422543  -1.1003684414  -0.351381011529  -0.171107678015  0.194932255014  
1.51419305801  -0.433326920343  -1.33730478044  -0.923243834091  -0.347839437761  -0.170884505757  0.196204414034  
1.52250409126  -0.42346931713  -1.34282785489  -0.762345151115  -0.347844842005  -0.170628844374  0.197507671133  
1.53051996231  -0.414737842189  -1.34775853958  -0.734476727683  -0.347778693094  -0.168636243437  0.196113421531  
1.53857088089  -0.407389333  -1.35307854746  -0.739943786129  -0.3512963914  -0.17173948574  0.192023370472  
1.54667711258  -0.401084409751  -1.3558075909  -0.74442431342  -0.347452771203  -0.169726108276  0.193409280369  
1.55468297005  -0.395865045264  -1.3590531229  -0.74950615075  -0.347181092982  -0.169383622257  0.192117138565  
1.56276488304  -0.391684842924  -1.36177981334  -0.754598001528  -0.346862679615  -0.169028483026  0.193581614068  
1.57088398933  -0.388582497972  -1.36498307169  -0.760179074393  -0.350154211087  -0.172082645293  0.189643407764  
1.57909798622  -0.384903740888  -1.3679777648  -0.770091923142  -0.349310907642  -0.171342405609  0.187343271397  
1.58718204498  -0.38431187136  -1.36879367349  -0.774884056438  -0.348839517866  -0.170953321568  0.183559162171  
1.59525108337  -0.38447753757  -1.41682567969  -0.77903910002  -0.344673654968  -0.168836615617  0.187996451343  
1.6031870842  -0.385424084058  -1.47069471492  -0.784117023743  -0.347773460831  -0.171823631675  0.184334866881  
1.61143803596  -0.386907974429  -1.52025093606  -0.787967514454  -0.343565747964  -0.169702162017  0.18616307419  
1.61950588226  -0.388956756443  -1.56941981744  -0.792709923694  -0.346634359184  -0.170969293061  0.182608059599  
1.62753891945  -0.391527848428  -1.61500640635  -0.796708766887  -0.346056276371  -0.170533058824  0.1818290022  
1.63561797142  -0.394559615898  -1.6579848467  -0.800509184995  -0.345461278101  -0.170084436381  0.1811140866  
1.64365291595  -0.398001828213  -1.6973221114  -0.8035916124  -0.341202618055  -0.167918141085  0.183178587125  
1.6517291069  -0.281109817825  -1.73500816394  -0.807015568465  -0.340586650926  -0.169156334425  0.179860727379  
1.65979099274  -0.135916047566  -1.77095025736  -0.810735856384  -0.343644684008  -0.168702225195  0.182033159883  
1.66790390015  -0.00187676974317  -1.80213385265  -0.813167518608  -0.339422527176  -0.168250804685  0.178822340476  
1.6760020256  0.121217119775  -1.83396370257  -0.81644574634  -0.34250455212  -0.167800053966  0.18109969477  
1.68407988548  0.233286766715  -1.86231598587  -0.81843465795  -0.33831187689  -0.167357356833  0.180706934051  
1.69216990471  0.335666465378  -1.88990289813  -0.821270468086  -0.341427298296  -0.168630408904  0.17763984823  
1.70025992393  0.428296612617  -1.91368361618  -0.823334572962  -0.340924780152  -0.168214105992  0.177341842597  
1.70848608017  0.511299913644  -1.93380192041  -0.824674611215  -0.336780142625  -0.166089354842  0.169497853448  
1.7166519165  0.55132408854  -1.95236063305  -0.826361029709  -0.33629755385  -0.165667223563  0.14112283135  
1.72457790375  0.54634329212  -1.96838589431  -0.827844323892  -0.335851932178  -0.166972019895  0.096906983316  
1.73264098167  0.541716667469  -1.98295464813  -0.829645539762  -0.339096253148  -0.164883070605  0.0580612196713  
1.74083089828  0.536946163386  -1.99412722599  -0.830701690893  -0.338725875019  -0.16450368903  0.0390614171911  
1.74897098541  0.532170542318  -2.00209858715  -0.831065562712  -0.322471132325  -0.164146222234  0.0188037882141  
1.75701999664  0.527629817036  -2.00999072324  -0.832323091817  -0.314798196267  -0.165517793929  1.12401848663e-05  
1.76517105103  0.523216992789  -2.01386365645  -0.873890770542  -0.28136359995  -0.163502917603  -0.0169034582419  
1.77312898636  0.519066361212  -2.01789963608  -0.932772366506  -0.275072973509  -0.163197225179  -0.0323177343027  
1.78140497208  0.514875235379  -2.01913291943  -0.989287183099  -0.265161017147  -0.164625636977  -0.046339069418  
1.78965306282  0.511069178343  -2.01875573458  -1.04378353873  -0.255315413785  -0.162666723966  -0.0589877258793  
1.79756999016  0.507250255113  -2.01688564668  -1.09607817945  -0.245590285825  -0.164129690584  -0.0702909845726  
1.8056910038  0.50373683948  -2.01365728688  -1.14602336531  -0.236038397323  -0.156307709844  -0.0802824362789  
1.81382489204  0.500429094577  -2.00919389359  -1.19349448713  -0.226705134033  -0.144774609646  -0.0890012863533  
1.8219139576  0.497331555348  -2.00361934117  -1.23839356709  -0.217631483827  -0.133236258533  -0.0797475205846  
1.83002305031  0.494344455464  -1.99607974539  -1.28013547619  -0.186921091827  -0.121766025491  -0.0899606847443  
1.83806705475  0.491785793078  -1.98970134345  -1.3202461936  -0.183658574465  -0.110426939721  -0.0795780930393  
1.84624505043  0.48933002893  -1.98150741285  -1.35707394238  -0.177107457867  -0.0992824866223  -0.0720090677147  
1.85451507568  0.487185032169  -1.9726681101  -1.39116303242  -0.170907241282  -0.0785591294661  -0.0645814880102  
1.86254096031  0.484943667205  -1.96230686907  -1.42324773252  -0.143155582393  -0.0703429390489  -0.0405968065978  
1.87062692642  0.483224265185  -1.95256728683  -1.45348174068  -0.120892946702  -0.0509489152875  -0.0207312780362  
1.87867903709  0.481502723026  -1.94247733181  -1.48095130072  -0.100528062945  -0.0441212973882  -0.00228663056662  
1.88686704636  0.480083496313  -1.9321343094  -1.50569877029  -0.0820450450927  -0.0359908970568  0.0150869261192  
1.89489603043  0.478956773302  -1.92259538265  -1.52828808288  -0.087425606097  -0.0282651935932  0.0311780508596  
1.9029750824  0.477901362944  -1.91190649742  -1.54771941379  -0.0894426791085  -0.0209626899657  0.0458321878209  
1.91110491753  0.477021061942  -1.90119911403  -1.56462562216  -0.0916880032248  -0.0140946832261  0.0762358890847  
1.91924405098  0.439207557229  -1.88956626415  -1.57858367301  -0.0721251641235  -0.00767094076079  0.101321887257  
1.927298069  0.401338073107  -1.8800788071  -1.59126821911  -0.0799247765475  -0.00169361724829  0.123844581883  
1.93544888496  0.36363637363  -1.86872484752  -1.60064991031  -0.062205602702  -0.0059739255023  0.143860078883  
1.94364595413  0.326829367044  -1.85865142701  -1.6084623679  -0.0497534642459  -0.00832324449829  0.161435954965  
1.95162606239  0.290876621769  -1.84884393054  -1.61426507991  -0.0388952148818  -0.0104349504955  0.176650033502  
1.95971798897  0.255940480219  -1.84031557452  -1.61868760991  -0.0516164236  -0.0221201515783  0.187338408843  
1.96779799461  0.222046312216  -1.8300978305  -1.62027561966  -0.0385913188462  -0.0312053591254  0.187125800556  
1.9758849144  0.189538571978  -1.82228304889  -1.62128413929  -0.0526594868312  -0.0492033970478  0.186900047432  
1.9839720726  0.158295189826  -1.81283527518  -1.61970644534  -0.0408710191823  -0.0639475546718  0.186663561807  
1.99204993248  0.128523370829  -1.80486240923  -1.61728702384  -0.0340264067119  -0.0869760398714  0.186418637674  
2.0002310276  0.100385164026  -1.79732833605  -1.61359646556  -0.0284432675986  -0.10612849765  0.186167445409  
2.0083360672  0.0739316569419  -1.79121868334  -1.60926735791  -0.0461044739923  -0.1231400951  0.185912027671  
2.01648306847  0.0487882777919  -1.78353125711  -1.60283993335  -0.0376631479875  -0.147912179673  0.185654296393  
2.02460098267  0.0256143316449  -1.77834355261  -1.59656699641  -0.0559665333501  -0.168293363125  0.185396030828  
2.03260588646  0.00388989890855  -1.77158836654  -1.58842731606  -0.0480644025745  -0.170064115139  0.18513887657  
2.04073405266  -0.0159754922936  -1.76746180124  -1.58066478613  -0.0667910783956  -0.169865018097  0.184884345494  
2.04881191254  -0.0345527816043  -1.76301304038  -1.57176170891  -0.0812371715779  -0.171350917447  0.184633816539  
2.05688595772  -0.0513891363797  -1.75801289146  -1.56186534561  -0.0729847199229  -0.169404902733  0.184388537278  
2.06497097015  -0.0666016903433  -1.75448052664  -1.55213648202  -0.0692033054475  -0.169127814403  0.186864569906  
2.07308292389  -0.0802206279126  -1.75232383734  -1.54262273723  -0.0882380138505  -0.17054443237  0.183904076806  
2.0811829567  -0.0920456862054  -1.74790118109  -1.50431739014  -0.102616745045  -0.168540113012  0.183664975912  
2.08936905861  -0.10273033253  -1.74558675958  -1.47715527478  -0.116391988804  -0.169924752284  0.183436347647  
2.0975279808  -0.111852114334  -1.74363603292  -1.45153345576  -0.129308410901  -0.169602989136  0.17616578246  
2.10559201241  -0.119474838906  -1.7420328138  -1.42748944286  -0.141353318369  -0.16755660252  0.182908344493  
2.11358594894  -0.12596529059  -1.73978027579  -1.40453478302  -0.13056173171  -0.167200367758  0.185489017155  
2.12165999413  -0.131062194426  -1.73987051524  -1.38426206275  -0.146042368524  -0.168555045146  0.169506732992  
2.12976098061  -0.135056884651  -1.73822191966  -1.36494364728  -0.135052329486  -0.168215964172  0.156215712712  
2.13781499863  -0.137598774282  -1.73888308957  -1.34873938276  -0.150319210048  -0.166160357486  0.142989113907  
2.14586806297  -0.139386370058  -1.73873650724  -1.33348077375  -0.161038227389  -0.167514191153  0.12990421069  
2.15401411057  -0.140070674189  -1.73882790808  -1.31970527297  -0.170861680853  -0.167178966262  0.11703140464  
2.16206693649  -0.139830836196  -1.73913618208  -1.30738384691  -0.179805435949  -0.16684515427  0.104434245527  
2.17014288902  -0.13874006638  -1.73964257747  -1.29648137427  -0.187881604985  -0.166514773685  0.0921695750147  
2.17831492424  -0.136726014105  -1.7377522882  -1.25932615936  -0.172967879299  -0.16448135949  0.0802877015603  
2.18658590317  -0.134261165219  -1.73881261514  -1.23521759581  -0.162645322989  -0.165863512076  0.0688326027015  
2.19468307495  -0.130957243625  -1.7400181311  -1.21388086648  -0.15306059302  -0.163854900612  0.0750102532686  
2.20259690285  -0.127090851543  -1.74231941966  -1.19574668765  -0.166112552868  -0.163554693157  0.0777417017064  
2.21067905426  -0.122940126577  -1.74269171837  -1.17914727263  -0.152815228997  -0.163277537359  0.0797781387893  
2.21882510185  -0.118094736414  -1.74260730736  -1.13841297807  -0.143652086525  -0.150533926852  0.081160864864  
2.22692799568  -0.107683000775  -1.74699810711  -1.08831361775  -0.166686071645  -0.12940698556  0.0517374593394  
2.23508906364  -0.102170941486  -1.7477562751  -1.06799787383  -0.153255644008  -0.122013952478  0.0565688544484  
2.24311804771  -0.0962471195304  -1.75057320916  -1.05223103906  -0.166103364404  -0.114432724931  0.0410109458126  
2.25114297867  -0.0580297854466  -1.75368195204  -1.03903518925  -0.174578175575  -0.116456820973  0.0289106102207  
2.25928592682  -0.0345499933875  -1.75534249753  -1.02919067007  -0.182199683498  -0.106310596391  0.0347270548659  
2.26739597321  -0.0127903503153  -1.75699090683  -1.02230899924  -0.189040641515  -0.0978470548114  0.0373756946919  
2.2754509449  0.00724487943545  -1.75764460224  -1.01769385262  -0.173198702232  -0.0894321335457  0.0395866713972  
2.28358507156  0.0256631593026  -1.76030155803  -1.01673469542  -0.18371300431  -0.0909385901065  0.0242242402089  
2.29157996178  0.0423502072907  -1.76186465174  -1.01761847418  -0.189869679981  -0.100032326241  0.012408447303  
2.29963994026  0.0576824093636  -1.76338846863  -1.02071028456  -0.195312313622  -0.0964092477032  0.0014361397625  
2.3077750206  0.0712722225339  -1.76388569226  -1.0253051102  -0.17813679745  -0.0940230830803  -0.0084902495232  
2.31581091881  0.0834721972668  -1.76538613678  -1.03228217774  -0.16548021282  -0.0912340350119  -0.000784357759991  
2.32389807701  0.0942154001941  -1.76780032291  -1.04141114839  -0.175631702295  -0.097919082378  -0.0128929982734  
2.33195996284  0.103537585299  -1.7690949475  -1.0514441398  -0.181504108183  -0.10191794255  -0.0214824696083  
2.34001994133  0.111392470731  -1.76934736258  -1.06224687073  -0.164821376355  -0.10497102593  -0.0292730178387  
2.34812498093  0.118152078567  -1.77156304338  -1.07522719861  -0.174606574037  -0.107130092284  -0.0362781200174  
2.35623908043  0.123551083066  -1.77264943062  -1.08859761029  -0.180147014953  -0.108453498232  -0.0425150227215  
2.36457490921  0.127758884688  -1.77268967075  -1.1022444167  -0.16316802591  -0.0991664243107  -0.031274204755  
2.37260007858  0.130855628256  -1.77468502815  -1.11759390007  -0.172688252955  -0.10136731788  -0.0232140175536  
2.3806810379  0.132791253184  -1.7745758444  -1.13237146675  -0.156088883709  -0.10120886807  -0.0156367207123  
2.38870310783  0.133853500696  -1.77545039596  -1.1480641746  -0.144082765758  -0.100429704498  -0.0252752403519  
2.39675593376  0.134201205229  -1.7771378288  -1.16450295785  -0.154984672469  -0.0892540426566  -0.0315086325883  
2.40485310555  0.133486968279  -1.7779485703  -1.18050111456  -0.161661176725  -0.0799486774698  -0.0203360314445  
2.4129679203  0.131900210801  -1.77858242403  -1.19650479241  -0.167757551991  -0.0806925396578  -0.0291314099288  
2.42110395432  0.129714181432  -1.7791435123  -1.21241507866  -0.173281644369  -0.0793171888356  -0.03456305012  
2.42913198471  0.159113435625  -1.78097182204  -1.22794867329  -0.178298396253  -0.0774483881957  -0.0226310934524  
2.43758010864  0.172833195968  -1.78030359098  -1.24290746927  -0.160793608081  -0.0753457192507  -0.0139873199478  
2.44534897804  0.18467083843  -1.7790272448  -1.23093522571  -0.147717913455  -0.0729350732133  -0.0226520902985  
2.45361495018  0.22680226011  -1.78013501843  -1.20290822572  -0.157645068752  -0.0701504174569  -0.0112789442617  
2.461550951  0.251957227286  -1.77880587171  -1.15957403608  -0.163363291588  -0.0574276622712  -0.00322081335906  
2.46956801414  0.305707318002  -1.77888440806  -1.10245993486  -0.168620820991  -0.0566071385474  -0.0124894530729  
2.47768807411  0.341060862882  -1.77918628061  -1.06055350033  -0.173530179883  -0.0540426282853  -0.0184609981992  
2.48580598831  0.371827107419  -1.77783335634  -0.996592636496  -0.177705206814  -0.041522553823  -0.00713166669138  
2.49391794205  0.397663880316  -1.77815524634  -0.948817441625  -0.181614115189  -0.0312733596209  0.000860235887997  
2.5020339489  0.418935017759  -1.77842136156  -0.90738375766  -0.185034093189  -0.0314372583598  -0.0084936420882  
2.51012897491  0.436201702687  -1.77703939461  -0.844736396811  -0.187763683109  -0.0298338976603  -0.014568642898  
2.51851010323  0.44915995587  -1.77636489493  -0.798620342209  -0.168359443326  -0.0281670461032  -0.00336002731839  
2.52656793594  0.490809852465  -1.77803843198  -0.780840912892  -0.153767318408  -0.0263467256244  0.00458992404218  
2.53458809853  0.513976984126  -1.77918855815  -0.784075954474  -0.162145325514  -0.0246048247239  0.0120295067347  
2.5426940918  0.514634126744  -1.77763820585  -0.777448032461  -0.166246855581  -0.032655466341  0.0016705950809  
2.55070090294  0.511840054766  -1.77777889677  -0.78046279916  -0.170160317528  -0.038318967846  -0.00527175163185  
2.55883407593  0.509145439883  -1.77787929476  -0.78344431651  -0.173656572923  -0.0433028383188  -0.0115628682455  
2.56693887711  0.519193049424  -1.77928125852  -0.786185112727  -0.176801617896  -0.0475243806359  -0.0172945396162  
2.57501292229  0.515982018531  -1.77822417581  -0.788558195333  -0.157583339092  -0.0414094238221  -0.00575163009848  
2.58308506012  0.512885790084  -1.77916260416  -0.791920168143  -0.165071732161  -0.0468803989148  -0.0142918110973  
2.59124207497  0.509799180653  -1.77804324538  -0.794127695099  -0.146646450044  -0.0500775975878  -0.0195801905902  
2.59941101074  0.506954215863  -1.77892690757  -0.797303110098  -0.15493897213  -0.0625284351307  -0.0243368822345  
2.60750699043  0.51696888415  -1.78007369971  -0.799625949335  -0.159275850562  -0.0621448158927  -0.0285736101247  
2.61562395096  0.5136447285  -1.77877508994  -0.801529696628  -0.141252370627  -0.053244366643  -0.0155785807691  
2.6236000061  0.510458504501  -1.77948674298  -0.804378275674  -0.149971884679  -0.0560760026598  -0.0227213755024  
2.63160896301  0.520038429287  -1.7804696789  -0.806354805677  -0.154732348084  -0.0566761324679  -0.00994412374569  
2.63973999023  0.51629493639  -1.77901789124  -0.807897530409  -0.137106741797  -0.0569798044445  -0.000599643181365  
2.64784407616  0.512798798161  -1.77861633926  -0.809863259841  -0.124272010481  -0.0569023072252  0.00821622836151  
2.65595507622  0.509552740791  -1.77918557664  -0.812206732218  -0.134571630569  -0.0564737212927  -0.000785671356954  
2.66405701637  0.506353216729  -1.77869844749  -0.813859793263  -0.140833709472  -0.0557255424923  -0.00642094670479  
2.6721560955  0.503216637849  -1.77724045323  -0.814865983531  -0.124713556946  -0.0546872357577  -0.0115712632638  
2.68039894104  0.487832608082  -1.77647883705  -0.816997377759  -0.135267663723  -0.0534897495333  -0.0162504037523  
2.68848109245  0.485782746339  -1.77611761932  -0.832769354043  -0.141814987561  -0.0617637216266  -0.0204658062149  
2.69665193558  0.484132142419  -1.77576897173  -0.867811343973  -0.147915047044  -0.0576347939484  -0.0242272180787  
2.70460700989  0.482464513766  -1.77445545388  -0.902795631395  -0.131607017983  -0.05502319738  -0.0108220583288  
2.71264910698  0.481195329589  -1.7751829103  -0.939041811007  -0.141994580924  -0.0522684197068  -0.0176147785067  
2.72077298164  0.479893351424  -1.77389379626  -0.974175366678  -0.126330453545  -0.0494017674874  -0.0212704176888  
2.72889900208  0.478879671567  -1.77464536426  -1.01010884839  -0.137348806068  -0.0562623749197  -0.0245103544746  
2.73698401451  0.461611421118  -1.77288165325  -1.04450901606  -0.122292344675  -0.0508667910085  -0.0106224131751  
2.745043993  0.424875999363  -1.77383877107  -1.07932562647  -0.133899808406  -0.0471268633615  -0.00024977097002  
2.75316810608  0.388271506306  -1.7737433002  -1.11277371894  -0.141371723206  -0.0433829714302  -0.00740142787652  
2.76143908501  0.352119464963  -1.77365105363  -1.14526344803  -0.148326023166  -0.039657867756  -0.0114515270654  
2.76935601234  0.316610909155  -1.77356239234  -1.17666764562  -0.154756118353  -0.0359732417436  -0.0151163286718  
2.77753210068  0.281815436704  -1.77250445748  -1.20636449969  -0.138723812364  -0.032349603202  -0.00168126948765  
2.78560805321  0.248098238662  -1.77250626473  -1.23532737446  -0.127351482231  -0.0288031873054  0.00841219627399  
2.79373908043  0.215482916336  -1.77251208279  -1.26292268221  -0.117009657349  -0.0253507849161  0.017770917961  
2.80176091194  0.184085980382  -1.77199146764  -1.28908670778  -0.107683416266  -0.0220065263393  0.0262947344003  
2.80985188484  0.154006955605  -1.77192702231  -1.31376976173  -0.0993527265535  -0.0187827687119  0.0168422572079  
2.81795191765  0.0932178811016  -1.77151055473  -1.33763941786  -0.113927909672  -0.0157936701124  0.0105208124142  
2.82611703873  0.048830077765  -1.77052903528  -1.35869233978  -0.102332805428  -0.00302654492659  0.0217742331607  
2.83423495293  0.0075462237924  -1.77061012379  -1.37874497347  -0.0952859205499  -0.00259272592087  0.012368415448  
2.84253501892  -0.0304838566811  -1.77070257489  -1.39759013366  -0.0891367799748  -0.000616827555117  0.0232666806803  
2.85067892075  -0.0655620268578  -1.77080488301  -1.41542570666  -0.0838543136252  0.0115483296587  0.0135235297286  
2.85858201981  -0.0977367732941  -1.7709104713  -1.43166835635  -0.0794033586049  0.0109121060575  0.00695457869874  
2.86673998833  -0.126735051733  -1.77102358312  -1.44634147624  -0.0757485618799  0.0118173295317  0.000853480960695  
2.87482905388  -0.152516236732  -1.77211602155  -1.45998626744  -0.0948577736163  0.0228856075608  -0.00466835410789  
2.8830780983  -0.195826514562  -1.77227636653  -1.48173770504  -0.106433509239  0.020871655854  -0.00142854485278  
2.89114499092  -0.21312764136  -1.77232122575  -1.49045130426  -0.120836768646  0.0308447229156  -0.00672819018894  
2.89928793907  -0.227864920528  -1.77236545153  -1.49780742903  -0.134305339703  0.0383000794172  -0.011575073606  
2.90725493431  -0.240143189197  -1.77240884503  -1.50386511118  -0.146829277846  0.0346332696204  -0.0159742573639  
2.91552996635  -0.24988379227  -1.77148324038  -1.50817721827  -0.136452785388  0.0429046749692  -0.0199331046029  
2.92353200912  -0.257408299083  -1.77160988529  -1.51187389378  -0.130318587227  0.0384041723546  -0.0234611477035  
2.93160796165  -0.26264953789  -1.77173806379  -1.5144695173  -0.124793888337  0.035574537457  -0.0265698612172  
2.9395980835  -0.265898954837  -1.77443084337  -1.54457167932  -0.142051943455  0.0327480827705  -0.0292724401207  
2.94766402245  -0.267292363989  -1.77336909164  -1.56139733262  -0.132503914431  0.0299385906723  -0.0148579925096  
2.95573711395  -0.2668065064  -1.77433459266  -1.57682514677  -0.149120365685  0.0168627454941  -0.0206960271604  
2.96382689476  -0.264700821155  -1.77424675839  -1.58933024967  -0.161095985615  0.00626021422286  -0.0234518642963  
2.97192597389  -0.261212010298  -1.77318638249  -1.59905947679  -0.150170019956  -0.00342596342604  -0.0091242656396  
2.98004889488  -0.256163308755  -1.77415619271  -1.60770270222  -0.165348298867  -0.0119334682917  -0.0150763336964  
2.98820495605  -0.250115690217  -1.77309838531  -1.61324059953  -0.154019187316  -0.0197073547161  -0.0179722651506  
2.99639105797  -0.242976438248  -1.77309612542  -1.61741497252  -0.1468897068  -0.0365656513645  -0.0205318581515  
3.00442790985  -0.234582019378  -1.77453557647  -1.62030678783  -0.162264523913  -0.0405185968395  -0.0227653879034  
3.01260304451  -0.225681912944  -1.77344285357  -1.62045870629  -0.151128447324  -0.0454697296735  -0.0246842679353  
3.02072405815  -0.215963127021  -1.7743796414  -1.62013092981  -0.166104192571  -0.0595686327609  -0.0263009840794  
3.02879405022  -0.205660884561  -1.7742649032  -1.61782732979  -0.176490418579  -0.0706483843167  -0.0276289335491  
3.03689908981  -0.194982843199  -1.77317945893  -1.61371545285  -0.164007824882  -0.0804305339905  -0.0286822707671  
3.04501509666  -0.183820936841  -1.77315307848  -1.6089861189  -0.155765143365  -0.0889527048933  -0.0294757603939  
3.05311107635  -0.172380221733  -1.77410176373  -1.6037159727  -0.170041460781  -0.106088873704  -0.0300246379278  
3.06139206886  -0.160762564536  -1.77399961349  -1.59695694576  -0.179757406472  -0.119683013208  -0.0303444781693  
3.06951594353  -0.149049916939  -1.77390080182  -1.58937860182  -0.188548590176  -0.131480106083  -0.0304510717718  
3.07749199867  -0.137225010737  -1.77380739829  -1.58109282751  -0.196432030365  -0.131705724598  -0.0303603100271  
3.08564090729  -0.125663399119  -1.77371451136  -1.57220452297  -0.20342748619  -0.14248863762  -0.0133627978936  
3.09364104271  -0.114225622214  -1.7726542751  -1.56230645222  -0.187630147337  -0.1499915618  -0.0168278006561  
3.10176110268  -0.102764639284  -1.77362801713  -1.55307452569  -0.198108138569  -0.155976291058  -0.0174186983125  
3.109842062  -0.0916597754612  -1.77355015293  -1.54297820264  -0.20414347418  -0.160525094523  -0.0178554906373  
3.11795306206  -0.0808503067545  -1.77347653905  -1.53265981  -0.209386029306  -0.163719913216  -0.0181475208343  
3.12604999542  -0.0704825322314  -1.77243381844  -1.52168934298  -0.191930199578  -0.165646377211  -0.00158235908586  
3.13414502144  -0.0602801339179  -1.77342518374  -1.51172195716  -0.200855568151  -0.166388570805  -0.00551575466828  
3.14222002029  -0.0507996952412  -1.77238963868  -1.5006931232  -0.183512610477  -0.168002382261  0.010344266688  
3.15053105354  -0.0413423366305  -1.77339114066  -1.49080397363  -0.192588739877  -0.166091360917  0.0225576512198  
3.15854597092  -0.0327641432407  -1.7723635105  -1.47997693581  -0.175441969929  -0.167579981983  0.0165335145024  
3.16656708717  -0.0243528051563  -1.77239890694  -1.4698910776  -0.162830587406  -0.165659076025  0.0305267653466  
3.17468595505  -0.0165382136958  -1.77340795864  -1.46054866078  -0.173039355856  -0.167139119456  0.0235911831923  
3.18270111084  -0.00923353774107  -1.77336551151  -1.45092754082  -0.178982318829  -0.166924170377  0.0367022655844  
3.19080090523  -0.00244438060407  -1.77235369037  -1.44110941644  -0.162384159604  -0.164994661088  0.0289122213002  
3.19889307022  0.00425532910193  -1.77337259284  -1.43270524844  -0.172261609449  -0.161344786706  0.041203984474  
3.20702409744  0.00969791519412  -1.77076999784  -1.39563731075  -0.155777048146  -0.152734414432  0.0497870419839  
3.21523094177  0.0150012088381  -1.77192516893  -1.37130456242  -0.166014973858  -0.143839973008  0.0402347133736  
3.22323298454  0.0196983066623  -1.772023938  -1.34941770806  -0.17202850859  -0.134741717497  0.0336758544356  
3.23154687881  0.0238113867015  -1.77211995938  -1.32950702074  -0.177450503934  -0.13534972125  0.0445748082059  
3.23956894875  0.0275555182212  -1.77221594781  -1.31144882804  -0.182293764868  -0.133509257798  0.0346922126559  
3.24759507179  0.0308382872228  -1.77230976178  -1.29521306589  -0.186572556626  -0.130978916231  0.0278631657144  
3.25571608543  0.0337727154946  -1.77240248626  -1.28076170482  -0.190304254529  -0.117991884174  0.0385469232373  
3.26381397247  0.0359228319034  -1.77408316762  -1.2951634558  -0.193725833398  -0.116670489828  0.0285054556968  
3.27194595337  0.0379279819937  -1.77306445908  -1.29956140016  -0.174481650979  -0.103335735254  0.0387229527839  
3.28002500534  0.0396485960704  -1.77407255475  -1.30514600331  -0.181853476576  -0.0919508041251  0.0454074065877  
3.2881090641  0.0407896580152  -1.7740220592  -1.31025453693  -0.18512334566  -0.0907068960419  0.0512918035962  
3.29624891281  0.041682102328  -1.77300020468  -1.31489425621  -0.166017949192  -0.0776113149132  0.0392404008881  
3.30449509621  0.0421531541723  -1.77303082938  -1.32009450769  -0.151659330455  -0.0764307139704  0.0303835610028  
3.31250309944  0.0426233209484  -1.77403766379  -1.32578145463  -0.16031958925  -0.0634847375154  0.0391823554393  
3.32061910629  0.0425924538637  -1.77398620728  -1.33085599695  -0.164911935077  -0.0527081276485  0.0273980208839  
3.32858991623  0.0422994290918  -1.77393424858  -1.33584667717  -0.169066827823  -0.0424416186907  0.0188608692789  
3.33669710159  0.0417664274241  -1.77388218731  -1.340729023  -0.172792410807  -0.0327090603418  0.0280219035524  
3.34474992752  0.0409132809653  -1.77285684125  -1.34496952783  -0.154192420757  -0.0235298270934  0.0337979752043  
3.35286307335  0.0400764917037  -1.77386159148  -1.35012744119  -0.162269372941  -0.0149157307447  0.0217615817912  
3.36100411415  0.0388559735161  -1.77380937872  -1.35456287303  -0.166311526827  -0.0166856823362  0.0130271443486  
3.36905002594  0.0375865850636  -1.77375929097  -1.35881747552  -0.16995040576  -0.0166552626775  0.0220403479583  
3.37728309631  0.0361823428387  -1.7737100409  -1.36287833755  -0.17319440037  -0.016521386514  0.0105664633373  
3.38537192345  0.034760132907  -1.77366333612  -1.36673590291  -0.176054242943  -0.00648545606978  0.0195677758761  
3.39345407486  0.0330371435212  -1.77361486529  -1.37038029672  -0.178540911362  -0.00855042679014  0.00809927406004  
3.40153288841  0.0313360481898  -1.77259743802  -1.37329624738  -0.158759283195  0.000962222334012  0.0171199745508  
3.4096698761  0.0295813564209  -1.77360814009  -1.37705555848  -0.165721384517  -0.00162822490736  0.00568544428645  
3.41767501831  0.0277748241378  -1.77356594079  -1.38003522409  -0.168714149763  -0.0024488386287  -0.00236550798918  
3.42570710182  0.0259317035089  -1.77255309625  -1.38187375238  -0.149467001747  0.00690525564411  0.00731270137424  
3.43386697769  0.024079601481  -1.77356829757  -1.38550998399  -0.156972567468  0.00378538770407  -0.00336538833387  
3.44190597534  0.0221197223967  -1.77352902951  -1.3879327522  -0.160520755947  -0.00749273932509  -0.0105300495797  
3.4500439167  0.0202679752584  -1.77252058528  -1.38961347266  -0.141819850541  -0.00629392622823  -0.0170739813524  
3.45820188522  0.0185407906605  -1.77354151743  -1.39213318681  -0.149907251113  -0.00670241998792  -0.00628179882642  
3.4664170742  0.0167305371712  -1.77350770027  -1.39387571612  -0.15403049033  -0.00703596716316  0.00133609156373  
3.47458696365  0.0149570213806  -1.77347497975  -1.39540242661  -0.157812550717  -0.00729760029318  -0.00860778480064  
3.48265004158  0.0133800571917  -1.77184965656  -1.36895074204  -0.161045188027  -0.00749176660658  -0.0151098706737  
3.49056506157  0.0116908780617  -1.77195105124  -1.35411736513  -0.164188993572  -0.00762151543587  -0.0210140581936  
3.49866390228  0.0100647479135  -1.77302341312  -1.34110523624  -0.188921455917  -0.0174982955599  -0.00960619293147  
3.50673604012  0.00849802571848  -1.77304001583  -1.32883185348  -0.20817661903  -0.0249429806475  -0.0182479097967  
3.51487088203  0.0070002437312  -1.77305486085  -1.31782834888  -0.225599184034  -0.0316541000065  -0.0236055115613  
3.52289891243  0.00567302570564  -1.77306948548  -1.30806602641  -0.241220965049  -0.0278339768116  -0.0116765624865  
3.53102588654  0.00294808456574  -1.77308939882  -1.29211721939  -0.267229661736  -0.0408008772788  -0.0118977633978  
3.53911399841  0.00175820766564  -1.77309784154  -1.28584825012  -0.277721262886  -0.0454311360982  -0.00071418821611  
3.54716992378  0.000649827403405  -1.77310483066  -1.28065373574  -0.286617930489  -0.0494180926281  0.00727512970872  
3.55521202087  -0.000622973015836  -1.77311043444  -1.27648297102  -0.293986861779  -0.0527867456076  0.0146616603975  
3.56338405609  -0.0013273355278  -1.77311472472  -1.27328273761  -0.29989977968  -0.0555640232427  0.00423661847097  
3.57148003578  -0.00219813674564  -1.77311777609  -1.2709978366  -0.30443211979  -0.0577784646945  -0.00285505682505  
3.57951807976  -0.00308538562231  -1.77311823253  -1.26957102548  -0.307661932921  -0.0692805375152  0.00767345624008  
3.58761811256  -0.00368927621538  -1.77312059909  -1.26894638243  -0.309670788019  -0.0680798326063  -0.00223428253296  
3.59560894966  -0.00441873641994  -1.77311897395  -1.26906330432  -0.310539419823  -0.0779269277367  -0.00868954662709  
3.60362792015  -0.00496648396018  -1.77311798013  -1.26986521647  -0.310351788732  -0.0849680434346  0.00215049561664  
3.61174297333  -0.00544088421311  -1.77311613796  -1.27129336458  -0.309190733983  -0.0909335936844  0.00984316959879  
3.61978602409  -0.00584468813037  -1.77311352453  -1.27329020166  -0.307139139169  -0.0958696154807  -0.000267913209385  
3.62789797783  -0.00608320277958  -1.77311161926  -1.27579964566  -0.304279384385  -0.0899962535742  0.0100536792858  
3.63600301743  -0.00636310592715  -1.77310755624  -1.27876509151  -0.300691587821  -0.0855747202435  -0.000134420378461  
3.64413809776  -0.00667944809865  -1.77310155244  -1.28213261264  -0.296454858046  -0.0907893882768  -0.00686030843053  
3.65225696564  -0.00673444799904  -1.7730979918  -1.28585161665  -0.291647160208  -0.0836489059028  -0.0129911159683  
3.66041588783  -0.00684102848221  -1.77309250227  -1.28986992652  -0.286342077337  -0.0780984142882  -0.00184442036212  
3.66852402687  -0.00689224922911  -1.77405861251  -1.29465003211  -0.302610447357  -0.0823158753982  -0.010772924647  
3.67659091949  -0.00700359471879  -1.77299679138  -1.2985707066  -0.291331152298  -0.0841365865063  -0.0164415513355  
3.68462491035  -0.0068629024663  -1.77299221906  -1.30320796512  -0.2834037335  -0.075465134866  -0.00484603785357  
3.69267010689  -0.00678817816661  -1.77298651246  -1.30796502409  -0.275274180551  -0.0685540585216  0.00343443520732  
3.70074105263  -0.038998004421  -1.7716432688  -1.31299539846  -0.26695383925  -0.0618569489827  0.0112286694589  
3.70886802673  -0.0561683908326  -1.77175038874  -1.31786271736  -0.258620194503  -0.0551902981226  0.00120227769625  
3.71694493294  -0.0716639904427  -1.77185682661  -1.32274125807  -0.250270928764  -0.0486973582458  -0.00542457002305  
3.72505307198  -0.0870515608953  -1.74250547037  -1.3803097637  -0.263842622684  -0.0424048864389  0.00539734479376  
3.7331969738  -0.0992772343709  -1.72571677193  -1.41747550647  -0.25043244576  -0.0363370997028  0.0129634382624  
3.74152302742  -0.109736082885  -1.71247536514  -1.45343226678  -0.262765533787  -0.030512298287  0.00271510210551  
3.74954509735  -0.11890862615  -1.69869491061  -1.48515606973  -0.248133224726  -0.0249501521656  0.0128926396759  
3.75753998756  -0.126432221886  -1.68742667912  -1.51430618908  -0.237384573259  -0.00985432356716  0.0197007379694  
3.76550292969  -0.132680275779  -1.67854263326  -1.54089397068  -0.248900986762  -0.00723376142201  0.00870894705636  
3.77361798286  -0.137526478582  -1.66997190039  -1.56392851059  -0.255577492364  0.00682722105295  0.00101860316209  
3.78173398972  -0.141239682743  -1.66271389832  -1.58404753087  -0.261089584247  0.0186647509039  0.0110649291681  
3.78982400894  -0.143786760108  -1.65671404597  -1.60134919599  -0.265493237595  0.0294742588726  0.0177632075543  
3.79789710045  -0.14524214712  -1.65191263671  -1.61594152938  -0.268846657902  0.039267686245  0.0066828541187  
3.80602192879  -0.145686142362  -1.64727501053  -1.62743173897  -0.249233361202  0.0583754305777  0.0160698231003  
3.8141450882  -0.145082511491  -1.64573600211  -1.63751798479  -0.255853653854  0.0740935959667  0.0221287509264  
3.82225704193  -0.14362817104  -1.64414634294  -1.64471357714  -0.257968758549  0.0984666949886  0.0275806278166  
3.83047890663  -0.141393520576  -1.64349231558  -1.64970709321  -0.259257553801  0.129132757648  0.0324386636201  
3.83857798576  -0.138545988051  -1.64467616574  -1.65314668755  -0.281758284721  0.14474449655  0.0195646204038  
3.84656691551  -0.134965158722  -1.64560565862  -1.65411178013  -0.298371222573  0.170160157217  0.01007151923  
3.85458898544  -0.163302085433  -1.6459267533  -1.65348894667  -0.312733391262  0.181109719884  0.00125500211198  
3.8626499176  -0.176227244807  -1.64738764527  -1.65051229682  -0.303022989229  0.180936613713  0.0102611954443  
3.8707420826  -0.186851574515  -1.65147455292  -1.64710631336  -0.318478564077  0.180737164984  -0.00114165162545  
3.87884688377  -0.195594091375  -1.65503629582  -1.6417941414  -0.328355696533  0.180512746026  -0.00892592076007  
3.88693904877  -0.202345207463  -1.65906656268  -1.6352683264  -0.336367305471  0.181973110681  0.000679001823693  
3.89497303963  -0.20741193639  -1.66350090101  -1.62766308356  -0.340609612082  0.181715689277  0.00720969081069  
3.90311789513  -0.210795180223  -1.66828163892  -1.61911066489  -0.340381823751  0.181432381242  0.0132046603769  
3.91125106812  -0.212604108107  -1.67335199937  -1.6097384018  -0.340145300582  0.181126998745  0.0186530552736  
3.91929292679  -0.212851692389  -1.67865934996  -1.59966944337  -0.339902528547  0.182509378528  0.00641412278726  
3.92732906342  -0.211852869204  -1.68414914313  -1.58901988974  -0.339654818331  0.182176475336  -0.00238617246662  
3.93561697006  -0.209612926732  -1.68977444888  -1.57790218063  -0.339404424315  0.181820755356  -0.0102725712166  
3.94360804558  -0.206139570645  -1.69646333139  -1.56693190295  -0.342804580112  0.181446933402  -0.000762935603017  
3.95163488388  -0.201858351624  -1.70116965991  -1.55463642083  -0.33890320875  0.181056654921  -0.0112076531663  
3.9597890377  -0.196550949335  -1.7069402086  -1.54272574501  -0.338631138605  0.18065568012  -0.0182725128691  
3.96784496307  -0.190432956965  -1.7126825335  -1.53073435018  -0.338364775872  0.180246636482  -0.00795298972064  
3.97593998909  -0.183502937332  -1.7193367664  -1.51925268958  -0.341756641911  0.179833406996  -0.0176081594628  
3.9840900898  -0.176072801101  -1.7248424342  -1.50729284856  -0.341505628084  0.17941745173  -0.0239048095573  
3.99220299721  -0.168125252223  -1.73022847419  -1.49547631187  -0.341239763086  0.179002280446  -0.0295648356209  
4.00023794174  -0.159750204846  -1.73547076242  -1.4838654889  -0.340961985941  0.178590416551  -0.0178762501544  
4.00845694542  -0.151033230684  -1.74054791378  -1.47251658314  -0.340674940289  0.178184168375  -0.00948622694061  
4.01670789719  -0.142055352452  -1.745441242  -1.46147975241  -0.340381124074  0.1777856311  -0.0184115470372  
4.02469992638  -0.132892887988  -1.7501346642  -1.45079927301  -0.340082885103  0.177396689889  -0.0240297379834  
4.03276610374  -0.123617337528  -1.75461459667  -1.44051372803  -0.339782417865  0.17701902413  -0.0290630496283  
4.04084610939  -0.114295311308  -1.75886984324  -1.43065621645  -0.339481761561  0.176654112679  -0.0335256184983  
4.04891896248  -0.104988494604  -1.76289147762  -1.42125458014  -0.339182799264  0.176303239995  -0.037433933342  
4.05702090263  -0.0957536473287  -1.76667272082  -1.41233164558  -0.33888725812  0.175967503057  -0.0240785655266  
4.06512403488  -0.0866426352953  -1.770208815  -1.40390547774  -0.338596710528  0.175647818956  -0.0141132419908  
4.07320189476  -0.0777024903137  -1.77349689461  -1.39598964327  -0.338312576197  0.17534493306  -0.00483587878088  
4.08155298233  -0.0689754963072  -1.77653585606  -1.38859348074  -0.338036125025  0.175059427642  -0.0129702601503  
4.08958697319  -0.0604992987287  -1.77952973806  -1.38172237561  -0.337768480692  0.174791730901  -0.0178925402277  
4.09760093689  -0.052204046566  -1.78328059197  -1.37598229264  -0.341162047184  0.166525130126  -0.0223219438733  
4.10557603836  -0.0443383377282  -1.7847396971  -1.36989130119  -0.337264459136  0.161717249152  -0.0262692504911  
4.11379289627  -0.0368041910466  -1.78699464861  -1.36484618024  -0.331030865549  0.154724208463  -0.029747296516  
4.12179493904  -0.0619665237234  -1.78765907545  -1.36048049059  -0.319298763739  0.147211275206  -0.0327708451124  
4.12992691994  -0.0723816527334  -1.79050270581  -1.35689401705  -0.329511724255  0.139475407527  -0.0353563450025  
4.13805007935  -0.0816491718666  -1.79108013806  -1.35271463214  -0.312455728006  0.141816306146  -0.037521697318  
4.14619493484  -0.0895838207299  -1.79345605482  -1.3500480756  -0.321083172092  0.141540759933  -0.0392860313389  
4.15443396568  -0.0964558421105  -1.79358370528  -1.34676011017  -0.302624017271  0.150750326977  -0.0239413436079  
4.16252088547  -0.134557281894  -1.79418889604  -1.34514355869  -0.309955876371  0.146306910008  -0.0288675320349  
4.17054510117  -0.156679246872  -1.79401710475  -1.34266327639  -0.290435459657  0.14296079492  -0.0140063675257  
4.1786339283  -0.175920675021  -1.79471373931  -1.34111958841  -0.274916840427  0.149332073329  -0.00271520089012  
4.18676400185  -0.192681523437  -1.79522923388  -1.33993927071  -0.259842172649  0.152726233627  0.00788958058497  
4.19486308098  -0.206949728927  -1.79557627925  -1.33910219833  -0.245270764474  0.154909769665  0.0177546093093  
4.20288395882  -0.218827794203  -1.79576579067  -1.33858694911  -0.231253803644  0.155962903769  0.026745747664  
4.21104693413  -0.235755581109  -1.7966901527  -1.33894282205  -0.226994958931  0.155003479551  0.011789378365  
4.21909689903  -0.241153505531  -1.79639093629  -1.33921827663  -0.23163034424  0.15315261241  0.023394322672  
4.22720694542  -0.244631763839  -1.79597865996  -1.33972788225  -0.235406035054  0.150495521718  0.0143024263666  
4.23518204689  -0.246317162951  -1.79546470633  -1.34045031172  -0.238365147547  0.14711150779  0.00832896451881  
4.24325895309  -0.246338063325  -1.79486016348  -1.34136454586  -0.240552449282  0.143078271827  0.00276844536376  
4.25143289566  -0.244823420859  -1.79417582182  -1.34245000367  -0.242014094151  0.138471542917  -0.00233380016058  
4.25960993767  -0.24190734484  -1.79245043857  -1.34317940118  -0.220841102357  0.143705002015  0.0100365409775  
4.2676460743  -0.237700672182  -1.79269155025  -1.34509853089  -0.226176873481  0.135744435962  0.0189255074342  
4.27564692497  -0.232145331019  -1.79280435814  -1.34708878596  -0.24924890354  0.139458540386  0.00985833952549  
4.28374099731  -0.225875136778  -1.79181585226  -1.34862053602  -0.266588345556  0.13012193089  0.00393537754083  
4.29180788994  -0.218588634082  -1.79079762934  -1.35023058817  -0.281873632496  0.122262629312  0.0155947295779  
4.2999329567  -0.210410477876  -1.78975839097  -1.35190289008  -0.295166598105  0.124593554007  0.0237533298541  
4.30806899071  -0.201651224203  -1.78967384859  -1.35412764986  -0.328551671883  0.114080411705  0.0139806926956  
4.31626701355  -0.192324102928  -1.7885282094  -1.35583382064  -0.344020032554  0.105235658821  0.0245309790267  
4.32423305511  -0.182526208989  -1.78738290088  -1.35755853644  -0.343805957641  0.096428989219  0.014458856974  
4.33250808716  -0.172252151402  -1.78721850593  -1.35979718026  -0.347208637425  0.0877131074992  0.00758058723186  
4.34056997299  -0.161815171217  -1.7850406429  -1.36097314976  -0.343280796932  0.089456801759  0.0183374875209  
4.34855604172  -0.151173359198  -1.7849080695  -1.36319065787  -0.346603490796  0.0786329502738  0.0256463211752  
4.35669589043  -0.140425576054  -1.78374739787  -1.36483364939  -0.346256735759  0.0697225398916  0.0150773891223  
4.36474895477  -0.129641604337  -1.78261731492  -1.36644361376  -0.345869917722  0.061076448196  0.0248868225958  
4.37282800674  -0.11869030242  -1.78249815885  -1.36852109581  -0.349101215727  0.0630446360235  0.0141289900192  
4.38097810745  -0.108256263737  -1.78038429492  -1.36949193813  -0.344999511393  0.0525968202153  0.0237696339179  
4.38903903961  -0.0976574651503  -1.78034548285  -1.37146844913  -0.348153440211  0.0441977171719  0.0128634546358  
4.39711499214  -0.0873805062501  -1.77929683127  -1.37283673635  -0.347639426024  0.0361807815383  0.0223746793987  
4.40520596504  -0.0774586448843  -1.7782950512  -1.37414227661  -0.34708839041  0.0182611748048  0.0285091703906  
4.4134850502  -0.0676385287551  -1.77637737333  -1.37487853489  -0.342856122264  0.0237914721024  0.0339911233083  
4.42152500153  -0.0581512531511  -1.77653824974  -1.37660196381  -0.345901812684  0.0256361828202  0.0216823858636  
4.42957091331  -0.0492426452988  -1.77569537406  -1.37770463039  -0.34530133779  0.0168761629109  0.0126972358921  
4.4375910759  -0.0406240412424  -1.7746996783  -1.37873659134  -0.344685888308  0.0102531824809  0.0214810600003  
4.44566607475  -0.0324300114193  -1.77353228714  -1.37919088634  -0.340408110796  0.014385100013  0.0269498513696  
4.45371794701  -0.0245627954409  -1.7736539286  -1.38049976679  -0.34342750851  0.0165553280688  0.0146751454649  
4.46184802055  -0.0173566676236  -1.77306817007  -1.38149317238  -0.342818127068  0.00815483908593  0.0229137596623  
4.46992897987  -0.010505822706  -1.77253608753  -1.38227746358  -0.342209883754  0.00191746938597  0.0107200314093  
4.47802090645  -0.00401896774885  -1.77302836033  -1.38349226314  -0.345258570089  -0.00365257878055  0.019056336979  
4.48614096642  0.00187837325303  -1.77154287212  -1.38357938915  -0.341012389849  0.001159200695  0.00697806631687  
4.49419403076  0.0072780630246  -1.77116015898  -1.38414280396  -0.340403790022  0.0042297585366  -0.00169760504195  
4.50231409073  0.0122051350967  -1.77179672527  -1.38514116677  -0.343462999678  -0.0031101162761  -0.00945874588898  
4.51044297218  0.0166623200359  -1.77045405196  -1.38501986573  -0.339238251127  0.0016957433706  0.000161090933075  
4.51856398582  0.0206767184984  -1.7702098145  -1.38538173048  -0.338660486508  0.00470979559858  -0.0101873379587  
4.52661895752  0.0242515510751  -1.7700085189  -1.38568198497  -0.338107163207  0.00746415262082  -0.000448722695875  
4.534760952  0.0275026440896  -1.77082156341  -1.38642843555  -0.341231763165  0.00996280638779  -0.0106838705877  
4.54284691811  0.0302206219257  -1.76964569679  -1.38606673582  -0.337081005492  0.0225099923936  -0.000837539421192  
4.55094695091  0.0324486622211  -1.76955826217  -1.3861991327  -0.336584485488  0.0220887415776  -0.0109710330317  
4.55908203125  0.0344001049514  -1.76950769604  -1.38628343645  -0.336119518244  0.0231232303929  -0.0177502855494  
4.56723690033  0.03608425811  -1.76949141109  -1.38632283042  -0.335686397782  0.0342436770203  -0.00717075926044  
4.5754070282  0.0373159357849  -1.76950272982  -1.38631894939  -0.335284420258  0.0427375116834  -0.016590636371  
4.58361101151  0.0382202902089  -1.7695414953  -1.38627597618  -0.334914133773  0.0503121384911  -0.0226765933504  
4.59167003632  0.0389148117036  -1.76960740642  -1.38619801578  -0.334575847027  0.0673079065121  -0.0281498543524  
4.59976506233  0.0391183157359  -1.76969173965  -1.38608585178  -0.334267779306  0.0706992416705  -0.033023975582  
4.60794305801  0.0391607797454  -1.76979874194  -1.38594525012  -0.318120412646  0.0749489650295  -0.0205880949377  
4.61590409279  0.0390544515911  -1.76992600777  -1.38577929704  -0.295854398287  0.0887303684153  -0.0282164704816  
4.62402892113  0.0385183941263  -1.77006493023  -1.3855885622  -0.274430094223  0.0890147215453  -0.0325774221999  
4.632117033  0.0379801513694  -1.77022207076  -1.38537939542  -0.253916376685  0.100611195741  -0.0363977658843  
4.6402490139  0.0371501129753  -1.77038879064  -1.38515209479  -0.23436765024  0.109131561721  -0.0229680537035  
4.64849710464  0.0362514973624  -1.77056749647  -1.38491110845  -0.215830315635  0.126650620088  -0.0129410192981  
4.65659809113  0.0351062998634  -1.77172334699  -1.38516084689  -0.220278711805  0.130140046499  -0.0203361043473  
4.66456699371  0.033812614  -1.76988888906  -1.38384757665  -0.176739089717  0.154789429348  -0.00780737127103  
4.67270088196  0.0324287862856  -1.77113817485  -1.38412397597  -0.165051953794  0.163119713111  -0.0154256686916  
4.68070697784  0.0309445904691  -1.77133700301  -1.38384934534  -0.150848940761  0.171350399783  -0.00313483405944  
4.68875908852  0.0293834988178  -1.77153728306  -1.38357195369  -0.137719718281  0.177881033059  0.00584330529593  
4.69688296318  0.0277611858514  -1.77173770404  -1.38329376216  -0.125675409378  0.178418661857  -0.00286823437193  
4.70503807068  0.02619665795  -1.77291052017  -1.3835208954  -0.136684640248  0.178212208502  -0.00827123144085  
4.71302604675  0.0244803664642  -1.77205368269  -1.38269962052  -0.121616613123  0.179702656297  0.00357292770947  
4.72121596336  0.0227518229397  -1.77224748927  -1.38242900071  -0.111235511511  0.179488692282  -0.00485304059184  
4.72925591469  0.0209185388344  -1.77243537435  -1.38216331982  -0.101900348269  0.177554195705  -0.0100425111733  
4.73744297028  0.0192932163489  -1.77262316525  -1.38190638114  -0.0935901532327  0.17901408585  0.00196218822681  
4.74559497833  0.0174724767413  -1.77182963071  -1.38115213824  -0.0642674716632  0.178774333214  0.0107738469853  
4.75358200073  0.0158929913718  -1.77305952341  -1.38145887775  -0.0631038723197  0.178528470904  0.00168896725604  
4.76174092293  0.0142333605536  -1.77322637681  -1.38122788558  -0.0592312611069  0.178275632823  0.0129453843102  
4.76979207993  0.012614265097  -1.77381880996  -1.38100702344  -0.0562269903753  0.178018907622  0.0207487945476  
4.77788805962  0.0110426142463  -1.77386377247  -1.38079689995  -0.0540427652777  0.177760191155  0.0106682970338  
4.78597402573  0.00952448038826  -1.77390648919  -1.38059798592  -0.0526287030509  0.177501245464  0.00380590234787  
4.79410505295  0.00806513138609  -1.77394686963  -1.37983515321  -0.0519339336662  0.177243698058  0.0145994780047  
4.8022069931  0.00667544163273  -1.7749560727  -1.38036503487  -0.0739293695965  0.175284028592  0.00481703003409  
4.81047105789  0.00533946995215  -1.77393799781  -1.37984307841  -0.0693293076639  0.176732768387  0.0154116331455  
4.81863188744  0.00408688165601  -1.77494248536  -1.38037013543  -0.0909423572909  0.171382935741  0.00544042852788  
4.8265619278  0.00289344707733  -1.77392022496  -1.37984551624  -0.0858981373947  0.167071599636  0.0158572887566  
4.83450007439  0.00178112279994  -1.77394973339  -1.37986642923  -0.0849899962172  0.160504007028  0.00571920180008  
4.84261989594  0.000737767032597  -1.77300651958  -1.37938267098  -0.0625496799586  0.16379872928  0.0159805106508  
4.85065889359  -0.000700939591708  -1.77408641947  -1.37994855402  -0.0677532384595  0.153919365886  0.00569813159553  
4.85870790482  -0.000558655211649  -1.77411320567  -1.37933519716  -0.0697263541761  0.155755774981  -0.0012148286913  
4.86682701111  -0.00183299662889  -1.77413523983  -1.37926028485  -0.0720484677388  0.154927145045  0.00936051852578  
4.87494587898  -0.0026869648312  -1.77318159949  -1.37869088498  -0.0526587151042  0.153201285446  0.0166543789638  
4.88316392899  -0.00384651493872  -1.77578525942  -1.37964264572  -0.0874388620182  0.137043462777  0.0120959624232  
4.89116191864  -0.00428796338664  -1.77476524904  -1.3790599854  -0.0870910783106  0.145873323617  0.0213557248868  
4.89918899536  -0.00485770172001  -1.77478677193  -1.37903052788  -0.090505869829  0.139659066214  0.0272645909248  
4.90728497505  -0.00525531341297  -1.77480455349  -1.37901016138  -0.0940294120974  0.134619494134  0.0153937562883  
4.91525602341  -0.00558943336566  -1.7748163609  -1.37899736022  -0.0976306102478  0.129138341555  0.00685132477939  
4.92348694801  -0.00575884409601  -1.77579611026  -1.37949643685  -0.123263766272  0.123285211803  -0.00106870525675  
4.9315340519  -0.00608750480594  -1.77474107431  -1.37894915457  -0.121747921161  0.117122424858  0.00877776767811  
4.93961310387  -0.00624879197894  -1.77473755121  -1.37895585386  -0.123871629879  0.110715753099  -0.00182636039359  
4.94758892059  -0.00635876205039  -1.77473017165  -1.37896837905  -0.125996578234  0.104123094568  -0.00889354020202  
4.9557030201  -0.00642072074008  -1.77471923396  -1.37898617577  -0.12810930337  0.0974000439539  -0.0153576724175  
4.96381497383  -0.00643801032762  -1.77470508242  -1.37900872435  -0.130197628622  0.0905986598038  -0.0212254051237  
4.97190690041  -0.0063099160681  -1.7756615795  -1.37954035355  -0.15433560712  0.083768488959  -0.0265064633561  
4.97998905182  -0.00636073936013  -1.77458593332  -1.37902277714  -0.151028389465  0.0769510725914  -0.0312134722165  
4.98809194565  -0.00636183097832  -1.77407810657  -1.3790555027  -0.151435454858  0.059872483951  -0.0353616542664  
4.99647688866  -0.00612781323444  -1.77407993565  -1.37909331397  -0.151807122468  0.0556301302196  -0.0222410743442  
5.00447487831  -0.00606944379693  -1.77407665943  -1.3791317614  -0.152141474141  0.0395075259688  -0.0292281409739  
5.01263308525  -0.00588017164352  -1.77407600193  -1.37917340558  -0.152440978936  0.0259585636461  -0.032991226096  
5.02063798904  -0.00576685124851  -1.77407289303  -1.37921584207  -0.152705385004  0.00300901296172  -0.0195307594525  
5.02861905098  -0.00552876746822  -1.77407242298  -1.37926064874  -0.152936876442  -0.015835506287  -0.0262204309315  
5.03668189049  -0.00517707533308  -1.77407438363  -1.37930736031  -0.153136567956  -0.0229887513597  -0.0130030533925  
5.04475307465  -0.00501607447706  -1.77407126757  -1.37935269135  -0.153304040975  -0.0408122903999  -0.019955429797  
5.05292606354  -0.00473867853242  -1.77407079728  -1.3793993169  -0.153442405613  -0.0554455397259  -0.00702105659536  
5.06103992462  -0.00455114259439  -1.77406791316  -1.37999474344  -0.153551968406  -0.0784211769846  -0.0142698358501  
5.06918096542  -0.00425217191455  -1.77406767742  -1.37999401261  -0.153635380919  -0.0975783761891  -0.00164578098256  
5.07727098465  -0.00395001101629  -1.77406745193  -1.37999322369  -0.153693606321  -0.114648398391  -0.00921255931351  
5.08554697037  -0.00364678844299  -1.77406723536  -1.37999238532  -0.153728237867  -0.129684882993  -0.0136347562185  
5.09361290932  -0.00344222895202  -1.774064638  -1.37999057559  -0.153740354447  -0.152591540915  -0.0176292381453  
5.1016740799  -0.00303034892923  -1.77503819013  -1.38049457205  -0.175637350578  -0.169801202012  -0.0212044618318  
5.10979294777  -0.00293753190936  -1.77397979096  -1.37994470482  -0.170429767534  -0.171343498353  -0.00764745610294  
5.11785507202  -0.00253411185982  -1.77398265185  -1.37994472217  -0.168847322782  -0.169447494723  -0.0143184480175  
5.12596607208  -0.00223770154919  -1.77495464635  -1.38044790573  -0.189188663661  -0.170925759741  -0.0178825561964  
5.13400888443  -0.00196306099178  -1.77390239915  -1.3799003722  -0.182452402495  -0.168976398092  -0.00433676094797  
5.14213204384  -0.00169124048679  -1.77390428638  -1.37990002259  -0.179383903511  -0.168698543314  -0.0110376866552  
5.15037202835  -0.00152777370887  -1.77390476992  -1.3798992943  -0.176374972165  -0.17011789732  -0.014649783054  
5.15858197212  -0.00117202086752  -1.77391084002  -1.37990089753  -0.173441065165  -0.168116916121  -0.00116925126506  
5.16655111313  -0.000934354424361  -1.77391506522  -1.37990192848  -0.170593000473  -0.167797812839  -0.00794910867754  
5.17463707924  -0.000807088344381  -1.77391762981  -1.37990245216  -0.16784180551  -0.169184718047  0.00516310818781  
5.18270301819  -0.000586950977658  -1.77392321154  -1.37990428395  -0.165198059904  -0.168869444138  -0.00217917440802  
5.1908121109  7.21280698125e-05  -1.77392923902  -1.37990641364  -0.162669302238  -0.168543313262  -0.00634868229237  
5.19888997078  8.74843640733e-05  -1.77393563998  -1.37990880477  -0.160262288596  -0.168209266182  -0.010155288818  
5.20698809624  0.00020517621922  -1.77491586838  -1.38041617341  -0.179890596825  -0.167868999724  -0.0136036036528  
5.21505093575  0.000104320018191  -1.77386674683  -1.37987095434  -0.172559846641  -0.167528088795  2.10547380409e-05  
5.2231400013  1.69722879876e-05  -1.77387192529  -1.379872948  -0.169004663308  -0.168895609686  -0.00663292593804  
5.23120093346  0.000131767173229  -1.77388233234  -1.37987715533  -0.165612944709  -0.166854458751  -0.0102290726101  
5.23926091194  3.50397513378e-05  -1.77291733729  -1.37937604104  -0.140474139926  -0.166507223023  -0.0134826541686  
5.2474091053  0.000686015046064  -1.77398235271  -1.37992799167  -0.142605784607  -0.166164508735  -0.0164001444965  
5.25559997559  0.000783493352613  -1.7739914025  -1.37993231437  -0.141278940169  -0.165830930971  -0.00226776006474  
5.26365303993  0.000868535242632  -1.77400016106  -1.37993654413  -0.140112868379  -0.165506890363  0.00847085936231  
5.27181410789  0.000941583538702  -1.77400864624  -1.37994068755  -0.139102513539  -0.165193665973  0.0184440438719  
5.27969098091  0.00100311592857  -1.7740168274  -1.37994472595  -0.138242075672  -0.164892370109  0.0275307080369  
5.28775405884  0.00105364450247  -1.7740246781  -1.37994864274  -0.137525271818  -0.164603954153  0.0357428511479  
5.29591488838  0.00109370990194  -1.77403217596  -1.37995242333  -0.136945412634  -0.164329215027  0.0430970034872  
5.30402588844  0.00112387574591  -1.77403930243  -1.37995605509  -0.136495475617  -0.164068802155  0.0496137749485  
5.31212711334  0.0010470054207  -1.77404397897  -1.37995872372  -0.136167710569  -0.165532867992  0.0381568876008  
5.32018995285  0.00116503616142  -1.77405257491  -1.37996290641  -0.135956072106  -0.151127741477  0.0298546734158  
5.32850503922  0.00116896199882  -1.77405850809  -1.37996603367  -0.135851457666  -0.13824776906  0.022013281521  
5.33656692505  0.00116532198296  -1.77406402967  -1.37996897906  -0.135846679172  -0.125509273169  0.0146453452113  
5.34471201897  0.00115473102446  -1.77406913769  -1.37997173858  -0.135934016254  -0.112980476287  0.0249090891874  
5.35258102417  0.00114411547946  -1.77504532412  -1.38047830882  -0.158047688812  -0.110553916152  0.0145702677898  
5.36067295074  0.00101686692438  -1.77399372623  -1.37993270009  -0.153115952363  -0.10607054606  0.0245945621173  
5.36875104904  0.000997215339244  -1.77399802042  -1.37993483332  -0.151894324275  -0.101272136421  0.0311887863776  
5.37683796883  0.00107061685628  -1.77400447474  -1.3799378685  -0.150760313989  -0.0863859041264  0.0370782532391  
5.38501191139  0.000936253145544  -1.77400676164  -1.37993932583  -0.149710534291  -0.0835018730807  0.0251251856032  
5.39303088188  0.000910535449445  -1.77498278548  -1.38044568762  -0.170652970474  -0.0885882704334  0.0164464543147  
5.40115809441  0.000770811832838  -1.7739314018  -1.37990009434  -0.164598035068  -0.0911711890869  0.0254908632824  
5.40949296951  0.000838888590493  -1.77393828333  -1.37990322163  -0.162269708629  -0.0831559315513  0.0140235116287  
5.4175620079  0.0329425480497  -1.77528233033  -1.37971457532  -0.160106031484  -0.0766966416183  0.0230101765162  
5.42555093765  0.0500532076443  -1.77517570628  -1.37973340299  -0.157995329796  -0.07036448297  0.0115059972696  
5.43371701241  0.0654345967248  -1.77506842562  -1.37975150484  -0.156002423711  -0.0739067747158  0.00332556281352  
5.44168305397  0.079417614925  -1.7749672581  -1.3797711473  -0.154131876496  -0.0653323857166  0.0129062571752  
5.44984507561  0.0917294321442  -1.77486636138  -1.3797897543  -0.152384432595  -0.0585726750086  0.00201627501033  
5.45780301094  0.102428336097  -1.77573789498  -1.38031129243  -0.172663512097  -0.0716113716685  -0.00541655159573  
5.46595311165  0.111846129908  -1.7745913743  -1.37978287119  -0.165985581067  -0.0604357689094  0.00467015048919  
5.47406506538  0.119650948616  -1.77449844944  -1.37979944644  -0.163072326204  -0.0626828618035  -0.00546221756237  
5.48217511177  0.126205484776  -1.77441209549  -1.37981663164  -0.160308863639  -0.0628062247891  0.00463227796314  
5.4902780056  0.131467713493  -1.77433030124  -1.37983347331  -0.157700075009  -0.062526598324  -0.00549033857723  
5.49852705002  0.135407017109  -1.7742512518  -1.37984912977  -0.155249678324  -0.0716983795938  0.00461162388025  
5.50655198097  0.138296615612  -1.77417917053  -1.37986513237  -0.152961451996  -0.0781542675705  -0.00550274465423  
5.51464605331  0.140102049879  -1.77411198668  -1.37988058475  -0.150836538059  -0.0836213329204  0.00460611070025  
5.52277302742  0.14099376777  -1.7740516901  -1.37989619221  -0.148871788632  -0.0783164225339  0.0115179572398  
5.53071188927  0.14084164753  -1.7739942002  -1.37991032014  -0.147068222643  -0.074490793941  0.000675780468701  
5.53883504868  0.139727624481  -1.77393967421  -1.37992300559  -0.145426165737  -0.0803203090157  -0.00666715703151  
5.54698801041  0.135652368048  -1.77225792599  -1.35287115138  -0.142403009019  -0.0689093426844  -0.00660043473228  
5.55511188507  0.132370173099  -1.77234916754  -1.33697156108  -0.141248014682  -0.0737761981041  0.00352190617286  
5.56317996979  0.128617470405  -1.77244476488  -1.32256582657  -0.140241542074  -0.0762471577176  -0.00650581976023  
5.57131004333  0.124356581863  -1.77254175617  -1.30962764385  -0.139377874676  -0.0780495334696  0.00363120288702  
5.57928490639  0.119555902194  -1.77263750684  -1.29812398633  -0.138650868661  -0.0890496463634  -0.00638960999535  
5.58753395081  0.114482735209  -1.77273537407  -1.28801759816  -0.138055309179  -0.0970849179235  0.00375960746601  
5.59567594528  0.109092238541  -1.77283265028  -1.2792630459  -0.137584261608  -0.103891663248  -0.00625779727966  
5.60371899605  0.103442699285  -1.77292877522  -1.27181064305  -0.137230990739  -0.109522440643  0.00390120895652  
5.61170887947  0.0974854980518  -1.77204975767  -1.26510152295  -0.115020634396  -0.114033912045  0.0108847449482  
5.61978793144  0.0915999191276  -1.77416970551  -1.26113972438  -0.142034110306  -0.12731648813  0.000112863315238  
5.62777304649  0.085382262377  -1.77223187836  -1.25620341252  -0.116384592481  -0.127385552837  0.00982235773163  
5.63592791557  0.0793318600409  -1.77337425757  -1.2539332283  -0.121592148817  -0.128208421407  0.0162178968463  
5.64399003983  0.0731551511987  -1.77345729678  -1.2521165549  -0.123233462703  -0.128168050734  0.0048686114925  
5.65204191208  0.0670043553128  -1.77353635525  -1.25123472416  -0.124917449595  -0.127330772299  0.0140177751266  
5.66008710861  0.0609157202866  -1.77361130213  -1.25122077024  -0.126630500541  -0.125763696487  0.00272262590462  
5.66821289062  0.0549222694633  -1.77368199148  -1.25200743929  -0.128359710196  -0.123533300535  -0.00509953358703  
5.67628192902  0.0490538535415  -1.77374831531  -1.25352766736  -0.130093077246  -0.120705054471  0.00464799043784  
5.68452191353  0.0433372130123  -1.7738102012  -1.25571499323  -0.131819508737  -0.117343083202  0.0112130922469  
5.69262909889  0.0376983726728  -1.77386577967  -1.25850322245  -0.133528406663  -0.123344512727  5.30971105063e-05  
5.70075201988  0.032257713631  -1.7729454951  -1.26132480417  -0.113241560345  -0.126554598606  0.00940497946891  
5.70877289772  0.0271438114824  -1.77307666079  -1.2651694196  -0.0980945229098  -0.128724958884  0.0154731594403  
5.71684288979  0.0223629852123  -1.77417653904  -1.26993335706  -0.106435892111  -0.129922728431  0.0209748820633  
5.72494888306  0.0178088338581  -1.77421719326  -1.27450543622  -0.111061225806  -0.120380885675  0.0087700565323  
5.73306202888  0.0133028877085  -1.77424882382  -1.27937506169  -0.115571662494  -0.122221515547  0.0171073812657  
5.7411699295  0.00926002997562  -1.77427921416  -1.28449157256  -0.119949927515  -0.111765152485  0.0221916588499  
5.74944591522  0.00537634302276  -1.77430285568  -1.28980176284  -0.12417789192  -0.102981719818  0.0267438879928  
5.75764799118  0.00165728845513  -1.77334860729  -1.29475323863  -0.106265462414  -0.0942401452774  0.0307771138918  
5.76576209068  -0.00167906629506  -1.77344589198  -1.30035377838  -0.0933548730618  -0.0855899020906  0.0343064734167  
5.77364110947  -0.00476369048364  -1.77451040965  -1.30651716747  -0.103793231249  -0.0869032388918  0.0201949339765  
5.78165006638  -0.00758993531875  -1.77451641544  -1.31215184416  -0.110368215277  -0.0860156250333  0.00955687865646  
5.78977203369  -0.0102537418794  -1.77354454556  -1.31726335323  -0.0946953381383  -0.08466024403  0.0168346409325  
5.79780006409  -0.0123356286034  -1.77557094557  -1.32388145848  -0.12789926928  -0.082878807871  0.00379481423611  
5.80592894554  -0.0145887283946  -1.77450657454  -1.32881523534  -0.129993685115  -0.0905445733822  -0.00563490900145  
5.81398200989  -0.0162772855331  -1.77449788953  -1.33418834021  -0.13539575529  -0.0856677169366  0.00261859254957  
5.82213902473  -0.017831419424  -1.77448423067  -1.3394259873  -0.140471856162  -0.0821910149142  0.00782485010919  
5.83017396927  -0.0192519113687  -1.77446604018  -1.34450615805  -0.145215735021  -0.0882948798038  0.0125788356015  
5.83851909637  -0.0202473468492  -1.77444902052  -1.34941159344  -0.149625040508  -0.0819925930581  -0.000260463613644  
5.84662389755  -0.0212289050066  -1.77539775642  -1.3546270151  -0.175594248718  -0.0968745981614  -0.0260910355694  
5.85468387604  -0.0219172412258  -1.77432105829  -1.3585841666  -0.174143779735  -0.0970582342947  -0.0304947291918  
5.86263203621  -0.022409861576  -1.77429692291  -1.36286972691  -0.176002467461  -0.0981775803612  -0.0368684366954  
5.87078809738  -0.0227313293686  -1.77330046612  -1.36642273222  -0.155652036814  -0.0887712445672  -0.0257909777177  
5.8787779808  -0.0229781223789  -1.77335561894  -1.37028688829  -0.140178652776  -0.0909227974887  -0.0179150888411  
5.88684105873  -0.0228677926307  -1.77341373194  -1.3739114822  -0.12594487041  -0.0809583164294  -0.0105406820255  
5.89490890503  0.00960281272101  -1.77577900508  -1.37760349851  -0.134988291539  -0.0825375228294  -0.0203961677564  
5.90305995941  0.0270412668852  -1.77563852952  -1.38070881493  -0.140027251934  -0.0820269917767  -0.0101366919542  
5.91108798981  0.0428398321684  -1.77452455691  -1.38317892661  -0.122777423697  -0.0810443087802  -0.00311210760147  
5.91919803619  0.0574645771061  -1.77641372838  -1.38697901256  -0.154306365997  -0.0796293142822  0.00345208713315  
5.92729306221  0.0702913504515  -1.775219399  -1.38892327731  -0.154707520798  -0.077828954607  0.00960620471152  
5.93551111221  0.081794261429  -1.77508287855  -1.39116524489  -0.158393022149  -0.0756813555415  0.0152237812361  
5.94368195534  0.091899713861  -1.77494944927  -1.39316258932  -0.161745110993  -0.0732276344277  0.00316362506285  
5.9518020153  0.100652462537  -1.7748196454  -1.39492184567  -0.164768587704  -0.0705068640578  0.0116671025709  
5.95970797539  0.108004662321  -1.77469231371  -1.39644989871  -0.167469731144  -0.0773795620513  0.0169384880479  
5.96778893471  0.114110132013  -1.77359813293  -1.39725152389  -0.147829813897  -0.0816798979452  0.00454762744312  
5.97584104538  0.119338708236  -1.77453969984  -1.39889399782  -0.155216787283  -0.0753102185018  -0.00432427417508  
5.98395609856  0.123120985401  -1.77442708228  -1.39978366161  -0.158543579469  -0.0803462606182  0.00450481214544  
5.99205899239  0.125942187246  -1.77432133443  -1.40048065663  -0.161563796338  -0.0829329717103  -0.00678973483957  
6.00012302399  0.127865342705  -1.77519424464  -1.40149993684  -0.186194156875  -0.0848002229169  -0.0145742561743  
6.00824594498  0.128734134366  -1.77404528753  -1.40129494522  -0.183438160346  -0.0761692486613  -0.00494276121069  
6.01639890671  0.128643508577  -1.77395464958  -1.40147624428  -0.184034392744  -0.0791132485747  0.00148015963476  
6.02457404137  0.127857574589  -1.77387219533  -1.40150938237  -0.184377632595  -0.079777741883  -0.00934291604472  
6.0325050354  0.126337560149  -1.77379609116  -1.40140498088  -0.184484823053  -0.0798922071737  -3.88059309024e-05  
6.04057097435  0.124149948495  -1.77372631653  -1.40117436565  -0.184373619518  -0.079498707817  -0.0106768099737  
6.04866909981  0.121457902401  -1.77366444404  -1.40082940148  -0.184062034875  -0.0688157179168  -0.0179235600963  
6.05674791336  0.118024468994  -1.77360534524  -1.40037920322  -0.183566461109  -0.0699121459359  -0.00777425377704  
6.06494307518  0.114221612977  -1.77355407753  -1.3998366495  -0.182905374673  -0.0689297240509  -0.0175870458663  
6.07293391228  0.11000414582  -1.77350871468  -1.39921164368  -0.182095371856  -0.0675926447806  -0.0240295108207  
6.08111190796  0.105430598913  -1.77346908011  -1.39851447061  -0.181153056062  -0.0659368683832  -0.0298232622347  
6.08918404579  0.100550952182  -1.77246328956  -1.39725081528  -0.158184494292  -0.0541784747578  -0.0182565412132  
6.09734606743  0.0955357544551  -1.77349017568  -1.39698683719  -0.1622061357  -0.0445519897003  -0.0266999967632  
6.10558104515  0.0901151796949  -1.77346448393  -1.39613064845  -0.162501005386  -0.0452117417722  -0.0150973000159  
6.11371207237  0.0846536607609  -1.77344483263  -1.3952399848  -0.162699682006  -0.0439800827457  -0.0235261447669  
6.12171292305  0.0790907743679  -1.7734293117  -1.39432245256  -0.16280821653  -0.0425682744965  -0.0286548958069  
6.12962794304  0.0735666805209  -1.77341930167  -1.3933864605  -0.162833292805  -0.0311853958679  -0.0164822706541  
6.13769698143  0.0679174620927  -1.77341122265  -1.39243800277  -0.162780508371  -0.0220494052122  -0.00765437381288  
6.14577507973  0.0622856205707  -1.77340658464  -1.39148456472  -0.162656598722  -0.0134855687733  -0.0161865284507  
6.15387105942  0.0567048361699  -1.77340514933  -1.39053245351  -0.162467855491  -0.00550227948267  -0.0047338291343  
6.16193604469  0.0511019501693  -1.77243336817  -1.38908261439  -0.140301333314  0.00179924364612  0.00341478638369  
6.17005205154  0.0457274976695  -1.77349184328  -1.3886976083  -0.145184427623  -0.00109360707028  0.0110836784401  
6.17820596695  0.0406823052735  -1.77447340313  -1.38828802806  -0.168293235776  0.00786787601336  0.000942861781908  
6.18636488914  0.0354714164191  -1.77342578498  -1.38684606706  -0.164239593846  0.0145987283559  -0.00577819226306  
6.19450998306  0.0305493292395  -1.77343579706  -1.38597734427  -0.163758902729  0.0207211603209  0.00493960005269  
6.20250201225  0.0257226413934  -1.77344613739  -1.38513696308  -0.163234061109  0.0159393787689  0.0124219240899  
6.21074604988  0.021306823626  -1.77346148845  -1.38432979169  -0.162672660593  0.0232926848137  0.0192473806722  
6.21874094009  0.0169067763359  -1.7734749307  -1.38355575418  -0.162079576392  0.0180726525248  0.00827492588741  
6.22689700127  0.0128352346329  -1.77251965633  -1.3823147426  -0.139541344988  0.0250083362556  0.0177515897447  
6.23493790627  0.00901303713347  -1.77359120892  -1.38216370001  -0.144086772163  0.0193932937278  0.0238831350608  
6.24291110039  0.00542576489679  -1.77360930226  -1.38150500746  -0.144977973521  0.0156527886092  0.0122400272348  
6.2509560585  -0.00101110490588  -1.77372818195  -1.3803526673  -0.129880679299  0.016648680786  0.00944377930741  
6.25907492638  -0.00387703308384  -1.77374617114  -1.37961590129  -0.13220713976  0.0127896240027  0.0183059231281  
6.26721096039  -0.00650499338782  -1.77376344442  -1.37963181231  -0.134467207719  0.00915386012858  0.00671799344009  
6.27529597282  -0.00879108411231  -1.77378162008  -1.37890655577  -0.136652560331  0.016047403322  0.0156359833838  
6.28330993652  -0.0110405694223  -1.77379566584  -1.37851347173  -0.138754344231  0.0104504479747  0.00411711217244  
6.29134893417  -0.0129493599141  -1.77381066434  -1.37815934539  -0.140767102099  0.00678287101055  0.013113994805  
6.29951500893  -0.0145320114945  -1.7738264498  -1.37784335178  -0.142685259944  0.0136611345668  0.0188316739165  
6.30768108368  -0.0160969485843  -1.77383800982  -1.37756260071  -0.144503171584  0.0080656561423  0.0239891466822  
6.31575703621  -0.0173428730217  -1.7738504541  -1.37731799237  -0.14621844194  0.00441424656221  0.0114470584165  
6.32385492325  -0.0183844331604  -1.77386201954  -1.37710760953  -0.147828039732  0.0010219610897  0.0194575779223  
6.33190703392  -0.0191333676361  -1.77387431992  -1.37693073205  -0.149330553863  0.00818801639888  0.00707660018997  
6.33998894691  -0.0199006813095  -1.77388236653  -1.37678396407  -0.15072388896  0.0028937267579  0.0152611093643  
6.34809708595  -0.0203872365703  -1.7738912958  -1.37666777336  -0.152005843011  -0.000433409951576  0.00306818665774  
6.35619497299  -0.0206117854383  -1.77390098321  -1.37658050729  -0.153179847839  0.0067737380725  0.0114495558411  
6.36430001259  -0.020788572089  -1.77390807215  -1.37651919951  -0.154246786872  0.0118394903379  0.0166096830636  
6.37246990204  -0.0208225634868  -1.77391433886  -1.37648284655  -0.155208704307  0.01644186596  0.0212665503203  
6.38053297997  -0.0207246273177  -1.77391980828  -1.37646973688  -0.156067773336  0.0205881940154  0.00828064628303  
6.38870310783  -0.0206032653983  -1.77392288583  -1.37647751518  -0.156826272722  0.0139844133938  -0.00124580116888  
6.39685988426  -0.0201681009327  -1.77392860546  -1.37650640956  -0.157488391972  0.0196687094825  -0.00977753108943  
6.40492296219  -0.0198367894849  -1.77393023616  -1.37655207064  -0.158056033621  0.0129327889942  -0.000855837668442  
6.41283011436  -0.0193103947238  -1.77393295462  -1.37661481226  -0.158534102187  0.00819957889376  -0.011841786135  
6.42093491554  -0.0187049677087  -1.77393503722  -1.3766922864  -0.158926213623  0.00378627304013  -0.00268091425364  
6.42919111252  -0.0179327595074  -1.7739381438  -1.37678350098  -0.159236968691  0.00999428712265  0.00335090742607  
6.43733692169  -0.0173044653893  -1.77393730219  -1.37688492275  -0.159469652766  0.00380447855319  0.00899968675972  
6.44529008865  -0.0165261214049  -1.7729660152  -1.37649279078  -0.137703543977  0.00992978515486  0.0141547871212  
6.45339393616  -0.0155954671933  -1.77402161453  -1.37716152209  -0.142980323483  0.0139659536536  0.018822402814  
6.46143507957  -0.0145928266722  -1.77242894508  -1.35022452315  -0.144336578865  0.0176039032822  0.0230112834862  
6.46966409683  -0.0138263891649  -1.77255679117  -1.33445399608  -0.145842572183  0.0105512159058  0.00958230316343  
6.47764110565  -0.0129359883597  -1.77268329561  -1.32018173908  -0.147262139444  0.00554081192474  0.0167858206267  
6.48570799828  -0.0120344106127  -1.77280605726  -1.30738035073  -0.148592807821  0.000888428464374  0.0208261432856  
6.49382710457  -0.0111281285535  -1.77292460161  -1.29601643718  -0.149833227503  -0.00323310517961  0.00727437101093  
6.50191187859  -0.0102293646743  -1.77206685881  -1.28554586776  -0.129026609479  0.00295514341211  0.0143781452724  
6.51012706757  -0.00922677430461  -1.77323145621  -1.27747969695  -0.135270742241  0.00725125976026  0.0183414029495  
6.51834893227  -0.00834863330893  -1.77333475931  -1.27016694092  -0.137783221367  0.0111712804337  0.021883314163  
6.52634692192  -0.00748686071679  -1.77343200823  -1.26410044173  -0.140180448174  0.0147207719706  0.0250146631699  
6.53431606293  -0.00674318035057  -1.77352149408  -1.25922113025  -0.14245632967  0.0076047728933  0.0105972091453  
6.54242491722  -0.00591774570056  -1.77360652269  -1.25546890398  -0.144606911969  0.00255428443054  -0.000263343154205  
6.55052995682  -0.00497448769038  -1.77112231279  -1.22514153162  -0.124452321651  0.0081807147863  0.00686659380339  
6.55850291252  -0.00421251821286  -1.77238019437  -1.20802796795  -0.131546625968  0.0014682831376  -0.00611536857356  
6.56662011147  -0.00348978955467  -1.77257533767  -1.1927957975  -0.134866851096  -0.00301748760545  -0.0153891221637  
6.57469797134  -0.00270387117565  -1.77276237592  -1.17990107296  -0.138027668322  0.0028661839379  -0.00712614359973  
6.58279109001  -0.0021574848814  -1.77293593938  -1.16924292138  -0.14102095216  -0.00326273320553  -0.0186825135246  
6.59084892273  -0.00164014607899  -1.77309925509  -1.16071713177  -0.143841898053  -0.0170573566652  -0.0267269735584  
6.59896993637  -0.000957507940239  -1.77325535661  -1.15421393318  -0.146487142332  -0.0183101594072  -0.017256341699  
6.60731601715  -0.000419567825849  -1.77339894572  -1.14961596739  -0.148952837121  -0.0209064401347  -0.0276388324818  
6.61535596848  0.000247787337334  -1.77353010762  -1.14680472574  -0.151085932077  -0.0329802052424  -0.0178187057348  
6.62342691422  0.000317597128384  -1.77365386289  -1.14566139882  -0.153336259406  -0.0325420645003  -0.0111514595234  
6.6313560009  0.000759946494629  -1.77279044838  -1.14555638759  -0.133313926894  -0.0433046062841  -0.00493354521446  
6.63950204849  0.0011550107075  -1.77297381474  -1.14742250932  -0.11828131556  -0.0514050775929  0.000831570031047  
6.64755606651  0.00161603401845  -1.77411962331  -1.1510941369  -0.126586591564  -0.0585559401032  -0.0105754912248  
6.65569996834  0.00192743581744  -1.77419897284  -1.15539712977  -0.131053633279  -0.0647875685677  -0.0185323906499  
6.66378307343  0.00220269248343  -1.77426748517  -1.16076059678  -0.135295192605  -0.0701314988589  -0.0257575419719  
6.6718070507  0.00254054235639  -1.77432723226  -1.16706906773  -0.139303058737  -0.0648010232252  -0.0155376052822  
6.68004608154  0.00264112754835  -1.77437372097  -1.17420758543  -0.143069476234  -0.0708574998121  -0.025239159072  
6.68800902367  0.00266351508177  -1.77600263737  -1.20923421044  -0.146806969744  -0.0744443219894  -0.0148065322759  
6.69630289078  0.00291684985505  -1.77590274561  -1.23368140333  -0.150062215458  -0.0674655520961  -0.00759319818933  
6.70443201065  0.00293716723103  -1.77579344502  -1.25711944751  -0.153063413724  -0.0719859090196  -0.0176147636146  
6.71237707138  0.00313293215308  -1.77568259472  -1.27948491325  -0.155813738235  -0.0643269862196  -0.00752671991248  
6.72049689293  0.00319643637068  -1.77556623488  -1.30072125821  -0.158318766402  -0.0584181494282  -0.0173972004843  
6.72852706909  0.00323516761086  -1.77544710516  -1.32078594213  -0.160582298858  -0.0526036386268  -0.007171356412  
6.73663687706  0.00304943418254  -1.77435167498  -1.33914089913  -0.140688517964  -0.0567304565855  -0.000196091395668  
6.74475097656  0.00316431401676  -1.7752853369  -1.35732310837  -0.147673091489  -0.0586239623813  -0.0104810230907  
6.75280809402  0.00314078029687  -1.77419193891  -1.37321318915  -0.128834485258  -0.0501867256453  -0.000682269411136  
6.76085305214  0.00320944069778  -1.77512523853  -1.38899202676  -0.136896668799  -0.0436468940663  0.00599967718318  
6.76897096634  0.0029477355739  -1.77402936855  -1.40311604746  -0.119109716902  -0.0471589912662  0.0121801023116  
6.77702999115  0.00298703604256  -1.77399319209  -1.41650999945  -0.106235770964  -0.0387301020888  0.000659174079771  
6.78522992134  0.00291324522703  -1.77492820827  -1.42914374755  -0.116617223003  -0.0420836566907  -0.00729423051014  
6.79335594177  0.00271724103554  -1.77383819795  -1.43948285687  -0.101079763558  -0.0433577928499  0.00222213475211  
6.80129504204  0.00282468334016  -1.7747799585  -1.44966169604  -0.112384417637  -0.0344453615857  -0.00828989224132  
6.80944705009  0.00260116808645  -1.77369399759  -1.45760631175  -0.0977208731829  -0.027568034755  -0.0154081544033  
6.81763291359  0.00264029552652  -1.77304710481  -1.43747570607  -0.1096387352  -0.0308624315979  -0.0218789392319  
6.82563495636  0.00250227915375  -1.77307057736  -1.42694776569  -0.117757953754  -0.0321504330768  -0.0277123120572  
6.83373498917  0.00245706404327  -1.77309621861  -1.41694545566  -0.125449271972  -0.0233246959274  -0.0161959259042  
6.84189105034  0.00219875841106  -1.77214761547  -1.40698309893  -0.110725314098  -0.0165956859212  -0.00797480194798  
6.84996795654  0.00205057963985  -1.77225464181  -1.39813087279  -0.100731548548  -0.0102841737288  -0.000343793722679  
6.85822796822  0.00190727445003  -1.77333288027  -1.39035645523  -0.113809593652  -0.0142033707174  -0.0100228912954  
6.86642098427  0.0017571572094  -1.77335647582  -1.38261428787  -0.122755933353  -0.0161717330067  0.000331695663684  
6.87441492081  0.0337362271463  -1.77374511983  -1.374794644  -0.109260623782  -0.00797333509115  0.00756300113134  
6.88245201111  0.0507443473723  -1.77470791171  -1.36909802918  -0.122334927367  -0.0118261995996  0.0142154301404  
6.89053606987  0.0662158995932  -1.77461801899  -1.36340202775  -0.131225372239  -0.00394163771169  0.0202641550875  
6.89853096008  0.0797827678685  -1.77355180726  -1.35773998364  -0.117575633493  -0.00800574077504  0.00856864340938  
6.90666699409  0.092111114252  -1.77451614521  -1.35366274555  -0.130506103579  -0.0101442897254  0.0173766039058  
6.91470789909  0.102810525516  -1.77442584581  -1.34955555081  -0.13921252852  -0.0120521354117  0.00574494737906  
6.92280197144  0.112043577382  -1.77433649027  -1.34595177301  -0.147311408208  -0.013734717887  0.0146281566746  
6.93089103699  0.119865799926  -1.7742486161  -1.34283486865  -0.154792840806  -0.0151990529596  0.00308397038398  
6.93898892403  0.131426611575  -1.77310618087  -1.33748178882  -0.146013147713  -0.0249361908956  0.00456248808023  
6.94726800919  0.167616591828  -1.77444573557  -1.33556118544  -0.134985325215  -0.0250074782466  -0.00607486625133  
6.9553000927  0.18767169884  -1.77530931302  -1.33475860986  -0.146812230185  -0.034830813485  -0.013259430629  
6.96338701248  0.2050007659  -1.774151195  -1.33328594466  -0.132445993386  -0.0323057224989  -0.0198047286299  
6.97130608559  0.219723343118  -1.77405092479  -1.33271922073  -0.122646902252  -0.0313296228049  -0.0257197295764  
6.97943305969  0.232045044378  -1.77492832779  -1.3329920015  -0.135750712907  -0.0302317392985  -0.0142915972602  
6.98737406731  0.241762341629  -1.77378233333  -1.3325210112  -0.122621036166  -0.0290303076221  -0.00616365445716  
6.9954829216  0.249429844088  -1.7746699652  -1.33338877787  -0.135995246441  -0.02773811139  -0.0153501133003  
7.00357103348  0.254840552368  -1.77353660854  -1.33346472518  -0.123114168844  -0.0165629776477  0.0124568704108  
7.01169109344  0.258256769116  -1.77443434073  -1.33482992594  -0.136713542834  -0.0175156820056  0.0162782245213  
7.01977300644  0.259793257051  -1.77428467244  -1.33586087912  -0.145998221341  -0.0167272462594  0.00505399747511  
7.02789497375  0.259592060062  -1.77414141993  -1.33708195706  -0.154581742789  -0.0158936551435  -0.00278573440725  
7.03600907326  0.257685551336  -1.77303213901  -1.33796566288  -0.140535804423  -0.0150243626935  0.00706344691225  
7.04401493073  0.254529008572  -1.77395830323  -1.34004912528  -0.152931672481  -0.0141255064263  -0.00343895169477  
7.05236196518  0.249824728571  -1.77286340978  -1.34120431951  -0.139059650963  -0.0132076783401  0.00642046191359  
7.06036305428  0.244033477764  -1.7728309374  -1.3430128394  -0.129674691387  -0.0122760150116  -0.00403218914054  
7.06838202477  0.237276109425  -1.77377840317  -1.3454124547  -0.143111064973  -0.0113373811175  -0.0110102547384  
7.07643795013  0.229456870812  -1.77270576194  -1.34682643673  -0.130248808778  -0.000594348245651  -0.000658109204444  
7.08450102806  0.220829143462  -1.7736646119  -1.34934270263  -0.14381530956  -0.00204049827379  -0.0103257407319  
7.09266591072  0.211388198413  -1.77260324512  -1.35083986474  -0.131069470659  -0.00180395388652  4.11912567182e-05  
7.10072493553  0.201573444583  -1.77357617596  -1.35340910586  -0.144738273552  -0.00157069863327  -0.00961678783706  
