Ethan-CYM/ros_catkin_ws/test/servol_静止不动/ur_joint_actual_degree.txt
time  shoulder_pan_joint  shoulder_lift_joint  elbow_joint  wrist_1_joint  wrist_2_joint  wrist_3_joint
0.161458969116  1.56997692585  -1.22112256685  2.09334897995  -3.1525366942  -1.57124787966  -0.241783444081  
0.169559955597  1.56995296478  -1.221098725  2.09333705902  -3.15236884752  -1.57136756579  -0.246748272573  
0.177650928497  1.57001292706  -1.221098725  2.09331321716  -3.15252477327  -1.57121211687  -0.251197163259  
0.185765981674  1.56995296478  -1.221098725  2.09334897995  -3.15247661272  -1.571331803  -0.255070511495  
0.193866014481  1.56996500492  -1.22105056444  2.09336090088  -3.15250045458  -1.57125980059  -0.25846416155  
0.201961040497  1.56996500492  -1.22111064592  2.09333705902  -3.15267974535  -1.57117587725  -0.260994736348  
0.210062026978  1.56997692585  -1.22108680407  2.09334897995  -3.15242845217  -1.57125980059  -0.262757126485  
0.218189954758  1.56992900372  -1.22108680407  2.09327697754  -3.15267974535  -1.57106858889  -0.263956371938  
0.226428031921  1.56994104385  -1.22107488314  2.09334897995  -3.15248853365  -1.5711162726  -0.264388386403  
0.234527111053  1.56996500492  -1.22111064592  2.09334897995  -3.15270406405  -1.57108050982  -0.264172379171  
0.242626905441  1.56995296478  -1.22106296221  2.09334897995  -3.15251237551  -1.57097274462  -0.263537232076  
0.250693082809  1.56996500492  -1.22112256685  2.09327697754  -3.15277606646  -1.57106858889  -0.262193981801  
0.258825063705  1.56996500492  -1.22112256685  2.09331321716  -3.15254861513  -1.57090074221  -0.260274712239  
0.266932964325  1.56998896599  -1.22125417391  2.09328889847  -3.15266782442  -1.57097274462  -0.254411045705  
0.275027990341  1.56997692585  -1.22152978579  2.09312152863  -3.15252477327  -1.5708287398  -0.250537697469  
0.283092975616  1.56997692585  -1.22188884417  2.0929775238  -3.15271598497  -1.57098466555  -0.245969120656  
0.291193962097  1.56996500492  -1.22252303759  2.09273767471  -3.15259629885  -1.57080489794  -0.240763966237  
0.299258947372  1.56997692585  -1.2232893149  2.09241390228  -3.15277606646  -1.57090074221  -0.235140148793  
0.307358980179  1.56995296478  -1.22437888781  2.09198236465  -3.15245277086  -1.5708287398  -0.228748146688  
0.315562963486  1.56995296478  -1.2257788817  2.09145498276  -3.15256053606  -1.57070905367  -0.221421543752  
0.323664903641  1.57000088692  -1.22738343874  2.09080791473  -3.15230876604  -1.57081681887  -0.213495079671  
0.331753969193  1.57004880905  -1.22935849825  2.09014844894  -3.15216523806  -1.57068473497  -0.205076519643  
0.33985209465  1.57013273239  -1.23162061373  2.08945322037  -3.15168553988  -1.57068473497  -0.196082894002  
0.347973108292  1.57019269466  -1.23414642016  2.08866167068  -3.15113479296  -1.57069713274  -0.186165634786  
0.356070995331  1.57028889656  -1.23694736162  2.08787059784  -3.15045148531  -1.57052928606  -0.175708595906  
0.364192962646  1.5704087019  -1.23990422884  2.08712720871  -3.14949351946  -1.5706132094  -0.165096584951  
0.372291088104  1.57049262524  -1.2430284659  2.08637189865  -3.14836770693  -1.57045776049  -0.153596226369  
0.380393028259  1.57061243057  -1.24623614946  2.08550930023  -3.14709741274  -1.57054120699  -0.142048660909  
0.388438940048  1.57068479061  -1.24958783785  2.08474159241  -3.14555198351  -1.57045776049  -0.130320851003  
0.396502971649  1.57079267502  -1.25296336809  2.08390283585  -3.1439464728  -1.57033759752  -0.118089501058  
0.404592037201  1.57088851929  -1.25636321703  2.08309936523  -3.14216167132  -1.57039767901  -0.106074635183  
0.412688970566  1.57097244263  -1.25976258913  2.08228445053  -3.14030486742  -1.57025367418  -0.0936034361469  
0.420787096024  1.57106864452  -1.26315051714  2.0815410614  -3.13838750521  -1.57037383715  -0.081276241933  
0.428878068924  1.57121241093  -1.26651317278  2.08070135117  -3.13631564776  -1.57017022768  -0.0692847410785  
0.43701505661  1.5712723732  -1.26979285875  2.07988643646  -3.13423043886  -1.57020599047  -0.0570657888996  
0.445106983185  1.57137989998  -1.27301341692  2.07897567749  -3.13200265566  -1.57017022768  -0.0452664534198  
0.453205108643  1.57147610188  -1.27617293993  2.07806444168  -3.12976247469  -1.57009822527  -0.033575359975  
0.46129989624  1.57156002522  -1.27922517458  2.0770816803  -3.12752229372  -1.57008630434  -0.0220754782306  
0.469387054443  1.57170379162  -1.28219348589  2.0760140419  -3.1252339522  -1.56997806231  -0.011331383382  
0.477478981018  1.57175171375  -1.28505450884  2.07494735718  -3.12294608751  -1.57017022768  -0.000527683888571  
0.48556804657  1.57184803486  -1.28773528734  2.07390451431  -3.12070542971  -1.56997806231  0.00968849752098  
0.493665933609  1.57194387913  -1.29036885897  2.07274198532  -3.11850148836  -1.57013398806  0.0194133222103  
0.501765966415  1.57200372219  -1.29281074206  2.07159090042  -3.11633283297  -1.5701101462  0.0289220549166  
0.509856939316  1.57208764553  -1.29513293902  2.07039213181  -3.11411649386  -1.57007438341  0.0378431864083  
0.517946958542  1.5721719265  -1.29739505449  2.06910896301  -3.1119483153  -1.5702179114  0.0461531244218  
0.526073932648  1.57225584984  -1.29942924181  2.06783819199  -3.10986358324  -1.57006198565  0.0537911951542  
0.534156084061  1.57226777077  -1.30139285723  2.06657981873  -3.10791093508  -1.57022983233  0.0613453760743  
0.542299985886  1.57229173183  -1.30335551897  2.06523704529  -3.10594636599  -1.57012206713  0.0682640224695  
0.550422906876  1.57236373425  -1.30511504809  2.06388187408  -3.10402948061  -1.57024175326  0.0745830759406  
0.558522939682  1.57241165638  -1.30680257479  2.06245565414  -3.10228091875  -1.57024175326  0.080242626369  
0.56662607193  1.57248353958  -1.30833465258  2.06105327606  -3.10041171709  -1.57024175326  0.0854464024305  
0.574726104736  1.57249546051  -1.30981856981  2.05961418152  -3.09869891802  -1.57037383715  0.0903385877609  
0.582822084427  1.57248353958  -1.31121904055  2.05819988251  -3.0970214049  -1.57025367418  0.0947270616889  
0.590938091278  1.57253146172  -1.31249982515  2.05670118332  -3.09532052675  -1.57043344179  0.0985279306769  
0.599041938782  1.57261574268  -1.31370860735  2.05520296097  -3.09369117418  -1.57038575808  0.101873405278  
0.607142925262  1.57256782055  -1.31491738955  2.05365610123  -3.09214526812  -1.57044583956  0.104703180492  
0.615209102631  1.57261574268  -1.31600696245  2.05201387405  -3.09063655535  -1.57055312792  0.107125118375  
0.623310089111  1.57263970375  -1.31711990038  2.05037117004  -3.08913880983  -1.57038575808  0.109019748867  
0.631375074387  1.57265162468  -1.31814891497  2.04880046844  -3.08767730394  -1.57062513033  0.110554479063  
0.639494895935  1.57269966602  -1.31917840639  2.04703807831  -3.08622771898  -1.57055312792  0.111729681492  
0.647595882416  1.57265162468  -1.32025558153  2.04536008835  -3.08464652697  -1.57057696978  0.112617261708  
0.655721902847  1.57267570496  -1.32138091723  2.04366970062  -3.08306533495  -1.5707209746  0.113156549633  
0.663810014725  1.57263970375  -1.32248193422  2.04190731049  -3.08142406145  -1.57055312792  0.113372266293  
0.671904087067  1.57266366482  -1.3236430327  2.04014492035  -3.07967502276  -1.57064897219  0.113348297775  
0.680006027222  1.57265162468  -1.32489949862  2.03838253021  -3.07791406313  -1.57051736513  0.113000385463  
0.688071012497  1.57262766361  -1.32615596453  2.03660869598  -3.07602101961  -1.57056504885  0.112461090088  
0.696168899536  1.57265162468  -1.32748443285  2.03472614288  -3.07404452959  -1.57052928606  0.111741662025  
0.704408884048  1.57265162468  -1.32892114321  2.03292798996  -3.07189971605  -1.57036191622  0.110878422856  
0.712507963181  1.57261574268  -1.33044082323  2.03110599518  -3.06964809099  -1.57043344179  0.109847031534  
0.720571994781  1.57260370255  -1.33206874529  2.02927112579  -3.06720430056  -1.57025367418  0.108575955033  
0.728696107864  1.57259178162  -1.33372050921  2.02736520767  -3.06468898455  -1.57022983233  0.10723297298  
0.736794948578  1.57254350185  -1.33550388018  2.02543497086  -3.06198150316  -1.57005006472  0.105698622763  
0.744915962219  1.57257974148  -1.3374188582  2.02350521088  -3.05916625658  -1.56996614138  0.104091607034  
0.7530169487  1.57260370255  -1.33936959902  2.02147865295  -3.05632716814  -1.56970292727  0.102389097214  
0.761158943176  1.57251942158  -1.34142810503  2.01957273483  -3.05328447024  -1.56957132021  0.100590720773  
0.769222974777  1.57256782055  -1.34358245531  2.0175819397  -3.05009776751  -1.5692837874  0.098779976368  
0.777334928513  1.57249546051  -1.34583264986  2.01561594009  -3.04668361345  -1.56911594072  0.0969692319632  
0.785403966904  1.57247149944  -1.34808284441  2.01356601715  -3.04332954088  -1.56884032885  0.0950510129333  
0.793521881104  1.57243561745  -1.35035688082  2.01147937775  -3.03986770311  -1.56857711474  0.0931803509593  
0.801635980606  1.57244753838  -1.35273820559  2.00942993164  -3.03609401384  -1.56826621691  0.0913096815348  
0.809751987457  1.57241165638  -1.35518008867  2.00736761093  -3.03232032457  -1.56794244448  0.0893910825253  
0.817816972733  1.57243561745  -1.35764533678  2.00531768799  -3.02833110491  -1.56766730944  0.0874968320131  
0.825885057449  1.57239961624  -1.36013490358  2.0031952858  -3.02443820635  -1.56737977663  0.0856381505728  
0.834004878998  1.57235169411  -1.36264831225  2.00106096268  -3.02037698427  -1.56710416475  0.0839472487569  
0.84210395813  1.57233977318  -1.36524516741  1.99896335602  -3.01613647143  -1.56680471102  0.0822810679674  
0.850200891495  1.57233977318  -1.36781818071  1.99680519104  -3.01207572619  -1.56642133394  0.0807219967246  
0.858344078064  1.57237565517  -1.37036735216  1.99468326569  -3.00783521334  -1.56608611742  0.0791992470622  
0.86642408371  1.57230377197  -1.3729522864  1.99250125885  -3.00361854235  -1.56578618685  0.0777364224195  
0.874519109726  1.5722438097  -1.37552577654  1.9903550148  -2.99925834337  -1.56546336809  0.0764533653855  
0.88258600235  1.57223188877  -1.37806302706  1.98822069168  -2.9950059096  -1.56509191195  0.0751347243786  
0.890682935715  1.5722079277  -1.38058835665  1.98605108261  -2.99065715471  -1.56469661394  0.073887616396  
0.898780107498  1.57225584984  -1.38305312792  1.98383283615  -2.98630887667  -1.56436092058  0.0727483704686  
0.906872034073  1.57221984863  -1.38553077379  1.98167514801  -2.98186523119  -1.56406194368  0.0716570541263  
0.914969921112  1.5721719265  -1.38797265688  1.97943258286  -2.97761232058  -1.56372625033  0.0706376433372  
0.923048973083  1.57215952873  -1.39285546938  1.97492456436  -2.96884423891  -1.56304341951  0.0689115449786  
0.93114900589  1.57213556767  -1.39528447786  1.9726228714  -2.96448403994  -1.56268436113  0.0682040974498  
0.939213991165  1.57212364674  -1.39770251909  1.97042894363  -2.96032697359  -1.56234914461  0.0675442144275  
0.947249889374  1.57209968567  -1.40007192293  1.96821069717  -2.95593101183  -1.56203776995  0.0669809579849  
0.955375909805  1.57215952873  -1.4024775664  1.96599245071  -2.95158273378  -1.56175023714  0.0664532780647  
0.963440895081  1.5720757246  -1.40485889116  1.96379899979  -2.94740230242  -1.56139117876  0.0659495666623  
0.971534013748  1.57209968567  -1.40722781817  1.96158075333  -2.94312554995  -1.5610798041  0.0655537098646  
0.979630947113  1.5720757246  -1.40955001513  1.95943450928  -2.93886167208  -1.56074458758  0.0652301385999  
0.987694978714  1.57205176353  -1.41178733507  1.95719194412  -2.9346092383  -1.56039697329  0.0649780929089  
0.995817899704  1.5720397234  -1.41404992739  1.95513010025  -2.93051273028  -1.56014520327  0.0648103132844  
1.0039100647  1.5720757246  -1.41625148455  1.95294761658  -2.92639190355  -1.5598338286  0.0646904706955  
1.01199793816  1.5720397234  -1.41840583483  1.95081377029  -2.92217523256  -1.55951053301  0.0646065846086  
1.02013397217  1.57206368446  -1.42035657564  1.94867992401  -2.9180911223  -1.55919915835  0.0646305531263  
1.02822995186  1.57205176353  -1.42257053057  1.94654512405  -2.91405421892  -1.55888778368  0.0647264271975  
1.03633308411  1.57201576233  -1.42466479937  1.94445943832  -2.91001779238  -1.5586121718  0.0648462697864  
1.04437088966  1.57195580006  -1.42668706576  1.9423494339  -2.9058731238  -1.55833655993  0.0649301558733  
1.05246806145  1.5720397234  -1.42868549029  1.94019079208  -2.90180093447  -1.5580256621  0.0651342645288  
1.06055903435  1.57199180126  -1.43060046831  1.93815279007  -2.89787131945  -1.55770188967  0.0652301385999  
1.0686519146  1.57194387913  -1.43249160448  1.93604278564  -2.89387065569  -1.55742627779  0.0654218867421  
1.07677006721  1.57193183899  -1.43426257769  1.9339799881  -2.88991815249  -1.5572107474  0.065541729331  
1.08487296104  1.57181203365  -1.43598586718  1.93189430237  -2.88613301912  -1.55693513552  0.065841704607  
1.09298300743  1.57175171375  -1.43761378924  1.92991542816  -2.88243133227  -1.55671960512  0.0661053583026  
1.10107398033  1.57176375389  -1.43915683428  1.92788934708  -2.8787668387  -1.55643254915  0.0664053410292  
1.10916495323  1.57163190842  -1.44062930742  1.9258389473  -2.87512475649  -1.55618125597  0.0667169317603  
1.11730408669  1.57164382935  -1.44201690355  1.92378854752  -2.87156755129  -1.55588180224  0.067076832056  
1.12536907196  1.57158398628  -1.44332200686  1.92178630829  -2.86826163927  -1.55560619036  0.067376434803  
1.13345789909  1.57147610188  -1.44461375872  1.9196639061  -2.86488372484  -1.55529481569  0.0677003860474  
1.14152407646  1.57137989998  -1.4457748572  1.91762590408  -2.86162597338  -1.5549715201  0.0679760202765  
1.14959192276  1.57134389877  -1.44688731829  1.91573143005  -2.85842734972  -1.55462438265  0.0683239400387  
1.1576590538  1.57122445107  -1.44791728655  1.91376495361  -2.85537320772  -1.55428868929  0.0686714798212  
1.16572093964  1.57114052773  -1.44891006151  1.91182231903  -2.85245067278  -1.55391770998  0.0690193995833  
1.17381596565  1.57104468346  -1.44986755053  1.90983247757  -2.84950429598  -1.55355817476  0.0693429708481  
1.18190789223  1.57087647915  -1.45076495806  1.90788984299  -2.84665328661  -1.55316287676  0.0696429535747  
1.19004297256  1.57070875168  -1.45165044466  1.90595912933  -2.84383851687  -1.55275565783  0.0699661523104  
1.1981420517  1.57056450844  -1.45240432421  1.90416097641  -2.84116775194  -1.55231219927  0.0703380405903  
1.20630908012  1.57031285763  -1.4531343619  1.90225410461  -2.83860427538  -1.55186921755  0.0706496313214  
1.21440505981  1.57007277012  -1.4538043181  1.90037202835  -2.83617240587  -1.55145007769  0.0709855630994  
1.22247195244  1.56984472275  -1.45440322558  1.89859771729  -2.83380109469  -1.55098325411  0.071213260293  
1.23053598404  1.56952118874  -1.45484573046  1.89693069458  -2.83151370684  -1.55052787462  0.0715252235532  
1.23875308037  1.56914961338  -1.45531255404  1.8951921463  -2.82940513292  -1.55010873476  0.0718128457665  
1.24681901932  1.56872987747  -1.45568305651  1.89359760284  -2.82729703585  -1.54973775545  0.0721248090267  
1.25488400459  1.56827402115  -1.45603019396  1.89206266403  -2.82533294359  -1.54931813875  0.0724124312401  
1.26297903061  1.56779396534  -1.45635348955  1.89056396484  -2.8234761397  -1.54891091982  0.0727004334331  
1.27126193047  1.56732654572  -1.45655709902  1.88910102844  -2.82173949877  -1.54845554033  0.07300003618  
1.27935791016  1.56675100327  -1.45677215258  1.88772201538  -2.82001477877  -1.54804879824  0.0733000189066  
1.28742098808  1.56616294384  -1.45691568056  1.88633108139  -2.81850558916  -1.54765350023  0.0735876336694  
1.29548311234  1.56551504135  -1.45707160631  1.88503646851  -2.81693631807  -1.5472462813  0.0739715099335  
1.30354690552  1.56484401226  -1.45708352724  1.88381290436  -2.81563073794  -1.5468509833  0.074283093214  
1.3116350174  1.5640642643  -1.45708352724  1.88260221481  -2.81428939501  -1.54650336901  0.0746310129762  
1.3197350502  1.56332087517  -1.45704776445  1.88151073456  -2.81309158007  -1.54615670839  0.0750145092607  
1.3278260231  1.56252908707  -1.4569996039  1.88043165207  -2.81191808382  -1.54574901262  0.0754343345761  
1.33592605591  1.56166553497  -1.45687991778  1.87940073013  -2.81092387835  -1.5454137961  0.0758661404252  
1.34406995773  1.56078994274  -1.45677215258  1.87857341766  -2.8100250403  -1.54510242144  0.0762736052275  
1.35220694542  1.55995023251  -1.45666486422  1.87766218185  -2.80917483965  -1.54487497011  0.0766930505633  
1.36031794548  1.55905103683  -1.45646125475  1.87685871124  -2.80839616457  -1.54458743731  0.0772087424994  
1.36838388443  1.55809164047  -1.45631772677  1.87605571747  -2.80765372912  -1.54428798357  0.0777364224195  
1.37647199631  1.55724000931  -1.45613795916  1.87534761429  -2.8070786635  -1.54404861132  0.078155875206  
1.38455700874  1.55628049374  -1.45595866839  1.87474822998  -2.80653983751  -1.54380876223  0.0786595866084  
1.39266896248  1.55541718006  -1.45574313799  1.87412500381  -2.80600053469  -1.54362899462  0.0791872665286  
1.40073204041  1.55449330807  -1.45554000536  1.87362146378  -2.80553371111  -1.54353362719  0.0797029659152  
1.40882706642  1.55352222919  -1.45533591906  1.87316560745  -2.80516225496  -1.54336578051  0.0802186578512  
1.41694998741  1.5526586771  -1.45515710512  1.87274599075  -2.80480319658  -1.5432937781  0.0808178707957  
1.42501997948  1.5517706871  -1.45492917696  1.87237405777  -2.80453950564  -1.54323417345  0.0813695192337  
1.43310499191  1.55084753036  -1.45466596285  1.8720741272  -2.8043478171  -1.54312593142  0.0818971991539  
1.44119691849  1.5499958992  -1.45439130465  1.87183427811  -2.80414420763  -1.54316217104  0.0825327411294  
1.44932889938  1.5491206646  -1.45419913927  1.87161827087  -2.80401260058  -1.54310208956  0.0830480605364  
1.45741605759  1.54825663567  -1.45396024386  1.87142658234  -2.80391675631  -1.5430782477  0.0836236774921  
1.46548104286  1.54744136333  -1.45374423662  1.87130689621  -2.80394059816  -1.54313832918  0.0842472314835  
1.47357988358  1.54662573338  -1.45351726214  1.87119913101  -2.80392867724  -1.54319793383  0.084810860455  
1.48169493675  1.5458343029  -1.45330220858  1.87110328674  -2.80398828188  -1.54317409197  0.0853625163436  
1.48975896835  1.54510259628  -1.45315820376  1.87113952637  -2.80412036577  -1.54320985476  0.0859261453152  
1.49785590172  1.54433476925  -1.45295459429  1.8711514473  -2.80408412615  -1.54324609438  0.0864897817373  
1.50598692894  1.54357981682  -1.45276385943  1.8711514473  -2.80425197283  -1.54335385958  0.0870290696621  
1.51410508156  1.54290795326  -1.45257169405  1.87119913101  -2.80428821245  -1.54333001772  0.0876406356692  
1.52222394943  1.54221248627  -1.45235664049  1.87127065659  -2.80441981951  -1.54348546663  0.0881563350558  
1.53031587601  1.54151666164  -1.45223647753  1.87137889862  -2.80456382433  -1.54343778292  0.0886600464582  
1.53841710091  1.54090511799  -1.45202190081  1.87146282196  -2.80471927324  -1.54362899462  0.0891757458448  
1.54650592804  1.54040133953  -1.45188981691  1.8716545105  -2.80483895937  -1.54362899462  0.0896910652518  
1.55456995964  1.53986167908  -1.45172244707  1.87177467346  -2.80504256884  -1.5437968413  0.0901464670897  
1.5626680851  1.53935801983  -1.45157844225  1.87191820145  -2.80527002016  -1.54384500185  0.0906142219901  
1.57075691223  1.53897416592  -1.45149451891  1.87203836441  -2.80540162722  -1.54396468798  0.0910700038075  
1.57885408401  1.5385543108  -1.45137530962  1.87221813202  -2.80559379259  -1.54414445559  0.091537386179  
1.5869538784  1.5378588438  -1.45121986071  1.87256574631  -2.80603677431  -1.54441959063  0.0922811552882  
1.59501695633  1.53754687309  -1.45115977923  1.87273406982  -2.80624038378  -1.54458743731  0.0926406830549  
1.60308098793  1.53733122349  -1.45110017458  1.87293720245  -2.80650407473  -1.54479104677  0.0929766148329  
1.61114692688  1.53710305691  -1.45101672808  1.87305736542  -2.80674344698  -1.5450184981  0.0933001860976  
1.61928892136  1.53694725037  -1.45100433031  1.87330913544  -2.80694705645  -1.54519826571  0.0936001688242  
1.6273920536  1.5367552042  -1.45094472567  1.87348890305  -2.80716258684  -1.54537803331  0.0938638225198  
1.63545608521  1.53663575649  -1.4509566466  1.87366914749  -2.80731803576  -1.54553395907  0.0941398367286  
1.64351892471  1.53652787209  -1.45094472567  1.8738489151  -2.80753404299  -1.54578525225  0.0943555533886  
1.65160894394  1.53646755219  -1.45094472567  1.87400484085  -2.8077138106  -1.54598886171  0.0946072191  
1.65967392921  1.53647994995  -1.45094472567  1.87420892715  -2.80795318285  -1.54625207583  0.0947270616889  
1.66776990891  1.53646755219  -1.45092040697  1.87438869476  -2.80812055269  -1.54647952715  0.0949191823602  
1.67586898804  1.53647994995  -1.45094472567  1.87453222275  -2.80833655993  -1.54667121569  0.0949671193957  
1.68395400047  1.53655183315  -1.45092040697  1.87467622757  -2.80848008791  -1.54687482515  0.0951348990202  
1.69204688072  1.53655183315  -1.45092040697  1.87484407425  -2.80865985552  -1.54700690905  0.0952307730913  
1.70011305809  1.53662371635  -1.45093280474  1.87503623962  -2.80877954165  -1.5472462813  0.0952187925577  
1.70828390121  1.53669524193  -1.45094472567  1.87519216537  -2.80888730684  -1.5473540465  0.0953629761934  
1.71634888649  1.5367552042  -1.45098048845  1.87529993057  -2.80906707445  -1.54758149782  0.0953150391579  
1.72445893288  1.5368270874  -1.4509566466  1.87535953522  -2.80906707445  -1.54768926302  0.0954228937626  
1.73254489899  1.5369592905  -1.45100433031  1.87550354004  -2.8092230002  -1.5478571097  0.0954228937626  
1.74066996574  1.53706717491  -1.45098048845  1.87563562393  -2.8092230002  -1.54797679583  0.0953989252448  
1.74880290031  1.53717505932  -1.45102817217  1.8757314682  -2.8093307654  -1.54815656344  0.0953989252448  
1.7569000721  1.53730714321  -1.45105201403  1.87579154968  -2.80942660967  -1.54827624956  0.0954708307981  
1.7649641037  1.53737914562  -1.45102817217  1.87587547302  -2.80942660967  -1.54843217531  0.0953869447112  
1.77303099632  1.53752291203  -1.45110017458  1.87592315674  -2.80941468874  -1.5484679381  0.0955423638225  
1.78116798401  1.5376431942  -1.45112401644  1.87603139877  -2.80953437487  -1.54867154757  0.0953629761934  
1.7893819809  1.53781092167  -1.4511478583  1.87600708008  -2.8095219771  -1.54862338701  0.0954468622804  
1.79747390747  1.53794276714  -1.45115977923  1.8760433197  -2.80959397951  -1.54876739184  0.095374956727  
1.80556106567  1.53807497025  -1.45118362108  1.87613964081  -2.80963021914  -1.54875547091  0.0952787101269  
1.81364893913  1.53818285465  -1.45119601885  1.87613964081  -2.80961782137  -1.54894715944  0.0953509882092  
1.82177305222  1.53831458092  -1.45126754442  1.87613964081  -2.80961782137  -1.54892331759  0.0951828360558  
1.82989597321  1.53842282295  -1.45124370257  1.87612724304  -2.80966598192  -1.54911500612  0.0953026786447  
1.83795690536  1.538590312  -1.45127994219  1.87613964081  -2.80966598192  -1.54898292223  0.0952427610755  
1.84608006477  1.53866219521  -1.45130378405  1.87609148026  -2.80961782137  -1.54921037356  0.0951828360558  
1.85418510437  1.53881800175  -1.45137530962  1.87612724304  -2.80964214007  -1.54906684557  0.0952667295933  
1.86228990555  1.53892624378  -1.45136338869  1.87610340118  -2.80965406099  -1.54923421541  0.0950629934669  
1.87040710449  1.53904604912  -1.45138723055  1.87612724304  -2.80964214007  -1.5491865317  0.0952547416091  
1.87850308418  1.53914189339  -1.45143491427  1.87611532211  -2.80964214007  -1.54921037356  0.0951708555222  
1.88659906387  1.53927409649  -1.45138723055  1.8761510849  -2.80964214007  -1.54931813875  0.0952547416091  
1.89469909668  1.53935801983  -1.45143491427  1.87611532211  -2.80965406099  -1.54921037356  0.0952787101269  
1.90282392502  1.5394538641  -1.45149451891  1.87617492676  -2.80961782137  -1.54943782488  0.0951948240399  
1.91092300415  1.53950178623  -1.45144683519  1.87609148026  -2.80964214007  -1.54923421541  0.0954348817468  
1.91905903816  1.53960967064  -1.45147067705  1.87609148026  -2.80964214007  -1.54940206209  0.0952547416091  
1.927120924  1.53968191147  -1.45150691668  1.87609148026  -2.80961782137  -1.54933005968  0.0955064073205  
1.9351849556  1.53974187374  -1.45147067705  1.8760676384  -2.80955821673  -1.54930621782  0.0954228937626  
1.94328999519  1.53974187374  -1.45150691668  1.87600708008  -2.8095219771  -1.54945022265  0.0954947993159  
1.95138907433  1.53982579708  -1.45156652132  1.87601900101  -2.8095219771  -1.54930621782  0.0956022813916  
1.95951604843  1.53990960121  -1.45157844225  1.87600708008  -2.80949861208  -1.54942590395  0.0956022813916  
1.9676129818  1.53989768028  -1.45156652132  1.8760676384  -2.80948669115  -1.54937822024  0.0957820490003  
1.97570490837  1.53989768028  -1.45157844225  1.87599515915  -2.80941468874  -1.54941398302  0.0957221239805  
1.98379206657  1.53989768028  -1.45159084002  1.87594747543  -2.80940276781  -1.54950982729  0.0959618091583  
1.99188709259  1.53995764256  -1.45157844225  1.87592315674  -2.80931884447  -1.54945022265  0.0958659350872  
2.00001788139  1.53993356228  -1.45160276095  1.87598323822  -2.80927068392  -1.54965383211  0.0961299613118  
2.00814199448  1.53998160362  -1.45153075853  1.87592315674  -2.80928308169  -1.54950982729  0.0960101261735  
2.0162050724  1.53999352455  -1.45157844225  1.87588739395  -2.80916291872  -1.5497973601  0.0962737724185  
2.02427101135  1.53995764256  -1.45159084002  1.87585163116  -2.80919915835  -1.54978543917  0.0961898863316  
2.03243207932  1.54000556469  -1.45166236559  1.87585163116  -2.80916291872  -1.54986888567  0.0964056029916  
2.04053401947  1.54000556469  -1.4516266028  1.87586355209  -2.80907899538  -1.54989320437  0.0964295715094  
2.04862594604  1.53999352455  -1.45165044466  1.87586355209  -2.80923492113  -1.55001289049  0.0965134575963  
2.05668902397  1.53995764256  -1.45168620745  1.8757557869  -2.80898315111  -1.55002481142  0.0967055857182  
2.06480789185  1.54000556469  -1.45161468187  1.87577962875  -2.8092230002  -1.55013257662  0.0966576486826  
2.07291197777  1.53994560242  -1.45165044466  1.87570762634  -2.80895930925  -1.55021649996  0.096909314394  
2.08101391792  1.53996956348  -1.45161468187  1.87579154968  -2.80911523501  -1.55027658144  0.0968254208565  
2.08910489082  1.53996956348  -1.45163852373  1.87577962875  -2.80903131167  -1.55039626757  0.096909314394  
2.09720206261  1.53996956348  -1.45163852373  1.8757314682  -2.80898315111  -1.55046779314  0.0971130430698  
2.10527205467  1.53996956348  -1.45163852373  1.87574338913  -2.80916291872  -1.55062371889  0.0969932004809  
2.11337804794  1.54000556469  -1.45166236559  1.8757314682  -2.8089354674  -1.55064756075  0.0972209051251  
2.12146806717  1.53994560242  -1.4516266028  1.87576770782  -2.80909091631  -1.55079156557  0.0972209051251  
2.12956404686  1.53995764256  -1.45166236559  1.87571954727  -2.80892354647  -1.55092317263  0.0973411202431  
2.13763308525  1.53993356228  -1.45165044466  1.8757557869  -2.80900699297  -1.5510190169  0.0974130257964  
2.14570093155  1.53993356228  -1.45165044466  1.8757314682  -2.80909091631  -1.55129462877  0.0973650887609  
2.15378499031  1.53995764256  -1.45163852373  1.87570762634  -2.8089111487  -1.55133039156  0.0975927859545  
2.16185307503  1.53993356228  -1.45166236559  1.8757557869  -2.80907899538  -1.55155784289  0.0974849313498  
2.16997003555  1.53992164135  -1.45168620745  1.87576770782  -2.80889922777  -1.55166560808  0.0977006480098  
2.17809796333  1.53989768028  -1.45163852373  1.87570762634  -2.80903131167  -1.55188113848  0.097676679492  
2.18622803688  1.53992164135  -1.45166236559  1.87576770782  -2.80907899538  -1.55188113848  0.0975808054209  
2.19440793991  1.53987371922  -1.45166236559  1.87577962875  -2.80895930925  -1.55204898516  0.0978324711323  
2.20249891281  1.53989768028  -1.45166236559  1.87580347061  -2.80918676058  -1.55212051073  0.0977006480098  
2.21056199074  1.53986167908  -1.45167476336  1.87577962875  -2.8089111487  -1.552216355  0.0979047566652  
2.21865391731  1.53988564014  -1.45167476336  1.87579154968  -2.80906707445  -1.55225259462  0.0978444591165  
2.22674894333  1.53987371922  -1.4516266028  1.87586355209  -2.80903131167  -1.55236035982  0.0979167371988  
2.23481297493  1.53983771801  -1.45166236559  1.87581539154  -2.80897123018  -1.55244428316  0.0980006307364  
2.24288105965  1.53978979588  -1.45161468187  1.87586355209  -2.80915099779  -1.55243236223  0.0978564396501  
2.25094509125  1.53981375694  -1.45165044466  1.87589931488  -2.80882722536  -1.55254012743  0.0980965048075  
2.2589828968  1.53977787495  -1.45167476336  1.87591123581  -2.80894738833  -1.55264741579  0.0980845168233  
2.2670879364  1.53978979588  -1.45166236559  1.87597131729  -2.80900699297  -1.5527194182  0.0982043594122  
2.27517700195  1.53976583481  -1.45166236559  1.87603139877  -2.80909091631  -1.55274326006  0.0979886427522  
2.28327608109  1.53975391388  -1.45168620745  1.8760433197  -2.8089354674  -1.55283910433  0.0982163399458  
2.29140806198  1.53981375694  -1.45165044466  1.87612724304  -2.80912715593  -1.5528271834  0.0980965048075  
2.29947590828  1.53983771801  -1.45163852373  1.87616300583  -2.80885154406  -1.55299503008  0.0981084853411  
2.30754208565  1.53976583481  -1.45161468187  1.87621116638  -2.80907899538  -1.55288726488  0.0982163399458  
2.31563711166  1.53976583481  -1.45163852373  1.87624692917  -2.80900699297  -1.55309087435  0.0980605483055  
2.32370400429  1.53980183601  -1.45161468187  1.87630701065  -2.80903131167  -1.55299503008  0.09822832793  
2.33177995682  1.53981375694  -1.45161468187  1.87627077103  -2.80910331408  -1.55317479769  0.098192371428  
2.33990907669  1.53981375694  -1.45165044466  1.87633085251  -2.8089111487  -1.55317479769  0.0980365797877  
2.34797692299  1.53987371922  -1.45165044466  1.87645053864  -2.80921107927  -1.55322295824  0.0982163399458  
2.35607004166  1.53984975815  -1.45166236559  1.87645053864  -2.80892354647  -1.55334216753  0.0980485677719  
2.36420893669  1.53982579708  -1.45163852373  1.87651062012  -2.80918676058  -1.55329448382  0.0981324538589  
2.37227988243  1.53981375694  -1.45166236559  1.87654685974  -2.80903131167  -1.55351001421  0.0981084853411  
2.3804359436  1.53984975815  -1.4516266028  1.87659502029  -2.80904323259  -1.55335408846  0.0979407057166  
2.3885281086  1.53988564014  -1.45165044466  1.87663078308  -2.80909091631  -1.55358201662  0.0981684029102  
2.39659404755  1.53982579708  -1.45166236559  1.87664270401  -2.80898315111  -1.55348617235  0.0979646742344  
2.40466094017  1.53990960121  -1.45166236559  1.87665462494  -2.80912715593  -1.55357009569  0.0980006307364  
2.41278505325  1.53989768028  -1.45166236559  1.87667894363  -2.8089111487  -1.55365401903  0.0980605483055  
2.42089104652  1.53992164135  -1.45166236559  1.87672662735  -2.80912715593  -1.55352193514  0.097928725183  
2.42895293236  1.53993356228  -1.45165044466  1.8767747879  -2.8089354674  -1.55373794237  0.0980725362897  
2.43705105782  1.53993356228  -1.45166236559  1.87672662735  -2.80912715593  -1.5536420981  0.097892396152  
2.4451520443  1.54001748562  -1.45167476336  1.87676286697  -2.80911523501  -1.55372602144  0.0979886427522  
2.45328092575  1.54002988338  -1.4516266028  1.87679862976  -2.80905515352  -1.55384570757  0.0980605483055  
2.46134901047  1.53999352455  -1.45166236559  1.87685871124  -2.80911523501  -1.55373794237  0.0978684276342  
2.4694609642  1.54008984566  -1.45163852373  1.87685871124  -2.80900699297  -1.55392963091  0.0980605483055  
2.47755694389  1.54012572765  -1.45166236559  1.87684631348  -2.80925876299  -1.55379754702  0.097928725183  
2.48567605019  1.54014968872  -1.45167476336  1.87695455551  -2.80899507204  -1.5538576285  0.0979407057166  
2.49381089211  1.54024553299  -1.45166236559  1.87706279755  -2.8092230002  -1.55394155184  0.0980485677719  
2.50193095207  1.54032945633  -1.45166236559  1.87711048126  -2.80911523501  -1.55379754702  0.097892396152  
2.50999593735  1.54044926167  -1.45163852373  1.87718248367  -2.80921107927  -1.55403691927  0.0979886427522  
2.51813101768  1.54047334194  -1.45163852373  1.87738609314  -2.80927068392  -1.55394155184  0.0979766622186  
2.52629089355  1.54060506821  -1.45167476336  1.87742233276  -2.80910331408  -1.55394155184  0.0978324711323  
2.5343940258  1.54071295261  -1.45165044466  1.87754249573  -2.80931884447  -1.55413276354  0.09801261127  
2.54249811172  1.54078483582  -1.45163852373  1.87765026093  -2.80907899538  -1.5539653937  0.0979167371988  
2.550563097  1.54085719585  -1.45165044466  1.87775802612  -2.80930692354  -1.55414468447  0.09801261127  
2.5586309433  1.54098892212  -1.45165044466  1.87785339355  -2.80917483965  -1.55407315889  0.09801261127  
2.56675100327  1.5410130024  -1.4516266028  1.87799787521  -2.80929500261  -1.55410892168  0.0977965220809  
2.57481598854  1.5411567688  -1.45163852373  1.87811756134  -2.80929500261  -1.55418092409  0.0980245992541  
2.58288407326  1.54120504856  -1.45165044466  1.87823724747  -2.80918676058  -1.5540488402  0.0978684276342  
2.59101700783  1.54132497311  -1.45165044466  1.87832117081  -2.8094385306  -1.55426484743  0.0979167371988  
2.59909200668  1.54142081738  -1.4516266028  1.87844133377  -2.80919915835  -1.55418092409  0.0979766622186  
2.60719108582  1.54156494141  -1.45166236559  1.87858533859  -2.80941468874  -1.5542529265  0.0978085026145  
2.61528706551  1.54163682461  -1.45166236559  1.87868118286  -2.80924684206  -1.55434877077  0.09801261127  
2.62338995934  1.54176867008  -1.45165044466  1.87881326675  -2.80930692354  -1.55424052874  0.0978684276342  
2.63145303726  1.54184055328  -1.45163852373  1.87888479233  -2.80935460726  -1.55444461504  0.0978444591165  
2.63955307007  1.54194879532  -1.45163852373  1.87900495529  -2.80921107927  -1.55431253115  0.0979886427522  
2.64765501022  1.54210460186  -1.45163852373  1.87908887863  -2.80942660967  -1.55452853838  0.0977605655789  
2.6557469368  1.54221248627  -1.45165044466  1.8791847229  -2.80915099779  -1.5544684569  0.0979407057166  
2.6638739109  1.54232001305  -1.45165044466  1.87934064865  -2.80936652819  -1.55451614061  0.0977365970612  
2.67197489738  1.54241585732  -1.45165044466  1.87936449051  -2.80921107927  -1.55461246172  0.0979167371988  
2.68006706238  1.54254806042  -1.45168620745  1.87943649292  -2.8092230002  -1.55451614061  0.0977485850453  
2.68821191788  1.54269182682  -1.45163852373  1.8794965744  -2.80930692354  -1.5547674338  0.0979167371988  
2.69637703896  1.54281210899  -1.45167476336  1.8796043396  -2.80911523501  -1.5545762221  0.0978564396501  
2.70444107056  1.5428839922  -1.45166236559  1.87964057922  -2.80936652819  -1.55471975008  0.0977725535631  
2.71254110336  1.54296791553  -1.45166236559  1.87973642349  -2.80910331408  -1.55470782915  0.0979047566652  
2.72063994408  1.54307568073  -1.45166236559  1.87972402573  -2.80929500261  -1.55469590822  0.0977365970612  
2.72873806953  1.54314768314  -1.45165044466  1.87980794907  -2.80913907686  -1.55483943621  0.0978564396501  
2.73684000969  1.5432318449  -1.45166236559  1.87985610962  -2.80910331408  -1.55464822451  0.0978085026145  
2.74493598938  1.54331576824  -1.45165044466  1.87983226776  -2.80919915835  -1.55489951769  0.0977126285434  
2.75302910805  1.54338765144  -1.45160276095  1.87983226776  -2.80903131167  -1.5547674338  0.097892396152  
2.76113295555  1.54341161251  -1.45166236559  1.87985610962  -2.80928308169  -1.55479175249  0.0977006480098  
2.76920509338  1.54348361492  -1.45166236559  1.87987995148  -2.80910331408  -1.55492335955  0.097892396152  
2.77733898163  1.54350757599  -1.45165044466  1.87992811203  -2.80924684206  -1.55477983156  0.0977485850453  
2.78543901443  1.54357981682  -1.45167476336  1.8799161911  -2.8092230002  -1.55495959917  0.097676679492  
2.79353809357  1.54355549812  -1.45163852373  1.87990379333  -2.80910331408  -1.5548637549  0.097892396152  
2.80160188675  1.54355549812  -1.4516266028  1.87990379333  -2.8092230002  -1.55489951769  0.0976886600256  
2.80969309807  1.54357981682  -1.4516266028  1.8799161911  -2.80898315111  -1.55494720141  0.0978684276342  
2.81778502464  1.54361581802  -1.45163852373  1.87994003296  -2.80921107927  -1.55481559435  0.0978564396501  
2.82592105865  1.54360377789  -1.45168620745  1.87992811203  -2.80900699297  -1.55499536196  0.0977845340967  
2.83404898643  1.54361581802  -1.45163852373  1.88001203537  -2.80909091631  -1.55487567583  0.097928725183  
2.84217095375  1.54361581802  -1.45167476336  1.87992811203  -2.80899507204  -1.55493528048  0.0977725535631  
2.85037994385  1.54357981682  -1.45161468187  1.87995195389  -2.8089354674  -1.55495959917  0.0978444591165  
2.85847997665  1.54357981682  -1.45169860521  1.87996387482  -2.80903131167  -1.55480367342  0.0978085026145  
2.86656808853  1.54355549812  -1.45161468187  1.87996387482  -2.80887538591  -1.55499536196  0.0977485850453  
2.87469100952  1.54355549812  -1.45165044466  1.87994003296  -2.80907899538  -1.55477983156  0.0979526937008  
2.8828098774  1.54355549812  -1.45165044466  1.87994003296  -2.80882722536  -1.55491143862  0.0977965220809  
2.8909060955  1.54355549812  -1.45160276095  1.8799161911  -2.80903131167  -1.55491143862  0.0978564396501  
2.89900708199  1.54354345798  -1.45168620745  1.87998819351  -2.8089354674  -1.55492335955  0.0978324711323  
2.90707206726  1.54347157478  -1.45167476336  1.8799161911  -2.80886346499  -1.5547674338  0.0976527109742  
2.91513490677  1.54348361492  -1.45168620745  1.87994003296  -2.80877954165  -1.55480367342  0.0978324711323  
2.92319989204  1.54344761372  -1.45166236559  1.87989187241  -2.80895930925  -1.55479175249  0.0978085026145  
2.93133807182  1.54343569279  -1.45161468187  1.8799161911  -2.80875569979  -1.55469590822  0.097676679492  
2.9394030571  1.54339969158  -1.45165044466  1.87989187241  -2.80894738833  -1.55485135714  0.0978444591165  
2.94749188423  1.54339969158  -1.45166236559  1.8799161911  -2.8088033835  -1.55467206637  0.0976646915078  
2.95555496216  1.54330384731  -1.45163852373  1.87992811203  -2.80886346499  -1.55471975008  0.0978085026145  
2.96364808083  1.54332780838  -1.45165044466  1.87987995148  -2.80892354647  -1.55480367342  0.0977485850453  
2.97174406052  1.54332780838  -1.45163852373  1.87983226776  -2.80879146258  -1.55463630358  0.0976886600256  
2.97986602783  1.54325592518  -1.45163852373  1.87984418869  -2.80898315111  -1.55487567583  0.0978804081678  
2.98798203468  1.54320788383  -1.45166236559  1.87983226776  -2.80874377886  -1.55469590822  0.0976527109742  
2.99611091614  1.54319596291  -1.45163852373  1.87979602814  -2.80894738833  -1.55477983156  0.0977845340967  
3.0042181015  1.54314768314  -1.45166236559  1.87974834442  -2.80887538591  -1.55482751528  0.0977725535631  
3.01245093346  1.54308772087  -1.45167476336  1.87973642349  -2.80883962313  -1.55474359194  0.097676679492  
3.02055191994  1.54309976101  -1.45161468187  1.87970018387  -2.80895930925  -1.55498344103  0.0977965220809  
3.0286450386  1.54303979874  -1.45167476336  1.87966442108  -2.80879146258  -1.55482751528  0.0976047739387  
3.03674507141  1.5429918766  -1.45166236559  1.8797121048  -2.80897123018  -1.55499536196  0.0977365970612  
3.0448410511  1.54296791553  -1.4516266028  1.87965250015  -2.80879146258  -1.5549715201  0.0976646915078  
3.052932024  1.54300379753  -1.45161468187  1.87959241867  -2.80892354647  -1.55499536196  0.0975927859545  
3.06102991104  1.54297983646  -1.45165044466  1.8796043396  -2.8089111487  -1.55509120623  0.0977246165276  
3.06919193268  1.54289591312  -1.4516266028  1.87956857681  -2.80879146258  -1.55505544344  0.0975688174367  
3.0772600174  1.54290795326  -1.45167476336  1.87959241867  -2.80901939074  -1.55523521105  0.0977006480098  
3.08538103104  1.5428839922  -1.45163852373  1.87952041626  -2.80883962313  -1.55515128771  0.0976167544723  
3.09349393845  1.5428839922  -1.45163852373  1.87948465347  -2.80901939074  -1.55531913439  0.0975568369031  
3.101583004  1.54283607006  -1.4516266028  1.8794965744  -2.80888730684  -1.55539065996  0.0976646915078  
3.10967993736  1.54287195206  -1.45165044466  1.8794965744  -2.80894738833  -1.55531913439  0.097460962832  
3.11779308319  1.54284799099  -1.45169860521  1.87947273254  -2.80900699297  -1.55554610888  0.0976287424564  
3.12588191032  1.54280006886  -1.45163852373  1.87940073013  -2.80885154406  -1.55545026461  0.0975328683853  
3.13396787643  1.54275214672  -1.45166236559  1.87946081161  -2.80900699297  -1.55564195315  0.0975568369031  
3.14205598831  1.54280006886  -1.45163852373  1.87940073013  -2.8089111487  -1.55570203463  0.0976646915078  
3.15016388893  1.54274022579  -1.45165044466  1.87940073013  -2.80901939074  -1.55575019518  0.0975088998675  
3.1583340168  1.54275214672  -1.45166236559  1.8793888092  -2.80900699297  -1.55594188372  0.0976886600256  
3.16639494896  1.54270386696  -1.45167476336  1.87935256958  -2.80889922777  -1.55585796038  0.0976047739387  
3.17447209358  1.54276418686  -1.45160276095  1.87932872772  -2.80911523501  -1.55598956743  0.0976527109742  
3.1825799942  1.54272818565  -1.45163852373  1.87932872772  -2.80883962313  -1.55600148836  0.0977605655789  
3.19068288803  1.54274022579  -1.45167476336  1.87932872772  -2.80910331408  -1.55602533022  0.0976047739387  
3.19876790047  1.54274022579  -1.45166236559  1.87931680679  -2.80892354647  -1.55620509783  0.0977725535631  
3.20687389374  1.54271626472  -1.45166236559  1.87932872772  -2.80904323259  -1.55613309542  0.0976527109742  
3.21500492096  1.54270386696  -1.45166236559  1.87930488586  -2.80895930925  -1.55632478396  0.0976646915078  
3.22308588028  1.54270386696  -1.45165044466  1.87930488586  -2.80892354647  -1.55632478396  0.0978324711323  
3.23118400574  1.54275214672  -1.45163852373  1.87930488586  -2.80913907686  -1.55636102358  0.097676679492  
3.23942995071  1.54269182682  -1.4516266028  1.87928104401  -2.8089111487  -1.55650407473  0.0978684276342  
3.24749207497  1.54269182682  -1.45163852373  1.87934064865  -2.80911523501  -1.55661231676  0.0977126285434  
3.25557899475  1.54267990589  -1.45165044466  1.87929296494  -2.80895930925  -1.55664807955  0.0977965220809  
3.26367592812  1.54271626472  -1.45166236559  1.87936449051  -2.80907899538  -1.55670768419  0.0978804081678  
3.27177500725  1.54270386696  -1.45165044466  1.87930488586  -2.80915099779  -1.55669576326  0.0977246165276  
3.27989888191  1.54270386696  -1.45163852373  1.87932872772  -2.80900699297  -1.55680352846  0.0979167371988  
3.28796100616  1.54274022579  -1.45166236559  1.87932872772  -2.80921107927  -1.55683929125  0.0978204905987  
3.29608488083  1.54270386696  -1.4516266028  1.87934064865  -2.80899507204  -1.55681544939  0.0978684276342  
3.30414700508  1.54267990589  -1.45163852373  1.87928104401  -2.8092230002  -1.55693513552  0.0980006307364  
3.31225204468  1.54272818565  -1.45166236559  1.87935256958  -2.80915099779  -1.55687553087  0.0978085026145  
3.32034492493  1.54272818565  -1.4516266028  1.87932872772  -2.80912715593  -1.55703097979  0.0980245992541  
3.32843708992  1.54270386696  -1.45163852373  1.87929296494  -2.8092230002  -1.55694753328  0.097892396152  
3.3365380764  1.54271626472  -1.45168620745  1.87929296494  -2.80912715593  -1.5571029822  0.0979167371988  
3.34465193748  1.54265594482  -1.45166236559  1.87934064865  -2.8093307654  -1.55703097979  0.0980245992541  
3.35273694992  1.54265594482  -1.45165044466  1.87931680679  -2.80912715593  -1.55701905886  0.097892396152  
3.3608288765  1.54270386696  -1.45165044466  1.87932872772  -2.80928308169  -1.55709106127  0.0980725362897  
3.3689250946  1.54269182682  -1.45167476336  1.87932872772  -2.8092230002  -1.55697137514  0.0979526937008  
3.37702393532  1.54271626472  -1.45166236559  1.87930488586  -2.80912715593  -1.55716306368  0.0979047566652  
3.38514995575  1.54269182682  -1.45166236559  1.87932872772  -2.8093307654  -1.55700713793  0.0980605483055  
3.39322209358  1.54272818565  -1.45166236559  1.87930488586  -2.80912715593  -1.55707914034  0.0979167371988  
3.40130901337  1.54271626472  -1.45167476336  1.87929296494  -2.8093307654  -1.5571029822  0.0980245992541  
3.40947508812  1.54266786575  -1.45166236559  1.87931680679  -2.80916291872  -1.55698329607  0.0980365797877  
3.41754007339  1.54274022579  -1.45168620745  1.87929296494  -2.80931884447  -1.55713922182  0.0979167371988  
3.4256029129  1.54270386696  -1.45167476336  1.87932872772  -2.80929500261  -1.55707914034  0.0980965048075  
3.43372392654  1.54269182682  -1.4516266028  1.87931680679  -2.80921107927  -1.55713922182  0.0979766622186  
3.44181108475  1.54270386696  -1.45163852373  1.87932872772  -2.80940276781  -1.55719882647  0.0980245992541  
3.44993901253  1.54269182682  -1.45166236559  1.87931680679  -2.80919915835  -1.55704337755  0.0980245992541  
3.45803809166  1.54271626472  -1.45167476336  1.87930488586  -2.80935460726  -1.55724698702  0.0978684276342  
3.46616196632  1.54270386696  -1.45165044466  1.87928104401  -2.80917483965  -1.55713922182  0.0980365797877  
3.47424197197  1.54274022579  -1.45165044466  1.87932872772  -2.80941468874  -1.55718690554  0.0978204905987  
3.48232793808  1.54271626472  -1.45166236559  1.87928104401  -2.80925876299  -1.55725890795  0.0980245992541  
3.49039101601  1.54271626472  -1.45167476336  1.87929296494  -2.80925876299  -1.55715114275  0.0978085026145  
3.4984600544  1.54271626472  -1.45167476336  1.87932872772  -2.80936652819  -1.55734283129  0.0979407057166  
3.50655794144  1.54271626472  -1.45163852373  1.87929296494  -2.80917483965  -1.55713922182  0.0979047566652  
3.51465988159  1.54274022579  -1.45166236559  1.87934064865  -2.80942660967  -1.55727082888  0.0979047566652  
3.52275490761  1.54272818565  -1.45165044466  1.87935256958  -2.80925876299  -1.55731898943  0.09801261127  
3.53081989288  1.54265594482  -1.45168620745  1.87930488586  -2.80948669115  -1.5572107474  0.0978324711323  
3.53890991211  1.54271626472  -1.45165044466  1.87934064865  -2.80935460726  -1.55741435686  0.0979407057166  
3.54697108269  1.54272818565  -1.45167476336  1.87934064865  -2.80947477022  -1.55740243593  0.0978564396501  
3.55504608154  1.54269182682  -1.4516266028  1.87932872772  -2.80967790285  -1.55740243593  0.0980245992541  
3.56310892105  1.54274022579  -1.45167476336  1.87935256958  -2.80955821673  -1.55731898943  0.0977965220809  
3.57117390633  1.54271626472  -1.45165044466  1.87932872772  -2.80974942843  -1.5574982802  0.0979526937008  
3.57922410965  1.54271626472  -1.45165044466  1.8793888092  -2.80971366564  -1.557390515  0.0979407057166  
3.5872900486  1.54271626472  -1.45166236559  1.87937688828  -2.80985719362  -1.55751020113  0.0978204905987  
3.59538793564  1.54272818565  -1.45161468187  1.87937688828  -2.80982143084  -1.55748635927  0.0980365797877  
3.60345005989  1.54271626472  -1.45165044466  1.87940073013  -2.81000119845  -1.55753404299  0.0979047566652  
3.61153697968  1.54267990589  -1.45166236559  1.87937688828  -2.80998927752  -1.55761796633  0.0979167371988  
3.61963200569  1.54271626472  -1.45167476336  1.87942457199  -2.81008512179  -1.55757028261  0.0979766622186  
3.62774705887  1.54270386696  -1.45165044466  1.87937688828  -2.81022864977  -1.55778581301  0.0978444591165  
3.63583707809  1.54271626472  -1.45168620745  1.87941265106  -2.81016904513  -1.55765420595  0.0980006307364  
3.64396595955  1.54271626472  -1.45168620745  1.8794965744  -2.81038457552  -1.55784589449  0.0978085026145  
3.65206503868  1.54270386696  -1.45163852373  1.87952041626  -2.81019288698  -1.55777389208  0.097928725183  
3.66017007828  1.54269182682  -1.45165044466  1.87953233719  -2.81051665941  -1.55779773394  0.0979766622186  
3.66826105118  1.54271626472  -1.45169860521  1.87943649292  -2.81037265459  -1.55797750155  0.0978085026145  
3.67637991905  1.54270386696  -1.4516266028  1.87948465347  -2.81060058275  -1.55779773394  0.0979766622186  
3.68444609642  1.54269182682  -1.45165044466  1.87947273254  -2.81045657793  -1.5580256621  0.097892396152  
3.69253706932  1.54270386696  -1.45163852373  1.87950849533  -2.81069642702  -1.55794173876  0.0978564396501  
3.70062494278  1.54271626472  -1.45165044466  1.87950849533  -2.81058818499  -1.5580256621  0.0979886427522  
3.70871305466  1.54269182682  -1.45163852373  1.87952041626  -2.81073218981  -1.55806142489  0.0977965220809  
3.71681308746  1.54270386696  -1.45165044466  1.87953233719  -2.81075603167  -1.5580256621  0.0979646742344  
3.72492194176  1.54271626472  -1.45168620745  1.8794965744  -2.81072026888  -1.55814487139  0.097928725183  
3.73305487633  1.54272818565  -1.45165044466  1.87958049774  -2.81088811556  -1.55803758303  0.0978324711323  
3.74117803574  1.54270386696  -1.45167476336  1.87952041626  -2.81073218981  -1.55822879473  0.0980365797877  
3.74924206734  1.54267990589  -1.4516266028  1.87955665588  -2.81097156206  -1.55813295046  0.0978684276342  
3.75733494759  1.54269182682  -1.4516266028  1.87950849533  -2.81078035036  -1.55825263659  0.0980245992541  
3.76539897919  1.54265594482  -1.45167476336  1.87952041626  -2.81103164354  -1.55827695528  0.09801261127  
3.77348303795  1.54269182682  -1.45161468187  1.8794965744  -2.81099540392  -1.55814487139  0.097892396152  
3.78157305717  1.54265594482  -1.45163852373  1.8794965744  -2.81100732485  -1.55830079714  0.0980845168233  
3.78967094421  1.54260802269  -1.45160276095  1.87946081161  -2.81118661562  -1.55810958544  0.097928725183  
3.79773306847  1.54260802269  -1.45160276095  1.87952041626  -2.81110316912  -1.55822879473  0.09801261127  
3.8058590889  1.54263198376  -1.45156652132  1.87947273254  -2.81128293673  -1.55814487139  0.0980605483055  
3.81399989128  1.54253602028  -1.45156652132  1.87944841385  -2.81121093432  -1.55806142489  0.0979407057166  
3.82209706306  1.54253602028  -1.45155460039  1.87942457199  -2.81133062044  -1.55816871325  0.0980725362897  
3.83019399643  1.54252409935  -1.45155460039  1.87941265106  -2.81123477617  -1.55794173876  0.0979646742344  
3.8382589817  1.54248809814  -1.45151883761  1.8793888092  -2.81149846712  -1.55804950396  0.097928725183  
3.84635210037  1.54246413708  -1.45154267946  1.87937688828  -2.81136638323  -1.55785781542  0.0981084853411  
3.85441708565  1.54241585732  -1.45148259798  1.87936449051  -2.81159431139  -1.55791742006  0.0979646742344  
3.86250710487  1.54245221615  -1.45149451891  1.87928104401  -2.81152230898  -1.55778581301  0.0980725362897  
3.87057089806  1.54242825508  -1.45143491427  1.87925672531  -2.81176215807  -1.55767804781  0.0980485677719  
3.8786740303  1.54241585732  -1.45145875612  1.87928104401  -2.81164247194  -1.5577138106  0.0980845168233  
3.88673901558  1.54233193398  -1.45138723055  1.87923288345  -2.81193000475  -1.55755788485  0.0980245992541  
3.89482593536  1.54230797291  -1.45143491427  1.87922096252  -2.81180984179  -1.55758220354  0.09801261127  
3.90291595459  1.54223608971  -1.45137530962  1.87914896011  -2.81208545366  -1.55735475222  0.0981324538589  
3.91106009483  1.54227209091  -1.45137530962  1.87914896011  -2.81202584902  -1.55743819872  0.0979646742344  
3.91912388802  1.54216456413  -1.45135146776  1.87919712067  -2.81221753756  -1.5572107474  0.0981564223766  
3.92720198631  1.54222452641  -1.45131522814  1.8791012764  -2.81215745607  -1.55722314516  0.0980365797877  
3.9353749752  1.54214060307  -1.45133907  1.87906503677  -2.81242067019  -1.5571029822  0.0980245992541  
3.94346499443  1.54208064079  -1.45131522814  1.87902927399  -2.81227761904  -1.556995217  0.0980965048075  
3.95152902603  1.54206871986  -1.45127994219  1.87906503677  -2.81246883074  -1.55686360994  0.0979526937008  
3.9596259594  1.54199683666  -1.45129186312  1.87906503677  -2.81246883074  -1.55674344698  0.0980725362897  
3.96771192551  1.54192447662  -1.45125562349  1.87900495529  -2.81262427965  -1.55657607714  0.0980485677719  
3.97580003738  1.54194879532  -1.45121986071  1.87892103195  -2.81264812151  -1.55636102358  0.0979526937008  
3.9839220047  1.54196083546  -1.45125562349  1.87896871567  -2.81272012392  -1.55620509783  0.0981204733253  
3.9920539856  1.54187655449  -1.45124370257  1.87895679474  -2.8127802054  -1.55600148836  0.0979167371988  
4.00014209747  1.54188859463  -1.45118362108  1.87894487381  -2.81289989153  -1.5557978789  0.0979886427522  
4.00830197334  1.54186463356  -1.45118362108  1.87892103195  -2.81293565432  -1.55565435091  0.0980245992541  
4.0164129734  1.54176867008  -1.45119601885  1.87890911102  -2.81315166155  -1.55541450182  0.0978804081678  
4.02448606491  1.54180467129  -1.45119601885  1.87889671326  -2.81313974062  -1.55531913439  0.0980365797877  
4.0325820446  1.54182863235  -1.45118362108  1.8788728714  -2.81336719195  -1.55512696901  0.0978804081678  
4.04067993164  1.54179263115  -1.4511478583  1.87889671326  -2.8133910338  -1.55499536196  0.0979766622186  
4.04874396324  1.54175674915  -1.45115977923  1.8788728714  -2.81351119677  -1.55477983156  0.0980485677719  
4.05684494972  1.54175674915  -1.45117217699  1.8788728714  -2.81365424791  -1.55471975008  0.0978804081678  
4.06495809555  1.54178071022  -1.45112401644  1.87886095047  -2.8137143294  -1.55451614061  0.0980006307364  
4.07304906845  1.54178071022  -1.45112401644  1.8788728714  -2.81396609942  -1.55452853838  0.097892396152  
4.08115792274  1.54173278809  -1.4511478583  1.87884902954  -2.81391793886  -1.55427676836  0.0978444591165  
4.08934688568  1.54168486595  -1.45113593737  1.87886095047  -2.81408530871  -1.55431253115  0.0979766622186  
4.09738492966  1.54170882702  -1.45115977923  1.8788728714  -2.81414539019  -1.55415708223  0.0977605655789  
4.10547304153  1.54173278809  -1.45112401644  1.87882518768  -2.81419355074  -1.55407315889  0.0979526937008  
4.11359405518  1.54167282581  -1.45112401644  1.87888479233  -2.8143251578  -1.55408507982  0.097892396152  
4.12169504166  1.54168486595  -1.45112401644  1.87884902954  -2.81428939501  -1.55397731463  0.0977965220809  
4.12979102135  1.54174470901  -1.45113593737  1.87886095047  -2.81448108355  -1.55392963091  0.0979766622186  
4.13790988922  1.54168486595  -1.4511478583  1.87886095047  -2.81443292299  -1.5538576285  0.0977246165276  
4.14600992203  1.54167282581  -1.45112401644  1.8788728714  -2.8146370093  -1.55382186571  0.0978564396501  
4.15416789055  1.54161286354  -1.45113593737  1.8788728714  -2.81452876726  -1.55365401903  0.0978444591165  
4.16223907471  1.54163682461  -1.45112401644  1.87889671326  -2.81472093264  -1.55376178423  0.0976886600256  
4.17035603523  1.54162490368  -1.45108825365  1.87884902954  -2.81467277208  -1.55355817476  0.097892396152  
4.17846298218  1.54156494141  -1.45112401644  1.87882518768  -2.81472093264  -1.55357009569  0.0977246165276  
4.18655610085  1.54154062271  -1.45110017458  1.87884902954  -2.81485206286  -1.55353385607  0.0978324711323  
4.19465208054  1.54154062271  -1.45112401644  1.87883710861  -2.814828221  -1.5533302466  0.0977485850453  
4.20274996758  1.54151666164  -1.4511478583  1.87886095047  -2.81492406527  -1.55344993273  0.0977246165276  
4.2108130455  1.54140877724  -1.45112401644  1.87882518768  -2.81497222582  -1.55322295824  0.0978684276342  
4.21891307831  1.54140877724  -1.45112401644  1.87888479233  -2.81494790712  -1.55328256289  0.0977006480098  
4.22699999809  1.54130089283  -1.45110017458  1.87882518768  -2.81497222582  -1.55315095583  0.0978085026145  
4.23506307602  1.54133689404  -1.45112401644  1.87882518768  -2.81523543993  -1.55301887194  0.0977965220809  
4.24309110641  1.5412529707  -1.45115977923  1.87882518768  -2.81507999102  -1.55300695101  0.097892396152  
4.25118494034  1.54120504856  -1.4511478583  1.87884902954  -2.81523543993  -1.55288726488  0.0977365970612  
4.2592830658  1.54116868973  -1.45113593737  1.87882518768  -2.81527167956  -1.55293542544  0.0978564396501  
4.26740288734  1.54110884666  -1.45113593737  1.8788728714  -2.81527167956  -1.55277949968  0.0978204905987  
4.27550506592  1.54106092453  -1.45111209551  1.87884902954  -2.81543952623  -1.55276757876  0.0977725535631  
4.28360009193  1.54100096226  -1.4511478583  1.87882518768  -2.81534368197  -1.552611653  0.0979646742344  
4.29169011116  1.5410130024  -1.45111209551  1.8788728714  -2.81557065645  -1.55269557634  0.0977365970612  
4.29981994629  1.54096496105  -1.4511478583  1.87884902954  -2.81546289126  -1.55251628557  0.0979167371988  
4.30790805817  1.54095304012  -1.45111209551  1.87882518768  -2.81569081942  -1.55250436464  0.0978564396501  
4.31602311134  1.54094099998  -1.45112401644  1.87886095047  -2.81559497515  -1.55245620409  0.0977965220809  
4.32411503792  1.54086911678  -1.45115977923  1.87882518768  -2.8158343474  -1.55232459704  0.0979646742344  
4.33221197128  1.54089307785  -1.45110017458  1.8788728714  -2.81575042406  -1.55240804354  0.0978204905987  
4.3403570652  1.54086911678  -1.45113593737  1.87884902954  -2.81603843371  -1.55216867128  0.0979766622186  
4.34844899178  1.54078483582  -1.45113593737  1.87882518768  -2.8159421126  -1.55226451555  0.0978684276342  
4.35653591156  1.54080927372  -1.4511478583  1.87882518768  -2.81620580355  -1.55216867128  0.0977965220809  
4.36462402344  1.54072499275  -1.45110017458  1.87886095047  -2.81624156633  -1.5521085898  0.0980006307364  
4.37271094322  1.54072499275  -1.45112401644  1.87883710861  -2.81645709673  -1.55222827593  0.0978564396501  
4.38082408905  1.54072499275  -1.45113593737  1.87880086899  -2.81660110155  -1.55202466646  0.0979526937008  
4.38891506195  1.54074895382  -1.45112401644  1.8788728714  -2.81684095064  -1.55216867128  0.0979526937008  
4.39701509476  1.54071295261  -1.4511478583  1.87886095047  -2.81709224383  -1.55209666887  0.0978324711323  
4.40511894226  1.54070103168  -1.45113593737  1.87882518768  -2.81733161608  -1.55195266405  0.09801261127  
4.41321110725  1.54066503048  -1.45113593737  1.8788728714  -2.81749898592  -1.55207282702  0.097892396152  
4.42131304741  1.54061710835  -1.45110017458  1.87881326675  -2.81771499315  -1.55197698275  0.0979407057166  
4.42941188812  1.54061710835  -1.45115977923  1.87884902954  -2.81796676317  -1.55195266405  0.09801261127  
4.43747496605  1.54058110714  -1.45112401644  1.8787651062  -2.81818229357  -1.55209666887  0.0978444591165  
4.44553995132  1.54060506821  -1.45113593737  1.8788728714  -2.81839782396  -1.55190498034  0.09801261127  
4.45360207558  1.54062902927  -1.45115977923  1.87882518768  -2.81872064272  -1.55201274553  0.097928725183  
4.46171808243  1.54061710835  -1.45110017458  1.87883710861  -2.8188884894  -1.55191690127  0.0979766622186  
4.46980404854  1.54059314728  -1.45112401644  1.87884902954  -2.81912833849  -1.55189353624  0.0980605483055  
4.47789096832  1.54059314728  -1.45110017458  1.87880086899  -2.81935578982  -1.55197698275  0.0979047566652  
4.48595404625  1.54064106941  -1.45113593737  1.87884902954  -2.81953555742  -1.55179769198  0.0980605483055  
4.49405097961  1.54061710835  -1.4511478583  1.87884902954  -2.8197034041  -1.55202466646  0.0979886427522  
4.50218391418  1.54064106941  -1.45112401644  1.87883710861  -2.81989509264  -1.55186921755  0.0980245992541  
4.51024389267  1.54064106941  -1.45113593737  1.87882518768  -2.82005054155  -1.55197698275  0.0979646742344  
4.51837396622  1.54064106941  -1.45111209551  1.87883710861  -2.82032615343  -1.55184537569  0.0980605483055  
4.52649593353  1.54061710835  -1.45115977923  1.87883710861  -2.82045776049  -1.55190498034  0.0980006307364  
4.53459095955  1.54061710835  -1.45113593737  1.87886095047  -2.82066136995  -1.55189353624  0.0979886427522  
4.54272007942  1.54060506821  -1.45112401644  1.87889671326  -2.82078153292  -1.55178529421  0.0981324538589  
4.55080795288  1.54064106941  -1.45111209551  1.87882518768  -2.82094890276  -1.55196506182  0.0979407057166  
4.55893993378  1.54065299034  -1.4511478583  1.87886095047  -2.82106906572  -1.55177337328  0.0980725362897  
4.56708407402  1.54065299034  -1.45110017458  1.87883710861  -2.82118875185  -1.55178529421  0.0980365797877  
4.57517695427  1.54061710835  -1.45110017458  1.87888479233  -2.82128459612  -1.55182153383  0.0979167371988  
4.58338904381  1.54066503048  -1.45110017458  1.8788728714  -2.82136804262  -1.55171376864  0.0980845168233  
4.59149193764  1.54060506821  -1.45112401644  1.87882518768  -2.82139188448  -1.55185729662  0.0979167371988  
4.59958910942  1.54060506821  -1.4511478583  1.87884902954  -2.82160741488  -1.55166560808  0.097928725183  
4.60768508911  1.54064106941  -1.4511478583  1.87883710861  -2.82163125673  -1.55168944994  0.0980245992541  
4.61577987671  1.54064106941  -1.4511478583  1.8788728714  -2.82169133822  -1.55170137087  0.0978444591165  
4.62389206886  1.54061710835  -1.45113593737  1.87881326675  -2.82179910341  -1.55153400103  0.0980245992541  
4.63201999664  1.54065299034  -1.45115977923  1.8788728714  -2.82178718248  -1.55164176622  0.0978684276342  
4.64015102386  1.54067707062  -1.45110017458  1.87882518768  -2.82181102434  -1.55146199862  0.0978564396501  
4.64825105667  1.54066503048  -1.45112401644  1.87882518768  -2.8218591849  -1.55154592196  0.0979766622186  
4.6563539505  1.54066503048  -1.45115977923  1.87880086899  -2.82182342211  -1.55140239397  0.0977965220809  
4.66441988945  1.54066503048  -1.45110017458  1.87884902954  -2.82188302675  -1.55133039156  0.0979407057166  
4.67250990868  1.54064106941  -1.45112401644  1.87884902954  -2.82195502916  -1.55135423342  0.0978444591165  
4.68057203293  1.54061710835  -1.45115977923  1.87878894806  -2.82183534304  -1.55117494265  0.0978564396501  
4.68865990639  1.54064106941  -1.4511478583  1.87880086899  -2.82205087343  -1.55124646822  0.0979646742344  
4.69674491882  1.54060506821  -1.4511478583  1.87884902954  -2.82187110582  -1.55100709597  0.0978204905987  
4.70486402512  1.54065299034  -1.45111209551  1.87884902954  -2.82196695009  -1.55107909838  0.0979886427522  
4.71292805672  1.54065299034  -1.45112401644  1.87888479233  -2.82193118731  -1.55092317263  0.0978564396501  
4.72102594376  1.54066503048  -1.45112401644  1.87882518768  -2.82190734545  -1.55097133318  0.0978564396501  
4.72912287712  1.54062902927  -1.45110017458  1.87882518768  -2.82200318972  -1.55073148409  0.097928725183  
4.73721909523  1.54065299034  -1.45113593737  1.87883710861  -2.82184726397  -1.55081540743  0.0978085026145  
4.74537491798  1.54064106941  -1.45112401644  1.87883710861  -2.8220389525  -1.5506957213  0.09801261127  
4.75344395638  1.54061710835  -1.45112401644  1.87880086899  -2.82183534304  -1.55059987703  0.0978564396501  
4.76157307625  1.54065299034  -1.45111209551  1.8788728714  -2.82197887102  -1.55053979555  0.0980845168233  
4.76966094971  1.54061710835  -1.4511478583  1.87881326675  -2.82172757784  -1.55046779314  0.0979167371988  
4.77775907516  1.54065299034  -1.4511478583  1.87883710861  -2.82187110582  -1.55042058626  0.0980006307364  
4.78582310677  1.54065299034  -1.45111209551  1.87881326675  -2.82176334063  -1.55020457903  0.0980245992541  
4.79394197464  1.54064106941  -1.4511478583  1.87881326675  -2.82176334063  -1.55033666292  0.0978324711323  
4.80207395554  1.54068899155  -1.45110017458  1.87881326675  -2.82178718248  -1.5500848929  0.0980605483055  
4.81015300751  1.54060506821  -1.45115977923  1.8788728714  -2.82159549395  -1.55013257662  0.0979646742344  
4.81822109222  1.54066503048  -1.45111209551  1.87884902954  -2.82181102434  -1.54994088808  0.0979646742344  
4.8262860775  1.54066503048  -1.45111209551  1.87886095047  -2.82148772875  -1.54980928103  0.0980725362897  
4.83436107635  1.54064106941  -1.45111209551  1.87880086899  -2.82169133822  -1.54986888567  0.0979047566652  
4.84243392944  1.54066503048  -1.45111209551  1.87882518768  -2.82159549395  -1.54964191118  0.0980605483055  
4.850522995  1.54066503048  -1.45110017458  1.87882518768  -2.82158357302  -1.54972583452  0.0980006307364  
4.8585870266  1.54065299034  -1.45113593737  1.87881326675  -2.82163125673  -1.54952174822  0.0979526937008  
4.86667394638  1.54066503048  -1.45115977923  1.87882518768  -2.82142764727  -1.54955798784  0.0980006307364  
4.8747959137  1.54066503048  -1.45110017458  1.87886095047  -2.82161933581  -1.54933005968  0.0979646742344  
4.88288497925  1.54064106941  -1.45115977923  1.87880086899  -2.82134372393  -1.54941398302  0.0980365797877  
4.89094805717  1.54067707062  -1.4511478583  1.87881326675  -2.82146388689  -1.54919845263  0.097928725183  
4.89901399612  1.54068899155  -1.45110017458  1.87886095047  -2.82139188448  -1.54905492464  0.0979766622186  
4.9070789814  1.54071295261  -1.45112401644  1.87883710861  -2.82130796114  -1.54912645022  0.0980365797877  
4.91514205933  1.54065299034  -1.45113593737  1.87886095047  -2.82129651705  -1.54898292223  0.0980965048075  
4.9232199192  1.54067707062  -1.45110017458  1.87884902954  -2.82135564486  -1.54899484316  0.0979167371988  
4.93130302429  1.54061710835  -1.45113593737  1.87884902954  -2.82117683092  -1.54885131518  0.0981324538589  
4.93939208984  1.54067707062  -1.45110017458  1.87883710861  -2.82146388689  -1.54885131518  0.097928725183  
4.94748902321  1.54068899155  -1.45110017458  1.87886095047  -2.82116490999  -1.54869538942  0.0981444343925  
4.95558190346  1.54067707062  -1.45110017458  1.87882518768  -2.82134372393  -1.54876739184  0.0979646742344  
4.96367907524  1.54066503048  -1.45111209551  1.87886095047  -2.82120067278  -1.5485757033  0.09801261127  
4.97177696228  1.54065299034  -1.45110017458  1.87884902954  -2.82114106814  -1.54870731035  0.0980725362897  
4.9798719883  1.54068899155  -1.45110017458  1.87884902954  -2.82120067278  -1.5485513846  0.0979047566652  
4.98798203468  1.54062902927  -1.45107585589  1.87886095047  -2.82127267519  -1.5485513846  0.0980365797877  
4.99608111382  1.54066503048  -1.45112401644  1.87883710861  -2.82112867037  -1.5485757033  0.0979886427522  
5.00422310829  1.54067707062  -1.4511478583  1.87883710861  -2.82124883333  -1.54844409624  0.0979167371988  
5.01232600212  1.54068899155  -1.45115977923  1.87886095047  -2.82109290758  -1.54853946367  0.0980245992541  
5.02039194107  1.54064106941  -1.45112401644  1.87886095047  -2.82129651705  -1.54842025438  0.0978204905987  
5.02846908569  1.54065299034  -1.45112401644  1.87884902954  -2.8210328261  -1.54850370089  0.097928725183  
5.03656101227  1.54067707062  -1.4511478583  1.87883710861  -2.82127267519  -1.54842025438  0.0979167371988  
5.04464793205  1.54064106941  -1.4511478583  1.87884902954  -2.82112867037  -1.54844409624  0.0978324711323  
5.05275607109  1.54066503048  -1.45110017458  1.87884902954  -2.82112867037  -1.54851562182  0.0980006307364  
5.06087899208  1.54068899155  -1.45110017458  1.87882518768  -2.82121259371  -1.54839641253  0.0978324711323  
5.06897306442  1.54066503048  -1.45110017458  1.87881326675  -2.8210571448  -1.54858762423  0.097892396152  
5.07709503174  1.54064106941  -1.45108825365  1.87884902954  -2.82127267519  -1.54852754274  0.097928725183  
5.08522200584  1.54065299034  -1.45110017458  1.87884902954  -2.82108098665  -1.54859954516  0.0977605655789  
5.09339499474  1.54067707062  -1.4511478583  1.87886095047  -2.82116490999  -1.5486834685  0.097928725183  
5.10149693489  1.54065299034  -1.45110017458  1.87883710861  -2.82112867037  -1.54861146608  0.0977965220809  
5.10960006714  1.54066503048  -1.45113593737  1.87886095047  -2.82110482851  -1.54882747332  0.0978564396501  
5.11769104004  1.54064106941  -1.45111209551  1.87881326675  -2.82122499148  -1.54875547091  0.0978684276342  
5.12578701973  1.54066503048  -1.4511478583  1.87884902954  -2.82098514238  -1.54893523852  0.0977725535631  
5.13387608528  1.54067707062  -1.45111209551  1.87881326675  -2.82127267519  -1.54894715944  0.0979167371988  
5.14197397232  1.54068899155  -1.45113593737  1.87882518768  -2.82098514238  -1.54903108278  0.0977965220809  
5.15010809898  1.54067707062  -1.45113593737  1.87883710861  -2.82122499148  -1.549162213  0.0978684276342  
5.15820288658  1.54068899155  -1.45112401644  1.8788728714  -2.82110482851  -1.54912645022  0.097892396152  
5.16639399529  1.54067707062  -1.45110017458  1.8788728714  -2.82116490999  -1.5492942969  0.0977365970612  
5.17445898056  1.54066503048  -1.45110017458  1.87880086899  -2.82122499148  -1.54924613634  0.0979047566652  
5.18254804611  1.54068899155  -1.4511478583  1.87882518768  -2.8210571448  -1.54946214357  0.0978204905987  
5.19065690041  1.54068899155  -1.45112401644  1.87882518768  -2.82127267519  -1.54943782488  0.0977965220809  
5.19874191284  1.54068899155  -1.45111209551  1.87881326675  -2.82111674944  -1.54966575304  0.0979526937008  
5.20682907104  1.54065299034  -1.45113593737  1.87886095047  -2.82128459612  -1.54972583452  0.0977725535631  
5.21488904953  1.54066503048  -1.45110017458  1.87881326675  -2.82114106814  -1.54992896715  0.0979047566652  
5.22295403481  1.54067707062  -1.45118362108  1.87883710861  -2.82111674944  -1.55000096956  0.0978324711323  
5.23101711273  1.54070103168  -1.45112401644  1.87883710861  -2.82127267519  -1.5501926581  0.0977845340967  
5.23908495903  1.54066503048  -1.45112401644  1.87880086899  -2.82115298906  -1.55021649996  0.0978564396501  
5.24714994431  1.54067707062  -1.45110017458  1.87881326675  -2.82128459612  -1.55037242571  0.0977246165276  
5.25524997711  1.54066503048  -1.45111209551  1.87884902954  -2.82102090517  -1.55047971407  0.0978444591165  
5.26337695122  1.54062902927  -1.4511478583  1.87886095047  -2.82122499148  -1.55055171648  0.0977845340967  
5.27149391174  1.54072499275  -1.45112401644  1.87884902954  -2.82112867037  -1.55068380037  0.0977246165276  
5.27955889702  1.54067707062  -1.45112401644  1.87880086899  -2.82116490999  -1.55070764223  0.0979047566652  
5.28765296936  1.54064106941  -1.45115977923  1.87886095047  -2.82121259371  -1.55089933077  0.0977126285434  
5.29573988914  1.54067707062  -1.45113593737  1.87884902954  -2.8210328261  -1.5509112517  0.0978324711323  
5.30380296707  1.54071295261  -1.45111209551  1.87884902954  -2.82127267519  -1.55113917986  0.0978085026145  
5.31193590164  1.54067707062  -1.45113593737  1.87881326675  -2.82104522387  -1.55116302172  0.0977605655789  
5.32006311417  1.54067707062  -1.45110017458  1.87884902954  -2.82129651705  -1.55135423342  0.0979407057166  
5.32816004753  1.54068899155  -1.45111209551  1.87882518768  -2.82115298906  -1.55142575899  0.0977605655789  
5.33625793457  1.54067707062  -1.45112401644  1.87882518768  -2.82115298906  -1.55143815676  0.0979407057166  
5.34436106682  1.54068899155  -1.45112401644  1.87886095047  -2.82121259371  -1.55156976381  0.0978444591165  
5.35247302055  1.54070103168  -1.45111209551  1.8788728714  -2.82102090517  -1.55159360567  0.0978085026145  
5.36053395271  1.54068899155  -1.45112401644  1.87882518768  -2.82127267519  -1.55168944994  0.0979886427522  
5.36862397194  1.54068899155  -1.45112401644  1.87881326675  -2.82098514238  -1.55170137087  0.0978085026145  
5.37670993805  1.54071295261  -1.45111209551  1.87881326675  -2.82118875185  -1.55168944994  0.0978684276342  
5.38482999802  1.54062902927  -1.45115977923  1.87883710861  -2.82102090517  -1.55186921755  0.0979646742344  
5.39289689064  1.54068899155  -1.45112401644  1.8788728714  -2.82117683092  -1.55176145235  0.0978324711323  
5.40101909637  1.54067707062  -1.45112401644  1.87878894806  -2.82108098665  -1.55196506182  0.09801261127  
5.40917396545  1.54067707062  -1.45115977923  1.87882518768  -2.82120067278  -1.55183345476  0.0978684276342  
5.4172770977  1.54064106941  -1.45111209551  1.87883710861  -2.82100898424  -1.55206090609  0.0979167371988  
5.42537593842  1.54066503048  -1.45111209551  1.87884902954  -2.82114106814  -1.55197698275  0.0979766622186  
5.43345499039  1.54068899155  -1.45112401644  1.87883710861  -2.82116490999  -1.55208474794  0.0978564396501  
5.44151902199  1.54071295261  -1.45112401644  1.87882518768  -2.82111674944  -1.55218059221  0.0980365797877  
5.44961595535  1.54070103168  -1.45110017458  1.87882518768  -2.82121259371  -1.55209666887  0.0979167371988  
5.45770311356  1.54073691368  -1.4511478583  1.87882518768  -2.82099706331  -1.55226451555  0.0979526937008  
5.46581602097  1.54074895382  -1.45113593737  1.87883710861  -2.82122499148  -1.55219251314  0.0980365797877  
5.47392010689  1.54076087475  -1.45111209551  1.87878894806  -2.82106906572  -1.55227643648  0.0978684276342  
5.48201394081  1.54072499275  -1.45113593737  1.87884902954  -2.82115298906  -1.55236035982  0.0979886427522  
5.4901099205  1.54074895382  -1.45113593737  1.87888479233  -2.82110482851  -1.55231219927  0.0979167371988  
5.49820494652  1.54079723358  -1.45111209551  1.87886095047  -2.82110482851  -1.55246812502  0.097892396152  
5.50629997253  1.54082119465  -1.4511478583  1.87889671326  -2.8212369124  -1.55234843889  0.09801261127  
5.51443004608  1.54082119465  -1.4511478583  1.87882518768  -2.8210571448  -1.5525282065  0.0978444591165  
5.52252602577  1.54080927372  -1.45111209551  1.87882518768  -2.8212369124  -1.55245620409  0.0979646742344  
5.53061389923  1.54089307785  -1.45108825365  1.87882518768  -2.8210571448  -1.552611653  0.0979407057166  
5.53870797157  1.54088115692  -1.45111209551  1.87884902954  -2.82118875185  -1.55263549486  0.0978804081678  
5.54680490494  1.54084515572  -1.45112401644  1.87882518768  -2.82106906572  -1.55256396929  0.0979766622186  
5.55489301682  1.54090511799  -1.45112401644  1.87883710861  -2.82111674944  -1.5527194182  0.0978324711323  
5.56299090385  1.54092907906  -1.4511478583  1.87883710861  -2.82102090517  -1.55280334154  0.097928725183  
5.5710670948  1.54096496105  -1.45111209551  1.87886095047  -2.82120067278  -1.55267173449  0.0979167371988  
5.57916593552  1.54095304012  -1.4511478583  1.8788728714  -2.8210328261  -1.5528515021  0.0980485677719  
5.58723306656  1.54106092453  -1.45107585589  1.87884902954  -2.82118875185  -1.55276757876  0.0978804081678  
5.59529995918  1.54103696346  -1.4511478583  1.87883710861  -2.82100898424  -1.55298310915  0.0979646742344  
5.60339808464  1.54100096226  -1.4511478583  1.87883710861  -2.82117683092  -1.55287534395  0.0979047566652  
5.61150097847  1.54107284546  -1.45113593737  1.87888479233  -2.82111674944  -1.55311519304  0.0978804081678  
5.61958694458  1.54107284546  -1.45113593737  1.8788728714  -2.82102090517  -1.5530312697  0.0980965048075  
5.62767505646  1.54110884666  -1.45108825365  1.87884902954  -2.82120067278  -1.55323487917  0.0978444591165  
5.63576698303  1.54109680653  -1.45111209551  1.87889671326  -2.82102090517  -1.55324632326  0.0980365797877  
5.64383101463  1.54109680653  -1.45110017458  1.87892103195  -2.82121259371  -1.55324632326  0.0979886427522  
5.65191888809  1.54112076759  -1.45110017458  1.87888479233  -2.82098514238  -1.55344993273  0.0979167371988  
5.6600060463  1.54106092453  -1.45112401644  1.87894487381  -2.82118875185  -1.55337840716  0.0980485677719  
5.66810488701  1.5411567688  -1.45115977923  1.87895679474  -2.82106906572  -1.55360585848  0.0978564396501  
5.67616510391  1.54114472866  -1.45110017458  1.87892103195  -2.82106906572  -1.55347425142  0.0980006307364  
5.6843059063  1.54112076759  -1.45108825365  1.87893295288  -2.82116490999  -1.55366593996  0.0979766622186  
5.69244790077  1.54116868973  -1.45112401644  1.87893295288  -2.82098514238  -1.55362970034  0.097892396152  
5.7005341053  1.5411567688  -1.45112401644  1.87904119492  -2.82118875185  -1.55371362368  0.0980965048075  
5.70862102509  1.54110884666  -1.45115977923  1.87902927399  -2.82100898424  -1.55380946795  0.097928725183  
5.71672105789  1.54118108749  -1.4511478583  1.87900495529  -2.82114106814  -1.55377370516  0.09801261127  
5.72480988503  1.5411567688  -1.45110017458  1.87904119492  -2.82110482851  -1.55395347277  0.0981204733253  
5.73292803764  1.54118108749  -1.45112401644  1.87906503677  -2.82106906572  -1.55382186571  0.0979167371988  
5.74105501175  1.54119312763  -1.45111209551  1.87904119492  -2.82115298906  -1.55400163332  0.0981564223766  
5.74919199944  1.54120504856  -1.45112401644  1.87906503677  -2.82100898424  -1.55402499834  0.0980485677719  
5.75729489326  1.54118108749  -1.45115977923  1.87908887863  -2.82124883333  -1.55398923555  0.0980725362897  
5.76538801193  1.54122900963  -1.45111209551  1.8791012764  -2.82098514238  -1.55419284502  0.098192371428  
5.77348709106  1.54118108749  -1.45112401644  1.87906503677  -2.82111674944  -1.55402499834  0.0979886427522  
5.78155088425  1.54119312763  -1.45112401644  1.8791012764  -2.82094890276  -1.55422860781  0.0981803908944  
5.78960490227  1.54118108749  -1.45111209551  1.87913703918  -2.82106906572  -1.55418092409  0.0980845168233  
5.79770207405  1.54120504856  -1.4511478583  1.8791012764  -2.82099706331  -1.55419284502  0.0980725362897  
5.80578589439  1.54120504856  -1.45112401644  1.87912511826  -2.82100898424  -1.55432445208  0.0982043594122  
5.81388401985  1.54118108749  -1.45113593737  1.8791847229  -2.82106906572  -1.55422860781  0.09801261127  
5.82197809219  1.54120504856  -1.45110017458  1.87916088104  -2.82090121904  -1.55442029635  0.0981324538589  
5.83007001877  1.54120504856  -1.45110017458  1.8792090416  -2.82110482851  -1.55437261263  0.0981084853411  
5.83820295334  1.54116868973  -1.45113593737  1.8792090416  -2.8209250609  -1.55445653597  0.0980605483055  
5.84631109238  1.54120504856  -1.45112401644  1.87924480438  -2.82106906572  -1.55452853838  0.098192371428  
5.85442399979  1.54116868973  -1.45110017458  1.87919712067  -2.82088929812  -1.55443269411  0.0979646742344  
5.86251306534  1.5412170887  -1.45110017458  1.87923288345  -2.82108098665  -1.55463630358  0.0980965048075  
5.87057709694  1.54120504856  -1.45110017458  1.87925672531  -2.82093698183  -1.5545762221  0.0980725362897  
5.87864208221  1.54122900963  -1.45112401644  1.87919712067  -2.82096130053  -1.55467206637  0.0979526937008  
5.88670301437  1.54120504856  -1.45111209551  1.8792090416  -2.8210328261  -1.55467206637  0.0981684029102  
5.89479207993  1.54122900963  -1.45112401644  1.87922096252  -2.82087737719  -1.55473167101  0.0980245992541  
5.90287899971  1.54124104977  -1.45113593737  1.87922096252  -2.82108098665  -1.55487567583  0.0980365797877  
5.91096711159  1.54119312763  -1.45112401644  1.87922096252  -2.82085305849  -1.5547674338  0.0980725362897  
5.91909694672  1.54122900963  -1.45110017458  1.87922096252  -2.8210328261  -1.55500728289  0.0979526937008  
5.92719197273  1.54124104977  -1.4511478583  1.87923288345  -2.8209250609  -1.55492335955  0.0981084853411  
5.93523406982  1.54127693176  -1.45112401644  1.87922096252  -2.82099706331  -1.5549715201  0.0980245992541  
5.94333910942  1.54133689404  -1.45113593737  1.8791847229  -2.82104522387  -1.55509120623  0.0980365797877  
5.95148611069  1.54130089283  -1.45115977923  1.87922096252  -2.82087737719  -1.55501920382  0.0981324538589  
5.95958089828  1.54130089283  -1.45113593737  1.87925672531  -2.82111674944  -1.55523521105  0.0979526937008  
5.96766591072  1.54133689404  -1.45115977923  1.87923288345  -2.82088929812  -1.55511504809  0.0981564223766  
5.97572898865  1.5413608551  -1.45111209551  1.87922096252  -2.8210571448  -1.55523521105  0.0980605483055  
5.98382592201  1.54131293297  -1.45117217699  1.87925672531  -2.82096130053  -1.55525905291  0.0980725362897  
5.99190688133  1.54139685631  -1.45111209551  1.87923288345  -2.82106906572  -1.55523521105  0.0981803908944  
6.00000405312  1.54142081738  -1.45112401644  1.87924480438  -2.82087737719  -1.55540258089  0.0979526937008  
6.00812101364  1.5413608551  -1.45112401644  1.87925672531  -2.82112867037  -1.55530673662  0.0981324538589  
6.01618504524  1.54140877724  -1.45111209551  1.87925672531  -2.82093698183  -1.5554745833  0.09801261127  
6.02428507805  1.54146873951  -1.45110017458  1.87925672531  -2.82098514238  -1.55542642275  0.0981564223766  
6.03234696388  1.54150462151  -1.45107585589  1.87924480438  -2.82104522387  -1.55542642275  0.09801261127  
6.04044699669  1.54149270058  -1.45111209551  1.87926864624  -2.8209250609  -1.5555823485  0.0981564223766  
6.04854393005  1.54148066044  -1.45113593737  1.87928104401  -2.82108098665  -1.55546218554  0.0980006307364  
6.05662894249  1.54154062271  -1.45112401644  1.87925672531  -2.82086545626  -1.55565435091  0.0980605483055  
6.06471610069  1.54154062271  -1.45110017458  1.87929296494  -2.82114106814  -1.5555823485  0.0981204733253  
6.07281208038  1.54155266285  -1.45111209551  1.87923288345  -2.82098514238  -1.55560619036  0.0979646742344  
6.08093810081  1.54155266285  -1.45111209551  1.87928104401  -2.82104522387  -1.55573779741  0.0980845168233  
6.08905792236  1.54157698154  -1.4511478583  1.87929296494  -2.82109290758  -1.55557042757  0.0980365797877  
6.09714508057  1.54156494141  -1.45110017458  1.87931680679  -2.82096130053  -1.55578595797  0.097892396152  
6.10521006584  1.54162490368  -1.45112401644  1.87928104401  -2.82114106814  -1.55567819277  0.0981324538589  
6.1133248806  1.54158890247  -1.45115977923  1.87929296494  -2.82093698183  -1.55565435091  0.0979646742344  
6.12139987946  1.54162490368  -1.45113593737  1.87928104401  -2.82114106814  -1.55578595797  0.0979886427522  
6.12946295738  1.54166090488  -1.45112401644  1.87925672531  -2.82096130053  -1.55566627184  0.0980006307364  
6.13755989075  1.54168486595  -1.45113593737  1.87924480438  -2.82108098665  -1.55586988131  0.097892396152  
6.14562106133  1.54163682461  -1.45111209551  1.87925672531  -2.82106906572  -1.55571395556  0.0980365797877  
6.15371108055  1.54164886475  -1.4511478583  1.87931680679  -2.82099706331  -1.55577403704  0.0979047566652  
6.16180491447  1.54170882702  -1.45110017458  1.87926864624  -2.82114106814  -1.55585796038  0.0979407057166  
6.1699180603  1.54170882702  -1.45113593737  1.87928104401  -2.8209250609  -1.55584603945  0.09801261127  
6.17800998688  1.54167282581  -1.45112401644  1.87932872772  -2.82111674944  -1.55580979982  0.0978684276342  
6.18609809875  1.54169678688  -1.45110017458  1.87925672531  -2.82094890276  -1.55586988131  0.0980485677719  
6.19416999817  1.54170882702  -1.45113593737  1.87930488586  -2.82106906572  -1.55590564409  0.0978804081678  
6.20230388641  1.54173278809  -1.45110017458  1.87931680679  -2.8210571448  -1.55580979982  0.0979407057166  
6.21042895317  1.54172074795  -1.45110017458  1.87928104401  -2.82097322146  -1.5559776465  0.0980006307364  
6.21849298477  1.54174470901  -1.45112401644  1.87926864624  -2.82118875185  -1.5557978789  0.097892396152  
6.22658205032  1.54172074795  -1.45111209551  1.87925672531  -2.82099706331  -1.55591756502  0.0980605483055  
6.23466897011  1.54173278809  -1.45108825365  1.87929296494  -2.82114106814  -1.55589372316  0.097928725183  
6.24273490906  1.54173278809  -1.45111209551  1.87925672531  -2.82100898424  -1.55583411852  0.0979646742344  
6.25079989433  1.54170882702  -1.4511478583  1.87926864624  -2.82114106814  -1.55592996279  0.0980485677719  
6.25886297226  1.54172074795  -1.45113593737  1.87925672531  -2.82106906572  -1.55573779741  0.097928725183  
6.26695108414  1.54173278809  -1.45110017458  1.87931680679  -2.82106906572  -1.55586988131  0.0980485677719  
6.27504897118  1.54179263115  -1.45110017458  1.87925672531  -2.82097322146  -1.5557978789  0.0979886427522  
6.28313708305  1.54173278809  -1.45112401644  1.87928104401  -2.82116490999  -1.55594188372  0.0980605483055  
6.29120087624  1.54176867008  -1.45113593737  1.87932872772  -2.82096130053  -1.55576211611  0.0979646742344  
6.29928898811  1.54176867008  -1.45113593737  1.87925672531  -2.8210571448  -1.55586988131  0.0980965048075  
6.30738401413  1.54178071022  -1.45113593737  1.87930488586  -2.8210571448  -1.55589372316  0.0980725362897  
6.31550002098  1.54170882702  -1.45113593737  1.87929296494  -2.82100898424  -1.55572587649  0.0980245992541  
6.32366108894  1.54173278809  -1.45110017458  1.87928104401  -2.82115298906  -1.55591756502  0.0982043594122  
6.33175206184  1.54173278809  -1.45113593737  1.87928104401  -2.82090121904  -1.55576211611  0.09801261127  
6.33983898163  1.54172074795  -1.45111209551  1.87929296494  -2.82115298906  -1.55590564409  0.0980365797877  
6.34793591499  1.54172074795  -1.45112401644  1.87930488586  -2.82094890276  -1.55584603945  0.0981564223766  
6.35604906082  1.54175674915  -1.45112401644  1.87926864624  -2.82111674944  -1.55592996279  0.0979886427522  
6.364164114  1.54175674915  -1.45111209551  1.87930488586  -2.82090121904  -1.55578595797  0.0981204733253  
6.37228894234  1.54173278809  -1.45112401644  1.87929296494  -2.82115298906  -1.5559776465  0.0980845168233  
6.38038611412  1.54172074795  -1.45112401644  1.87928104401  -2.82096130053  -1.55582172075  0.0980365797877  
6.38849592209  1.54173278809  -1.45110017458  1.87926864624  -2.82110482851  -1.55591756502  0.0981684029102  
6.39656591415  1.54167282581  -1.45113593737  1.87926864624  -2.8210328261  -1.55588180224  0.0980006307364  
6.40463590622  1.54172074795  -1.45112401644  1.87931680679  -2.82096130053  -1.5557978789  0.0981564223766  
6.41270399094  1.54174470901  -1.45111209551  1.87929296494  -2.82116490999  -1.55594188372  0.0979407057166  
6.42076706886  1.54174470901  -1.45115977923  1.87925672531  -2.82091313997  -1.55576211611  0.0981084853411  
6.42889809608  1.54169678688  -1.45110017458  1.87924480438  -2.82117683092  -1.55590564409  0.0980245992541  
6.43699908257  1.54175674915  -1.45113593737  1.87926864624  -2.82097322146  -1.55583411852  0.0979646742344  
6.44512701035  1.54170882702  -1.45110017458  1.87923288345  -2.82110482851  -1.55576211611  0.0981564223766  
6.45321702957  1.54174470901  -1.45113593737  1.87926864624  -2.8210328261  -1.55594188372  0.0979886427522  
6.46130609512  1.54172074795  -1.45113593737  1.87929296494  -2.82096130053  -1.55572587649  0.0981324538589  
6.46939396858  1.54170882702  -1.4511478583  1.87925672531  -2.82112867037  -1.55584603945  0.0981084853411  
6.47748303413  1.54173278809  -1.45110017458  1.87931680679  -2.82094890276  -1.55577403704  0.0980485677719  
6.48558497429  1.54169678688  -1.4511478583  1.87932872772  -2.82115298906  -1.55573779741  0.0981803908944  
6.49368596077  1.54173278809  -1.45110017458  1.87934064865  -2.82099706331  -1.55586988131  0.0980245992541  
6.50177788734  1.54173278809  -1.45112401644  1.87926864624  -2.82104522387  -1.55571395556  0.0981444343925  
6.50986599922  1.54172074795  -1.45111209551  1.87936449051  -2.82106906572  -1.5557978789  0.0981803908944  
6.51797103882  1.54176867008  -1.45110017458  1.87932872772  -2.82098514238  -1.55583411852  0.0980605483055  
6.52603387833  1.54174470901  -1.45113593737  1.87930488586  -2.82115298906  -1.55573779741  0.0982403084636  
6.53413701057  1.54174470901  -1.45113593737  1.87934064865  -2.82091313997  -1.55591756502  0.0981564223766  
6.54225206375  1.54174470901  -1.45110017458  1.87936449051  -2.82118875185  -1.55576211611  0.0981564223766  
6.55034399033  1.54172074795  -1.4511478583  1.87946081161  -2.82094890276  -1.55578595797  0.09822832793  
6.55840492249  1.54176867008  -1.45111209551  1.87942457199  -2.82102090517  -1.55584603945  0.0980605483055  
6.56648993492  1.54172074795  -1.45111209551  1.87940073013  -2.82108098665  -1.55571395556  0.0982762649655  
6.57458496094  1.54172074795  -1.45111209551  1.87943649292  -2.82093698183  -1.55589372316  0.0981564223766  
6.58264803886  1.54173278809  -1.45113593737  1.87950849533  -2.82109290758  -1.55575019518  0.0981084853411  
6.59074497223  1.54174470901  -1.45112401644  1.87953233719  -2.82091313997  -1.5557978789  0.0982043594122  
6.59883093834  1.54174470901  -1.45107585589  1.87950849533  -2.82110482851  -1.55582172075  0.0980605483055  
6.60693287849  1.54174470901  -1.45110017458  1.87947273254  -2.8210328261  -1.55565435091  0.0982403084636  
6.61502289772  1.54173278809  -1.45111209551  1.8796043396  -2.8210571448  -1.55585796038  0.0981444343925  
6.62315702438  1.54173278809  -1.45111209551  1.87966442108  -2.82099706331  -1.55578595797  0.0981204733253  
6.63125705719  1.54172074795  -1.45112401644  1.87965250015  -2.8210571448  -1.55578595797  0.0981803908944  
6.63931894302  1.54174470901  -1.45113593737  1.87967634201  -2.82096130053  -1.55589372316  0.0980006307364  
6.64741587639  1.54173278809  -1.45108825365  1.87973642349  -2.82102090517  -1.55573779741  0.09822832793  
6.6555109024  1.54169678688  -1.45112401644  1.87973642349  -2.82100898424  -1.55591756502  0.0980605483055  
6.66363501549  1.54174470901  -1.45108825365  1.87979602814  -2.8209250609  -1.55585796038  0.0982522964478  
6.67170596123  1.54174470901  -1.45110017458  1.87979602814  -2.82106906572  -1.55589372316  0.0981084853411  
6.67981696129  1.54169678688  -1.45110017458  1.87981987  -2.82086545626  -1.55598956743  0.0981564223766  
6.68788099289  1.54173278809  -1.45112401644  1.87985610962  -2.8210571448  -1.55586988131  0.09822832793  
6.69600105286  1.54169678688  -1.4511478583  1.87990379333  -2.82087737719  -1.55607301394  0.0980845168233  
6.70414805412  1.54173278809  -1.45108825365  1.87995195389  -2.82108098665  -1.55585796038  0.098192371428  
6.71224689484  1.54174470901  -1.45112401644  1.8799161911  -2.82093698183  -1.55606109301  0.0981204733253  
6.72033810616  1.54175674915  -1.45111209551  1.87990379333  -2.82100898424  -1.55601388613  0.0980485677719  
6.72842788696  1.54173278809  -1.4511478583  1.87992811203  -2.82102090517  -1.55601388613  0.0981803908944  
6.73651504517  1.54173278809  -1.45110017458  1.8799161911  -2.82087737719  -1.55612117449  0.0980245992541  
6.74460506439  1.54175674915  -1.45110017458  1.87992811203  -2.82114106814  -1.55606109301  0.0981564223766  
6.7526679039  1.54174470901  -1.4511478583  1.87987995148  -2.82086545626  -1.55622893969  0.0981324538589  
6.7607319355  1.54173278809  -1.45110017458  1.87996387482  -2.82106906572  -1.55614501635  0.0979886427522  
6.76881790161  1.54170882702  -1.45113593737  1.8799161911  -2.82094890276  -1.55622893969  0.0982163399458  
6.77691602707  1.54169678688  -1.45110017458  1.87994003296  -2.8209250609  -1.55632478396  0.0980485677719  
6.78498291969  1.54173278809  -1.45112401644  1.87990379333  -2.82096130053  -1.55624086062  0.0980365797877  
6.79307794571  1.54173278809  -1.4511478583  1.87994003296  -2.82086545626  -1.55636102358  0.0981444343925  
6.80117893219  1.54173278809  -1.45113593737  1.87995195389  -2.82099706331  -1.55624086062  0.0980006307364  
6.80927705765  1.54175674915  -1.45110017458  1.8799161911  -2.82082921663  -1.5564087073  0.0982163399458  
6.81738400459  1.54172074795  -1.45110017458  1.8799161911  -2.82100898424  -1.55631286303  0.0980725362897  
6.82550787926  1.54174470901  -1.45111209551  1.8799161911  -2.82078153292  -1.55637294451  0.0980245992541  
6.83360290527  1.54173278809  -1.45110017458  1.87992811203  -2.82097322146  -1.55643254915  0.0981324538589  
6.84173488617  1.54172074795  -1.45113593737  1.87992811203  -2.82082921663  -1.55633670488  0.09801261127  
6.84985804558  1.54170882702  -1.45110017458  1.87990379333  -2.82085305849  -1.55646878878  0.0981444343925  
6.85797905922  1.54174470901  -1.45112401644  1.87994003296  -2.82086545626  -1.55633670488  0.0981084853411  
6.86609196663  1.54175674915  -1.45110017458  1.87995195389  -2.82073337237  -1.55646878878  0.0979886427522  
6.87415909767  1.54175674915  -1.45113593737  1.87994003296  -2.8209250609  -1.55642062822  0.0982043594122  
6.88226008415  1.54175674915  -1.45108825365  1.8799161911  -2.82067329088  -1.55633670488  0.0980725362897  
6.89032387733  1.54173278809  -1.45111209551  1.87989187241  -2.82085305849  -1.55649263064  0.0981204733253  
6.8983669281  1.54174470901  -1.45108825365  1.87992811203  -2.82066136995  -1.55631286303  0.0981204733253  
6.90648007393  1.54176867008  -1.45111209551  1.87992811203  -2.82075721422  -1.55642062822  0.0979886427522  
6.91454195976  1.54175674915  -1.45115977923  1.87990379333  -2.82074529329  -1.55639678637  0.0981803908944  
6.92263007164  1.54179263115  -1.4511478583  1.87994003296  -2.82062560717  -1.5564087073  0.0980725362897  
6.9307179451  1.54181659222  -1.45108825365  1.87992811203  -2.82086545626  -1.55648070971  0.0980365797877  
6.93881392479  1.54180467129  -1.45110017458  1.8799161911  -2.82062560717  -1.55633670488  0.0981684029102  
6.94690489769  1.54184055328  -1.45113593737  1.87994003296  -2.82076913515  -1.55654031435  0.0979646742344  
6.95496606827  1.54186463356  -1.45113593737  1.87997579575  -2.82073337237  -1.55638486544  0.0980845168233  
6.9630279541  1.54192447662  -1.4511478583  1.87997579575  -2.82079345385  -1.55661231676  0.0979646742344  
6.97109794617  1.54193651676  -1.4511478583  1.87992811203  -2.82062560717  -1.55645686785  0.0981324538589  
6.97916388512  1.54203271866  -1.45112401644  1.87994003296  -2.82080537478  -1.55668384234  0.0979167371988  
6.98726296425  1.54205667973  -1.45112401644  1.87992811203  -2.82054168383  -1.55652839342  0.0980006307364  
6.99534893036  1.54209268093  -1.45110017458  1.87994003296  -2.82076913515  -1.55664807955  0.0979886427522  
7.00341010094  1.54214060307  -1.45107585589  1.87996387482  -2.82061368624  -1.55664807955  0.0978804081678  
7.0115070343  1.54216456413  -1.45110017458  1.88000011444  -2.82067329088  -1.55654031435  0.0980245992541  
7.01959705353  1.5421885252  -1.4511478583  1.87994003296  -2.82062560717  -1.55676776568  0.0978684276342  
7.02771997452  1.54222452641  -1.45113593737  1.87995195389  -2.82055360476  -1.55655223528  0.0979766622186  
7.03582000732  1.54227209091  -1.45112401644  1.88002443314  -2.82067329088  -1.55671960512  0.0979766622186  
7.04391789436  1.54236793518  -1.45108825365  1.87998819351  -2.82051784197  -1.55666000048  0.0979047566652  
7.05203390121  1.54240381718  -1.45108825365  1.88000011444  -2.82073337237  -1.55663615862  0.0981084853411  
7.06015992165  1.54239189625  -1.45112401644  1.88000011444  -2.82051784197  -1.55674344698  0.0979047566652  
7.06822609901  1.54242825508  -1.4511478583  1.87997579575  -2.82064944903  -1.55663615862  0.09801261127  
7.07629203796  1.54248809814  -1.45112401644  1.87998819351  -2.82058936754  -1.55681544939  0.0980245992541  
7.08438897133  1.54253602028  -1.45112401644  1.88003635406  -2.82057744661  -1.55663615862  0.097892396152  
7.0924808979  1.54251205921  -1.45112401644  1.88006019592  -2.82070953051  -1.55674344698  0.0980845168233  
7.10054707527  1.54260802269  -1.45112401644  1.88009595871  -2.82046968142  -1.55673152605  0.0979047566652  
7.10861110687  1.54264390469  -1.45110017458  1.88010787964  -2.82064944903  -1.55666000048  0.0979766622186  
7.11669588089  1.54260802269  -1.45112401644  1.88003635406  -2.82038575808  -1.55682737032  0.0980245992541  
7.12480807304  1.54265594482  -1.45111209551  1.88004827499  -2.82062560717  -1.55663615862  0.0978684276342  
7.1328959465  1.54265594482  -1.45113593737  1.88008403778  -2.82054168383  -1.55682737032  0.0980845168233  
7.14099287987  1.54267990589  -1.45110017458  1.88009595871  -2.82054168383  -1.55674344698  0.0979167371988  
7.14905810356  1.54270386696  -1.45113593737  1.88009595871  -2.82057744661  -1.55669576326  0.0981564223766  
7.15714907646  1.54271626472  -1.45112401644  1.88010787964  -2.82046968142  -1.55679160753  0.0979886427522  
7.16528987885  1.54278814793  -1.45113593737  1.88017988205  -2.82067329088  -1.55666000048  0.0980725362897  
7.1733648777  1.54275214672  -1.45108825365  1.88015604019  -2.82040959993  -1.55676776568  0.0981204733253  
7.18145895004  1.54277610779  -1.45111209551  1.88015604019  -2.82064944903  -1.55671960512  0.0979886427522  
7.18954801559  1.54280006886  -1.45110017458  1.8802280426  -2.82048160235  -1.55671960512  0.0981444343925  
7.1976120472  1.54280006886  -1.45112401644  1.88031196594  -2.82049352327  -1.55675536791  0.0980245992541  
7.20571088791  1.54276418686  -1.45110017458  1.88032388687  -2.82060176531  -1.55667192141  0.0980245992541  
7.21379995346  1.54282402992  -1.45111209551  1.88031196594  -2.82044583956  -1.55681544939  0.0981324538589  
7.22188997269  1.54280006886  -1.45113593737  1.88038396835  -2.82068568865  -1.55662423769  0.0979646742344  
7.22995305061  1.54278814793  -1.45112401644  1.88040781021  -2.82039767901  -1.5567796866  0.0981204733253  
7.23807501793  1.54278814793  -1.45107585589  1.880443573  -2.82060176531  -1.55667192141  0.0980845168233  
7.24617505074  1.54280006886  -1.45113593737  1.88043165207  -2.82048160235  -1.55662423769  0.0979766622186  
7.25423789024  1.54278814793  -1.45110017458  1.88050413132  -2.82048160235  -1.55674344698  0.0981204733253  
7.26230096817  1.54274022579  -1.4511478583  1.88058805466  -2.82051784197  -1.55656415621  0.0979646742344  
7.27039909363  1.54274022579  -1.4511478583  1.88055181503  -2.82037383715  -1.55671960512  0.0980245992541  
7.27849602699  1.54270386696  -1.45111209551  1.8806476593  -2.82055360476  -1.55664807955  0.0981084853411  
7.28656196594  1.54265594482  -1.45112401644  1.88067150116  -2.82037383715  -1.55658799807  0.0979407057166  
7.29467797279  1.54267990589  -1.4511478583  1.88071966171  -2.82057744661  -1.55663615862  0.0980965048075  
7.30276703835  1.54272818565  -1.45113593737  1.88071966171  -2.82034999529  -1.55645686785  0.0980485677719  
7.3108561039  1.54270386696  -1.45112401644  1.88079166412  -2.8205297629  -1.55658799807  0.0979526937008  
7.3189458847  1.54265594482  -1.4511478583  1.88081550598  -2.82037383715  -1.55649263064  0.0981204733253  
7.32707691193  1.54264390469  -1.45112401644  1.88085126877  -2.82038575808  -1.55650407473  0.0979167371988  
7.33516097069  1.54264390469  -1.45112401644  1.88092327118  -2.82039767901  -1.55652839342  0.0980245992541  
7.34326410294  1.54263198376  -1.45111209551  1.88091135025  -2.82034999529  -1.55642062822  0.0979886427522  
7.35135006905  1.54261994362  -1.45112401644  1.8809595108  -2.82040959993  -1.55654031435  0.0979167371988  
7.35941410065  1.54259598255  -1.45112401644  1.88097190857  -2.82024223009  -1.55632478396  0.0980485677719  
7.36747503281  1.54257202148  -1.45112401644  1.88099575043  -2.82050592104  -1.55649263064  0.0979167371988  
7.37556290627  1.54253602028  -1.4511478583  1.88104343414  -2.82026607195  -1.55633670488  0.0979886427522  
7.38365006447  1.54251205921  -1.45112401644  1.88110303879  -2.82048160235  -1.55638486544  0.0979526937008  
7.3917388916  1.54250013828  -1.45111209551  1.88109111786  -2.82028991381  -1.55636102358  0.0978684276342  
7.39984798431  1.54248809814  -1.45108825365  1.88113927841  -2.8204219977  -1.55627710024  0.0980485677719  
7.40793704987  1.54248809814  -1.45112401644  1.8811750412  -2.82037383715  -1.55638486544  0.0978085026145  
7.41602897644  1.54241585732  -1.4511478583  1.88116312027  -2.82026607195  -1.55620509783  0.0978684276342  
7.42412090302  1.54248809814  -1.45112401644  1.88121080399  -2.82045776049  -1.55632478396  0.097892396152  
7.43216609955  1.54241585732  -1.45107585589  1.88123512268  -2.82027799288  -1.55620509783  0.0977965220809  
7.44024205208  1.54235589504  -1.4511478583  1.88123512268  -2.82040959993  -1.55624086062  0.0979646742344  
7.44833397865  1.54240381718  -1.45110017458  1.88124704361  -2.82025415102  -1.55620509783  0.0978204905987  
7.4564011097  1.54237985611  -1.45111209551  1.88127088547  -2.82034999529  -1.55609733263  0.0978324711323  
7.46449398994  1.54240381718  -1.45112401644  1.88129472733  -2.82024223009  -1.55618125597  0.0978804081678  
7.47255706787  1.54233193398  -1.45112401644  1.88129472733  -2.82024223009  -1.55598956743  0.0977365970612  
7.48062109947  1.54233193398  -1.45111209551  1.88131904602  -2.82039767901  -1.55604917208  0.0979047566652  
