Ethan-CYM/ros_catkin_ws/test/servol_静止不动/ur_joint_actual_current.txt
time  shoulder_pan_joint  shoulder_lift_joint  elbow_joint  wrist_1_joint  wrist_2_joint  wrist_3_joint
0.161638975143  -0.212972000241  -1.7261941433  -1.19488501549  0.0411761105061  -0.097602635622  -0.364484846592  
0.169610023499  -0.242115542293  -1.74637043476  -1.20161044598  -0.553589940071  0.0671018138528  -0.452937245369  
0.17770409584  -0.248840972781  -1.73516142368  -1.19488501549  0.00305008236319  -0.434636741877  -0.416336238384  
0.185853004456  -0.242115542293  -1.73964500427  -1.1859177351  -0.440736889839  0.132678583264  -0.384310364723  
0.193913936615  -0.242115542293  -1.71722686291  -1.17919230461  -0.239431470633  -0.253156840801  -0.42396146059  
0.202018976212  -0.237631917  -1.73291957378  -1.20833587646  -0.100652717054  -0.210455685854  -0.443786978722  
0.210112094879  -0.239873722196  -1.7261941433  -1.19488501549  -0.407186001539  0.247056677938  -0.288232773542  
0.218254089355  -0.246599167585  -1.73067772388  -1.18367600441  -0.0274507403374  -0.407186001539  -0.352284520864  
0.226490020752  -0.233148291707  -1.7261941433  -1.1859177351  -0.468187630177  0.218080893159  -0.231806263328  
0.234577894211  -0.224181056023  -1.71946871281  -1.20161044598  0.0411761105061  -0.0945525541902  -0.195205271244  
0.242712020874  -0.226422861218  -1.73740315437  -1.20161044598  -0.581040680408  -0.178429812193  0.118953213096  
0.250741958618  -0.248840972781  -1.7239522934  -1.19936859608  0.105227842927  0.280607581139  -0.0457512363791  
0.258903980255  -0.242115542293  -2.00417852402  -1.27334845066  -0.48801317811  -0.349234431982  0.0381260290742  
0.26705789566  -0.230906486511  -2.61619281769  -1.71274328232  -0.327883839607  -0.0793021395802  -0.0472762770951  
0.275121927261  -0.215213805437  -2.98833346367  -1.80017387867  -0.239431470633  -0.30043309927  0.0152504118159  
0.283149003983  -0.208488374949  -3.23044896126  -1.73516142368  -0.272982358932  0.279082536697  -0.00305008236319  
0.291398048401  -0.143475875258  -3.58241319656  -1.91450619698  -0.343134254217  -0.321783691645  0.0381260290742  
0.299352884293  -0.0807051807642  -3.88057398796  -1.95261704922  -0.207405596972  0.211980730295  0.0777771025896  
0.307432889938  0.0134508628398  -4.25495624542  -2.02435493469  -0.516988933086  0.0289757829159  0.0823522210121  
0.315645933151  0.224181056023  -4.06664419174  -1.91226434708  -0.132678583264  -0.234856337309  0.0274507403374  
0.323725938797  0.0627706944942  -3.77745079994  -1.98848593235  -0.338559150696  0.367534935474  0.0869273468852  
0.331849098206  0.253324598074  -4.0464682579  -2.04453110695  0.0671018138528  -0.186055019498  0.0747270211577  
0.33994603157  0.253324598074  -4.08009529114  -2.04453110695  -0.0198255348951  0.190630152822  0.0884523913264  
0.348032951355  0.387833237648  -3.3851339817  -1.95037519932  0.0610016472638  0.0320258662105  0.134203627706  
0.356156110764  0.372140556574  -3.81780338287  -1.82035017014  -0.0289757829159  -0.144878908992  0.112853050232  
0.364253044128  0.374382376671  -3.25062537193  -1.7261941433  -0.117428168654  0.387360453606  0.198255360126  
0.372364044189  0.414734959602  -3.58465504646  -1.74412858486  0.117428168654  -0.172329649329  0.167754530907  
0.380465984344  0.520100057125  -3.04213690758  -1.71498501301  0.0610016472638  0.388885498047  0.17385469377  
0.388498067856  0.540276348591  -3.10714936256  -1.6656652689  0.00610016472638  -0.0427011549473  0.231806263328  
0.396576881409  0.573903501034  -2.86951756477  -1.70825958252  0.120478250086  0.0625266879797  0.233331307769  
0.40465092659  0.650125086308  -3.07352232933  -1.7217104435  -0.0366009883583  0.195205271244  0.257731974125  
0.412750959396  0.647883236408  -2.60722565651  -1.76654672623  0.0960775911808  -0.118953213096  0.23638138175  
0.420878887177  0.715137541294  -2.96367359161  -1.75757944584  0.0823522210121  0.445312023163  0.279082536697  
0.428930997849  0.685994029045  -2.6699962616  -1.70601785183  0.0152504118159  -0.112853050232  0.3461843431  
0.43709897995  0.773424625397  -2.97264075279  -1.76654672623  0.157079234719  0.434636741877  0.353809565306  
0.445194959641  0.845162570477  -2.67896366119  -1.7777557373  -0.0350759476423  0.0350759476423  0.391935586929  
0.453404903412  0.766699194908  -2.78657054901  -1.86967003345  0.0381260290742  0.253156840801  0.352284520864  
0.461395978928  0.887757003307  -2.7282834053  -1.89657175541  0.114378087223  0.199780389667  0.381260305643  
0.469467878342  0.75997376442  -2.77536153793  -1.80914115906  -0.00762520590797  0.0442261956632  0.434636741877  
0.477535963058  0.818260848522  -2.33596658707  -1.77551400661  0.105227842927  0.483438044786  0.44226193428  
0.485641956329  0.809293627739  -2.54445505142  -1.74412858486  0.144878908992  -0.195205271244  0.413286149502  
0.4937479496  0.753248333931  -2.26422858238  -1.70153415203  0.0244006589055  0.492588311434  0.449887156487  
0.501827001572  0.912416875362  -2.72379970551  -1.67463243008  0.143353864551  -0.056426525116  0.398035734892  
0.509912967682  0.786875486374  -2.63861107826  -1.78448116779  0.0732019767165  0.22113096714  0.40871104598  
0.518003940582  0.928109586239  -2.27095413208  -1.76430487633  0.0625266879797  0.231806263328  0.370584994555  
0.526155948639  0.697203099728  -2.735008955  -1.81586658955  0.134203627706  -0.0960775911808  0.42396146059  
0.53430390358  0.833953499794  -2.42788076401  -1.70377600193  -0.0701518952847  0.388885498047  0.439211845398  
0.542398929596  1.0088146925  -2.39873719215  -1.79569029808  0.114378087223  -0.160129323602  0.420911371708  
0.550504922867  0.670301377773  -2.78881239891  -1.82931745052  0.0305008236319  0.337034106255  0.399560779333  
0.558583021164  0.910175085068  -2.64757823944  -1.80689930916  0.0899774283171  -0.0869273468852  0.428536564112  
0.566687107086  0.784633696079  -2.28888845444  -1.65221440792  0.0594766065478  0.140303790569  0.320258647203  
0.574784994125  0.706170320511  -2.33596658707  -1.73067772388  0.0671018138528  0.167754530907  0.417861282825  
0.58288192749  0.845162570477  -2.57808208466  -1.85846090317  0.0701518952847  -0.195205271244  0.338559150696  
0.590997934341  0.764457404613  -2.5601477623  -1.7822394371  0.0579515658319  0.309583365917  0.323308736086  
0.599113941193  0.710653960705  -2.44805717468  -1.81586658955  0.0106752887368  -0.233331307769  0.301958143711  
0.607193946838  0.75997376442  -2.44357347488  -1.87191176414  0.0793021395802  0.176904782653  0.321783691645  
0.61547088623  0.858613431454  -2.56911492348  -1.94813334942  -0.0732019767165  0.0915024727583  0.364484846592  
0.623392105103  0.524583697319  -2.77984499931  -1.83380103111  0.109802961349  -0.263832122087  0.227231130004  
0.631431102753  0.632190585136  -2.92332100868  -1.86070275307  -0.0610016472638  0.306533277035  0.362959802151  
0.639580965042  0.706170320511  -2.88072657585  -1.83604288101  0.120478250086  -0.337034106255  0.176904782653  
0.647655963898  0.708412110806  -2.69017267227  -1.93468248844  0.0259256996214  0.0320258662105  0.23638138175  
0.655805110931  0.672543168068  -2.49737691879  -1.91450619698  0.0442261956632  0.106752879918  0.298908084631  
0.663866996765  0.623223304749  -2.65654540062  -1.89657175541  0.0533764399588  -0.265357166529  0.196730315685  
0.671987056732  0.589596152306  -2.95022273064  -1.89657175541  -0.00152504118159  0.3461843431  0.0930275097489  
0.680083990097  0.488714694977  -3.06231331825  -2.05349850655  0.0274507403374  -0.210455685854  -0.0640517324209  
0.688159942627  0.448362112045  -2.83364844322  -1.93916606903  0.0503263585269  0.141828835011  -0.0823522210121  
0.696268081665  0.430427610874  -2.59825849533  -1.80241572857  -0.00915024708956  0.0427011549473  -0.144878908992  
0.704459905624  0.322820723057  -3.00850987434  -1.98400235176  0.108277924359  -0.144878908992  -0.0594766065478  
0.712558031082  0.307128041983  -3.25286722183  -1.92123162746  -0.0960775911808  0.20435552299  -0.0960775911808  
0.720623970032  0.246599167585  -2.98160791397  -1.90553891659  -0.0381260290742  -0.0838772654533  -0.199780389667  
0.728749036789  0.246599167585  -2.735008955  -2.0781583786  0.0747270211577  0.265357166529  -0.0869273468852  
0.736845970154  0.34523883462  -3.11835837364  -1.98400235176  0.0183004941791  0.138778746128  -0.183004945517  
0.744967937469  0.295919001102  -3.12508392334  -1.89657175541  -0.0793021395802  0.350759476423  -0.135728672147  
0.753069877625  0.20176294446  -2.83140683174  -1.98624420166  -0.0518513992429  0.22113096714  -0.199780389667  
0.761209964752  0.147959500551  -3.06679677963  -2.00417852402  0.0228756181896  0.465137571096  -0.102177761495  
0.769283056259  0.00224181055091  -3.11611676216  -1.96606791019  0.0823522210121  0.233331307769  -0.242481544614  
0.77739405632  0.159168556333  -2.78208684921  -2.00642037392  0.0533764399588  0.379735261202  -0.0503263585269  
0.785475969315  0.313853472471  -2.80002140999  -2.07143306732  0.0945525541902  0.225706100464  -0.231806263328  
0.793570041656  0.1188159585  -2.94573903084  -1.93692433834  0.0671018138528  0.244006589055  -0.0823522210121  
0.801703929901  0.0470780208707  -2.61843466759  -1.84501004219  0.048801317811  0.178429812193  -0.254681885242  
0.809825897217  0.163652166724  -3.06679677963  -2.03108024597  0.0289757829159  0.147928997874  -0.0518513992429  
0.817864894867  0.134508639574  -2.78432869911  -2.00866222382  -0.0655767694116  0.184529989958  -0.23638138175  
0.825958013535  -0.0313853472471  -2.65878725052  -1.93692433834  -0.00610016472638  0.230281218886  -0.163179412484  
0.834053993225  0.0851887986064  -2.9121119976  -2.04453110695  0.0747270211577  0.31568351388  -0.306533277035  
0.842168092728  0.150201305747  -2.52427864075  -1.87863719463  0.0533764399588  0.3126334548  -0.0823522210121  
0.850258111954  0.00224181055091  -3.01075148582  -1.92795705795  0.15860427916  0.314158469439  -0.256206929684  
0.858427047729  0.00448362110183  -2.64533638954  -2.04228949547  0.0122003294528  0.356859624386  -0.109802961349  
0.866496086121  -0.0246599167585  -2.65206193924  -1.94364976883  0.0335509069264  0.314158469439  -0.218080893159  
0.874569892883  0.091914229095  -2.63861107826  -2.02211308479  0.0808271840215  0.248581707478  -0.17385469377  
0.882637023926  0.0381107777357  -2.49065160751  -1.95037519932  0.132678583264  0.137253701687  -0.199780389667  
0.890733003616  -0.0179344844073  -2.81571412086  -1.94140791893  0.103702798486  0.0701518952847  -0.219605922699  
0.898845911026  -0.0605288855731  -2.50410246849  -2.04677295685  0.0381260290742  0.0838772654533  -0.114378087223  
0.906946897507  -0.020176295191  -2.77536153793  -1.95037519932  0.170804619789  0.15860427916  -0.276032447815  
0.915102958679  -0.00224181055091  -2.44581532478  -2.05349850655  0.0244006589055  0.265357166529  -0.172329649329  
0.923122882843  -0.109848715365  -2.95246458054  -2.05349850655  0.0549014806747  0.303483188152  -0.111328005791  
0.931201934814  -0.0246599167585  -2.53772950172  -1.87863719463  0.0793021395802  0.36143475771  -0.183004945517  
0.939441919327  0.152443110943  -2.66551280022  -1.99745321274  0.138778746128  0.337034106255  -0.233331307769  
0.947326898575  0.0381107777357  -2.64533638954  -1.94364976883  0.0716769322753  0.283657670021  -0.274507403374  
0.955492973328  -0.0807051807642  -2.36735200882  -1.98400235176  0.0579515658319  0.208930641413  -0.181479901075  
0.963509082794  -0.0538034513593  -2.75742697716  -2.11851096153  0.147928997874  0.134203627706  -0.135728672147  
0.971618890762  0.00896724220365  -2.58032393456  -1.85173547268  0.102177761495  0.128103464842  -0.141828835011  
0.979705095291  0.0381107777357  -2.35838460922  -1.93692433834  0.0655767694116  0.129628494382  -0.108277924359  
0.987754106522  -0.0134508628398  -2.62291836739  -1.98624420166  0.0396510697901  0.184529989958  -0.150979071856  
0.995903015137  -0.00896724220365  -2.36511015892  -1.99296963215  0.123528338969  0.228756174445  -0.169279575348  
1.0039908886  -0.0358689688146  -2.47944235802  -2.10506010056  0.149454042315  0.272982358932  -0.199780389667  
1.01205611229  -0.0515616424382  -2.75518512726  -2.04901480675  0.120478250086  0.31568351388  -0.196730315685  
1.02019190788  -0.0896724238992  -2.37631917  -1.97951877117  0.0823522210121  0.327883839607  -0.0854023098946  
1.02839708328  -0.132266819477  -2.48392605782  -1.94589149952  0.0228756181896  0.292807906866  -0.0198255348951  
1.03640389442  -0.1188159585  -2.63412737846  -2.04453110695  0.0732019767165  0.228756174445  0.0350759476423  
1.04443001747  -0.0470780208707  -2.1992161274  -2.02659678459  0.111328005791  0.167754530907  0.0930275097489  
1.05251693726  -0.0963978543878  -2.53772950172  -2.03556394577  0.106752879918  0.0869273468852  0.0305008236319  
1.06061601639  -0.329546153545  -2.59601664543  -1.99072778225  0.143353864551  0.0457512363791  0.192155182362  
1.06870293617  -0.145717680454  -2.13644552231  -1.85173547268  0.0793021395802  0.0503263585269  0.0335509069264  
1.07681488991  -0.230906486511  -2.06919121742  -1.95710062981  0.0549014806747  0.0899774283171  0.303483188152  
1.08496689796  -0.448362112045  -2.29561400414  -1.97727692127  0.0777771025896  0.0884523913264  0.0686268508434  
1.09303307533  -0.134508639574  -2.14989638329  -1.95037519932  0.0701518952847  0.184529989958  0.222656011581  
1.10111999512  -0.365415126085  -2.12971997261  -2.10057640076  0.0732019767165  0.183004945517  0.105227842927  
1.10924887657  -0.271259069443  -2.20145797729  -2.04901480675  0.149454042315  0.253156840801  0.0793021395802  
1.11742711067  -0.304886221886  -2.49065160751  -2.01762938499  0.140303790569  0.253156840801  0.0899774283171  
1.125467062  -0.547001779079  -2.50634407997  -2.06022381783  0.215030804276  0.271457344294  0.0701518952847  
1.13351011276  -0.221939250827  -2.22387599945  -2.02883863449  0.146403953433  0.227231130004  0.125053375959  
1.14157390594  -0.497681945562  -2.02211308479  -1.91002261639  0.0793021395802  0.161654368043  0.192155182362  
1.14967107773  -0.3564478755  -2.04677295685  -2.04004764557  0.00152504118159  0.102177761495  0.20435552299  
1.15770888329  -0.582870721817  -2.32924127579  -2.18352341652  0.0335509069264  0.0701518952847  0.265357166529  
1.16576194763  -0.555968999863  -2.47720074654  -2.02883863449  0.0244006589055  0.0884523913264  0.292807906866  
1.17386889458  -0.63667422533  -2.34269213676  -1.90553891659  0.0777771025896  0.125053375959  0.265357166529  
1.18199706078  -0.670301377773  -2.12075281143  -2.02211308479  0.179954856634  0.202830478549  0.219605922699  
1.19010996819  -0.674784958363  -1.9638260603  -1.96606791019  0.147928997874  0.269932299852  0.118953213096  
1.19819903374  -0.753248333931  -1.94813334942  -1.99745321274  0.00915024708956  0.298908084631  0.0625266879797  
1.20639109612  -0.836195349693  -2.08936738968  -2.05349850655  0.00762520590797  0.28213262558  0.0610016472638  
1.21445703506  -0.887757003307  -2.259745121  -1.86967003345  0.167754530907  0.187580063939  0.0533764399588  
1.22252202034  -0.867580711842  -2.36511015892  -1.82931745052  0.155554205179  0.0793021395802  0.141828835011  
1.23059511185  -0.856371641159  -2.45029902458  -1.98848593235  0.0228756181896  0.0579515658319  0.163179412484  
1.2388188839  -0.824986279011  -2.44581532478  -1.95485877991  0.18910510838  0.102177761495  0.215030804276  
1.24688410759  -0.739797472954  -2.32027387619  -1.91674804688  0.118953213096  0.181479901075  0.225706100464  
1.25494408607  -0.68823581934  -2.24853587151  -1.99521136284  0.109802961349  0.272982358932  0.259256988764  
1.26305389404  -0.63667422533  -2.16783070564  -2.06694936752  0.176904782653  0.320258647203  0.233331307769  
1.27133393288  -0.573903501034  -2.13420367241  -2.04004764557  0.0655767694116  0.289757817984  0.233331307769  
1.27942991257  -0.56941986084  -2.02211308479  -1.93692433834  0.105227842927  0.22113096714  0.152504116297  
1.28747296333  -0.609772443771  -1.95934247971  -1.90553891659  0.0518513992429  0.143353864551  0.128103464842  
1.29555606842  -0.737555682659  -1.89208805561  -1.88984632492  0.0305008236319  0.115903131664  0.0869273468852  
1.3036210537  -0.764457404613  -1.88760447502  -1.97951877117  0.123528338969  0.160129323602  0.105227842927  
1.31170511246  -0.791359126568  -1.64100527763  -1.99296963215  -0.0213505774736  0.213505759835  0.114378087223  
1.31981801987  -0.793600916862  -1.47062766552  -1.93916606903  0.146403953433  0.269932299852  0.17385469377  
1.32790493965  -0.751006543636  -1.47735309601  -1.88984632492  0.117428168654  0.335509061813  0.28213262558  
1.3359849453  -0.623223304749  -1.18367600441  -1.92347347736  -0.0259256996214  0.382785350084  0.263832122087  
1.34413790703  -0.638916015625  -1.43027508259  -1.93244063854  0.048801317811  0.309583365917  0.256206929684  
1.35226798058  -0.654608666897  -1.24196302891  -1.97279334068  0.147928997874  0.240956500173  0.169279575348  
1.36047410965  -0.728588402271  -1.36077904701  -1.96830964088  0.100652717054  0.183004945517  0.0579515658319  
1.36844301224  -0.784633696079  -1.30025017262  -1.9615842104  0.0411761105061  0.126578420401  0.0289757829159  
1.37652206421  -0.860855221748  -1.34060275555  -1.87639546394  0.0350759476423  0.0686268508434  0.118953213096  
1.38461589813  -0.798084557056  -1.38992249966  -1.85621917248  0.135728672147  0.0594766065478  0.196730315685  
1.39274907112  -0.768941044807  -1.41458249092  -1.81138288975  0.132678583264  0.0427011549473  0.216555848718  
1.40078496933  -0.712895750999  -1.425791502  -1.79569029808  0.169279575348  0.0991276800632  0.224181056023  
1.40888690948  -0.600805222988  -1.46838593483  -1.87863719463  0.144878908992  0.0610016472638  0.132678583264  
1.41701388359  -0.549243569374  -1.4863203764  -1.85846090317  0.0655767694116  0.0793021395802  0.0945525541902  
1.42510795593  -0.656850516796  -1.56926739216  -1.91898977757  -0.00610016472638  0.178429812193  0.117428168654  
1.43332600594  -0.730830252171  -1.56478381157  -1.97055149078  -0.0701518952847  -0.0396510697901  0.192155182362  
1.44136095047  -0.75549018383  -1.50873851776  -1.97727692127  -0.0747270211577  0.0610016472638  0.263832122087  
1.44943499565  -0.650125086308  -1.51098036766  -2.02211308479  -0.0701518952847  0.103702798486  0.248581707478  
1.45749902725  -0.515616416931  -1.45941865444  -2.00417852402  -0.0869273468852  0.0747270211577  0.141828835011  
1.46554088593  -0.52234184742  -1.43251693249  -2.04228949547  -0.117428168654  -0.0289757829159  0.00305008236319  
1.47364997864  -0.578387141228  -1.35853719711  -2.01538777351  -0.178429812193  -0.00457512354478  0.0472762770951  
1.48174309731  -0.739797472954  -1.27334845066  -1.98624420166  -0.309583365917  0.0183004941791  0.138778746128  
1.48980593681  -0.811535418034  -1.16574144363  -2.01762938499  -0.157079234719  -0.0442261956632  0.187580063939  
1.49791407585  -0.827228069305  -1.10072898865  -1.6051363945  -0.3126334548  -0.172329649329  0.208930641413  
1.50605893135  -0.68375223875  -1.0693436861  -1.41234064102  -0.198255360126  0.0396510697901  0.108277924359  
1.51415801048  -0.504407346249  -1.05589282513  -1.33163547516  -0.356859624386  -0.0915024727583  0.0732019767165  
1.52240109444  -0.376624166965  -1.02450740337  -1.05589282513  -0.285182714462  -0.0122003294528  0.0777771025896  
1.53042006493  -0.246599167585  -1.03123283386  -1.20161044598  -0.268407255411  -0.195205271244  0.150979071856  
1.53849101067  -0.246599167585  -0.981913030148  -1.0110565424  -0.323308736086  0.0122003294528  0.22113096714  
1.54658293724  -0.354206055403  -1.05589282513  -1.12314713001  -0.240956500173  -0.199780389667  0.276032447815  
1.55462098122  -0.419218569994  -1.04020011425  -0.92586773634  -0.257731974125  -0.250106751919  0.225706100464  
1.56271791458  -0.504407346249  -1.07831084728  -0.977429389954  -0.196730315685  -0.195205271244  0.143353864551  
1.57080388069  -0.511132776737  -1.02674925327  -0.85412979126  -0.225706100464  -0.257731974125  0.0472762770951  
1.57890510559  -0.573903501034  -1.10072898865  -0.892240583897  -0.20588055253  -0.138778746128  0.0503263585269  
1.58704805374  -0.488714694977  -1.12090528011  -0.775666475296  -0.260782033205  -0.097602635622  0.181479901075  
1.59511089325  -0.470780223608  -1.05140912533  -0.764457404613  -0.279082536697  -0.0838772654533  0.216555848718  
1.60313105583  -0.452845722437  -1.06037640572  -0.762215614319  -0.326358824968  -0.0793021395802  0.248581707478  
1.61132001877  -0.441636681557  -1.24420487881  -0.703928530216  -0.323308736086  0.0427011549473  0.276032447815  
1.61942100525  -0.42818582058  -1.18367600441  -0.73531383276  -0.379735261202  -0.0899774283171  0.225706100464  
1.62745904922  -0.399042278528  -1.08055269718  -0.715137541294  -0.387360453606  0.0457512363791  0.179954856634  
1.63551402092  -0.405767709017  -1.19488501549  -0.690477669239  -0.419386327267  -0.150979071856  0.131153538823  
1.64357805252  -0.408009529114  -1.34284448624  -0.623223304749  -0.376685172319  -0.056426525116  0.134203627706  
1.65165400505  -0.327304333448  -1.34732818604  -0.715137541294  -0.402610868216  -0.190630152822  0.0777771025896  
1.65972208977  -0.230906486511  -1.19488501549  -0.668059527874  -0.323308736086  -0.167754530907  0.118953213096  
1.66781997681  -0.125541388988  -1.27110660076  -0.661334097385  -0.335509061813  -0.178429812193  0.0640517324209  
1.67592000961  0.067254319787  -1.32939362526  -0.703928530216  -0.260782033205  -0.25163179636  0.102177761495  
1.68400096893  -0.0269017256796  -1.38543891907  -0.681510388851  -0.256206929684  -0.187580063939  0.160129323602  
1.69209599495  0.152443110943  -1.40561521053  -0.712895750999  -0.227231130004  -0.326358824968  -0.00610016472638  
1.70016598701  0.325062543154  -1.45045137405  -0.739797472954  -0.187580063939  -0.195205271244  0.215030804276  
1.70841002464  0.159168556333  -1.56926739216  -0.717379391193  -0.303483188152  -0.294332951307  -0.0427011549473  
1.71644210815  0.52234184742  -1.52891480923  -0.833953499794  -0.108277924359  -0.170804619789  0.0701518952847  
1.72451090813  0.210730195045  -1.40337336063  -0.777908265591  -0.31568351388  -0.253156840801  0.257731974125  
1.73259496689  0.477505654097  -1.54909110069  -0.701686680317  -0.0838772654533  -0.0945525541902  -0.115903131664  
1.74072599411  0.228664681315  -1.75085401535  -0.831711709499  -0.260782033205  -0.207405596972  0.343134254217  
1.74888491631  0.461812973022  -1.53788208961  -0.780150055885  -0.280607581139  -0.0320258662105  -0.0671018138528  
1.75695204735  0.443878501654  -1.65445613861  -0.856371641159  -0.170804619789  -0.170804619789  0.0625266879797  
1.76503205299  0.441636681557  -1.74412858486  -0.710653960705  -0.222656011581  0.0198255348951  0.242481544614  
1.77308011055  0.513374626637  -1.55805838108  -0.872064292431  -0.31568351388  -0.111328005791  -0.262307077646  
1.78122401237  0.443878501654  -1.6051363945  -0.928109586239  -0.190630152822  -0.0137253701687  0.350759476423  
1.78950095177  0.441636681557  -1.79793202877  -0.80705177784  -0.208930641413  0.00915024708956  -0.26688221097  
1.7975230217  0.42818582058  -1.73964500427  -0.75549018383  -0.295857995749  -0.0106752887368  0.140303790569  
1.80560898781  0.52234184742  -1.62755441666  -0.961736738682  -0.154029160738  -0.0335509069264  0.0915024727583  
1.81370592117  0.475263834  -1.81810832024  -1.06261825562  -0.192155182362  0.167754530907  -0.20435552299  
1.8218319416  0.441636681557  -1.84501004219  -0.977429389954  -0.22113096714  -0.160129323602  0.375160127878  
1.82994508743  0.544759988785  -1.66790699959  -0.939318597317  -0.253156840801  0.23638138175  -0.373635083437  
1.83800196648  0.448362112045  -1.68808329105  -0.970703959465  -0.244006589055  -0.250106751919  0.207405596972  
1.84612393379  0.459571152925  -1.96606791019  -1.01554012299  -0.239431470633  0.176904782653  -0.0549014806747  
1.85434293747  0.423702180386  -1.54684925079  -1.07158541679  -0.269932299852  -0.344659298658  -0.224181056023  
1.86246299744  0.508890986443  -1.7217104435  -1.1253888607  -0.276032447815  0.231806263328  0.338559150696  
1.87053489685  0.466296583414  -1.86070275307  -1.15677428246  -0.244006589055  -0.245531633496  -0.378210216761  
1.87856698036  0.504407346249  -1.63427984715  -1.22402858734  -0.216555848718  -0.00915024708956  0.305008232594  
1.88675403595  0.504407346249  -1.62307083607  -1.23075401783  -0.160129323602  0.0625266879797  -0.199780389667  
1.89478588104  0.508890986443  -1.85397732258  -1.27783203125  -0.143353864551  -0.343134254217  0.0579515658319  
1.90290307999  0.470780223608  -1.63876354694  -1.39664793015  -0.134203627706  0.262307077646  0.157079234719  
1.91098499298  0.585112571716  -1.73516142368  -1.39216434956  -0.140303790569  -0.411761105061  -0.25163179636  
1.91912508011  0.589596152306  -1.73516142368  -1.34284448624  -0.123528338969  0.201305434108  0.410236090422  
1.92720508575  0.455087542534  -1.84725189209  -1.43700051308  -0.0777771025896  -0.248581707478  -0.271457344294  
1.93524599075  0.553727209568  -1.88312089443  -1.49977123737  -0.0884523913264  -0.0503263585269  0.387360453606  
1.94337797165  0.733072042465  -1.82931745052  -1.45045137405  -0.0777771025896  0.100652717054  -0.0762520581484  
1.95144891739  0.529067277908  -1.6051363945  -1.46614408493  -0.0915024727583  -0.362959802151  0.149454042315  
1.95959711075  0.466296583414  -1.80017387867  -1.43475878239  -0.0472762770951  0.22113096714  0.106752879918  
1.96768188477  0.656850516796  -1.75982129574  -1.4840785265  -0.0228756181896  -0.332458972931  -0.0274507403374  
1.97580194473  0.697203099728  -1.57375097275  -1.62755441666  -0.0533764399588  0.0518513992429  0.283657670021  
1.98385310173  0.423702180386  -1.60737812519  -1.59841096401  -0.143353864551  -0.0762520581484  -0.0503263585269  
1.99195098877  0.535792708397  -1.69032514095  -1.47959494591  0.0533764399588  -0.201305434108  0.274507403374  
2.00010108948  0.63667422533  -1.70825958252  -1.58720183372  -0.239431470633  0.135728672147  -0.0610016472638  
2.00821208954  0.580628931522  -1.75309586525  -1.63876354694  0.097602635622  -0.44226193428  0.352284520864  
2.01630806923  0.535792708397  -1.76430487633  -1.67239069939  -0.269932299852  0.183004945517  -0.00915024708956  
2.02435207367  0.5940797925  -1.82259202003  -1.67911612988  0.196730315685  -0.413286149502  0.460562437773  
2.03251600266  0.558210849762  -1.87191176414  -1.47511136532  -0.181479901075  -0.0838772654533  -0.0167754534632  
2.04062509537  0.540276348591  -1.68584156036  -1.64100527763  -0.0686268508434  -0.373635083437  0.55206489563  
2.04870891571  0.555968999863  -1.67239069939  -1.663423419  0.0610016472638  -0.0777771025896  0.0579515658319  
2.05674695969  0.493198335171  -1.71946871281  -1.67014884949  -0.353809565306  -0.373635083437  0.155554205179  
2.06488895416  0.497681945562  -1.67687427998  -1.60961997509  0.289757817984  -0.131153538823  0.446837067604  
2.07299900055  0.490956515074  -1.67014884949  -1.57599282265  -0.321783691645  -0.332458972931  -0.0854023098946  
2.08108091354  0.399042278528  -1.69032514095  -1.6028945446  0.263832122087  -0.22113096714  0.556640028954  
2.08916687965  0.432669430971  -1.70377600193  -1.64773070812  -0.254681885242  -0.318733602762  0.0838772654533  
2.09730005264  0.381107807159  -1.71498501301  -1.64100527763  0.0213505774736  -0.211980730295  0.0930275097489  
2.10549688339  0.322820723057  -1.70601785183  -1.6028945446  0.147928997874  -0.283657670021  0.455987304449  
2.11345911026  0.32057890296  -1.73067772388  -1.58047640324  -0.367534935474  -0.233331307769  -0.175379738212  
2.12152695656  0.28470993042  -1.73740315437  -1.62307083607  0.303483188152  -0.417861282825  0.466662615538  
2.12965106964  0.226422861218  -1.74637043476  -1.60737812519  -0.384310364723  -0.186055019498  -0.0122003294528  
2.13769602776  0.217455625534  -1.75085401535  -1.56926739216  0.0137253701687  -0.396510720253  0.125053375959  
2.14577293396  0.143475875258  -1.71722686291  -1.58047640324  0.102177761495  -0.0747270211577  0.308058321476  
2.15384793282  0.168135792017  -1.67687427998  -1.47511136532  -0.344659298658  -0.309583365917  -0.186055019498  
2.16192102432  0.103123284876  -1.65893983841  -1.47286951542  0.285182714462  -0.00610016472638  0.45751234889  
2.17003107071  0.112090528011  -1.67687427998  -1.44372594357  -0.404135912657  -0.183004945517  -0.285182714462  
2.17816209793  0.10088147223  -1.71498501301  -1.44596779346  0.108277924359  0.0396510697901  0.201305434108  
2.18641400337  -0.00224181055091  -1.71050143242  -1.3675044775  -0.056426525116  -0.140303790569  0.149454042315  
2.1945309639  0.0470780208707  -1.69480872154  -1.24420487881  -0.263832122087  0.0579515658319  -0.292807906866  
2.20254707336  -0.0313853472471  -1.70377600193  -1.26438117027  0.3461843431  -0.0198255348951  0.324833780527  
2.21061301231  0.0605288855731  -1.71722686291  -1.12090528011  -0.425486475229  -0.0747270211577  -0.265357166529  
2.21871900558  -0.00672543141991  -1.65669798851  -1.14556515217  0.213505759835  0.0503263585269  0.277557492256  
2.22682905197  -0.00448362110183  -1.65221440792  -1.05589282513  -0.179954856634  -0.179954856634  -0.0259256996214  
2.23490309715  -0.0403525903821  -1.67014884949  -0.984154820442  -0.0259256996214  0.0762520581484  -0.26688221097  
2.24302196503  -0.0156926736236  -1.65893983841  -1.07158541679  -0.42396146059  0.0945525541902  -0.323308736086  
2.25101089478  -0.0896724238992  -1.66790699959  -0.885515153408  0.305008232594  -0.263832122087  0.215030804276  
2.25918602943  -0.0179344844073  -1.67014884949  -0.896724224091  -0.352284520864  0.0472762770951  0.00305008236319  
2.26717209816  -0.00448362110183  -1.64548897743  -0.96846216917  0.0869273468852  -0.195205271244  -0.324833780527  
2.27524590492  0.0627706944942  -1.68135786057  -0.92586773634  0.00762520590797  -0.00152504118159  0.333984017372  
2.28347396851  0.0403525903821  -1.68584156036  -0.818260848522  -0.219605922699  -0.0915024727583  -0.402610868216  
2.29149198532  0.138992249966  -1.67239069939  -0.836195349693  0.28213262558  -0.163179412484  0.237906426191  
2.29954099655  0.105365097523  -1.68584156036  -0.827228069305  -0.483438044786  0.0915024727583  -0.00457512354478  
2.30765604973  0.159168556333  -1.61634540558  -0.840678930283  0.202830478549  -0.298908084631  -0.326358824968  
2.31570196152  0.181586652994  -1.63652169704  -0.85412979126  -0.324833780527  0.115903131664  0.326358824968  
2.32377290726  0.195037513971  -1.64997255802  -0.820502638817  0.0640517324209  -0.401085823774  -0.367534935474  
2.33184504509  0.298160791397  -1.64773070812  -0.811535418034  -0.0213505774736  0.0640517324209  0.00152504118159  
2.33996510506  0.28470993042  -1.64324712753  -0.863097071648  -0.227231130004  -0.283657670021  0.172329649329  
2.34803295135  0.271259069443  -1.63203811646  -0.85412979126  0.256206929684  -0.149454042315  -0.369059979916  
2.35613393784  0.369898736477  -1.65445613861  -0.87430614233  -0.446837067604  -0.0381260290742  0.286707729101  
2.36430191994  0.369898736477  -1.65221440792  -0.851888000965  0.257731974125  -0.350759476423  -0.262307077646  
2.37249302864  0.408009529114  -1.65669798851  -0.753248333931  -0.303483188152  0.140303790569  -0.0549014806747  
2.38055610657  0.385591417551  -1.663423419  -0.842920780182  0.134203627706  -0.475812852383  0.134203627706  
2.3886089325  0.358689695597  -1.6656652689  -0.881031572819  -0.167754530907  0.111328005791  -0.449887156487  
2.39667201042  0.423702180386  -1.6656652689  -0.883273363113  -0.0671018138528  -0.430061608553  0.314158469439  
2.40474700928  0.410251319408  -1.68584156036  -0.708412110806  0.147928997874  -0.131153538823  -0.256206929684  
2.41287207603  0.515616416931  -1.66790699959  -0.829469919205  -0.366009891033  -0.0122003294528  -0.056426525116  
2.42099690437  0.529067277908  -1.64997255802  -1.01778197289  0.291282862425  -0.434636741877  0.219605922699  
2.4290060997  0.576145291328  -1.663423419  -0.840678930283  -0.4727627635  0.117428168654  -0.44226193428  
2.43711400032  0.526825487614  -1.6656652689  -0.842920780182  0.181479901075  -0.549014806747  0.30043309927  
2.44523191452  0.573903501034  -1.67687427998  -0.701686680317  -0.274507403374  -0.0869273468852  -0.166229486465  
2.45351600647  0.580628931522  -1.67911612988  -0.948285877705  0.0244006589055  -0.15860427916  -0.216555848718  
2.46144104004  0.726346611977  -1.67687427998  -0.948285877705  -0.0549014806747  -0.437686830759  0.384310364723  
2.46951794624  0.721862971783  -1.663423419  -0.771182835102  -0.192155182362  0.112853050232  -0.352284520864  
2.47761106491  0.777908265591  -1.67463243008  -0.591838002205  0.18910510838  -0.585615813732  0.169279575348  
2.48573207855  0.829469919205  -1.663423419  -0.948285877705  -0.434636741877  -0.0167754534632  -0.0350759476423  
2.4938659668  0.708412110806  -1.66790699959  -0.780150055885  0.263832122087  -0.172329649329  -0.362959802151  
2.50198602676  0.795842766762  -1.67463243008  -0.838437139988  -0.399560779333  -0.462087482214  0.263832122087  
2.51008009911  0.724104821682  -1.67014884949  -0.775666475296  0.0854023098946  0.192155182362  -0.289757817984  
2.51822805405  0.883273363113  -1.663423419  -0.737555682659  -0.109802961349  -0.526139199734  -0.0533764399588  
2.52642893791  0.764457404613  -1.6611815691  -0.883273363113  -0.219605922699  -0.157079234719  0.166229486465  
2.53446602821  0.92138415575  -1.64100527763  -0.744281113148  0.108277924359  0.0274507403374  -0.436161786318  
2.54258608818  0.816019058228  -1.68359971046  -0.916900515556  -0.44226193428  -0.545964717865  0.276032447815  
2.55063891411  0.858613431454  -1.6656652689  -0.766699194908  0.244006589055  0.106752879918  -0.184529989958  
2.55869197845  0.824986279011  -1.66790699959  -0.829469919205  -0.42396146059  -0.463612526655  -0.147928997874  
2.56681609154  0.887757003307  -1.73291957378  -0.847404360771  0.0259256996214  -0.0716769322753  0.272982358932  
2.57489490509  0.885515153408  -1.69929242134  -0.863097071648  -0.157079234719  -0.0701518952847  -0.498688459396  
2.58296704292  0.824986279011  -1.68135786057  -0.831711709499  -0.245531633496  -0.602391242981  0.247056677938  
2.59111809731  0.905691444874  -1.69032514095  -0.782391905785  0.146403953433  0.160129323602  -0.160129323602  
2.59915590286  0.800326347351  -1.70825958252  -0.84964621067  -0.471237719059  -0.542914688587  -0.207405596972  
2.60728001595  0.851888000965  -1.73291957378  -0.80705177784  0.222656011581  -0.120478250086  0.294332951307  
2.61547207832  0.766699194908  -1.7217104435  -0.829469919205  -0.42396146059  -0.0579515658319  -0.410236090422  
2.62348508835  0.775666475296  -1.71274328232  -0.75997376442  0.0686268508434  -0.425486475229  0.120478250086  
2.63151907921  0.798084557056  -1.7217104435  -0.739797472954  -0.126578420401  0.161654368043  0.0228756181896  
2.63963198662  0.728588402271  -1.71274328232  -0.795842766762  -0.257731974125  -0.556640028954  -0.352284520864  
2.64773201942  0.753248333931  -1.68135786057  -0.717379391193  0.140303790569  0.106752879918  0.372110038996  
2.6558470726  0.674784958363  -1.73291957378  -0.811535418034  -0.454462260008  -0.399560779333  -0.422436416149  
2.66395902634  0.737555682659  -1.69705057144  -0.717379391193  0.211980730295  -0.0854023098946  0.0457512363791  
2.67206501961  0.647883236408  -1.69032514095  -0.789117336273  -0.388885498047  -0.106752879918  -0.3126334548  
2.68014502525  0.665817737579  -1.69705057144  -0.706170320511  0.0442261956632  -0.352284520864  0.286707729101  
2.68830490112  0.61649787426  -1.69256699085  -0.744281113148  -0.106752879918  0.227231130004  -0.332458972931  
2.69653701782  0.672543168068  -1.69480872154  -0.775666475296  -0.257731974125  -0.518513977528  0.0701518952847  
2.70450496674  0.551485419273  -1.69032514095  -0.721862971783  0.272982358932  0.140303790569  0.0289757829159  
2.71259593964  0.627706944942  -1.71274328232  -0.842920780182  -0.481913000345  -0.286707729101  -0.308058321476  
2.72069501877  0.564936280251  -1.68135786057  -0.679268598557  0.272982358932  -0.140303790569  0.341609239578  
2.7288210392  0.567178070545  -1.71498501301  -0.838437139988  -0.276032447815  0.100652717054  -0.396510720253  
2.73689389229  0.564936280251  -1.7261941433  -0.85412979126  0.0305008236319  -0.436161786318  0.0259256996214  
2.7449901104  0.51785826683  -1.71498501301  -0.784633696079  0.0244006589055  0.224181056023  0.147928997874  
2.75309205055  0.495440125465  -1.69256699085  -0.712895750999  -0.279082536697  -0.384310364723  -0.378210216761  
2.76119589806  0.499923765659  -1.71498501301  -0.699444890022  0.253156840801  -0.0183004941791  0.298908084631  
2.76926398277  0.468538403511  -1.69929242134  -0.84964621067  -0.402610868216  0.0762520581484  -0.455987304449  
2.77744293213  0.506649196148  -1.70377600193  -0.836195349693  0.222656011581  -0.430061608553  0.122003294528  
2.78550505638  0.399042278528  -1.73291957378  -0.901207864285  -0.283657670021  0.292807906866  0.0610016472638  
2.79360389709  0.387833237648  -1.71946871281  -0.786875486374  -0.0503263585269  -0.382785350084  -0.378210216761  
2.80166602135  0.381107807159  -1.71722686291  -0.842920780182  0.0350759476423  -0.00305008236319  0.318733602762  
2.80976200104  0.481989264488  -1.71722686291  -0.820502638817  -0.347709387541  0.097602635622  -0.376685172319  
2.81786394119  0.490956515074  -1.68584156036  -0.762215614319  0.276032447815  -0.440736889839  0.0579515658319  
2.82598090172  0.39231684804  -1.70153415203  -0.816019058228  -0.398035734892  0.285182714462  0.0198255348951  
2.83413696289  0.347480624914  -1.69705057144  -0.856371641159  0.193680226803  -0.375160127878  -0.355334609747  
2.84225797653  0.204004764557  -1.70153415203  -0.901207864285  -0.176904782653  0.0411761105061  0.332458972931  
2.85052108765  0.145717680454  -1.69929242134  -0.872064292431  -0.0655767694116  -0.0122003294528  -0.320258647203  
2.8585319519  0.0963978543878  -1.70601785183  -0.907933294773  -0.0396510697901  -0.311108410358  0.0457512363791  
2.8666510582  0.0448362119496  -1.69929242134  -0.97294574976  -0.149454042315  0.358384668827  0.097602635622  
2.87474489212  0.0784633681178  -1.70825958252  -0.979671239853  0.166229486465  -0.451412200928  -0.375160127878  
2.88289308548  0.0291435364634  -1.70377600193  -1.07606911659  -0.320258647203  0.128103464842  0.294332951307  
2.891051054  -0.10088147223  -1.69256699085  -1.05589282513  -0.378210216761  -0.28213262558  0.0625266879797  
2.89912891388  -0.226422861218  -1.70153415203  -1.09400355816  0.242481544614  0.332458972931  -0.303483188152  
2.90717101097  -0.0179344844073  -1.70825958252  -1.20161044598  -0.183004945517  -0.370584994555  0.356859624386  
2.91520309448  -0.0762215554714  -1.71050143242  -1.19936859608  -0.122003294528  0.170804619789  -0.308058321476  
2.92328000069  -0.217455625534  -1.71050143242  -1.18143415451  0.208930641413  -0.132678583264  -0.0198255348951  
2.9314789772  -0.132266819477  -1.69705057144  -1.28455746174  -0.33093392849  -0.309583365917  0.122003294528  
2.93948602676  -0.257808208466  -1.69929242134  -1.2464466095  0.306533277035  0.292807906866  -0.385835409164  
2.94756889343  -0.349722445011  -1.70601785183  -1.2486884594  -0.356859624386  -0.433111697435  0.370584994555  
2.95563101768  -0.230906486511  -1.69480872154  -1.38768076897  0.122003294528  0.0732019767165  -0.405660957098  
2.96373605728  -0.19055390358  -1.73067772388  -1.37871348858  -0.0198255348951  0.00915024708956  0.0137253701687  
2.97181010246  -0.186070278287  -1.69705057144  -1.41009879112  -0.250106751919  -0.416336238384  0.164704442024  
2.97994494438  -0.340755194426  -1.69480872154  -1.28904104233  0.231806263328  0.324833780527  -0.459037393332  
2.98806095123  -0.244357347488  -1.69705057144  -1.41009879112  -0.431586652994  -0.477337896824  0.337034106255  
2.99617409706  -0.224181056023  -1.71946871281  -1.54909110069  0.285182714462  0.164704442024  -0.245531633496  
3.00427794456  -0.416976749897  -1.70825958252  -1.4280333519  -0.248581707478  -0.269932299852  -0.0167754534632  
3.01251196861  -0.26229184866  -1.70825958252  -1.47511136532  -0.0472762770951  -0.183004945517  0.179954856634  
3.02061796188  -0.127783194184  -1.71274328232  -1.4840785265  0.0335509069264  0.225706100464  -0.379735261202  
3.0287001133  -0.3564478755  -1.69929242134  -1.45493507385  -0.289757817984  -0.452937245369  0.352284520864  
3.03680992126  -0.289193570614  -1.71274328232  -1.55581653118  0.262307077646  0.176904782653  -0.362959802151  
3.04493188858  -0.217455625534  -1.70601785183  -1.67911612988  -0.422436416149  -0.324833780527  0.0457512363791  
3.0530090332  -0.269017279148  -1.71050143242  -1.44372594357  0.253156840801  0.00915024708956  0.114378087223  
3.06114292145  -0.421460390091  -1.7239522934  -1.49977123737  -0.123528338969  0.118953213096  -0.31568351388  
3.06925797462  -0.246599167585  -1.71498501301  -1.56030011177  -0.218080893159  -0.343134254217  0.333984017372  
3.07733106613  -0.204004764557  -1.71274328232  -1.67239069939  0.242481544614  0.253156840801  -0.353809565306  
3.08549594879  -0.282468140125  -1.7239522934  -1.58496010303  -0.416336238384  -0.416336238384  0.0808271840215  
3.0935549736  -0.390075027943  -1.71722686291  -1.36077904701  0.272982358932  0.192155182362  0.0610016472638  
3.10165095329  -0.150201305747  -1.72843599319  -1.50873851776  -0.343134254217  0.0503263585269  -0.25163179636  
3.10975599289  -0.293677181005  -1.68808329105  -1.58720183372  0.0960775911808  -0.228756174445  0.375160127878  
3.1178560257  -0.318337112665  -1.71498501301  -1.71722686291  0.0305008236319  0.314158469439  -0.413286149502  
3.12595295906  -0.253324598074  -1.70825958252  -1.51770579815  -0.250106751919  -0.381260305643  0.146403953433  
3.1340379715  -0.349722445011  -1.71274328232  -1.56030011177  0.265357166529  0.18910510838  -0.0137253701687  
3.14213609695  -0.293677181005  -1.71274328232  -1.61186182499  -0.388885498047  -0.0808271840215  -0.244006589055  
3.15026688576  -0.293677181005  -1.71050143242  -1.62082898617  0.224181056023  -0.0716769322753  0.337034106255  
3.15844202042  -0.248840972781  -1.71274328232  -1.68584156036  -0.239431470633  0.152504116297  -0.355334609747  
3.16648101807  -0.275742709637  -1.70601785183  -1.67014884949  -0.0625266879797  -0.0396510697901  0.256206929684  
3.17457008362  -0.282468140125  -1.70825958252  -1.62531268597  0.164704442024  -0.048801317811  -0.118953213096  
3.1826338768  -0.351964265108  -1.72843599319  -1.53339838982  -0.378210216761  -0.0579515658319  -0.184529989958  
3.19073295593  -0.269017279148  -1.7217104435  -1.59616911411  0.25163179636  -0.190630152822  0.3461843431  
3.19881796837  -0.253324598074  -1.69929242134  -1.62082898617  -0.402610868216  0.00305008236319  -0.347709387541  
3.20693588257  -0.239873722196  -1.70825958252  -1.65221440792  0.222656011581  -0.216555848718  0.276032447815  
3.21508097649  -0.235390111804  -1.70601785183  -1.61634540558  -0.227231130004  -0.0137253701687  -0.0335509069264  
3.22315001488  -0.255566388369  -1.71050143242  -1.58271825314  -0.109802961349  -0.154029160738  -0.23638138175  
3.23140192032  -0.264533638954  -1.71050143242  -1.56702554226  0.181479901075  -0.213505759835  0.321783691645  
3.23948502541  -0.186070278287  -1.71498501301  -1.56254196167  -0.353809565306  -0.218080893159  -0.393460631371  
3.24754691124  -0.215213805437  -1.71050143242  -1.52443122864  0.256206929684  -0.179954856634  0.349234431982  
3.25563192368  -0.208488374949  -1.71722686291  -1.51770579815  -0.388885498047  -0.280607581139  -0.122003294528  
3.26372909546  -0.215213805437  -1.70601785183  -1.41906607151  0.120478250086  -0.169279575348  -0.164704442024  
3.27182793617  -0.206246569753  -1.71274328232  -1.44148421288  -0.0884523913264  -0.213505759835  0.326358824968  
3.27994990349  -0.210730195045  -1.7217104435  -1.44596779346  -0.192155182362  -0.309583365917  -0.431586652994  
3.28801393509  -0.188312083483  -1.71498501301  -1.46390223503  0.190630152822  -0.144878908992  0.311108410358  
3.29616189003  -0.20176294446  -1.71050143242  -1.40337336063  -0.416336238384  -0.314158469439  -0.0823522210121  
3.3042318821  -0.195037513971  -1.73067772388  -1.47286951542  0.247056677938  -0.0869273468852  -0.201305434108  
3.31232500076  -0.123299583793  -1.69705057144  -1.43251693249  -0.385835409164  -0.396510720253  0.343134254217  
3.32039308548  -0.145717680454  -1.71274328232  -1.45493507385  0.0244006589055  0.00152504118159  -0.373635083437  
3.32849907875  -0.138992249966  -1.73291957378  -1.45269322395  -0.0350759476423  -0.53376442194  0.269932299852  
3.336591959  -0.147959500551  -1.71946871281  -1.46390223503  -0.358384668827  0.106752879918  -0.122003294528  
3.34470009804  -0.141234070063  -1.70825958252  -1.40113162994  0.178429812193  -0.388885498047  -0.207405596972  
3.35278511047  -0.147959500551  -1.70825958252  -1.44596779346  -0.430061608553  -0.170804619789  0.33093392849  
3.36092305183  -0.161410361528  -1.70601785183  -1.47735309601  0.163179412484  -0.0854023098946  -0.399560779333  
3.36897706985  -0.067254319787  -1.71274328232  -1.49304580688  -0.269932299852  -0.51546394825  0.134203627706  
3.37713193893  -0.0874306112528  -1.71946871281  -1.49080395699  -0.122003294528  0.17385469377  0.0167754534632  
3.38521790504  -0.0986396670341  -1.70153415203  -1.49528765678  0.0640517324209  -0.471237719059  -0.292807906866  
3.39327597618  -0.0717379376292  -1.70601785183  -1.49304580688  -0.411761105061  -0.144878908992  0.337034106255  
3.40136694908  -0.0650125071406  -1.70377600193  -1.51994752884  0.178429812193  -0.111328005791  -0.289757817984  
3.4095749855  -0.067254319787  -1.71722686291  -1.49528765678  -0.428536564112  -0.48801317811  -0.0122003294528  
3.41759204865  -0.0717379376292  -1.71050143242  -1.52443122864  0.118953213096  0.163179412484  0.199780389667  
3.42565488815  -0.0560452640057  -1.71946871281  -1.50649666786  -0.233331307769  -0.565790295601  -0.433111697435  
3.43377590179  -0.0582870729268  -1.71050143242  -1.51098036766  -0.181479901075  -0.0945525541902  0.3461843431  
3.44185709953  0.0269017256796  -1.70601785183  -1.51098036766  0.048801317811  -0.163179412484  -0.202830478549  
3.44999504089  -0.0358689688146  -1.71274328232  -1.52667295933  -0.321783691645  -0.497163414955  -0.193680226803  
3.45811390877  -0.0269017256796  -1.70825958252  -1.51546394825  0.115903131664  0.167754530907  0.286707729101  
3.46621203423  0.00672543141991  -1.71498501301  -1.52443122864  -0.388885498047  -0.620691776276  -0.413286149502  
3.47442388535  -0.00448362110183  -1.71722686291  -1.52218937874  0.210455685854  -0.0396510697901  0.0777771025896  
3.48251700401  0.00672543141991  -1.71498501301  -1.5423656702  -0.411761105061  -0.231806263328  -0.350759476423  
3.49046397209  0.00224181055091  -1.71050143242  -1.51098036766  0.00915024708956  -0.369059979916  0.353809565306  
3.49854898453  -0.00448362110183  -1.71498501301  -1.4840785265  -0.0838772654533  0.114378087223  -0.350759476423  
3.50662994385  0.00672543141991  -1.71274328232  -1.45717680454  -0.253156840801  -0.61306655407  0.146403953433  
3.51474189758  0.00672543141991  -1.70825958252  -1.43700051308  0.152504116297  0.0198255348951  0.00610016472638  
3.52281498909  0.00896724220365  -1.71274328232  -1.40561521053  -0.347709387541  -0.22113096714  -0.29738304019  
3.53089904785  0.00672543141991  -1.71946871281  -1.34284448624  0.0747270211577  -0.359909713268  0.318733602762  
3.53900408745  0.0134508628398  -1.70601785183  -1.28904104233  0.0533764399588  -0.687793552876  0.0884523913264  
3.54706192017  0.00896724220365  -1.73067772388  -1.27110660076  -0.471237719059  0.00610016472638  0.123528338969  
3.55512404442  0.0179344844073  -1.69705057144  -1.17470872402  0.00915024708956  -0.323308736086  -0.419386327267  
3.56318688393  -0.0269017256796  -1.71050143242  -1.19488501549  -0.484963089228  -0.396510720253  0.413286149502  
3.5713789463  0.0246599167585  -1.71946871281  -1.16798329353  -0.0793021395802  0.0655767694116  -0.295857995749  
3.57937002182  0.0358689688146  -1.71050143242  -1.09176170826  -0.501738548279  -0.512413859367  -0.0930275097489  
3.58745408058  0.0179344844073  -1.71498501301  -1.11642169952  -0.131153538823  0.00305008236319  0.277557492256  
3.59549498558  0.0336271598935  -1.71050143242  -1.15901601315  -0.523089110851  -0.523089110851  -0.414811193943  
3.60351395607  0.0336271598935  -1.71050143242  -1.13659799099  -0.112853050232  -0.147928997874  0.233331307769  
3.61162090302  0.0358689688146  -1.7217104435  -1.0693436861  -0.468187630177  -0.20588055253  -0.132678583264  
3.61971497536  0.0313853472471  -1.71050143242  -1.08727812767  -0.20435552299  -0.405660957098  -0.170804619789  
3.62779808044  0.0470780208707  -1.71050143242  -1.03347468376  -0.237906426191  0.100652717054  0.277557492256  
3.63589811325  0.0336271598935  -1.71946871281  -0.955011308193  -0.385835409164  -0.637467205524  -0.417861282825  
3.64402699471  0.0156926736236  -1.70825958252  -1.10745441914  -0.0762520581484  0.0823522210121  0.309583365917  
3.65215396881  0.0403525903821  -1.70825958252  -1.19264316559  -0.58256572485  -0.30043309927  -0.138778746128  
3.66025710106  0.0403525903821  -1.71274328232  -1.04020011425  -0.0305008236319  -0.279082536697  -0.22113096714  
3.6683139801  0.0291435364634  -1.71274328232  -1.02002382278  -0.611541509628  0.0442261956632  0.31568351388  
3.67646789551  0.0269017256796  -1.71274328232  -0.99312210083  -0.0518513992429  -0.501738548279  -0.419386327267  
3.68450903893  0.0336271598935  -1.71722686291  -0.986396670341  -0.680168390274  0.152504116297  0.20435552299  
3.69258904457  0.0224181059748  -1.71498501301  -0.923625946045  -0.118953213096  -0.536814510822  0.00610016472638  
3.70067811012  0.0358689688146  -1.71274328232  -1.02674925327  -0.625266909599  -0.00152504118159  -0.381260305643  
3.70878911018  -0.00672543141991  -1.73291957378  -1.04468369484  -0.128103464842  -0.125053375959  0.405660957098  
3.71686506271  -0.0269017256796  -1.69929242134  -1.03123283386  -0.443786978722  -0.129628494382  -0.332458972931  
3.7249751091  -0.147959500551  -1.71498501301  -1.00208926201  -0.326358824968  -0.0411761105061  0.0457512363791  
3.73311805725  -0.105365097523  -1.6656652689  -0.99312210083  -0.137253701687  -0.407186001539  0.146403953433  
3.74134588242  -0.170377597213  -1.62082898617  -1.06037640572  -0.561215162277  0.233331307769  -0.369059979916  
3.74942207336  -0.195037513971  -1.51322209835  -1.19488501549  -0.0442261956632  -0.443786978722  0.311108410358  
3.7574660778  -0.286951750517  -1.5401238203  -1.23747944832  -0.678643345833  0.193680226803  -0.288232773542  
3.76545405388  -0.298160791397  -1.49752950668  -1.25317203999  -0.0396510697901  -0.147928997874  -0.0472762770951  
3.7735440731  -0.34523883462  -1.45269322395  -1.38319706917  -0.504788637161  -0.227231130004  0.26688221097  
3.78163409233  -0.244357347488  -1.36077904701  -1.34508633614  -0.23638138175  0.309583365917  -0.420911371708  
3.78973197937  -0.233148291707  -1.40113162994  -1.34284448624  -0.195205271244  -0.446837067604  0.326358824968  
3.79779696465  -0.338513404131  -1.29576647282  -1.46390223503  -0.347709387541  0.237906426191  -0.135728672147  
3.80591106415  -0.313853472471  -1.33387732506  -1.50425493717  -0.114378087223  -0.25163179636  -0.178429812193  
3.81405210495  -0.410251319408  -1.35181176662  -1.5446075201  -0.288232773542  -0.211980730295  0.291282862425  
3.82215809822  -0.32057890296  -1.25989747047  -1.52443122864  -0.219605922699  0.105227842927  -0.384310364723  
3.83024692535  -0.325062543154  -1.2509303093  -1.51770579815  -0.355334609747  -0.437686830759  0.138778746128  
3.83842110634  -0.264533638954  -1.19264316559  -1.49080395699  -0.0457512363791  0.248581707478  0.00762520590797  
3.84646606445  -0.266775459051  -1.19712686539  -1.64548897743  -0.495638370514  -0.373635083437  -0.324833780527  
3.85450792313  -0.280226320028  -1.1904014349  -1.72843599319  0.00152504118159  0.129628494382  0.364484846592  
3.86256504059  -0.369898736477  -1.29352474213  -1.58496010303  -0.437686830759  -0.186055019498  -0.350759476423  
3.87063193321  -0.416976749897  -1.22627031803  -1.49752950668  -0.0152504118159  -0.175379738212  0.00152504118159  
3.8787560463  -0.340755194426  -1.17022514343  -1.70377600193  -0.420911371708  -0.0701518952847  -0.111328005791  
3.88682389259  -0.170377597213  -1.17919230461  -1.81586658955  0.0259256996214  -0.359909713268  0.102177761495  
3.89489102364  -0.390075027943  -1.13883972168  -1.67014884949  -0.446837067604  0.0671018138528  -0.126578420401  
3.90298604965  -0.199521139264  -1.14780700207  -1.50649666786  0.0533764399588  -0.343134254217  -0.20588055253  
3.91113209724  -0.150201305747  -1.10521256924  -1.69929242134  -0.385835409164  -0.0503263585269  0.295857995749  
3.91917610168  -0.34523883462  -1.15901601315  -1.87415361404  0.056426525116  -0.097602635622  -0.454462260008  
3.92725396156  -0.430427610874  -1.18367600441  -1.75757944584  -0.388885498047  -0.0244006589055  0.254681885242  
3.93544793129  -0.15468493104  -1.16349971294  -1.62082898617  0.0579515658319  0.109802961349  -0.097602635622  
3.94351196289  -0.246599167585  -1.14780700207  -1.64548897743  -0.45751234889  -0.0411761105061  -0.279082536697  
3.95157909393  -0.347480624914  -1.14780700207  -1.81138288975  -0.00762520590797  0.152504116297  0.3126334548  
3.95968198776  -0.300402611494  -1.06037640572  -1.80689930916  -0.443786978722  0.0411761105061  -0.385835409164  
3.96776795387  -0.0829469934106  -1.2464466095  -1.7799975872  0.0350759476423  0.193680226803  0.0594766065478  
3.97585010529  -0.30936986208  -1.25541388988  -1.59841096401  -0.352284520864  0.144878908992  0.120478250086  
3.98398804665  -0.425944000483  -1.13211429119  -1.69705057144  -0.0686268508434  0.178429812193  -0.474287807941  
3.99210500717  0.0381107777357  -1.07382726669  -1.71946871281  -0.369059979916  0.262307077646  0.370584994555  
4.00019001961  -0.152443110943  -1.25317203999  -1.85846090317  -0.138778746128  0.193680226803  -0.218080893159  
4.0083899498  -0.327304333448  -1.29576647282  -1.81138288975  -0.384310364723  0.301958143711  -0.134203627706  
4.01652193069  -0.141234070063  -1.25541388988  -1.63876354694  -0.169279575348  0.157079234719  0.28213262558  
4.0245718956  0.0313853472471  -1.1298725605  -1.62755441666  -0.359909713268  0.28213262558  -0.434636741877  
4.03266501427  -0.338513404131  -1.13211429119  -1.7777557373  -0.213505759835  0.0884523913264  0.272982358932  
4.04076504707  -0.0784633681178  -1.15004885197  -1.75982129574  -0.332458972931  0.234856337309  -0.137253701687  
4.04880809784  -0.0156926736236  -1.07158541679  -1.78448116779  -0.407186001539  0.0259256996214  -0.231806263328  
4.05690097809  -0.114332340658  -1.1276307106  -1.76654672623  -0.271457344294  0.184529989958  0.323308736086  
4.06501197815  -0.163652166724  -1.14556515217  -1.77327215672  -0.504788637161  -0.0396510697901  -0.428536564112  
4.07309508324  -0.244357347488  -1.17470872402  -1.75309586525  -0.274507403374  0.117428168654  0.144878908992  
4.08122110367  -0.192795708776  -1.1904014349  -1.75309586525  -0.394985675812  -0.0244006589055  -0.0777771025896  
4.08945989609  -0.138992249966  -1.19264316559  -1.76430487633  -0.295857995749  0.0549014806747  -0.341609239578  
4.09749889374  -0.145717680454  -1.19488501549  -1.75757944584  -0.356859624386  0.0701518952847  0.3126334548  
4.1055328846  -0.114332340658  -1.1859177351  -1.75982129574  -0.507838726044  -0.0122003294528  -0.417861282825  
4.11366295815  -0.143475875258  -1.14108157158  -1.76878857613  -0.254681885242  0.0640517324209  0.0640517324209  
4.12174797058  -0.125541388988  -1.188159585  -1.77103030682  -0.524614155293  0.0869273468852  0.0701518952847  
4.12984108925  -0.165893986821  -1.18367600441  -1.76430487633  -0.213505759835  -0.0671018138528  -0.370584994555  
4.13796305656  -0.230906486511  -1.13883972168  -1.77327215672  -0.512413859367  0.100652717054  0.33093392849  
4.14609193802  -0.282468140125  -1.19936859608  -1.77327215672  -0.196730315685  0.102177761495  -0.26688221097  
4.15422010422  0.00224181055091  -1.19712686539  -1.78896486759  -0.430061608553  -0.250106751919  -0.0549014806747  
4.16232299805  -0.0381107777357  -1.1904014349  -1.7822394371  -0.215030804276  0.378210216761  0.201305434108  
4.17044496536  -0.331787973642  -1.17919230461  -1.79569029808  -0.329408884048  -0.196730315685  -0.471237719059  
4.17852687836  -0.0358689688146  -1.19488501549  -1.79120659828  -0.452937245369  0.222656011581  0.3461843431  
4.18660092354  -0.298160791397  -1.19712686539  -1.80465745926  -0.190630152822  0.0213505774736  -0.323308736086  
4.19475603104  -0.130025014281  -1.19712686539  -1.76878857613  -0.305008232594  -0.115903131664  0.0625266879797  
4.20280098915  -0.293677181005  -1.19936859608  -1.70153415203  -0.402610868216  0.381260305643  0.0381260290742  
4.21089100838  -0.159168556333  -1.20385229588  -1.71722686291  -0.169279575348  -0.179954856634  -0.326358824968  
4.21896195412  -0.141234070063  -1.23075401783  -1.7261941433  -0.439211845398  0.320258647203  0.292807906866  
4.22711396217  -0.0156926736236  -1.23075401783  -1.76654672623  -0.558165073395  0.33093392849  0.169279575348  
4.23511099815  -0.150201305747  -1.20833587646  -1.76878857613  0.00305008236319  -0.00457512354478  0.0137253701687  
4.24316692352  -0.394558668137  -1.21506130695  -1.71722686291  -0.513938903809  0.36143475771  -0.327883839607  
4.25131487846  0.0425943993032  -1.23747944832  -1.72843599319  -0.056426525116  0.00152504118159  0.333984017372  
4.25944805145  -0.260050028563  -1.23747944832  -1.6611815691  -0.42396146059  0.349234431982  -0.36143475771  
4.26751303673  -0.204004764557  -1.24420487881  -1.67239069939  -0.123528338969  0.00305008236319  0.0777771025896  
4.27555298805  -0.123299583793  -1.23523759842  -1.67911612988  -0.208930641413  0.430061608553  -0.0289757829159  
4.28365111351  -0.237631917  -1.24420487881  -1.69929242134  -0.213505759835  0.00762520590797  -0.28213262558  
4.29174089432  -0.159168556333  -1.2464466095  -1.67687427998  -0.0228756181896  0.394985675812  0.390410542488  
4.29987001419  -0.0851887986064  -1.23747944832  -1.68584156036  -0.218080893159  0.0427011549473  -0.333984017372  
4.30798101425  -0.316095292568  -1.25317203999  -1.69480872154  0.0  0.469712674618  0.169279575348  
4.31610989571  -0.21969743073  -1.23299574852  -1.69929242134  -0.254681885242  0.140303790569  0.0152504118159  
4.32416200638  -0.165893986821  -1.23075401783  -1.68584156036  0.048801317811  0.00305008236319  -0.341609239578  
4.3323559761  -0.302644431591  -1.23299574852  -1.68135786057  -0.305008232594  0.495638370514  0.33093392849  
4.34046602249  -0.132266819477  -1.22851216793  -1.69705057144  -0.00610016472638  -0.100652717054  -0.436161786318  
4.34849691391  -0.19055390358  -1.23075401783  -1.69480872154  -0.294332951307  0.50326359272  0.109802961349  
4.35660791397  -0.226422861218  -1.23523759842  -1.62755441666  -0.056426525116  0.0396510697901  0.0457512363791  
4.36467289925  -0.331787973642  -1.23075401783  -1.63427984715  -0.335509061813  0.276032447815  -0.381260305643  
4.37275910378  -0.163652166724  -1.23075401783  -1.63652169704  -0.259256988764  0.379735261202  0.3461843431  
4.38088488579  -0.217455625534  -1.22851216793  -1.64100527763  -0.359909713268  -0.179954856634  -0.308058321476  
4.38896608353  -0.210730195045  -1.23972117901  -1.63652169704  -0.340084195137  0.597816169262  -0.0381260290742  
4.39706492424  -0.251082777977  -1.25989747047  -1.63203811646  -0.44226193428  0.134203627706  0.169279575348  
4.40516996384  -0.224181056023  -1.22402858734  -1.62082898617  -0.390410542488  0.0152504118159  -0.381260305643  
4.4132630825  -0.112090528011  -1.20833587646  -1.62307083607  -0.486488133669  0.532239377499  0.294332951307  
4.42138910294  -0.145717680454  -1.23075401783  -1.61186182499  -0.425486475229  -0.123528338969  -0.202830478549  
4.42950391769  -0.230906486511  -1.21730315685  -1.60961997509  -0.478862941265  0.272982358932  -0.154029160738  
4.43752288818  -0.221939250827  -1.23747944832  -1.62082898617  -0.401085823774  0.333984017372  0.283657670021  
4.44559407234  -0.0963978543878  -1.21281945705  -1.61410355568  -0.379735261202  -0.176904782653  -0.385835409164  
4.45365309715  -0.123299583793  -1.21057772636  -1.61858725548  -0.33093392849  0.538339555264  0.272982358932  
4.46176505089  -0.109848715365  -1.23075401783  -1.65893983841  -0.250106751919  -0.0594766065478  -0.129628494382  
4.46985197067  -0.132266819477  -1.2509303093  -1.64100527763  -0.240956500173  0.292807906866  -0.190630152822  
4.47794508934  -0.179344847798  -1.20609402657  -1.61186182499  -0.277557492256  0.272982358932  0.320258647203  
4.48602700233  -0.132266819477  -1.2464466095  -1.62979626656  -0.242481544614  -0.193680226803  -0.356859624386  
4.49410295486  -0.147959500551  -1.21954488754  -1.63203811646  -0.305008232594  0.260782033205  0.112853050232  
4.50224089622  -0.123299583793  -1.22627031803  -1.62307083607  -0.311108410358  -0.0732019767165  -0.128103464842  
4.51029610634  -0.150201305747  -1.22402858734  -1.59616911411  -0.344659298658  0.501738548279  0.117428168654  
4.51849007607  -0.123299583793  -1.23747944832  -1.59168553352  -0.338559150696  -0.202830478549  -0.257731974125  
4.52654290199  -0.121057771146  -1.23299574852  -1.58944368362  -0.436161786318  0.306533277035  0.230281218886  
4.53465104103  -0.1188159585  -1.21506130695  -1.58720183372  -0.359909713268  0.294332951307  -0.0732019767165  
4.5427749157  -0.1188159585  -1.22402858734  -1.58944368362  -0.393460631371  -0.15860427916  -0.332458972931  
4.55086088181  -0.123299583793  -1.21506130695  -1.6051363945  -0.451412200928  0.52156406641  0.385835409164  
4.55899310112  -0.125541388988  -1.24196302891  -1.58047640324  -0.419386327267  -0.198255360126  -0.381260305643  
4.56713795662  -0.107606902719  -1.23075401783  -1.57375097275  -0.448362112045  0.256206929684  -0.0366009883583  
4.57522988319  -0.0986396670341  -1.25989747047  -1.55805838108  -0.416336238384  0.181479901075  0.187580063939  
4.58351588249  -0.00896724220365  -1.2464466095  -1.61186182499  -0.433111697435  -0.118953213096  -0.484963089228  
4.59157705307  -0.0358689688146  -1.2509303093  -1.6051363945  -0.463612526655  0.518513977528  0.288232773542  
4.59967398643  -0.0336271598935  -1.2486884594  -1.58047640324  -0.288232773542  -0.150979071856  -0.176904782653  
4.60779190063  -0.0246599167585  -1.21506130695  -1.55581653118  -0.372110038996  0.353809565306  -0.125053375959  
4.61583304405  -0.0739797502756  -1.21954488754  -1.55805838108  -0.414811193943  0.172329649329  0.263832122087  
4.62394309044  -0.0493198335171  -1.22627031803  -1.5446075201  -0.227231130004  -0.0915024727583  -0.42396146059  
4.63207292557  -0.0493198335171  -1.21281945705  -1.55581653118  -0.314158469439  0.358384668827  0.164704442024  
4.64020299911  -0.0448362119496  -1.22402858734  -1.62979626656  -0.359909713268  -0.215030804276  -0.0823522210121  
4.64829802513  0.0313853472471  -1.22627031803  -1.60737812519  -0.218080893159  0.465137571096  -0.30043309927  
4.6564540863  0.00896724220365  -1.22627031803  -1.60737812519  -0.23638138175  -0.0823522210121  0.303483188152  
4.66447091103  0.00672543141991  -1.23299574852  -1.59616911411  -0.324833780527  0.0411761105061  -0.384310364723  
4.67258691788  0.0112090529874  -1.22627031803  -1.59616911411  -0.131153538823  0.0915024727583  0.183004945517  
4.68062090874  -0.00672543141991  -1.21954488754  -1.62307083607  -0.431586652994  -0.169279575348  -0.0579515658319  
4.68871188164  0.00896724220365  -1.22402858734  -1.62755441666  0.0228756181896  0.213505759835  -0.227231130004  
4.69679403305  0.0381107777357  -1.24196302891  -1.59841096401  -0.477337896824  -0.285182714462  0.306533277035  
4.70492601395  0.0358689688146  -1.26662302017  -1.64324712753  0.0442261956632  0.294332951307  -0.401085823774  
4.71297907829  0.0358689688146  -1.24196302891  -1.63203811646  -0.451412200928  -0.256206929684  0.106752879918  
4.72112107277  0.0851887986064  -1.21281945705  -1.61634540558  -0.103702798486  0.247056677938  0.00457512354478  
4.7291970253  0.0269017256796  -1.25317203999  -1.58496010303  -0.20435552299  -0.260782033205  -0.349234431982  
4.73726892471  0.0963978543878  -1.27559018135  -1.6006526947  -0.373635083437  0.244006589055  0.292807906866  
4.74550390244  0.0851887986064  -1.26213932037  -1.59841096401  -0.0244006589055  -0.109802961349  -0.157079234719  
4.75351691246  0.067254319787  -1.22851216793  -1.61410355568  -0.480387985706  0.108277924359  0.211980730295  
4.76165390015  0.0896724238992  -1.2464466095  -1.59841096401  0.120478250086  -0.0396510697901  -0.428536564112  
4.76971101761  0.0807051807642  -1.21281945705  -1.60737812519  -0.56426525116  0.0427011549473  0.344659298658  
4.77782201767  0.0851887986064  -1.22851216793  -1.59841096401  0.097602635622  0.0701518952847  -0.181479901075  
4.78587198257  0.067254319787  -1.23523759842  -1.59392726421  -0.356859624386  -0.244006589055  -0.198255360126  
4.79400491714  0.0963978543878  -1.23299574852  -1.60961997509  -0.118953213096  0.311108410358  0.350759476423  
4.80212807655  0.103123284876  -1.24420487881  -1.61186182499  -0.181479901075  -0.230281218886  -0.440736889839  
4.81020998955  0.0874306112528  -1.23972117901  -1.58944368362  -0.367534935474  0.379735261202  0.224181056023  
4.8184030056  0.0941560417414  -1.24196302891  -1.60737812519  0.0350759476423  -0.00915024708956  -0.108277924359  
4.82634997368  0.107606902719  -1.23523759842  -1.59616911411  -0.567315340042  0.0503263585269  -0.248581707478  
4.83442497253  0.0896724238992  -1.22851216793  -1.60961997509  0.109802961349  0.18910510838  0.327883839607  
4.84252405167  0.105365097523  -1.23523759842  -1.6051363945  -0.495638370514  -0.140303790569  -0.382785350084  
4.85057497025  0.1188159585  -1.25989747047  -1.6051363945  -0.111328005791  0.276032447815  0.0686268508434  
4.85863900185  0.0627706944942  -1.24196302891  -1.6051363945  -0.190630152822  -0.0289757829159  0.0152504118159  
4.86672592163  0.0762215554714  -1.24196302891  -1.63203811646  -0.369059979916  0.288232773542  -0.00762520590797  
4.87485790253  0.107606902719  -1.22178673744  -1.59841096401  0.0137253701687  -0.0411761105061  -0.0854023098946  
4.88297510147  0.114332340658  -1.23075401783  -1.59841096401  0.0320258662105  -0.0106752887368  0.211980730295  
4.89106988907  0.0762215554714  -1.23299574852  -1.61410355568  -0.48801317811  0.333984017372  -0.446837067604  
4.89909005165  0.145717680454  -1.24420487881  -1.59392726421  0.0320258662105  0.0396510697901  0.207405596972  
4.90714597702  0.123299583793  -1.26662302017  -1.59616911411  -0.385835409164  0.234856337309  -0.120478250086  
4.91519904137  0.13675044477  -1.21730315685  -1.6028945446  -0.141828835011  0.225706100464  -0.208930641413  
4.92329788208  0.145717680454  -1.24420487881  -1.6051363945  -0.192155182362  0.211980730295  0.292807906866  
4.93140006065  0.165893986821  -1.2509303093  -1.60961997509  -0.434636741877  0.279082536697  -0.15860427916  
4.93949890137  0.1188159585  -1.26438117027  -1.6028945446  0.0716769322753  0.215030804276  0.169279575348  
4.94754099846  0.132266819477  -1.24420487881  -1.6051363945  -0.577990591526  0.0747270211577  -0.430061608553  
4.95563387871  0.123299583793  -1.23747944832  -1.62755441666  0.111328005791  0.452937245369  0.262307077646  
4.9637389183  0.134508639574  -1.21954488754  -1.61858725548  -0.451412200928  -0.0549014806747  -0.178429812193  
4.97182893753  0.13675044477  -1.26213932037  -1.59168553352  -0.143353864551  0.518513977528  -0.213505759835  
4.97992300987  0.150201305747  -1.24196302891  -1.61634540558  -0.337034106255  -0.0350759476423  0.329408884048  
4.98802804947  0.15468493104  -1.2486884594  -1.6028945446  -0.186055019498  0.230281218886  -0.445312023163  
4.99623298645  0.168135792017  -1.2464466095  -1.62979626656  -0.268407255411  0.26688221097  0.155554205179  
5.00428199768  0.150201305747  -1.2464466095  -1.65669798851  -0.122003294528  -0.00457512354478  0.0198255348951  
5.01252293587  0.121057771146  -1.23299574852  -1.63876354694  -0.399560779333  0.50326359272  -0.349234431982  
5.02051091194  0.152443110943  -1.23075401783  -1.62531268597  0.0335509069264  -0.0625266879797  0.341609239578  
5.02852511406  0.150201305747  -1.23523759842  -1.62307083607  -0.549014806747  0.484963089228  -0.373635083437  
5.03661394119  0.0963978543878  -1.2486884594  -1.63427984715  0.0747270211577  -0.122003294528  0.103702798486  
5.04470896721  0.130025014281  -1.25317203999  -1.59168553352  -0.465137571096  0.253156840801  0.103702798486  
5.05283808708  0.163652166724  -1.23299574852  -1.6006526947  -0.111328005791  0.317208558321  -0.366009891033  
5.06096792221  0.17261941731  -1.2464466095  -1.60961997509  -0.207405596972  -0.172329649329  0.356859624386  
5.06905698776  0.114332340658  -1.2509303093  -1.61634540558  -0.448362112045  0.495638370514  -0.280607581139  
5.07718300819  0.177103027701  -1.23299574852  -1.60961997509  0.0625266879797  -0.166229486465  -0.105227842927  
5.08538007736  0.161410361528  -1.2486884594  -1.61186182499  -0.556640028954  0.25163179636  0.211980730295  
5.09349799156  0.125541388988  -1.23299574852  -1.62307083607  0.0610016472638  0.178429812193  -0.516988933086  
5.10156488419  0.192795708776  -1.23299574852  -1.6028945446  -0.436161786318  -0.102177761495  0.263832122087  
5.1096830368  0.179344847798  -1.23523759842  -1.6051363945  -0.115903131664  0.44226193428  -0.248581707478  
5.1177520752  0.188312083483  -1.22178673744  -1.62531268597  -0.122003294528  -0.23638138175  -0.0640517324209  
5.12587404251  0.170377597213  -1.2486884594  -1.59841096401  -0.455987304449  0.329408884048  0.257731974125  
5.13393497467  0.145717680454  -1.24196302891  -1.60961997509  0.114378087223  -0.0930275097489  -0.469712674618  
5.14205908775  0.17261941731  -1.23747944832  -1.60737812519  -0.501738548279  0.140303790569  0.326358824968  
5.15017294884  0.145717680454  -1.24196302891  -1.6051363945  0.0716769322753  0.140303790569  -0.152504116297  
5.15844893456  0.168135792017  -1.21506130695  -1.60961997509  -0.570365428925  -0.0122003294528  -0.161654368043  
5.16645598412  0.159168556333  -1.23972117901  -1.60961997509  -0.0442261956632  0.210455685854  0.277557492256  
5.17453408241  0.150201305747  -1.23972117901  -1.6051363945  -0.283657670021  -0.143353864551  -0.404135912657  
5.18261909485  0.186070278287  -1.23972117901  -1.60961997509  -0.388885498047  0.160129323602  0.149454042315  
5.19071888924  0.163652166724  -1.24196302891  -1.6051363945  -0.00915024708956  -0.207405596972  -0.00457512354478  
5.19880390167  0.152443110943  -1.24420487881  -1.61186182499  -0.587140858173  0.0579515658319  -0.335509061813  
5.20688700676  0.150201305747  -1.23972117901  -1.60737812519  0.123528338969  -0.26688221097  0.369059979916  
5.21495389938  0.152443110943  -1.2486884594  -1.62307083607  -0.565790295601  -0.0152504118159  -0.40871104598  
5.22302794456  0.174861222506  -1.23299574852  -1.6006526947  -0.129628494382  -0.326358824968  0.0777771025896  
5.23110699654  0.145717680454  -1.23972117901  -1.60961997509  -0.248581707478  -0.123528338969  0.0701518952847  
5.23916506767  0.17261941731  -1.26213932037  -1.6051363945  -0.33093392849  -0.294332951307  -0.327883839607  
5.24720692635  0.15468493104  -1.25541388988  -1.60737812519  -0.0869273468852  -0.248581707478  0.28213262558  
5.25535106659  0.177103027701  -1.22402858734  -1.61410355568  -0.539864599705  -0.219605922699  -0.402610868216  
5.26355004311  0.147959500551  -1.22402858734  -1.60961997509  0.0854023098946  -0.399560779333  0.123528338969  
5.27160811424  0.165893986821  -1.24196302891  -1.61634540558  -0.545964717865  -0.152504116297  0.114378087223  
5.27961206436  0.163652166724  -1.23747944832  -1.6028945446  -0.0167754534632  -0.391935586929  -0.428536564112  
5.28770399094  0.186070278287  -1.24420487881  -1.60961997509  -0.237906426191  -0.0884523913264  0.369059979916  
5.29580402374  0.18382845819  -1.23075401783  -1.6006526947  -0.401085823774  -0.303483188152  -0.28213262558  
5.30387306213  0.18382845819  -1.23075401783  -1.59616911411  0.0228756181896  -0.118953213096  0.132678583264  
5.31202101707  0.170377597213  -1.23972117901  -1.61410355568  -0.637467205524  -0.213505759835  0.0732019767165  
5.32010889053  0.152443110943  -1.23523759842  -1.6028945446  0.140303790569  -0.192155182362  -0.344659298658  
5.32825398445  0.150201305747  -1.22402858734  -1.6028945446  -0.510888814926  -0.0610016472638  0.291282862425  
5.33631896973  0.170377597213  -1.26438117027  -1.64100527763  -0.109802961349  -0.239431470633  -0.425486475229  
5.34456205368  0.168135792017  -1.23972117901  -1.59841096401  -0.170804619789  0.00152504118159  0.0457512363791  
5.3525249958  0.195037513971  -1.24420487881  -1.62082898617  -0.419386327267  -0.122003294528  0.132678583264  
5.36058497429  0.186070278287  -1.22851216793  -1.62082898617  0.0701518952847  -0.0213505774736  -0.448362112045  
5.36867403984  0.179344847798  -1.25317203999  -1.62082898617  -0.483438044786  0.0244006589055  0.303483188152  
5.37676000595  0.170377597213  -1.24196302891  -1.62307083607  0.0671018138528  -0.100652717054  -0.237906426191  
5.38491988182  0.165893986821  -1.26886475086  -1.59841096401  -0.338559150696  0.112853050232  -0.0945525541902  
5.39296102524  0.170377597213  -1.23075401783  -1.62082898617  0.00915024708956  -0.105227842927  0.192155182362  
5.40107393265  0.168135792017  -1.25317203999  -1.61410355568  -0.483438044786  0.211980730295  -0.402610868216  
5.40927100182  0.17261941731  -1.23972117901  -1.59841096401  0.0762520581484  -0.208930641413  0.314158469439  
5.41738605499  0.177103027701  -1.24420487881  -1.60961997509  -0.576465547085  0.323308736086  -0.199780389667  
5.42543792725  0.228664681315  -1.23747944832  -1.60737812519  0.0228756181896  -0.327883839607  -0.155554205179  
5.43359494209  0.282468140125  -1.24196302891  -1.61858725548  -0.367534935474  0.208930641413  0.291282862425  
5.44157099724  0.293677181005  -1.24196302891  -1.6028945446  -0.154029160738  0.0411761105061  -0.484963089228  
5.44974899292  0.325062543154  -1.2486884594  -1.61410355568  -0.128103464842  -0.129628494382  0.268407255411  
5.4577600956  0.365415126085  -1.2464466095  -1.61634540558  -0.420911371708  0.314158469439  -0.0854023098946  
5.4658870697  0.358689695597  -1.26438117027  -1.60961997509  0.0579515658319  -0.324833780527  -0.280607581139  
5.47397994995  0.298160791397  -1.2486884594  -1.61410355568  -0.550539851189  0.216555848718  0.335509061813  
5.48206996918  0.421460390091  -1.21057772636  -1.61634540558  0.0579515658319  0.0137253701687  -0.398035734892  
5.49019193649  0.432669430971  -1.21954488754  -1.60961997509  -0.440736889839  -0.179954856634  0.115903131664  
5.49828910828  0.425944000483  -1.23299574852  -1.61186182499  -0.149454042315  0.274507403374  0.0274507403374  
5.50649189949  0.468538403511  -1.24420487881  -1.6051363945  -0.196730315685  -0.301958143711  -0.335509061813  
5.5145111084  0.461812973022  -1.25317203999  -1.63427984715  -0.474287807941  0.195205271244  0.343134254217  
5.52263092995  0.547001779079  -1.23747944832  -1.6028945446  0.056426525116  -0.295857995749  -0.388885498047  
5.53066205978  0.437153071165  -1.24420487881  -1.6006526947  -0.558165073395  0.132678583264  0.097602635622  
5.53875994682  0.461812973022  -1.22627031803  -1.6006526947  0.0411761105061  -0.102177761495  0.0442261956632  
5.54686689377  0.515616416931  -1.2486884594  -1.61634540558  -0.413286149502  -0.144878908992  -0.358384668827  
5.55494999886  0.396800458431  -1.2486884594  -1.56478381157  -0.224181056023  -0.175379738212  -0.391935586929  
5.56310606003  0.488714694977  -1.23747944832  -1.51770579815  -0.387360453606  0.126578420401  0.0762520581484  
5.57119989395  0.535792708397  -1.23075401783  -1.49080395699  -0.0335509069264  -0.303483188152  0.0396510697901  
5.57923197746  0.620981514454  -1.2464466095  -1.45269322395  -0.547489762306  0.112853050232  -0.352284520864  
5.58730101585  0.555968999863  -1.2486884594  -1.39440619946  0.0777771025896  -0.269932299852  0.335509061813  
5.5953669548  0.461812973022  -1.2486884594  -1.38992249966  -0.523089110851  0.122003294528  -0.349234431982  
5.60348796844  0.533550918102  -1.25989747047  -1.27334845066  0.0671018138528  -0.323308736086  0.138778746128  
5.6115899086  0.690477669239  -1.23972117901  -1.24420487881  -0.352284520864  0.141828835011  0.0305008236319  
5.61967206001  0.464054793119  -1.23972117901  -1.32939362526  -0.308058321476  -0.500213503838  -0.364484846592  
5.62772393227  0.495440125465  -1.2509303093  -1.3069756031  -0.0579515658319  0.0747270211577  0.373635083437  
5.63582801819  0.513374626637  -1.23075401783  -1.21281945705  -0.455987304449  -0.295857995749  -0.396510720253  
5.64390301704  0.605288863182  -1.23523759842  -1.19264316559  0.0610016472638  -0.157079234719  0.0960775911808  
5.65196704865  0.555968999863  -1.2486884594  -1.1253888607  -0.539864599705  0.00305008236319  0.0915024727583  
5.66005301476  0.670301377773  -1.23747944832  -1.14332342148  0.108277924359  -0.23638138175  -0.388885498047  
5.66815400124  0.68375223875  -1.24196302891  -1.23523759842  -0.475812852383  0.0320258662105  0.352284520864  
5.6762149334  0.562694430351  -1.23523759842  -1.20161044598  -0.122003294528  -0.492588311434  -0.29738304019  
5.68435311317  0.475263834  -1.2486884594  -1.16798329353  -0.170804619789  0.0549014806747  -0.0549014806747  
5.69252300262  0.52234184742  -1.25765573978  -1.11642169952  -0.439211845398  -0.492588311434  0.184529989958  
5.70059609413  0.61649787426  -1.23075401783  -1.01778197289  0.105227842927  -0.0899774283171  -0.433111697435  
5.70869588852  0.629948735237  -1.23972117901  -1.1253888607  -0.584090769291  -0.199780389667  0.277557492256  
5.71677207947  0.618739724159  -1.23972117901  -1.29352474213  0.0610016472638  -0.332458972931  -0.143353864551  
5.72486591339  0.656850516796  -1.2464466095  -1.08951997757  -0.428536564112  0.0686268508434  -0.187580063939  
5.73297405243  0.647883236408  -1.26438117027  -1.07158541679  -0.111328005791  -0.611541509628  0.29738304019  
5.74110794067  0.580628931522  -1.22402858734  -1.02899098396  -0.257731974125  0.0610016472638  -0.401085823774  
5.74924206734  0.61649787426  -1.25317203999  -0.977429389954  -0.362959802151  -0.321783691645  0.248581707478  
5.75745105743  0.614256083965  -1.25317203999  -1.23972117901  0.0198255348951  -0.358384668827  -0.117428168654  
5.76556992531  0.623223304749  -1.23523759842  -1.14332342148  -0.538339555264  0.0960775911808  -0.202830478549  
5.77355003357  0.605288863182  -1.23523759842  -1.10072898865  0.0625266879797  -0.559690117836  0.305008232594  
5.78160405159  0.603047013283  -1.26662302017  -0.997605681419  -0.451412200928  0.0686268508434  -0.393460631371  
5.78966403008  0.629948735237  -1.2486884594  -0.984154820442  0.0625266879797  -0.385835409164  0.146403953433  
5.79775190353  0.620981514454  -1.22402858734  -1.02450740337  -0.359909713268  -0.164704442024  0.0152504118159  
5.8058590889  0.600805222988  -1.2486884594  -1.01554012299  -0.128103464842  -0.0381260290742  -0.359909713268  
5.81393408775  0.609772443771  -1.24196302891  -1.08727812767  -0.183004945517  -0.529189288616  0.265357166529  
5.82203698158  0.634432375431  -1.26438117027  -0.923625946045  -0.321783691645  0.149454042315  -0.337034106255  
5.83012199402  0.580628931522  -1.25317203999  -0.990880250931  0.00915024708956  -0.478862941265  -0.0228756181896  
5.83826303482  0.612014293671  -1.23075401783  -1.1253888607  -0.459037393332  -0.0274507403374  0.176904782653  
5.84636902809  0.638916015625  -1.2486884594  -1.09176170826  0.0671018138528  -0.0899774283171  -0.401085823774  
5.85455298424  0.605288863182  -1.24420487881  -1.0671018362  -0.489538222551  -0.402610868216  0.311108410358  
5.86256408691  0.603047013283  -1.27334845066  -1.05813455582  0.0899774283171  0.144878908992  -0.263832122087  
5.87068009377  0.61649787426  -1.24420487881  -1.03347468376  -0.481913000345  -0.491063266993  -0.0579515658319  
5.87869000435  0.623223304749  -1.24420487881  -1.03123283386  -0.0960775911808  0.0335509069264  0.186055019498  
5.88676095009  0.531309127808  -1.26438117027  -1.03347468376  -0.195205271244  -0.186055019498  -0.492588311434  
5.89483690262  0.553727209568  -1.26213932037  -1.01778197289  -0.347709387541  -0.184529989958  0.265357166529  
5.90294194221  0.585112571716  -1.2464466095  -1.01778197289  0.0579515658319  0.122003294528  -0.15860427916  
5.91101789474  0.607530653477  -1.22178673744  -1.01778197289  -0.497163414955  -0.459037393332  -0.20588055253  
5.91914892197  0.63667422533  -1.24196302891  -1.00208926201  0.117428168654  0.181479901075  0.31568351388  
5.92724394798  0.751006543636  -1.23523759842  -1.0110565424  -0.477337896824  -0.367534935474  -0.465137571096  
5.93530297279  0.68375223875  -1.23299574852  -1.00208926201  -0.0686268508434  -0.0167754534632  0.224181056023  
5.94349193573  0.499923765659  -1.23523759842  -1.02899098396  -0.20435552299  0.0350759476423  -0.0625266879797  
5.95154094696  0.585112571716  -1.23747944832  -0.988638460636  -0.405660957098  -0.239431470633  -0.311108410358  
5.95963191986  0.746522903442  -1.23747944832  -0.997605681419  0.0838772654533  0.240956500173  0.320258647203  
5.96771407127  0.656850516796  -1.23747944832  -1.00208926201  -0.462087482214  -0.367534935474  -0.335509061813  
5.97577404976  0.513374626637  -1.2486884594  -1.0110565424  -0.149454042315  0.161654368043  0.208930641413  
5.98387694359  0.766699194908  -1.24420487881  -1.00208926201  -0.401085823774  -0.109802961349  -0.0640517324209  
5.99195694923  0.560452640057  -1.24420487881  -0.981913030148  -0.0152504118159  -0.144878908992  -0.286707729101  
6.00005507469  0.385591417551  -1.24420487881  -0.96846216917  -0.491063266993  0.239431470633  0.350759476423  
6.00817108154  0.600805222988  -1.24420487881  -0.970703959465  0.0960775911808  -0.308058321476  -0.362959802151  
6.01624107361  0.746522903442  -1.24420487881  -0.959494888783  -0.500213503838  0.288232773542  0.120478250086  
6.02433395386  0.68375223875  -1.23972117901  -0.96846216917  -0.00915024708956  -0.170804619789  -0.129628494382  
6.03241705894  0.48647287488  -1.2486884594  -0.948285877705  -0.257731974125  -0.0579515658319  0.152504116297  
6.04049801826  0.56941986084  -1.23747944832  -0.997605681419  -0.285182714462  0.215030804276  -0.337034106255  
6.04859399796  0.710653960705  -1.2464466095  -0.979671239853  0.0106752887368  -0.305008232594  0.20588055253  
6.0566740036  0.466296583414  -1.25541388988  -1.04244196415  -0.489538222551  0.285182714462  -0.0915024727583  
6.06478309631  0.506649196148  -1.23972117901  -1.02002382278  0.0610016472638  -0.240956500173  -0.323308736086  
6.07286405563  0.652366876602  -1.24420487881  -1.03795826435  -0.539864599705  -0.00305008236319  0.265357166529  
6.08101511002  0.697203099728  -1.24420487881  -1.03347468376  -0.0335509069264  0.213505759835  -0.414811193943  
6.0891430378  0.302644431591  -1.23075401783  -1.04244196415  -0.375160127878  -0.323308736086  0.0274507403374  
6.09720206261  0.659092307091  -1.25765573978  -1.03571653366  -0.208930641413  0.292807906866  0.157079234719  
6.10530900955  0.56941986084  -1.24420487881  -1.00657296181  -0.0930275097489  -0.248581707478  -0.434636741877  
6.11352610588  0.354206055403  -1.23747944832  -1.02226555347  -0.504788637161  0.0777771025896  0.272982358932  
6.12159991264  0.668059527874  -1.26886475086  -1.02450740337  0.106752879918  0.0899774283171  -0.298908084631  
6.12952709198  0.643399655819  -1.25317203999  -1.03347468376  -0.549014806747  -0.247056677938  -0.0549014806747  
6.13761401176  0.502165555954  -1.23747944832  -1.04468369484  0.0686268508434  0.259256988764  0.190630152822  
6.14566993713  0.450603932142  -1.25317203999  -1.00433111191  -0.419386327267  -0.332458972931  -0.420911371708  
6.15377497673  0.51785826683  -1.25541388988  -1.04244196415  -0.195205271244  0.160129323602  0.292807906866  
6.16185808182  0.63667422533  -1.23075401783  -1.02899098396  -0.0472762770951  -0.0411761105061  -0.18910510838  
6.16996598244  0.63667422533  -1.23747944832  -1.02899098396  -0.494113355875  0.0381260290742  -0.131153538823  
6.17810201645  0.656850516796  -1.25317203999  -1.03347468376  0.0396510697901  -0.202830478549  0.257731974125  
6.18618106842  0.571661710739  -1.25989747047  -1.02899098396  -0.555114984512  0.100652717054  -0.460562437773  
6.19426894188  0.533550918102  -1.2509303093  -1.03123283386  0.0244006589055  -0.0289757829159  0.230281218886  
6.20236706734  0.48647287488  -1.2464466095  -1.07382726669  -0.396510720253  -0.146403953433  -0.202830478549  
6.21049809456  0.497681945562  -1.26438117027  -1.04916739464  -0.308058321476  0.272982358932  -0.129628494382  
6.21854496002  0.596321582794  -1.25317203999  -1.05589282513  -0.0762520581484  -0.388885498047  0.166229486465  
6.22673892975  0.567178070545  -1.25541388988  -1.04020011425  -0.451412200928  0.303483188152  -0.443786978722  
6.23481202126  0.562694430351  -1.25541388988  -1.05365097523  0.0183004941791  -0.123528338969  0.294332951307  
6.24279594421  0.558210849762  -1.25317203999  -1.05365097523  -0.536814510822  -0.0854023098946  -0.163179412484  
6.25087690353  0.576145291328  -1.25541388988  -1.05140912533  0.0518513992429  0.279082536697  -0.225706100464  
6.25891494751  0.620981514454  -1.23299574852  -1.04244196415  -0.4727627635  -0.411761105061  0.276032447815  
6.26702904701  0.582870721817  -1.27110660076  -1.01554012299  -0.17385469377  -0.0991276800632  0.0732019767165  
6.27521395683  0.573903501034  -1.23299574852  -1.0110565424  -0.56426525116  -0.134203627706  0.0122003294528  
6.28319311142  0.589596152306  -1.28007388115  -1.04244196415  0.103702798486  0.274507403374  -0.379735261202  
6.29124999046  0.598563432693  -1.23972117901  -1.03795826435  -0.603916287422  -0.398035734892  0.31568351388  
6.2993478775  0.587354362011  -1.2464466095  -1.03123283386  0.0838772654533  0.260782033205  -0.301958143711  
6.30746102333  0.585112571716  -1.26662302017  -1.03347468376  -0.356859624386  -0.0915024727583  -0.0427011549473  
6.31556296349  0.5940797925  -1.25541388988  -1.03123283386  -0.219605922699  -0.111328005791  0.186055019498  
6.32373809814  0.531309127808  -1.23747944832  -1.03795826435  -0.0960775911808  0.227231130004  -0.480387985706  
6.331813097  0.544759988785  -1.27110660076  -1.03347468376  -0.498688459396  -0.269932299852  0.356859624386  
6.33991003036  0.540276348591  -1.2509303093  -1.03795826435  0.129628494382  0.256206929684  -0.123528338969  
6.34799599648  0.549243569374  -1.23972117901  -1.04244196415  -0.349234431982  -0.167754530907  -0.30043309927  
6.35611009598  0.535792708397  -1.22402858734  -1.03795826435  -0.0411761105061  0.0350759476423  0.317208558321  
6.36421203613  0.555968999863  -1.24196302891  -1.04916739464  -0.466662615538  -0.140303790569  -0.381260305643  
6.37235093117  0.555968999863  -1.2509303093  -1.03795826435  0.122003294528  0.20588055253  0.114378087223  
6.38044095039  0.571661710739  -1.2486884594  -1.03571653366  -0.484963089228  -0.347709387541  -0.056426525116  
6.3885550499  0.558210849762  -1.24420487881  -1.02899098396  0.0503263585269  0.259256988764  -0.311108410358  
6.3966319561  0.547001779079  -1.27783203125  -1.04020011425  -0.425486475229  -0.169279575348  0.00610016472638  
6.4047908783  0.551485419273  -1.2486884594  -1.03795826435  -0.213505759835  -0.0777771025896  -0.210455685854  
6.41275811195  0.544759988785  -1.2486884594  -1.02899098396  -0.0854023098946  0.257731974125  0.30043309927  
6.42083406448  0.542518138885  -1.2509303093  -1.02674925327  -0.501738548279  -0.3461843431  -0.471237719059  
6.42897891998  0.551485419273  -1.25989747047  -1.03347468376  0.122003294528  0.291282862425  0.120478250086  
6.43723797798  0.564936280251  -1.2464466095  -1.04244196415  -0.571890413761  -0.128103464842  0.0228756181896  
6.44518208504  0.553727209568  -1.26213932037  -1.03123283386  0.103702798486  -0.129628494382  -0.381260305643  
6.4532968998  0.481989264488  -1.23299574852  -1.03571653366  -0.431586652994  0.311108410358  0.295857995749  
6.46135306358  0.506649196148  -1.2486884594  -1.04020011425  -0.257731974125  -0.369059979916  -0.352284520864  
6.46949601173  0.479747444391  -1.22851216793  -0.999847531319  -0.048801317811  0.333984017372  0.0594766065478  
6.47754192352  0.511132776737  -1.26662302017  -0.948285877705  -0.481913000345  -0.0228756181896  0.114378087223  
6.48563599586  0.502165555954  -1.23523759842  -0.932593166828  0.129628494382  -0.138778746128  -0.431586652994  
6.493735075  0.493198335171  -1.2464466095  -0.910175085068  -0.529189288616  0.379735261202  0.350759476423  
6.50182890892  0.484231084585  -1.2486884594  -0.865338861942  0.0244006589055  -0.340084195137  -0.239431470633  
6.50992798805  0.508890986443  -1.25541388988  -1.00657296181  -0.36143475771  0.248581707478  -0.128103464842  
6.51816296577  0.508890986443  -1.24196302891  -1.04244196415  -0.254681885242  0.0122003294528  0.210455685854  
6.52624797821  0.497681945562  -1.25765573978  -0.957253098488  -0.0350759476423  -0.247056677938  -0.462087482214  
6.53421401978  0.497681945562  -1.2509303093  -0.842920780182  -0.462087482214  0.362959802151  0.257731974125  
6.54234790802  0.504407346249  -1.27110660076  -0.85412979126  0.0930275097489  -0.301958143711  -0.123528338969  
6.55040502548  0.499923765659  -1.23299574852  -1.00657296181  -0.553589940071  0.23638138175  -0.216555848718  
6.55845594406  0.526825487614  -1.25317203999  -0.928109586239  0.00610016472638  0.0320258662105  0.305008232594  
6.56655597687  0.497681945562  -1.26213932037  -0.883273363113  -0.225706100464  -0.22113096714  -0.387360453606  
6.5746409893  0.506649196148  -1.2464466095  -0.715137541294  -0.381260305643  0.434636741877  0.190630152822  
6.58270001411  0.506649196148  -1.25765573978  -0.966220319271  0.0747270211577  -0.216555848718  -0.129628494382  
6.59079909325  0.502165555954  -1.24196302891  -0.928109586239  -0.510888814926  0.248581707478  -0.23638138175  
6.59888410568  0.502165555954  -1.28007388115  -0.818260848522  0.109802961349  0.0732019767165  0.317208558321  
6.60711693764  0.513374626637  -1.25541388988  -0.661334097385  -0.501738548279  -0.30043309927  -0.474287807941  
6.6152369976  0.520100057125  -1.2486884594  -0.829469919205  -0.122003294528  0.404135912657  0.237906426191  
6.62328004837  0.542518138885  -1.25317203999  -0.941560447216  -0.335509061813  -0.277557492256  -0.100652717054  
6.63130903244  0.538034558296  -1.26438117027  -0.744281113148  -0.048801317811  -0.0427011549473  -0.314158469439  
6.63939905167  0.506649196148  -1.24196302891  -0.793600916862  -0.419386327267  0.276032447815  0.271457344294  
6.64746904373  0.511132776737  -1.25317203999  -0.786875486374  0.0320258662105  -0.318733602762  -0.164704442024  
6.65560102463  0.511132776737  -1.24420487881  -0.721862971783  -0.301958143711  0.30043309927  0.210455685854  
6.66368794441  0.52234184742  -1.25317203999  -0.85412979126  -0.259256988764  -0.259256988764  -0.4727627635  
6.67175793648  0.490956515074  -1.22178673744  -0.836195349693  -0.00305008236319  0.0549014806747  0.31568351388  
6.67991399765  0.511132776737  -1.26438117027  -0.715137541294  -0.492588311434  0.00915024708956  -0.224181056023  
6.68795895576  0.52234184742  -1.23972117901  -0.679268598557  0.0854023098946  -0.195205271244  -0.175379738212  
6.69619107246  0.508890986443  -1.24420487881  -0.999847531319  -0.481913000345  0.216555848718  0.276032447815  
6.70432591438  0.499923765659  -1.26438117027  -0.905691444874  0.141828835011  -0.340084195137  -0.471237719059  
6.71230006218  0.502165555954  -1.26438117027  -0.869822502136  -0.518513977528  0.193680226803  0.114378087223  
6.7203950882  0.506649196148  -1.26438117027  -0.872064292431  -0.0396510697901  -0.292807906866  0.0396510697901  
6.72847604752  0.506649196148  -1.26213932037  -0.829469919205  -0.160129323602  0.0320258662105  -0.40871104598  
6.73656511307  0.488714694977  -1.26213932037  -0.85412979126  -0.440736889839  0.00762520590797  0.362959802151  
6.7446539402  0.51785826683  -1.2509303093  -0.892240583897  0.146403953433  -0.347709387541  -0.375160127878  
6.75271987915  0.497681945562  -1.2486884594  -0.916900515556  -0.56426525116  0.213505759835  -0.0289757829159  
6.7607820034  0.504407346249  -1.2486884594  -0.948285877705  0.137253701687  -0.460562437773  0.172329649329  
6.76886606216  0.508890986443  -1.23747944832  -0.950527667999  -0.398035734892  0.0518513992429  -0.477337896824  
6.77696895599  0.51785826683  -1.26886475086  -0.970703959465  -0.157079234719  -0.132678583264  0.260782033205  
6.7850420475  0.515616416931  -1.27110660076  -0.997605681419  -0.228756174445  -0.274507403374  -0.213505759835  
6.79324102402  0.504407346249  -1.25541388988  -1.03347468376  -0.216555848718  0.155554205179  -0.227231130004  
6.80124306679  0.51785826683  -1.28231561184  -1.05365097523  -0.129628494382  -0.367534935474  0.350759476423  
6.80934500694  0.490956515074  -1.23299574852  -1.0693436861  -0.411761105061  0.178429812193  -0.507838726044  
6.81749510765  0.499923765659  -1.2486884594  -1.07158541679  0.0427011549473  -0.362959802151  0.163179412484  
6.8255610466  0.529067277908  -1.2486884594  -1.10297083855  -0.512413859367  0.00610016472638  0.0671018138528  
6.83365392685  0.520100057125  -1.23972117901  -1.07158541679  0.125053375959  -0.0884523913264  -0.321783691645  
6.84179806709  0.520100057125  -1.25317203999  -1.03571653366  -0.45751234889  -0.326358824968  0.31568351388  
6.84991192818  0.524583697319  -1.25317203999  -1.03123283386  0.0320258662105  0.187580063939  -0.445312023163  
6.85804009438  0.51785826683  -1.25317203999  -1.02226555347  -0.283657670021  -0.431586652994  -0.0183004941791  
6.86620998383  0.511132776737  -1.25541388988  -1.01554012299  -0.175379738212  0.128103464842  0.208930641413  
6.87425494194  0.495440125465  -1.22402858734  -0.984154820442  -0.00152504118159  -0.179954856634  -0.492588311434  
6.88234305382  0.549243569374  -1.2464466095  -0.977429389954  -0.466662615538  -0.262307077646  0.190630152822  
6.89042496681  0.589596152306  -1.26662302017  -0.959494888783  0.183004945517  0.218080893159  -0.29738304019  
6.89843606949  0.605288863182  -1.2509303093  -0.943802237511  -0.478862941265  -0.445312023163  -0.122003294528  
6.90656709671  0.681510388851  -1.2509303093  -0.923625946045  0.0549014806747  0.144878908992  0.210455685854  
6.91460204124  0.663575947285  -1.25765573978  -0.979671239853  -0.228756174445  -0.340084195137  -0.468187630177  
6.92272210121  0.612014293671  -1.25541388988  -0.946044027805  -0.314158469439  -0.0366009883583  0.271457344294  
6.93077492714  0.706170320511  -1.25989747047  -0.92138415575  0.0808271840215  -0.00305008236319  -0.109802961349  
6.93888401985  0.677026808262  -1.2509303093  -0.930351376534  -0.466662615538  -0.359909713268  -0.359909713268  
6.94699001312  0.650125086308  -1.23523759842  -0.932593166828  -0.394985675812  -0.425486475229  -0.396510720253  
6.9551949501  0.681510388851  -1.27783203125  -0.840678930283  -0.0594766065478  0.117428168654  0.0167754534632  
6.96325802803  0.721862971783  -1.26438117027  -0.856371641159  -0.154029160738  -0.248581707478  0.102177761495  
6.97117090225  0.477505654097  -1.2486884594  -0.876547932625  -0.274507403374  -0.271457344294  -0.414811193943  
6.97924089432  0.739797472954  -1.25541388988  -0.847404360771  0.097602635622  0.201305434108  0.288232773542  
6.9873149395  0.665817737579  -1.2464466095  -0.87430614233  -0.510888814926  -0.498688459396  -0.398035734892  
6.99539899826  0.567178070545  -1.24196302891  -0.833953499794  0.224181056023  0.138778746128  -0.0732019767165  
7.0034930706  0.661334097385  -1.25989747047  -0.865338861942  -0.44226193428  -0.28213262558  0.115903131664  
7.01159310341  0.703928530216  -1.25541388988  -0.766699194908  0.0701518952847  -0.311108410358  -0.411761105061  
7.01967597008  0.585112571716  -1.25989747047  -0.780150055885  -0.237906426191  0.120478250086  0.311108410358  
7.02780389786  0.647883236408  -1.27334845066  -0.820502638817  -0.17385469377  -0.520039021969  -0.31568351388  
7.03590798378  0.656850516796  -1.23523759842  -0.863097071648  -0.0305008236319  0.181479901075  -0.115903131664  
7.04396700859  0.598563432693  -1.23747944832  -0.905691444874  -0.391935586929  -0.407186001539  0.152504116297  
7.0520939827  0.589596152306  -1.2509303093  -0.869822502136  0.152504116297  -0.140303790569  -0.480387985706  
7.0602850914  0.560452640057  -1.23972117901  -0.87430614233  -0.483438044786  -0.0838772654533  0.3461843431  
7.06829595566  0.742039263248  -1.26438117027  -0.869822502136  0.172329649329  -0.439211845398  -0.192155182362  
7.07635188103  0.48647287488  -1.26886475086  -0.872064292431  -0.398035734892  0.172329649329  -0.100652717054  
7.08444094658  0.567178070545  -1.2509303093  -0.773424625397  -0.0930275097489  -0.475812852383  0.193680226803  
7.09257507324  0.706170320511  -1.2486884594  -0.782391905785  -0.0579515658319  0.00915024708956  -0.495638370514  
7.10061502457  0.470780223608  -1.24196302891  -0.773424625397  -0.402610868216  -0.163179412484  0.294332951307  
7.10865688324  0.504407346249  -1.26886475086  -0.818260848522  0.132678583264  -0.250106751919  -0.183004945517  
7.11678099632  0.589596152306  -1.25317203999  -0.914658725262  -0.4727627635  0.0671018138528  -0.28213262558  
7.12488389015  0.643399655819  -1.24420487881  -0.876547932625  0.170804619789  -0.526139199734  0.253156840801  
7.13294196129  0.699444890022  -1.2464466095  -0.800326347351  -0.340084195137  0.20588055253  -0.161654368043  
7.14106488228  0.441636681557  -1.2509303093  -0.804809987545  0.0610016472638  -0.407186001539  0.163179412484  
7.14910292625  0.535792708397  -1.26213932037  -0.766699194908  -0.172329649329  -0.144878908992  -0.459037393332  
7.15723705292  0.647883236408  -1.25541388988  -0.708412110806  -0.277557492256  -0.0305008236319  0.3461843431  
7.16536092758  0.293677181005  -1.23523759842  -0.946044027805  0.102177761495  -0.474287807941  -0.164704442024  
7.17346405983  0.423702180386  -1.24420487881  -0.831711709499  -0.483438044786  0.108277924359  -0.224181056023  
7.1815431118  0.434911251068  -1.26213932037  -0.64115780592  0.22113096714  -0.401085823774  0.271457344294  
7.18960595131  0.542518138885  -1.26438117027  -0.818260848522  -0.494113355875  0.0472762770951  -0.420911371708  
7.19767093658  0.470780223608  -1.25317203999  -0.833953499794  -0.0732019767165  -0.239431470633  0.240956500173  
7.20579504967  0.423702180386  -1.25317203999  -0.766699194908  -0.100652717054  -0.154029160738  -0.105227842927  
