Ethan-CYM/ros_catkin_ws/test/servol_静止不动/ur_joint_target_velocity.txt
time  shoulder_pan_joint  shoulder_lift_joint  elbow_joint  wrist_1_joint  wrist_2_joint  wrist_3_joint
0.161771059036  -4.61343603928e-11  3.66061131481e-11  -6.14254601381e-11  -0.00215718765085  0.00341806893531  -0.64381582054  
0.16966509819  -4.45276039711e-11  3.53329115687e-11  -5.92831774891e-11  -0.00168466781081  0.00367551435567  -0.572814261964  
0.177762031555  -4.27698568276e-11  3.39390062344e-11  -5.69392778103e-11  -0.00123837311874  0.00389015840282  -0.498217015702  
0.185918092728  -4.08838119433e-11  3.24427380564e-11  -5.44243144128e-11  -0.000819038002502  0.00505532095286  -0.419973180361  
0.193968057632  -3.88905635861e-11  3.08613376706e-11  -5.1766886752e-11  -0.00141840954279  0.00560305215663  -0.339644663873  
0.202058076859  -3.68104066075e-11  2.92113696718e-11  -4.89934625429e-11  -0.00295388933165  0.00656908938617  -0.258685083322  
0.210191965103  -3.46634138865e-11  2.75075333836e-11  -4.61307760187e-11  -0.00236919367347  0.00692374659807  -0.177645995616  
0.218420028687  -3.24680595572e-11  2.57651054979e-11  -4.32031632017e-11  -0.00181513961275  0.00671217100944  -0.0978296075892  
0.226545095444  -3.02415742879e-11  2.3998030427e-11  -4.02351378955e-11  -0.00129283045701  0.00647534449689  -0.018843477142  
0.234608888626  -2.8000078536e-11  2.22192755993e-11  -3.72483716682e-11  -0.000803043978219  0.0062167081452  0.0588865565448  
0.242769956589  -2.57586269491e-11  2.0440742621e-11  -3.42618715609e-11  -0.000346295686972  0.00593956055315  0.134975516008  
0.250814914703  -2.35312971499e-11  -0.00197766603593  -0.000629946576548  -0.000914092690019  0.00614276994788  0.210664757786  
0.258960962296  -2.13307901461e-11  -0.00853607854117  -0.0027820513846  -0.00143215807569  0.00579637319248  0.287101785356  
0.267118930817  -1.70549199207e-11  -0.0357592463857  -0.0120481033406  -0.00422160991828  0.00553336563721  0.441715336383  
0.275168895721  -1.49997183764e-11  -0.0551199975508  -0.0194841678728  -0.00442987818099  0.0056227987622  0.521193077127  
0.283344984055  0.000398639387981  -0.0777776952532  -0.0284288204445  -0.0026118004807  0.00567039693284  0.603162547491  
0.291492938995  0.0007638659679  -0.10333575469  -0.0383932415424  0.00205565676666  0.00567910150079  0.68692152114  
0.299423933029  0.00149454463577  -0.131410366219  -0.049236404486  0.00733949757835  0.00565187781395  0.771018166781  
0.307533025742  0.00255787032085  -0.161631894767  -0.0598748127333  0.0151416857689  0.00608730220269  0.856490354881  
0.315706014633  0.00392141853896  -0.193646073911  -0.0689943435053  0.026209936097  0.00595553029152  0.94190763813  
0.323767900467  0.00555341837128  -0.226323927306  -0.0769730029606  0.0392305939677  0.00579700864197  1.02595090267  
0.331913948059  0.00742280649523  -0.258224489801  -0.0832189685306  0.0549624800631  0.00561480891336  1.1066188344  
0.340008974075  0.00910100314696  -0.289210057633  -0.0878281519551  0.0730974846763  0.0054119002659  1.18367284022  
0.348074913025  0.0101938779105  -0.31797265053  -0.0909001178954  0.0923452418858  0.00568676795976  1.25374262285  
0.356204986572  0.0111386243332  -0.342924197987  -0.0934849533962  0.11249986583  0.00540939016597  1.31693535744  
0.364492893219  0.0119408863926  -0.36381005003  -0.0956048212303  0.13237424101  0.00561557429138  1.37180638448  
0.372443914413  0.012606745439  -0.380816178039  -0.0972826588006  0.151866917905  0.00577090496139  1.4170748196  
0.380584001541  0.0131426574256  -0.394138208019  -0.0985425515897  0.171877950257  0.00538273670492  1.45399837682  
0.388556957245  0.0135553837529  -0.403979447874  -0.0994089398436  0.190260061351  0.00548689654474  1.48220241669  
0.396647930145  0.0138519255853  -0.410549029037  -0.0999069940004  0.206034136482  0.00455759380127  1.5013957711  
0.404731035233  0.0140394617789  -0.414060156209  -0.100694196715  0.221287360086  0.00466344940578  1.51215864953  
0.412791967392  0.0137266514169  -0.414728467699  -0.102059403514  0.233982872422  0.00423654397803  1.51428572749  
0.420936107635  0.0133529090754  -0.412770507942  -0.104265080679  0.245231802528  0.00381647074157  1.5084341961  
0.42899107933  0.0129252940655  -0.408402312977  -0.10723248153  0.25606806762  0.00390093598059  1.49605275999  
0.437174081802  0.0124506430008  -0.401838108888  -0.111200042077  0.264473620129  0.00345902285946  1.47613909618  
0.445230960846  0.0119355537283  -0.393684618303  -0.115432962686  0.270584938624  0.00302993332792  1.44940152395  
0.453488111496  0.0113863629086  -0.384115933962  -0.120200342849  0.275533613596  0.00211963655282  1.4165357638  
0.461540937424  0.0108091269582  -0.372905728457  -0.124167516209  0.277396366747  0.00126683890703  1.37742843408  
0.469535112381  0.0106082451898  -0.36064650899  -0.129267703253  0.279375416236  0.000472381695643  1.33439308625  
0.477591991425  0.0103571177307  -0.347100323802  -0.134117556576  0.278475256735  -0.000759042770655  1.28641556385  
0.485704898834  0.0100611948895  -0.332846748074  -0.139022180708  0.276907765863  -0.00139445920058  1.23497045709  
0.493817090988  0.00972579112645  -0.318029092282  -0.143314721579  0.273743105515  -0.00197187963547  1.17985317916  
0.501903057098  0.00935605340497  -0.302783218668  -0.147648015595  0.270116308333  -0.00298794368533  1.12248390915  
0.509973049164  0.00895694224531  -0.287236915473  -0.151992015173  0.265094366784  -0.00390659299945  1.06260062149  
0.518083095551  0.00853321540653  -0.271905595902  -0.156002564729  0.258816738613  -0.00472967609075  1.00077018548  
0.526200056076  0.00808941409379  -0.256867747375  -0.159996637796  0.252411107944  -0.00545950272475  0.93752756853  
0.534470081329  0.00762985158077  -0.242193933272  -0.163950728014  0.245927382266  -0.00560307225986  0.874168108361  
0.542490005493  0.00715860413012  -0.227946979301  -0.167527404998  0.239411871372  -0.00570070404785  0.811094198114  
0.550546884537  0.00667950409004  -0.214577679742  -0.171365183336  0.231916067382  -0.00575536990564  0.747088914529  
0.558657884598  0.00619613504084  -0.202100991143  -0.175104180695  0.224553998253  -0.00577006602269  0.684208112409  
0.566781044006  0.00571182886251  -0.190129478456  -0.178729218496  0.218352424392  -0.00574780409733  0.621961719959  
0.574822902679  0.00522966459232  -0.179093722184  -0.182542261362  0.21226835382  -0.00618730130077  0.560686856878  
0.582942962646  0.0047524689406  -0.168989590661  -0.186189062868  0.206330407422  -0.00605857433629  0.500688459688  
0.591062068939  0.00428281833283  -0.159807573096  -0.190291863132  0.200563915675  -0.00590222087173  0.442239868589  
0.59917807579  0.00382304234673  -0.151928576084  -0.194157275551  0.195982967698  -0.00572136791343  0.385583583613  
0.607245922089  0.00337522841492  -0.14530036134  -0.198095894197  0.192523986973  -0.00601474980106  0.330932153496  
0.615550994873  0.00254258901633  -0.140657963204  -0.201444506387  0.190121344465  -0.00575232199508  0.278469181483  
0.623542070389  0.00175879649775  -0.137876147734  -0.204544288501  0.188707764016  -0.00547454807039  0.228350432711  
0.631470918655  0.00102493363831  -0.136827742405  -0.207079334101  0.188215422518  -0.00518435548114  0.180705028439  
0.639637947083  0.000341679694908  -0.13738468734  -0.209393730567  0.190558697419  -0.00438879997423  0.136429847282  
0.64771604538  -0.000290652957721  -0.139418899115  -0.211490248469  0.195502771724  -0.00313213267564  0.0939518373078  
0.655870914459  -0.000872092284297  -0.14280297521  -0.21368877764  0.202815235684  -0.00145785872657  0.0549813896081  
0.663954973221  -0.00140297999425  -0.147411209324  -0.216283748659  0.212266650596  9.54998033298e-05  0.0186950152621  
0.672061920166  -0.00188394506401  -0.153119962674  -0.21891229517  0.22264106276  0.00202338509162  -0.0148904299868  
0.680144071579  -0.00231587753164  -0.159808363402  -0.221871475971  0.234793630291  0.00378905719821  -0.0457761455661  
0.688292980194  -0.00269990270534  -0.16735884208  -0.224801272727  0.248511084739  0.00588984631304  -0.0739799961138  
0.696415901184  -0.00303735591372  -0.176053100351  -0.227369413271  0.262595187334  0.00828670827261  -0.0995351068352  
0.704504966736  -0.00332975791264  -0.185352890152  -0.229904383612  0.277921628527  0.010446070609  -0.122488473176  
0.712593078613  -0.00357879105016  -0.195153465752  -0.232393030926  0.293307246162  0.0133643736781  -0.142899592329  
0.720690965652  -0.00378627627889  -0.205750609229  -0.23513912286  0.309643521055  0.0154774802808  -0.161632257349  
0.728808879852  -0.00395415109242  -0.216621215316  -0.237474026245  0.326755085389  0.0183218742849  -0.177114239886  
0.736897945404  -0.00408444845122  -0.22767656664  -0.239731050096  0.343484299659  0.0208317458289  -0.190294888339  
0.745021104813  -0.00417927675199  -0.238438108463  -0.242218781826  0.359756792105  0.0235130773032  -0.201271061222  
0.753108978271  -0.00424080088371  -0.248861838739  -0.244587887287  0.375507193755  0.0258403091175  -0.210145762364  
0.761238098145  -0.0042712244037  -0.258909370485  -0.246832861863  0.391669684967  0.0278264723818  -0.216233910127  
0.769463062286  -0.00427277285734  -0.268547447096  -0.248949314137  0.40712036824  0.0294857159365  -0.220507152237  
0.77755689621  -0.00424767825622  -0.277748027833  -0.250934176289  0.421818754194  0.0308331195463  -0.223873010653  
0.785573959351  -0.00419816472117  -0.286092469517  -0.252785712846  0.436723239792  0.0323802372942  -0.225587919918  
0.793622016907  -0.0041264352888  -0.293595428598  -0.25450278088  0.450734097916  0.0336062644721  -0.225769381372  
0.801771879196  -0.00403465987315  -0.299880069534  -0.256085623125  0.463833521828  0.0345285051471  -0.224535312928  
0.809881925583  -0.00392496436753  -0.305002043825  -0.257850823627  0.476011139231  0.0356605272907  -0.222003265091  
0.817909955978  -0.00379942086563  -0.309019724749  -0.259457194524  0.487262920189  0.0364833214531  -0.218289719798  
0.825984954834  -0.00366003897573  -0.311993993652  -0.261223168356  0.497590709759  0.0370157737521  -0.213509450318  
0.834109067917  -0.00350875819714  -0.313987297542  -0.263125400654  0.507002315147  0.0377728279346  -0.206981807999  
0.842209100723  -0.0033474413236  -0.315459004584  -0.264825054117  0.51352760327  0.0382366517302  -0.200469211235  
0.850419998169  -0.00317786883492  -0.316440481735  -0.266327296911  0.519332740643  0.0384271175431  -0.193217824833  
0.858455896378  -0.00300173423507  -0.316963693996  -0.267638129349  0.524437833816  0.0393556824765  -0.184536861367  
0.866549968719  -0.00282064029191  -0.316665382226  -0.269080725423  0.528865539092  0.0394721804595  -0.176177434387  
0.874622106552  -0.00263609613223  -0.316006751826  -0.270319457978  0.532640773841  0.0403260200506  -0.166580246336  
0.88266992569  -0.00244951514349  -0.315415368176  -0.271678075246  0.535790940999  0.0408632796049  -0.157487186832  
0.890778064728  -0.00226221363275  -0.314098702223  -0.273139676909  0.538344826422  0.0411051756761  -0.148122470814  
0.898926019669  -0.00189022572145  -0.310699809751  -0.276303006675  0.542695513954  0.0422340289767  -0.127370143359  
0.907056093216  -0.00170768405206  -0.309073020161  -0.277340743429  0.543565507602  0.04258550735  -0.116985011141  
0.915215969086  -0.0015287131294  -0.306049524084  -0.277839970062  0.541985322951  0.0426453541985  -0.106679921734  
0.923196077347  -0.00135414669554  -0.303734228734  -0.277837359354  0.540137765334  0.0424358379092  -0.0973057621861  
0.931226968765  -0.00118472642717  -0.300504414311  -0.27705756111  0.537063693076  0.0419791701812  -0.0880553393088  
0.939538002014  -0.00102110447894  -0.298428742882  -0.277143653116  0.535851447277  0.0417930813628  -0.078183315046  
0.9475440979  -0.000863846385032  -0.296243975302  -0.276765167027  0.534381257213  0.0413620250111  -0.0693854705414  
0.955631017685  -0.000713434273124  -0.293972112079  -0.275960485766  0.531690989915  0.0412033901386  -0.0608399350855  
0.963546991348  -0.000570270346666  -0.291634016988  -0.274767690619  0.529874871166  0.0408013169328  -0.0525801466311  
0.971682071686  -0.000434680592878  -0.289249345238  -0.273224223282  0.527884761545  0.0406728956911  -0.0438420612008  
0.979798078537  -0.000306918676027  -0.28683651529  -0.271683061769  0.52475526352  0.0398062749185  -0.0355101629382  
0.987796068192  -0.000187169977385  -0.284017103549  -0.270153879241  0.52257706493  0.0397512421562  -0.0276046588691  
0.995984077454  -7.55557454255e-05  -0.280840257099  -0.268961319307  0.520298284977  0.0389580466577  -0.020141519934  
1.00405788422  2.78626780684e-05  -0.277353351778  -0.267770671453  0.517941036374  0.0384802955652  -0.0131327312796  
1.01209807396  -0.000275558144134  -0.273206608171  -0.266905528449  0.515525858295  0.0378007832012  -0.00658652728631  
1.02035689354  -0.0005537237909  -0.268476980912  -0.266030010524  0.5130724248  0.0369393777185  -0.000507631633192  
1.02852106094  -0.000806857748143  -0.262843492139  -0.265150811775  0.510598935192  0.036411255466  0.00510249948209  
1.03648710251  -0.00103533196524  -0.256411361691  -0.263957594288  0.507130698446  0.0356981257898  0.0102454327219  
1.04447197914  -0.00163828024845  -0.249282423974  -0.263114204353  0.503758043231  0.035314473338  0.0157186456857  
1.05254602432  -0.00218426160018  -0.241555118061  -0.262282747377  0.499503093919  0.0347414062311  0.0198762796876  
1.06064605713  -0.00307284400744  -0.23332377045  -0.261467449849  0.494460545779  0.0344927892941  0.0235877479657  
1.06876802444  -0.00387338030308  -0.224678698583  -0.260672025719  0.488723027573  0.0340493752229  0.0276578018665  
1.07687497139  -0.00458772587304  -0.215705591664  -0.259899962147  0.481388689348  0.0344204426712  0.0312402278998  
1.08507108688  -0.00521813762416  -0.206485707824  -0.258838249444  0.472626996091  0.0340533596506  0.0335574906205  
1.09309887886  -0.00576721826697  -0.197490838241  -0.257199412334  0.463594560111  0.0339990860554  0.0362796662054  
1.10115695  -0.00623787331429  -0.18875954488  -0.256618546715  0.455359725833  0.0342337011706  0.0377722006047  
1.10941791534  -0.0066332695384  -0.180325379654  -0.256069109717  0.445929068919  0.0352290300287  0.0389143782633  
1.11748600006  -0.00695679503157  -0.171822228472  -0.254604450696  0.435453910304  0.0364241435453  0.0397263291913  
1.12561392784  -0.00721202099332  -0.162912632125  -0.251673078984  0.423088943541  0.0373003919912  0.0402286493738  
1.13353395462  -0.00740266534756  -0.153683438601  -0.248039107091  0.409057605706  0.0378770769417  0.0404422578967  
1.14160299301  -0.00832983315117  -0.146194404038  -0.247253679056  0.398533255967  0.0396609066145  0.0403882420107  
1.14977288246  -0.00953188298795  -0.138774908196  -0.24625811564  0.389326454536  0.0420515193799  0.0408808451769  
1.15773701668  -0.0109800953836  -0.131069979349  -0.245075295707  0.379409182035  0.0444912485401  0.0410814639517  
1.16579294205  -0.0130450080367  -0.123545087296  -0.243410647794  0.369889332212  0.0469611233546  0.041011498923  
1.17393708229  -0.015665845948  -0.115837482081  -0.241312363929  0.358812525054  0.048947763889  0.0406923903001  
1.182076931  -0.0187832754749  -0.108009181616  -0.238827040518  0.348351167157  0.0509720473347  0.0401454603861  
1.19023299217  -0.0223393017138  -0.100118149147  -0.236000244002  0.337531055467  0.0525227911642  0.0393917903749  
1.19822788239  -0.0262778943529  -0.0922182375289  -0.232560042152  0.326447178651  0.0536271175689  0.0384521082098  
1.20644307137  -0.0301461758849  -0.0843591740405  -0.228259319969  0.315188815416  0.0543128277324  0.0381398190819  
1.21451592445  -0.0343243115601  -0.0765865719811  -0.223507557384  0.302847980634  0.0546081631042  0.0368219140131  
1.22259497643  -0.0387622298691  -0.0689419669061  -0.218369366662  0.290576702126  0.0545415959149  0.0361708616637  
1.23066592216  -0.0434123078951  -0.0614628753613  -0.212590560895  0.27844578001  0.0541416345212  0.0353458460716  
1.23885893822  -0.0478304807018  -0.0541828740057  -0.206572815799  0.266519434852  0.0539322591605  0.0351586092134  
1.24695611  -0.052007407636  -0.0471316970476  -0.200371951471  0.253864585659  0.0534043720491  0.0347676858178  
1.25501704216  -0.0563345263443  -0.0403353499691  -0.193724686699  0.240616314132  0.0525859630418  0.0349842745954  
1.26325893402  -0.0607732354836  -0.0338162375666  -0.187338999132  0.228885757745  0.0520003739766  0.0357600408463  
1.27140188217  -0.0656859563528  -0.0275933044033  -0.180602168876  0.216645132947  0.0516331792559  0.0370467649017  
1.27947902679  -0.070606861617  -0.0216821858363  -0.173899337383  0.204009965156  0.0509739960052  0.0387967871891  
1.28753399849  -0.0759033034963  -0.0160953678617  -0.166953400435  0.19208073076  0.0500495699506  0.040963277931  
1.29560303688  -0.0811146251653  -0.0108423540989  -0.159510349961  0.179885288304  0.0488862306578  0.0435004576404  
1.30368995667  -0.0866138043367  -0.00592983832541  -0.151970959368  0.167519978618  0.0475097467127  0.045570668452  
1.3117609024  -0.0919456400292  -0.00136188105899  -0.144073528275  0.156066160851  0.0459452093153  0.0479904206182  
1.3198800087  -0.0966914708697  0.00285991122324  -0.136210946514  0.145524200321  0.0442169291153  0.0507175860486  
1.32795906067  -0.100867319066  0.00673620554507  -0.128429231272  0.134897330719  0.0418526381817  0.0529182340975  
1.3360490799  -0.104491419755  0.0102697617948  -0.120770409014  0.124258081358  0.0394120811638  0.0546195568201  
1.34422588348  -0.107185565283  0.0134652531206  -0.11327248077  0.11466487081  0.0374120497862  0.0566427378293  
1.35247206688  -0.109403851894  0.0163290883926  -0.105653510542  0.105104654602  0.0343436511765  0.0573642924467  
1.36054205894  -0.111169462731  0.0188692376732  -0.0982862608762  0.0956341877064  0.0317959526207  0.0592598375385  
1.36851596832  -0.11290512444  0.0210950615456  -0.0911968381996  0.0863052897733  0.0292486799725  0.0606404226642  
1.37659788132  -0.11420385481  0.0230171450599  -0.0840916930775  0.0781561090918  0.0267175981934  0.0623305474052  
1.38465595245  -0.115091500636  0.0246471369701  -0.0770161417084  0.0701544450641  0.0242171618141  0.0642957069043  
1.39283394814  -0.115195828301  0.0259975948481  -0.0700118075087  0.0623384873454  0.0217605130054  0.0649160893654  
1.40086603165  -0.115374170592  0.0270818365806  -0.0631166405205  0.0547423360581  0.0193595018804  0.0666715890761  
1.4089589119  -0.114822515914  0.0279137986752  -0.0563649670101  0.0473960796424  0.0170247132409  0.067876993396  
1.41708302498  -0.11439821063  0.0285079017258  -0.0501035457995  0.0403259195195  0.0142697916331  0.0685674798342  
1.42516088486  -0.113695295596  0.0288789233176  -0.0440172058111  0.0335543092048  0.011640147033  0.0695718670182  
1.43344688416  -0.112341207403  0.029041878583  -0.0381301265865  0.0271001058866  0.00914239132921  0.0700664434533  
1.4414498806  -0.110394891825  0.0290119085553  -0.0324633826558  0.0209787325611  0.00628617538586  0.0700876940447  
1.44954109192  -0.108313042854  0.0288041764079  -0.0270350447843  0.0152023488978  0.00361265760826  0.0704653626655  
1.45755290985  -0.106119116463  0.028433771612  -0.0218603009879  0.00978002909815  0.00112426458033  0.0703763276425  
1.46560096741  -0.103835432019  0.0279156219911  -0.0169515860473  0.00471794509784  -0.00117792879481  0.0698573500056  
1.47374105453  -0.101084496676  0.0272644136077  -0.0123187180597  1.95535637937e-05  -0.00329408687788  0.0697380145669  
1.48179292679  -0.0983181929169  0.0264945183685  -0.00796904063079  -0.00332280019978  -0.00522551606689  0.0699882043554  
1.48985791206  -0.0951563526494  0.0256199292013  -0.00390756938997  -0.00737644104598  -0.00747027529261  0.0697845489721  
1.49794197083  -0.0916492974414  0.0246542026153  -0.00013714158089  -0.0100782159995  -0.00899870583519  0.0691635225725  
1.50613093376  -0.087845596671  0.0236104084308  0.00334143243838  -0.0134990735187  -0.0108483158353  0.0673682509902  
1.51418209076  -0.0837918905878  0.022501086432  0.00652921687477  -0.0155791837568  -0.012487011707  0.0660872747793  
1.52247405052  -0.0795327505599  0.0213382096747  0.00942899836844  -0.017401076235  -0.013920980702  0.0652886656883  
1.53049707413  -0.0751105630124  0.0201331541612  0.0120451349793  -0.018973516353  -0.0146615077561  0.0641468037003  
1.53854990005  -0.0705654359382  0.018896674575  0.0143834071428  -0.0212975230216  -0.0162449362566  0.0619022708984  
1.54664802551  -0.0659351268105  0.0176388857564  0.0164508713666  -0.0223175251179  -0.0171089231675  0.0602408397018  
1.55467009544  -0.0612549906817  0.0163692495872  0.0182557173642  -0.0231197797427  -0.0177996207118  0.0583344720601  
1.56274700165  -0.0565579472245  0.015096566948  0.0198071292454  -0.0237162400017  -0.0183262086627  0.0570071292262  
1.57083797455  -0.0518744654489  0.0138289744016  0.0211151513101  -0.0251105936795  -0.0196895724672  0.0546358512204  
1.57903194427  -0.042657831482  0.0113382946775  0.0230447348616  -0.0262121673765  -0.0212886666122  0.0494557890347  
1.58715891838  -0.0381734483584  0.010128188452  0.0236895515266  -0.0269374718672  -0.0220415182728  0.0459079778156  
1.59519910812  -0.0338002377921  0.00894915515075  0.0241372592125  -0.0264478439106  -0.0221033970738  0.0439368623706  
1.60316705704  -0.0295567155584  0.00780610126722  0.0244003807391  -0.0268234387316  -0.0230146665518  0.0410529451854  
1.6114180088  -0.0254591549915  0.00670332905599  0.024491612559  -0.0260119868947  -0.0232166534865  0.0389311915556  
1.61949205399  -0.0215216600539  0.00564455673515  0.0244237324659  -0.0260934469625  -0.0237545368046  0.0359393795119  
1.62751293182  -0.0177562461994  0.00463294074558  0.0242095139626  -0.0260066398245  -0.0241032238557  0.0329567133505  
1.63560605049  -0.0141729279234  0.00367109976941  0.0238616473043  -0.0257651378657  -0.0242752231691  0.030001021163  
1.64363193512  -0.0107798119361  0.00276114022198  0.0233926671875  -0.0243910358098  -0.0237874768544  0.0278816916116  
1.65168809891  -0.00758319494642  0.00190468294464  0.0228148870183  -0.022972173179  -0.0236856286397  0.0249607045005  
1.65977191925  -0.00458766508897  0.00110289083952  0.0221403396571  -0.0225122752811  -0.0234446754963  0.0229046494134  
1.6678750515  -0.00179620608343  0.000356497201554  0.0213807245052  -0.0209569533076  -0.0230768973207  0.0200729193308  
1.67598795891  0.000789696733005  -0.000334165482187  0.0205473607688  -0.0203836692342  -0.0225944227169  0.018129532419  
1.68406200409  0.00316994930356  -0.000969136480953  0.0196511467113  -0.0187369767639  -0.022009150691  0.0162245004526  
1.69214987755  0.00534574142818  -0.00154879771644  0.018702524682  -0.0180931955677  -0.021828401284  0.0135735121541  
1.70018911362  0.00731943970982  -0.00207384479132  0.0177114516895  -0.0173871101724  -0.0215262008693  0.011044044711  
1.70846509933  0.00909448150664  -0.00254525831973  0.0166873752721  -0.0156364973243  -0.0206181322878  0.00943552469951  
1.71661806107  0.0106752704703  -0.00296427571426  0.0156392144048  -0.0139246957403  -0.0196525586287  0.00789333070776  
1.72456407547  0.0120670741955  -0.00333236356911  0.0145753451683  -0.0122593481228  -0.019135659323  0.00562872773287  
1.73262405396  0.0132759244527  -0.00365119076451  0.0135035909015  -0.0116385987711  -0.0180444134101  0.00350496619866  
1.74081301689  0.0143085204218  -0.00392260240355  0.012431216549  -0.0109938237542  -0.0169258588595  0.00231745440497  
1.7489490509  0.0151721352953  -0.00414859467832  0.0113649269138  -0.0093394476125  -0.0157890740012  0.00120776991426  
1.75700306892  0.0158745265698  -0.00433129074943  0.0103108685227  -0.00874691281222  -0.0151382370615  0.000176735101225  
1.76514005661  0.0164238502935  -0.00447291770991  0.00927463481236  -0.00715469907801  -0.0139482651435  -0.00077535569649  
1.77311110497  0.016828579499  -0.00457578469227  0.00826127434569  -0.00663306234956  -0.0127640752369  -0.00164872102888  
1.78136301041  0.0170974269991  -0.00464226216589  0.00727530177315  -0.00611077729382  -0.0120882907195  -0.00244405116057  
1.78961992264  0.0172392726884  -0.00467476246087  0.00632071125694  -0.00559110607879  -0.0108942403448  -0.00316246716597  
1.79755306244  0.0172630954515  -0.00467572154399  0.00540099208407  -0.00507707159834  -0.0102209524824  -0.00380548052583  
1.80566191673  0.0171779097422  -0.00464758206269  0.00451914620128  -0.00457142708414  -0.00953650271376  -0.00437495343685  
1.81379199028  0.0169927068663  -0.00459277766399  0.00367770741387  -0.00407665994961  -0.00884599104963  -0.00487306002562  
1.82187795639  0.0167164009657  -0.00451371858649  0.00287876199996  -0.00359499698548  -0.0081541743731  -0.00450911970404  
1.82997202873  0.0163577796749  -0.00441277851634  0.00212397050248  -0.00213699820443  -0.00746544838267  -0.00493854730127  
1.83804893494  0.0159254593938  -0.00429228269042  0.00141459047207  -0.00177030327178  -0.00678384834569  -0.00451087763839  
1.84619998932  0.0154278450955  -0.00415449722381  0.000751499945987  -0.00142111708795  -0.00611305203079  -0.00408838343677  
1.85448288918  0.0148730945663  -0.00400161963288  0.00013522146006  -0.00109021740087  -0.00496067841745  -0.00367330995567  
1.86252188683  0.0142690869569  -0.00383577051981  -0.000434053596687  0.000213173756764  -0.0043626635496  -0.00247452889072  
1.8706099987  0.0136233955043  -0.00365898638017  -0.000956440462541  0.00141408775736  -0.00328830199513  -0.00135342638666  
1.87864804268  0.0129432642698  -0.00347321349086  -0.00143233648374  0.00251299483207  -0.00277262400152  -0.000310955810957  
1.88683104515  0.0122355887272  -0.00328030283268  -0.00186239674743  0.00351099259752  -0.00227978359891  0.000652516134391  
1.89485287666  0.0115069000209  -0.00308200599848  -0.0022475100064  0.00341830764514  -0.0018110517346  0.00153714159182  
1.90295004845  0.0107633527084  -0.002879972036  -0.00258877502233  0.00331156829234  -0.00136746642918  0.00234355032496  
1.91106104851  0.0100107157909  -0.00267574517235  -0.00288747744196  0.00319255905317  -0.000949829024902  0.00386593726266  
1.91921710968  0.00925436683473  -0.00247076336573  -0.00314506730837  0.00405438326344  -0.000558717585205  0.00524616589423  
1.92727208138  0.00849928897833  -0.0022663576293  -0.00336313729753  0.00383275429408  -0.00019450063994  0.00648667981393  
1.93539595604  0.0077500706198  -0.00206375207139  -0.00354340175913  0.00459592023356  -0.000353057150483  0.00759062495009  
1.9435839653  0.00701090757942  -0.00186406459615  -0.00368767662911  0.00527134257905  -0.000497128612905  0.00856175074503  
1.95157289505  0.00628560753094  -0.00166830820911  -0.00379786027109  0.00586160930631  -0.000626929669647  0.00940434002893  
1.95967197418  0.00557759649834  -0.00147739287249  -0.00387591529349  0.00537825533696  -0.00123837589972  0.0101231410267  
1.96776390076  0.00488992721724  -0.00129212785614  -0.00392385137932  0.005890420541  -0.0017946829713  0.0107233017542  
1.97584795952  0.00422528916438  -0.001113224531  -0.00394370915683  0.00533488073228  -0.00279236847184  0.0112103070263  
1.98393297195  0.00358602006339  -0.000941299553394  -0.0039375451301  0.00578073307601  -0.00369528415002  0.0115899182637  
1.99200892448  0.00297411868079  -0.000776878390074  -0.00390741768109  0.00615612110213  -0.00500087255865  0.0118681162563  
2.0001680851  0.0023912587327  -0.000620399135629  -0.00385537414657  0.00646415353157  -0.00617407905085  0.0120510470077  
2.00825595856  0.00183880372963  -0.00047221657591  -0.00378343896697  0.00571673565527  -0.00721788239712  0.0121449707591  
2.01645588875  0.00131782259446  -0.000332606453144  -0.00369360289733  0.00598323507886  -0.00863155484125  0.0121562142604  
2.02455806732  0.000829105896532  -0.000201769890591  -0.00358781326489  0.0052005253696  -0.00988191755528  0.0120911263346  
2.03258109093  0.000373182553383  -7.98379368873e-05  -0.00346796525269  0.00543767687511  -0.010973871284  0.0119560367545  
2.04070591927  -4.9663139985e-05  3.31238074098e-05  -0.00333589418337  0.00463128426218  -0.0119129353992  0.0117572184301  
2.04878807068  -0.000439374285348  0.000137110516171  -0.00319336877369  0.00385871340682  -0.0132008555092  0.0115008528843  
2.05684089661  -0.000796104081229  0.000232173449631  -0.00304208532611  0.00411357729334  -0.0138111592036  0.0111929989764  
2.06493091583  -0.00112019856175  0.000318415282109  -0.00288366282078  0.00432315275716  -0.0142883365544  0.0116326926536  
2.07305693626  -0.00141217947846  0.0003959854733  -0.00271963886858  0.00349821173505  -0.0151354818462  0.0111729409087  
2.08114099503  -0.0016727274204  0.000465075708484  -0.00223547960195  0.00271556568011  -0.0153272199835  0.0106795000347  
2.08924889565  -0.00190266525852  0.00052591543061  -0.00177501978607  0.00197682121789  -0.0159046204504  0.0101580738528  
2.09746289253  -0.00210294199221  0.000578767484856  -0.00133928801958  0.00128315587686  -0.0163384858009  0.00961407161735  
2.1055688858  -0.00227461706691  0.000623923893963  -0.00092906938423  0.000635375947385  -0.0161415442638  0.00984575044748  
2.11355996132  -0.00241884522352  0.000661701780428  -0.000544929644098  0.00102535126574  -0.0158596784931  0.00999835268071  
2.12163090706  -0.00253686193257  0.000692439449456  -0.000187228759647  0.000387308486159  -0.0159969524447  0.0092839166987  
2.12973403931  -0.00262996945791  0.000716492644509  0.000143865369778  0.00078777268085  -0.0160242860372  0.00856728890864  
2.13777303696  -0.00269952358776  0.000734230985299  0.000448363038128  0.00016087943529  -0.015454322988  0.00785311356555  
2.14583802223  -0.00274692106361  0.000746034596171  0.000726438835279  -0.000418377824567  -0.0153283651996  0.00714563345881  
2.15396690369  -0.00277358773076  0.000752290931019  0.000978417808699  -0.000950069264643  -0.0151170524642  0.00644872044238  
2.1620221138  -0.00278096742816  0.000753391799199  0.00120476176545  -0.00143458707943  -0.0148283066134  0.00576588019704  
2.17012000084  -0.00277051162903  0.000749730595286  0.00140605578868  -0.00187258584254  -0.0144699312819  0.00510025889585  
2.1782810688  -0.00274366983831  0.000741699734051  0.00189898174257  -0.00127354747033  -0.0135538512104  0.00445465158384  
2.18654608727  -0.00270188074782  0.000729688290643  0.00234186355838  -0.000713075652248  -0.0131204428602  0.00383151208668  
2.19460988045  -0.0026465641451  0.000714079844708  0.0027358267652  -0.000191687913749  -0.0121435478296  0.00402609152315  
2.20257806778  -0.00257911356784  0.000695250525974  0.0030822235122  -0.000700997021218  -0.0111670946977  0.00418059984308  
2.21066188812  -0.00250088969141  0.000673567257813  0.00338259624316  -0.000175038328893  -0.0101971266659  0.00429716271987  
2.218791008  -0.00241321443378  0.000649386194308  0.00395473243111  0.000311208401426  -0.00923916127079  0.00437800237297  
2.22689795494  -0.00231736575862  0.000623051345491  0.00445791444174  -0.000233635200148  -0.00829821320751  0.00363226314665  
2.23506689072  -0.00210601376727  0.00056522863132  0.00526654498611  -0.000201018164861  -0.00743483069759  0.00304156570942  
2.24310493469  -0.00199280915432  0.000534358201554  0.00557714366629  -0.000698837515936  -0.00698313588085  0.00234001231316  
2.25113010406  -0.00147748019808  0.000502567319548  0.00582901041335  -0.00115370513343  -0.00701886484724  0.00167837007924  
2.25925898552  -0.000992972609101  0.000470124780607  0.00602514125297  -0.00156609904625  -0.00651256255027  0.00185080091592  
2.26722788811  -0.000539914425929  0.000437282558075  0.00616864559943  -0.00193675666721  -0.00600512281293  0.00199838330898  
2.27542996407  -0.000118676491505  0.000404275545153  0.0062627181517  -0.00127520722518  -0.00549980028791  0.00212210383789  
2.2835559845  0.00027059666167  0.000371321422783  0.00631061244183  -0.00164847626357  -0.00549527233779  0.00142992014114  
2.29153490067  0.000627970139821  0.000338620644631  0.00631561607161  -0.00198256806184  -0.005952706001  0.000782569353471  
2.29958605766  0.000953702009135  0.000306356530178  0.0062810276602  -0.0022784171089  -0.00584198901906  0.000180615839026  
2.30774497986  0.00124822671401  0.000274695456934  0.006210135513  -0.00154574597351  -0.00570358701196  -0.000375728103222  
2.31576800346  0.00151213868771  0.000243787142903  0.0061061980104  -0.000860325133487  -0.00554052491345  -9.34231015389e-05  
2.32385802269  0.00174617624228  0.000213765010529  0.00597242570489  -0.00121418408881  -0.00585143419228  -0.00062555406494  
2.3319311142  0.00195120581596  0.000184746623543  0.00581196510478  -0.00153306869604  -0.00610190143853  -0.00111251831343  
2.34000492096  0.00212820664818  0.000156834188336  0.00562788411443  -0.0008262716927  -0.00629504747791  -0.00155477280212  
2.3480899334  0.00227825594407  0.000130115111742  0.00542315909264  -0.0011605918209  -0.00643412332217  -0.00195304317603  
2.35619211197  0.00240251458257  0.000104662607382  0.00520066348408  -0.00146178723866  -0.00652246323694  -0.00230827177433  
2.36444687843  0.00250221341459  8.05363430445e-05  0.00496315797202  -0.000739116899199  -0.00606775282654  -0.00182846850637  
2.37255501747  0.00257864019063  5.77831218875e-05  0.00471328209554  -0.00105933670066  -0.00610636536123  -0.00137453636415  
2.3806579113  0.00263312714992  3.64375906198e-05  0.00445354726946  -0.000356745673016  -0.00610409241977  -0.000947311479146  
2.38867092133  0.00266703929695  1.65229681583e-05  0.00418633114146  0.000293550026549  -0.00606410534419  -0.00134049882071  
2.39673089981  0.0026817633847  -1.94821133902e-06  0.00391387321771  -9.98694037567e-05  -0.00549387550261  -0.00169486822313  
2.40480804443  0.00267869761814  -1.89733468009e-05  0.00363827168542  -0.000462160743982  -0.00493379405463  -0.00121808028838  
2.41292405128  0.00265924208596  -3.45590152676e-05  0.00336148135946  -0.000793457939771  -0.00488227128083  -0.00156384437574  
2.42106699944  0.00262478992337  -4.87202185471e-05  0.00308531267823  -0.00109411062545  -0.00480445895851  -0.00187308578683  
2.4290831089  0.00297535369069  -6.1479636065e-05  0.00281143167377  -0.00136463151554  -0.00470286411338  -0.001353567068  
2.43754005432  0.00328024695442  -7.28668880599e-05  0.00254136084052  -0.000614271462683  -0.00457996366578  -0.000865950275962  
2.44532394409  0.00354110898089  -8.2917812889e-05  0.0025924670404  8.16837486406e-05  -0.00443817450086  -0.00120393882874  
2.45358300209  0.00415837314845  -9.1673761839e-05  0.00293951029936  -0.000268305339623  -0.00427984312659  -0.000715116506805  
2.46149897575  0.00470191895443  -9.91809144625e-05  0.00355736225545  -0.000589492676325  -0.00361153209033  -0.000259776110387  
2.46954989433  0.00557271599777  -0.000105489617102  0.00442125673429  -0.000882086444928  -0.00346837241703  -0.000631298044736  
2.47764110565  0.00634133310359  -0.000110653746888  0.00519065187107  -0.00114649016664  -0.00331481393427  -0.000970086620924  
2.48576188087  0.00701091785391  -0.000114730103201  0.00618408313923  -0.00138325102371  -0.00265689565887  -0.000483426806947  
2.49389696121  0.00758500192248  -0.000117777828239  0.00706201633739  -0.00159304531012  -0.00203354322902  -3.15190878998e-05  
2.50201892853  0.00806743562455  -0.000119857858016  0.00782795720242  -0.00177666421047  -0.00194166409912  -0.000407623952918  
2.51011490822  0.00846233927959  -0.000121032404854  0.00880183148916  -0.00193499996952  -0.0018448821491  -0.000752028258301  
2.51845288277  0.00877405667396  -0.000121364472125  0.00964547656302  -0.00107762386504  -0.00174416162045  -0.000271901937495  
2.52653002739  0.00940565256783  -0.000120917401747  0.0103637545633  -0.000280083783925  -0.00164043348537  0.000172666617685  
2.53453588486  0.00992984566315  -0.000119754454714  0.0109619393163  -0.000534128122493  -0.00153457511249  0.00058165070949  
2.54266309738  0.0103517061184  -0.000117938424699  0.0117616267374  -0.00076516944999  -0.00192311323517  0.000162148443213  
2.55067896843  0.0106765595397  -0.000115531284536  0.0124262347872  -0.000973524908196  -0.00226956815275  -0.000225821234143  
2.55876994133  0.0109099202593  -0.000112593865262  0.01296211343  -0.00115966229457  -0.00257503902283  -0.000582270367905  
2.56691598892  0.0114560766288  -0.000109185567151  0.013375929743  -0.00132415100725  -0.00284081132827  -0.000907433329381  
2.57498908043  0.0118887352999  -0.000105364102061  0.0136745909167  -0.000476242299117  -0.00257261302076  -0.000408594997649  
2.58302903175  0.0122140076871  -0.000101185266273  0.013865182739  -0.0006825756279  -0.00280495297044  -0.000739043784874  
2.59119606018  0.0124382112814  -9.67027428456e-05  0.0139549117458  0.00012271960132  -0.00300186183235  -0.00103927947632  
2.59922003746  0.012567800511  -9.19679324432e-05  0.0139510511133  -0.000126636865199  -0.00366046217548  -0.00130975610402  
2.6074450016  0.013007950128  -8.70298114469e-05  0.0138608903371  -0.000355884071209  -0.0037496179997  -0.0015511049588  
2.61559104919  0.0133331985205  -8.193481615e-05  0.013691688716  0.000426282806071  -0.00331285561912  -0.000970963810019  
2.62355995178  0.0135504327102  -7.67267516934e-05  0.0134506326355  0.000153709413955  -0.00338512221273  -0.00122293024923  
2.63158297539  0.0140653235999  -7.14467244135e-05  0.0131447966189  -9.86927041547e-05  -0.00343078326471  -0.000654647568511  
2.63969802856  0.0144529474734  -6.61330961902e-05  0.012781108097  0.000660520189863  -0.00345160329988  -0.000126390028935  
2.64781308174  0.0147207640872  -6.08214593792e-05  0.0123663158258  0.00135672895135  -0.00344938153232  0.000361642488691  
2.6559278965  0.0148764118462  -5.55446308731e-05  0.0119069618651  0.000999060146719  -0.00342592052979  1.64181695593e-05  
2.66402292252  0.01492763245  -5.03326638635e-05  0.0114093570153  0.000662921109659  -0.00338301476401  -0.000302135785466  
2.67212796211  0.0148822148182  -4.52128758346e-05  0.0108795595972  0.00134016990194  -0.00332244010027  -0.000594084348319  
2.68027901649  0.0143493091574  -4.02098913736e-05  0.0103233574455  0.000965151167358  -0.00324594421825  -0.000859680699608  
2.68842101097  0.0137686877357  -3.53456983707e-05  0.00974625297995  0.00061321945875  -0.00365084934682  -0.00109932194398  
2.69662690163  0.0131476731446  -3.06397162242e-05  0.00915345120667  0.000284802334406  -0.00350606493765  -0.00131353547204  
2.70456409454  0.0124932560684  -2.61088746892e-05  0.00854985049754  0.000971520528111  -0.00335073915654  -0.000709840652491  
2.7126250267  0.0118120918347  -2.17677020629e-05  0.00794003598844  0.00060752478694  -0.00318667219187  -0.000941702036113  
2.72072601318  0.0111104851366  -1.76284214351e-05  0.00732827543452  0.00125938759327  -0.00301556106775  -0.00114974643185  
2.72888302803  0.0103943781174  -1.37010537696e-05  0.00671851735738  0.000861455623607  -0.0033346260724  -0.00133450302583  
2.73695588112  0.00966934163061  -9.99352665096e-06  0.00611439131764  0.00148044029856  -0.00311262861414  -0.000703508058481  
2.74502301216  0.00894056948312  -6.51178759375e-06  0.0055192101463  0.00105081060242  -0.00288852607816  -0.000117102935639  
2.75314497948  0.00821287546617  -3.25992083852e-06  0.00493597396892  0.000647975397099  -0.00266389076555  -0.000368619284617  
2.76127696037  0.00749069297539  -2.40266649341e-07  0.00436737585852  0.000272390760938  -0.00244015843948  -0.000598350332788  
2.76932907104  0.00677807702169  2.54645782735e-06  0.00381580895562  -7.57274097806e-05  -0.00221864779708  -0.000806532745683  
2.77750706673  0.00607870843485  5.10103700953e-06  0.00328337489732  0.000595056709086  -0.00200056137173  -0.000200422517965  
2.78558492661  0.00539590006345  7.42563543776e-06  0.00277189340153  0.00121010870021  -0.00178698708653  0.000359907034812  
2.79369306564  0.00473260477775  9.52367720075e-06  0.00228291285715  0.00176990147056  -0.00157890039844  0.000874503114972  
2.80172991753  0.00409142508572  1.13997268985e-05  0.00181772177628  0.00227525003065  -0.00137716697423  0.00134372178645  
2.80980300903  0.00347462417752  1.3059372768e-05  0.00137736097069  0.00272724407764  -0.00118254584012  0.000975048701819  
2.81792402267  0.00248550461256  1.45091125276e-05  0.00096263632042  0.00213581295097  -0.000995692948873  0.000628915059611  
2.8260819912  0.00155772914153  1.57562424388e-05  0.000574132009584  0.00256840870465  -0.000321461654754  0.00109887283063  
2.83419704437  0.000692309077385  1.68087500236e-05  0.000212224110713  0.00295151418897  -0.000193262093836  0.000732430309383  
2.84246206284  -0.000110224327045  1.76752108181e-05  -0.00012290559359  0.00328655726177  -7.38332938299e-05  0.00118298429096  
2.85064792633  -0.00084977142413  1.83646894922e-05  -0.000431255655977  0.0035751893452  0.000532485735298  0.000798122361752  
2.85856199265  -0.00152663128369  1.88866456088e-05  -0.000712990973589  0.00381922175049  0.000592744518472  0.000438154718289  
2.86670398712  -0.0021414688834  1.92508442488e-05  -0.000968428850853  0.00402060202184  0.000644627774576  0.000103412200649  
2.87477588654  -0.00269528257492  1.94672716783e-05  -0.0011980251982  0.00318998463477  0.0011841850924  -0.000205985579745  
2.88296198845  -0.00362530666447  1.94973941936e-05  -0.00158212871235  0.00257245683678  0.00116653535802  -2.24299355066e-05  
2.89112210274  -0.00400489518443  1.93314816618e-05  -0.00173811987376  0.00179737864678  0.0016436666993  -0.000322521580928  
2.89923000336  -0.00433015555715  1.90584508464e-05  -0.00187121194604  0.00107131409891  0.00207357281163  -0.000597314553991  
2.90721201897  -0.00460328635023  1.86883123444e-05  -0.00198235646974  0.00039496515461  0.00196152983158  -0.000847067084029  
2.91544389725  -0.00482663904204  1.82309023993e-05  -0.00207256735294  0.000760077038724  0.00234169383517  -0.00107217278979  
2.9235060215  -0.00500269155441  1.76958353778e-05  -0.00214290973587  0.00109216313499  0.00218212432756  -0.00127314772554  
2.93156290054  -0.00513402305512  1.70924613169e-05  -0.00219448940189  0.00139168929456  0.00202137882669  -0.00145061767286  
2.93957090378  -0.00522329008807  1.64298284014e-05  -0.00254442806972  0.000667917696667  0.00186056476525  -0.0016053057378  
2.94761610031  -0.00527320407617  1.57166502339e-05  -0.00285141778501  0.000987557181667  0.00170068570399  -0.000944896518033  
2.95569491386  -0.00528651023007  1.49612777196e-05  -0.0031168754314  0.000284882964986  0.00104705087153  -0.00112298501067  
2.96379804611  -0.00526596788455  1.41716753853e-05  -0.00334237741394  -0.000365046613931  0.000437640994388  -0.00128030681556  
2.97189807892  -0.0052143322737  1.33554019356e-05  -0.00352962577958  2.91510356852e-05  -0.000127175922977  -0.000624344383807  
2.98000907898  -0.00513433774641  1.2519594838e-05  -0.00368042789808  -0.000598803611605  -0.000647355663282  -0.000808524032724  
2.98814105988  -0.00502868241451  1.16709587191e-05  -0.00379667706656  -0.000182923014717  -0.00112313452302  -0.000973416221326  
2.9962580204  -0.00490001421765  1.0815757348e-05  -0.00388033408629  0.000201844516979  -0.00205070902229  -0.001119465145  
3.00438404083  -0.00475091838142  9.95980897964e-06  -0.00393340985078  -0.00043591693299  -0.00239786027117  -0.00124722705495  
3.01256895065  -0.00458390623837  9.10848482487e-06  -0.00395794897456  -3.00931944413e-05  -0.00270315850636  -0.00135732853454  
3.02067708969  -0.00440140537565  8.26671041299e-06  -0.00395601448363  -0.000646956101577  -0.00346367917621  -0.00145045714982  
3.0287630558  -0.00420575106726  7.43896961594e-06  -0.00392967358009  -0.0012119521107  -0.00414367739997  -0.00152735244734  
3.03687095642  -0.00399917894449  6.62931110331e-06  -0.00388098448598  -0.000734157714149  -0.00474516465889  -0.00158879732812  
3.04499387741  -0.00378381885392  5.84135699475e-06  -0.00381198436419  -0.00028886085448  -0.00527050222319  -0.0016356098222  
3.05306792259  -0.00356168984881  5.07831349002e-06  -0.00372467830783  -0.000867745694508  -0.00621804353937  -0.00166863528369  
3.06124997139  -0.00333469625713  4.3429832559e-06  -0.00362102938344  -0.0013963415902  -0.00705344629367  -0.00168873902203  
3.06947207451  -0.00310462476692  3.63777935542e-06  -0.00350294970804  -0.00187523398438  -0.00778021163406  -0.00169679938155  
3.07745909691  -0.00287314246822  2.96474051439e-06  -0.0033722925351  -0.0023053087687  -0.00790655922336  -0.0016937012773  
3.08555603027  -0.00264179578937  2.32554752777e-06  -0.00323084532039  -0.0026876860922  -0.00846970294759  -0.00088720702339  
3.09362006187  -0.00241201026485  1.72154061225e-06  -0.00308032373447  -0.00203228986275  -0.00893657270457  -0.000930908195248  
3.1017370224  -0.00218509107165  1.1537375271e-06  -0.00292236658563  -0.00240652568297  -0.00931172559005  -0.000965468315109  
3.10981202126  -0.00196222427105  6.22852289496e-07  -0.00275853161412  -0.00273680826299  -0.00959995302179  -0.000991352416904  
3.11791801453  -0.00174447869344  1.29314322051e-07  -0.00259029211607  -0.00302446193621  -0.00980621403286  -0.00100907336224  
3.12602305412  -0.00153280840448  -3.2671212056e-07  -0.00241903435371  -0.00227960530022  -0.00993559147667  -0.000226031884292  
3.13411593437  -0.00132805569222  -7.45308383593e-07  -0.00224605570683  -0.00256979013539  -0.00999325086319  -0.000295468972321  
3.14218497276  -0.00113095451618  -1.12678184069e-06  -0.00207256351954  -0.00183012840274  -0.0104801044208  0.000435411220927  
3.15048289299  -0.000942134361096  -1.47164644102e-06  -0.00189967459546  -0.00212789475659  -0.0103684248106  0.0011068793968  
3.15850806236  -0.000762124440024  -1.78060348045e-06  -0.00172841529402  -0.00139796918098  -0.010696737604  0.000926226611398  
3.1665430069  -0.000591358193556  -2.05452270458e-06  -0.00155972218082  -0.000715993314649  -0.0104374803921  0.00154694120181  
3.17465209961  -0.000430178034272  -2.29442383422e-06  -0.00139444318482  -0.00107392089153  -0.0106292435493  0.00131677374887  
3.18268203735  -0.000278840287915  -2.50145859112e-06  -0.00123333921596  -0.0013974336895  -0.0107401587753  0.00188939315405  
3.190762043  -0.000137520285344  -2.67689329963e-06  -0.00107708619724  -0.00069575236147  -0.0102800925168  0.00161273863706  
3.19886302948  -6.31756196261e-06  -2.82209213372e-06  -0.00092627746679  -0.00103559162399  -0.00979191024326  0.00214064253272  
3.20700001717  0.000114738876001  -2.93850105069e-06  -0.000465441674065  -0.000351253674469  -0.0092808440616  0.00261430700982  
3.21519207954  0.000225685256242  -3.02763246465e-06  -3.74800175826e-05  -0.000709228180616  -0.00875184288594  0.00224184941887  
3.22320389748  0.000326617751272  -3.09105070179e-06  0.000357490867057  -0.00103504828475  -0.00820958276717  0.00188435969215  
3.23148393631  0.000417687227818  -3.13035825945e-06  0.000719580367416  -0.00132914942852  -0.00815416134176  0.00233604805473  
3.23954606056  0.000499094064316  -3.14718289497e-06  0.00104909348722  -0.00159216840599  -0.00805244536304  0.00194507845308  
3.24757790565  0.000571083063403  -3.14316555897e-06  0.00134651376706  -0.00182488551538  -0.00790864097527  0.00157235590647  
3.25569295883  0.000633938483596  -3.11994919016e-06  0.0016124864227  -0.00202820857502  -0.0072312060052  0.00201193062491  
3.26379108429  0.000687979211753  -3.07916835784e-06  0.00153181705876  -0.00220315738846  -0.00705715743993  0.00161179992864  
3.27189397812  0.000733554095354  -3.02243976527e-06  0.00144788930868  -0.00135944436439  -0.00635713101823  0.00202581849654  
3.28000807762  0.000771037451164  -2.95135360168e-06  0.0013614893818  -0.00156415739369  -0.00567196830894  0.00239515184916  
3.28808808327  0.000800824764473  -2.86746573172e-06  0.00127334551708  -0.00174330744785  -0.00550048992034  0.00272094551502  
3.29622197151  0.000823328590808  -2.77229070194e-06  0.00118414024432  -0.000906324127085  -0.00481249715164  0.00221143500394  
3.30431008339  0.000838974669839  -2.66729554418e-06  0.00109450969589  -0.000128652677166  -0.00464372409131  0.00172772045532  
3.31238293648  0.000848198259132  -2.55389435929e-06  0.00100504325995  -0.00040195877495  -0.0039635450156  0.00206395501202  
3.3204600811  0.000851440693434  -2.43344364892e-06  0.000916283550685  -0.000651591314088  -0.00331154671658  0.00156818420482  
3.32855892181  0.000849146173353  -2.30723836822e-06  0.000828726671231  -0.000877799742758  -0.00268960808966  0.00110113553394  
3.33667397499  0.000841758785535  -2.17650866394e-06  0.000742822744905  -0.00108099834872  -0.00209925617479  0.00145663152438  
3.34473109245  0.000829719754892  -2.04241726656e-06  0.000658976690597  -0.000270308143413  -0.00154170339353  0.00177551897333  
3.35283398628  0.000813464927894  -1.90605750985e-06  0.000577549218574  -0.00051224026827  -0.00101786444745  0.00126550728971  
3.36098408699  0.000793422484637  -1.76845192958e-06  0.000498858023397  -0.000732250113924  -0.00102407567999  0.000787201982133  
3.36900806427  0.000770010876106  -1.63055141602e-06  0.000423179151253  -0.000930634829682  -0.00102346740483  0.0011342637757  
3.37724304199  0.000743636981967  -1.49323486855e-06  0.000350748519655  -0.00110784175833  -0.00101655327303  0.000654251145579  
3.38534092903  0.000714694483207  -1.3573093342e-06  0.000281763568273  -0.00126441497375  -0.000508163879456  0.00100053203785  
3.39342308044  0.000683562443025  -1.22351057207e-06  0.000216385020445  -0.00140098439428  -0.000531769512984  0.000520629401161  
3.40150594711  0.000650604088646  -1.09250402041e-06  0.000154738735857  -0.00052685158173  -5.4559501348e-05  0.000867841047625  
3.40963792801  0.00061616578599  -9.64886125704e-07  9.69176358114e-05  -0.000708673159166  -0.000109739622151  0.000389620720641  
3.41765594482  0.000580576198617  -8.41185995919e-07  4.29836834864e-05  -0.000872019921151  -0.00015997448326  -5.39245171198e-05  
3.42568397522  0.000544145621839  -7.2186734397e-07  -7.03009735569e-06  -2.586931171e-05  0.000290385248731  0.000330419818581  
3.43384408951  0.000507165482555  -6.07330687306e-07  -5.31175807451e-05  -0.000236610313159  0.000208298206744  -0.000110214286861  
3.44188594818  0.000469907995031  -4.9791576663e-07  -9.52974884031e-05  -0.000429561853198  -0.000364430699882  -0.000515988616951  
3.45002508163  0.00043262596267  -3.93904154519e-07  -0.000133611344561  0.000386535595883  -0.0003947535561  -0.00088705901295  
3.45818591118  0.000395552715656  -2.9552202507e-07  -0.000168121448004  0.000145514820951  -0.000420252217618  -0.000430694728091  
3.46629500389  0.000358902174318  -2.02943048825e-07  -0.000198908872589  -7.77379603406e-05  -0.000441162696409  -7.05363071592e-06  
3.47453689575  0.000322869028065  -1.16291394053e-07  -0.000226071506449  -0.000283176680017  -0.000457711381425  -0.000409378177736  
3.48261499405  0.000287629019798  -3.56447950084e-08  6.62621985751e-05  -0.000470909033777  -0.000470134162067  -0.000777960136119  
3.49054098129  0.000253339325854  3.8962327812e-08  0.000335502868706  -0.000641144267311  -0.000478674226383  -0.00111309930687  
3.49863600731  0.000220139021703  1.0753571153e-07  0.000581759304155  -0.00178540217888  -0.000979281524511  -0.000622190260319  
3.50670099258  0.000188149623855  1.70118103225e-07  0.000805287198205  -0.0028297864219  -0.00143496690562  -0.000958618573883  
3.51483798027  0.000157475698688  2.26786120045e-07  0.00100646347951  -0.00377552762482  -0.00184636919762  -0.0012630107258  
3.52287006378  0.000128205529235  2.77647144623e-07  0.00118577456061  -0.00462441302244  -0.00171867096314  -0.000742811154628  
3.5309419632  7.41525104754e-05  3.62513304769e-07  0.00148122536529  -0.00604102785881  -0.00241169073392  -0.000603021036549  
3.53907394409  4.94714526806e-05  3.96859874158e-07  0.00159878314245  -0.00661444599165  -0.00269722019759  -0.00012409991936  
3.5471329689  2.63993398788e-05  4.26076587751e-07  0.00169729040384  -0.00710229010179  -0.00294384075976  0.000318444119429  
3.55517196655  4.95448478583e-06  4.50380325034e-07  0.0017776146003  -0.00750817520624  -0.00315304211364  0.000724655965668  
3.56334495544  -1.48563225807e-05  4.70001626649e-07  0.00184066871059  -0.00783594443465  -0.00332643058114  0.000301713650718  
3.57144188881  -3.30369625232e-05  4.85182200246e-07  0.00188740203974  -0.00808962746466  -0.00346571008767  -9.02999479894e-05  
3.57943892479  -4.96011332198e-05  4.9617255562e-07  0.00191879150625  -0.00827340102601  -0.00406836529683  0.000341800600752  
3.58754897118  -6.45715035169e-05  5.03229766048e-07  0.0019358334343  -0.00839155155792  -0.00410330021125  -5.48538893152e-05  
3.59557795525  -7.79788758036e-05  5.06615361134e-07  0.00193953586264  -0.00844844008453  -0.00460573327305  -0.000420407181759  
3.6036028862  -8.98613633887e-05  5.0659335895e-07  0.00193091137789  -0.00844846935407  -0.00504059211314  3.81485127975e-05  
3.61170697212  -0.000100263586356  5.03428433898e-07  0.00191097047591  -0.00839605327008  -0.00541040308569  0.000460901278009  
3.61976194382  -0.000109235889457  4.97384222866e-07  0.00188071545157  -0.00829558862655  -0.00571792040539  5.48532692091e-05  
3.62787389755  -0.000116833585183  4.88721768952e-07  0.00184113481376  -0.00815142914345  -0.00547037000241  0.00047307524073  
3.63597488403  -0.000123116224765  4.7769810233e-07  0.00179319821952  -0.00796786178533  -0.00520806027147  6.28051512166e-05  
3.64411091805  -0.000128146899454  4.64564956341e-07  0.00173785191854  -0.00774908533276  -0.00542948667179  -0.000316037310191  
3.65222191811  -0.000131991574069  4.4956761614e-07  0.00167601469648  -0.00749919116466  -0.00510433957619  -0.000663507786145  
3.66035890579  -0.000134718454448  4.32943897736e-07  0.00160857430384  -0.0072221461992  -0.00477272915412  -0.000186764307674  
3.66837191582  -0.00013639739009  4.14923249546e-07  0.00153638435463  -0.00791318000756  -0.00493293700781  -0.000538959837265  
3.67656302452  -0.000137099312973  3.95725979235e-07  0.00146026167771  -0.00751008609874  -0.00505010730646  -0.000860500913809  
3.68458890915  -0.000136895713214  3.75562594727e-07  0.00138098410209  -0.00709162606866  -0.00463113240704  -0.000358618274457  
3.69262003899  -0.000135858151971  3.54633259883e-07  0.00129928865629  -0.00666163123078  -0.00421591549978  0.000106561139227  
3.70072507858  -0.000532689382453  3.33127353959e-07  0.00121587016067  -0.00622366620532  -0.00380676271885  0.000534966380313  
3.70884108543  -0.000895423764687  3.11223132498e-07  0.00113138019113  -0.00578106835892  -0.00340574307283  0.00013367268517  
3.71690487862  -0.00122444017346  2.89087486275e-07  0.00104642639167  -0.0053369447303  -0.00301471446382  -0.000237330461736  
3.72500705719  -0.00152031385649  0.000395755193097  0.000329142103896  -0.005885572381  -0.00263532854325  0.000215061480979  
3.73316502571  -0.00178378113438  0.000758080357391  -0.000334527487676  -0.00536371437509  -0.00226903647103  0.000631031364872  
3.74146509171  -0.00201572232554  0.00108757186294  -0.000944598682032  -0.00584043486861  -0.00191709547209  0.000217671523103  
3.7495059967  -0.00221714510294  0.00138473335743  -0.00150144545833  -0.00525253235369  -0.00158057608782  0.000628137527832  
3.75751805305  -0.0023891683523  0.00165023007499  -0.00200574314863  -0.00467762388765  -0.000764669236252  0.00100287223562  
3.76548910141  -0.00253300659304  0.00188487216257  -0.00245844085129  -0.00510971220434  -0.000503036179035  0.000549170319962  
3.77360105515  -0.00264995501509  0.00208959840119  -0.00286073428655  -0.0054765800345  0.000237088452825  0.000127248082109  
3.78171110153  -0.00274137517651  0.00226546039246  -0.00321403922853  -0.00578097190713  0.000918304891047  0.000530410530664  
3.78978800774  -0.00280868139945  0.00241360727238  -0.00351996563373  -0.00602584845786  0.00154093699607  0.000899015444984  
3.79787302017  -0.00285332789475  0.00253527100645  -0.00378029257272  -0.00621430991867  0.00210566784344  0.000440304429954  
3.80598688126  -0.00287679663839  0.00263175231212  -0.00399694405804  -0.00535816473584  0.00310918754723  0.000807557474164  
3.81411790848  -0.00288058601684  0.00270440724741  -0.004171965849  -0.00552658299462  0.0040155230347  0.00114132043896  
3.82220888138  -0.00286620025196  0.00275463449709  -0.00430750330141  -0.00564766252455  0.00532227271163  0.00144208815277  
3.83035993576  -0.00283513961069  0.00278386338129  -0.00440578031859  -0.00572428510095  0.00699026099962  0.00171055510819  
3.83853197098  -0.00278889139934  0.00279354260487  -0.00446907944897  -0.00675082748677  0.00798968930492  0.00115444264816  
3.84654688835  -0.00272892173736  0.00278512975985  -0.00449972316462  -0.00765581419618  0.00935761462757  0.00063430268431  
3.85456490517  -0.00305520687675  0.00276008158758  -0.0045000563454  -0.00844302243336  0.0105612798672  0.000150604734911  
3.86262488365  -0.00333721383482  0.00271984500225  -0.00447242998379  -0.0081253080478  0.0116059442849  0.000496641880697  
3.87070393562  -0.00357661265082  0.00266584887215  -0.00441918611676  -0.00877318035009  0.0124974667409  1.96466124104e-05  
3.87881398201  -0.00377522502482  0.0025994965511  -0.00434264398305  -0.00931634042098  0.0132422018756  -0.000420474171462  
3.88688802719  -0.0039349844131  0.00252215914792  -0.00424508739657  -0.00975950370376  0.0143425301514  -3.0698023766e-05  
3.89494800568  -0.00405791535056  0.00243516951873  -0.00412875331997  -0.0101076822322  0.0152684290921  0.000329043287006  
3.90307593346  -0.00414611381298  0.0023398169629  -0.00399582161598  -0.010366088556  0.016027671516  0.000658814736066  
3.9112200737  -0.00420172866041  0.00223734260132  -0.00384840594896  -0.0105400878178  0.0166284823384  0.000958895911719  
3.91927194595  -0.00422694419279  0.00212893541238  -0.00368854580357  -0.0106351526037  0.0175751317404  0.000436609622844  
3.92728495598  -0.00422396383989  0.00201572889944  -0.00351819958359  -0.0106568206314  0.0183392161945  -4.78746332818e-05  
3.93554902077  -0.0041949949986  0.00189879836132  -0.00333923874975  -0.0106106553193  0.0189301444559  -0.000494450339586  
3.94356298447  -0.00414223502276  0.00177915873604  -0.00315344295237  -0.0114936097822  0.0193576908157  -0.000110169062761  
3.95161604881  -0.00406785836299  0.00165776298657  -0.00296249611176  -0.011245315283  0.0196318849471  -0.000548121714305  
3.95974493027  -0.00397400484695  0.00153550099664  -0.0027679833971  -0.0109464497027  0.0197629298215  -0.000948706819326  
3.96780991554  -0.00386276908444  0.00141319894386  -0.00257138905292  -0.0106028365305  0.0197611249211  -0.000519185628369  
3.97592592239  -0.00373619097566  0.00129161911685  -0.00237409502071  -0.0112114828904  0.0196367948136  -0.000912871271637  
3.98405599594  -0.00359624729587  0.0011714601433  -0.00217738030265  -0.0117033272485  0.0194002231156  -0.00127036185383  
3.99214291573  -0.00344484432532  0.00105335759536  -0.00198242101367  -0.0120843415532  0.0190615918377  -0.00159221415618  
4.00021290779  -0.00328381148879  0.000937884939522  -0.00179029106814  -0.0123607646279  0.0186309260679  -0.0010860779645  
4.00843691826  -0.00311489596605  0.000825554798239  -0.00160196344767  -0.012539000205  0.0181180439245  -0.000612458172433  
4.01667809486  -0.00293975823123  0.000716820491317  -0.00141831199702  -0.0126255643738  0.0175325116782  -0.000964923484691  
4.02465295792  -0.00275996847673  0.000612077825736  -0.00124011369593  -0.0126270364094  0.0168836039217  -0.00128407081345  
4.03273296356  -0.00257700387507  0.000511667103538  -0.0010680513559  -0.0125500130275  0.0161802686422  -0.00157047142024  
4.04082202911  -0.00239224663082  0.000415875318384  -0.000902716692181  -0.0124010660822  0.0154310970325  -0.00182488968637  
4.0488910675  -0.00220698277322  0.000324938512489  -0.000744613722698  -0.0121867037014  0.0146442978604  -0.00204822918023  
4.05698490143  -0.00202240163953  0.000239044266865  -0.000594162447502  -0.0119133348358  0.0138276762023  -0.00144839748936  
4.0650908947  -0.00183959599869  0.000158334299059  -0.000451702764122  -0.011587237175  0.0129886163328  -0.000886106630377  
4.07316803932  -0.00165956276487  8.29071439161e-05  -0.000317498576185  -0.0112145283695  0.0121340685551  -0.000361966984373  
4.0814909935  -0.00148320425055  1.28208942838e-05  -0.000191742054802  -0.0108011404799  0.0112705397481  -0.000669388996893  
4.08956193924  -0.0013113299096  -5.19040200096e-05  -7.45580144023e-05  -0.0103527975621  0.0104040873988  -0.000948824606671  
4.09757208824  -0.0011446585215  -0.000111282035125  3.399163302e-05  -0.0108663959423  0.00954031688832  -0.00120067739515  
4.10556292534  -0.000983820768729  -0.000165359656887  0.000133903378988  -0.010281314219  0.00918008160148  -0.00142552531319  
4.11375498772  -0.000829362161051  -0.000214212682488  0.000225227606356  -0.00967778989958  0.00879084914493  -0.00162406907451  
4.12177991867  -0.00108037687854  -0.00025794345604  0.000308064092881  -0.0090610442732  0.0083772651255  -0.00179711827574  
4.12987089157  -0.00130521596209  -0.000296678172393  0.000382557557247  -0.00942733160016  0.00794378728206  -0.00194557791817  
4.13799405098  -0.00150449838379  -0.000330564242223  0.000448893271896  -0.00871530806041  0.00799035049572  -0.00207043538362  
4.14615488052  -0.00167897112576  -0.00035976772997  0.000507292764703  -0.00899581668439  0.0079837212845  -0.00217274790999  
4.15434288979  -0.00182947718432  -0.000384470874887  0.000558009629292  -0.00820735236363  0.00842374818228  -0.00146051228949  
4.16248893738  -0.0023555734089  -0.000404869704121  0.000601325461555  -0.00842050734624  0.0082816474946  -0.00158758626468  
4.17052006721  -0.00282622336239  -0.000421171745521  0.000637545937806  -0.00757348952619  0.00809914901265  -0.000901857067513  
4.17860794067  -0.00324279241044  -0.000433593846607  0.00066699704792  -0.0067451718818  0.00837624310787  -0.000263729173791  
4.18669509888  -0.00360689313652  -0.000442360105001  0.0006900214948  -0.00593928798498  0.00857985297752  0.000326496794585  
4.19482803345  -0.00392033862852  -0.000447699914534  0.000706975269625  -0.00515909871251  0.00871439762287  0.00086887577691  
4.20283007622  -0.00418511565872  -0.000449846130138  0.000718224410469  -0.00440745229658  0.00878440352653  0.0013637554531  
4.21095895767  -0.00457732603411  -0.00044549634237  0.000725105057896  -0.00399060419779  0.00874911891143  0.000693945462992  
4.21908092499  -0.00470937450107  -0.000439468538884  0.000721492376498  -0.00424609732104  0.00865300095356  0.00118327410564  
4.22718000412  -0.00480193881303  -0.000431180724912  0.000713681558004  -0.00445539881134  0.00851063211488  0.000834187412649  
4.23516011238  -0.0048575096107  -0.000420859794897  0.000702046996161  -0.00462079538777  0.0083264866744  0.000506987634932  
4.24323296547  -0.00487861381567  -0.000408727649443  0.000686957755388  -0.00474466878296  0.00810495088925  0.0002020418777  
4.25140595436  -0.00486779612828  -0.000395000205567  0.000668775693575  -0.00482947358263  0.00785030260068  -8.04845560517e-05  
4.25956892967  -0.00482760185138  -0.000379886520926  0.000647853775336  -0.00388631763231  0.00806239244677  0.000452539443282  
4.26760005951  -0.00476056104386  -0.000363588028621  0.000624534571419  -0.00398361112058  0.0077122935802  0.000941410056165  
4.27561593056  -0.00466917399899  -0.000346297878726  0.00059914893912  -0.0050400664406  0.00783717738896  0.000593367330917  
4.28371596336  -0.00455589803477  -0.000328200382351  0.000572014877856  -0.00598326574856  0.007408040536  0.000268625128648  
4.2917869091  -0.00442313557669  -0.000309470553739  0.000543436553393  -0.00681610226539  0.0069662114897  0.000760543432866  
4.29991889  -0.00427322350623  -0.000290273745606  0.0005137034837  -0.00754197389596  0.00701113955017  0.00120958769636  
4.30804300308  -0.00410842374325  -0.000270765372778  0.000483089878921  -0.00915607716158  0.00651338174306  0.000823145870453  
4.31621098518  -0.00393091502468  -0.00025109071896  0.000451854127621  -0.0105880836486  0.00601381235176  0.00125467663544  
4.32421898842  -0.00374278583791  -0.000231384821399  0.000420238421119  -0.0118431964049  0.00551569524387  0.000851836660386  
4.33248996735  -0.00354602846288  -0.000211772428102  0.000388468507526  -0.0139185704074  0.00502200969105  0.000474946576665  
4.34053587914  -0.00334253407399  -0.000192368022248  0.000356753566955  -0.0147552624144  0.00503117529281  0.000917484391842  
4.34854102135  -0.0031340888498  -0.000173275908424  0.000325286199257  -0.0164265773718  0.00451272199764  0.00132000768021  
4.3566699028  -0.00292237103649  -0.000154590355342  0.000294242515628  -0.0178662233778  0.00400648254036  0.000889971182349  
4.36472606659  -0.0027089489093  -0.00013639578978  0.000263782325462  -0.0190832042186  0.00351467348601  0.00128087636103  
4.3728120327  -0.00249527957488  -0.000118767036557  0.000234049409884  -0.0210786495541  0.00353492646643  0.000840402437741  
4.38094997406  -0.00228270855659  -0.000101769599484  0.00020517187355  -0.0217969879503  0.00303598782149  0.0012219880154  
4.38901996613  -0.00207247010476  -8.54599783544e-05  0.000177262566436  -0.0233156108839  0.00255691465604  0.000773283676802  
4.39709305763  -0.00186568817348  -6.9886017233e-05  0.000150419567585  -0.0245716558261  0.00209916098205  0.00114769426953  
4.40519309044  -0.00166337800625  -5.50872794254e-05  0.000124726722979  -0.0255776655402  0.00116821425232  0.0014859504174  
4.41345596313  -0.00146644827341  -4.10954447413e-05  0.000100254230017  -0.0253554081592  0.00129366234989  0.00178872324469  
4.42150902748  -0.00127570370503  -2.79347248555e-05  7.70592613297e-05  -0.0259843665122  0.00140138638752  0.00126377087516  
4.42954993248  -0.00109184816474  -1.56222927818e-05  5.51866210258e-05  -0.0264032472413  0.000996349772021  0.000771690725103  
4.43754601479  -0.000915488111031  -4.16872269529e-06  3.46694267613e-05  -0.0266257138522  0.000616549581454  0.00110613843327  
4.44564294815  -0.000747136394379  6.42156342646e-06  1.55298114072e-05  -0.0256742357282  0.000758105604589  0.00140779221937  
4.4536819458  -0.000587216340796  1.61498456445e-05  -2.22036157068e-06  -0.0256286045818  0.000883989096183  0.000884172421247  
4.46182608604  -0.000436066073987  2.50226554545e-05  -1.85787745212e-05  -0.025427473927  0.000498913970233  0.00118879446389  
4.46987891197  -0.000293943030891  3.30513275645e-05  -3.35519289342e-05  -0.0250841187563  0.000140613319538  0.00066930817517  
4.47799992561  -0.000161028627523  4.02515566544e-05  -4.7154420438e-05  -0.0256031090254  -0.000190744661477  0.000979076440367  
4.48611092567  -3.74330344888e-05  4.66429614804e-05  -5.94082198398e-05  -0.0249315281983  5.04005431366e-07  0.000465638813397  
4.49416089058  7.67999759796e-05  5.22486584595e-05  -7.03419641942e-05  -0.0241572778834  0.000176925265426  -1.08664615082e-05  
4.50227093697  0.000181688147115  5.70948466486e-05  -7.99902615267e-05  -0.0242845773013  -0.000157146282446  -0.000450312336233  
4.51034188271  0.000277305851917  6.12104058044e-05  -8.83930124699e-05  -0.02325989821  3.1368110465e-05  -5.97313046706e-05  
4.51854300499  0.000363779235225  6.46265090065e-05  -9.55947517123e-05  -0.022170337625  0.000205075844221  -0.000492181212886  
4.52659797668  0.000441281411542  6.73762511207e-05  -0.000101644011801  -0.0210277412784  0.000364025350337  -9.492395387e-05  
4.53473210335  0.000510027744104  6.94942941732e-05  -0.00010659271152  -0.0208347161398  0.000508375672097  -0.00052099732222  
4.54281210899  0.000570271228194  7.10165305276e-05  -0.000110495570735  -0.0195359949035  0.00113406268142  -0.000117679816859  
4.55091309547  0.00062229799925  7.19797645745e-05  -0.000113409553264  -0.0182167821491  0.00120846123568  -0.000538022006923  
4.55905604362  0.00066642298398  7.24214134686e-05  -0.000115393339084  -0.0168869032597  0.00126955981627  -0.000922429165651  
4.56720805168  0.000702985710366  7.23792272943e-05  -0.00011650682685  -0.015555441364  0.0018137330173  -0.000478151805978  
4.57530093193  0.000732346290236  7.18910288906e-05  -0.000116810667469  -0.0142307842775  0.00230442543193  -0.000858476114775  
4.58357691765  0.000754881585943  7.09944734219e-05  -0.000116365829219  -0.0129206264144  0.00274272002332  -0.00120398297017  
4.59163999557  0.000770981570657  6.97268276533e-05  -0.000115233194657  -0.0116319748556  0.00362566227051  -0.00151519390674  
4.59973406792  0.000781045889822  6.81247687723e-05  -0.00011347318935  -0.0103711592115  0.00392187878603  -0.00179283956488  
4.60789394379  0.000785480629525  6.62242024898e-05  -0.000111145442266  -0.0091438449247  0.00417073178985  -0.00124468598099  
4.61586093903  0.000784695295752  6.40601000493e-05  -0.000108308477474  -0.00795504966303  0.00487007481854  -0.00152443961029  
4.62397909164  0.000779100006928  6.16663536908e-05  -0.000105019436637  -0.00680916246068  0.00498922081014  -0.00177304953981  
4.63210105896  0.000769102900601  5.90756500315e-05  -0.00010133383163  -0.00570996527563  0.00556382239763  -0.00199135340341  
4.64023399353  0.000755107753744  5.63193607631e-05  -9.73053264732e-05  -0.00466065664185  0.00605930284346  -0.00138723272359  
4.64847302437  0.000737511814867  5.34274499947e-05  -9.29855476772e-05  -0.00366387710705  0.00697431152587  -0.000821362892783  
4.65654397011  0.000716703844952  5.04283975265e-05  -8.84239219494e-05  -0.00371313262537  0.00727941143804  -0.00108744002237  
4.66452598572  0.000693062363157  4.73491372929e-05  -8.36675401535e-05  -0.00175276891867  0.00850692046009  -0.000533032015066  
4.67267298698  0.000666954092284  4.42150101817e-05  -7.87610463382e-05  -0.000925015192247  0.009090678064  -0.000811433781096  
4.68068790436  0.000638732598158  4.10497304028e-05  -7.37465505632e-05  -0.00015582592532  0.00957266479904  -0.000270107054281  
4.68874502182  0.000608737116292  3.78753645689e-05  -6.86635642176e-05  0.000554617093734  0.00995781264002  0.000230909356524  
4.69685602188  0.000577291558612  3.47123226212e-05  -6.35489565053e-05  0.00120646443217  0.0102512485928  -0.000101518205323  
4.70500302315  0.000544703692392  3.15793597499e-05  -5.84369306907e-05  0.000808822502937  0.0104582709374  -0.000407545905702  
4.71300292015  0.000511264483164  2.84935884342e-05  -5.33590187538e-05  0.00142837907944  0.0110800011171  0.000105829429952  
4.7211830616  0.000477247592919  2.54704997441e-05  -4.83440930313e-05  0.0019910184985  0.0115847105461  -0.000214384806712  
4.72923803329  0.000442909024687  2.2523993054e-05  -4.34183934706e-05  0.00249762016597  0.0114826294671  -0.000508446822782  
4.73742008209  0.000408486904312  1.9666413329e-05  -3.86055691019e-05  0.00294938970966  0.0118128704251  1.65915033314e-05  
4.74556994438  0.000374201390152  1.69085951671e-05  -3.3926732377e-05  0.00433917549219  0.0120441703065  0.00050080460776  
4.75356292725  0.000340254701311  1.42599127971e-05  -2.94005250319e-05  0.00460278562985  0.0121827509214  0.000151203116319  
4.76170992851  0.000306831255041  1.1728335261e-05  -2.5043194183e-05  0.00481731302349  0.0122349500043  0.000620881277199  
4.76976299286  0.000274097903976  9.32048603115e-06  -2.08686773697e-05  0.00498528326158  0.0122071494854  0.00105028095989  
4.77786588669  0.000242204263987  7.0417063565e-06  -1.68886953331e-05  0.00510926799905  0.0121057324443  0.000646710596585  
4.7859480381  0.00021128312357  4.89612164821e-06  -1.3112851357e-05  0.00519191228455  0.0119370433984  0.000270418117943  
4.79407405853  0.000181450925918  2.88671026002e-06  -9.54873603553e-06  0.00523591244385  0.0117073519137  0.000714774691593  
4.80216002464  0.000152808315024  1.01537404692e-06  -6.20203641056e-06  0.00425259971661  0.0109271216828  0.000327120494939  
4.8103890419  0.000125440737462  -7.16989868163e-07  -3.07664843426e-06  0.00431057414746  0.0106353072614  0.000760607624738  
4.81860804558  9.94190917873e-05  -2.31041666637e-06  -1.74791842899e-07  0.00334594206596  0.00980445505883  0.000362643439497  
4.82649087906  7.48004178327e-05  -3.76580123302e-06  2.50287349853e-06  0.00342677474167  0.00947291729525  0.000786400313309  
4.83448195457  5.16286185123e-05  -5.08482586855e-06  4.95713059903e-06  0.00348010812409  0.00910833879136  0.000379301288099  
4.84259009361  2.99352071421e-05  -6.26988871479e-06  7.19008846629e-06  0.00449909411736  0.00921122171843  0.000794528928973  
4.85061407089  9.74007365046e-06  -7.32403329674e-06  9.20506607639e-06  0.00441969871507  0.00875326586915  0.000379512497362  
4.8586909771  -8.9477365427e-06  -8.25087952929e-06  1.10064778393e-05  0.00431898465226  0.00877220083287  -5.6791870097e-06  
4.86678290367  -2.61292367957e-05  -9.05455649815e-06  1.25997211563e-05  0.00419927951165  0.00873523696028  0.00043218256126  
4.87492394447  -4.18147120746e-05  -9.7396373008e-06  1.39910666043e-05  0.00505419589741  0.00864691950194  0.000833407591521  
4.88310194016  -6.87803920722e-05  -1.07741482485e-05  1.61968753481e-05  0.00358266587717  0.00783860439455  0.000734333938516  
4.89112997055  -8.01205171385e-05  -1.11343916959e-05  1.70273032857e-05  0.00341047582485  0.00816039939978  0.00109489427211  
4.89913201332  -9.00829477474e-05  -1.13975531273e-05  1.76875682633e-05  0.0032305306579  0.00791090813098  0.00142070535634  
4.90724802017  -9.87127959089e-05  -1.15695356405e-05  1.81867817997e-05  0.00304450173887  0.00763165523783  0.000919289406902  
4.91523599625  -0.000106059943387  -1.16563500501e-05  1.85343477822e-05  0.00285401611709  0.00732670846272  0.00045105465081  
4.92334198952  -0.000112178361781  -1.1664069215e-05  1.87398813955e-05  0.00166920728006  0.00699995539534  1.63699065544e-05  
4.93146300316  -0.000117125459996  -1.15987855221e-05  1.88131330327e-05  0.00155736281641  0.00665511718537  0.00040844363229  
4.93957495689  -0.000120961461043  -1.14665715533e-05  1.87639172746e-05  0.00144458175107  0.00629573836493  -2.55317788729e-05  
4.9475710392  -0.000123748809746  -1.12734439317e-05  1.86020469836e-05  0.00133158897456  0.00592517855726  -0.000425696780232  
4.95566511154  -0.000125551612635  -1.10253303145e-05  1.83372725248e-05  0.00121910231435  0.00554660597705  -0.000792153793657  
4.96376895905  -0.000126435111013  -1.07280395036e-05  1.79792260926e-05  0.00110778073003  0.00516299262342  -0.00112524488259  
4.97189188004  -0.000126465187879  -1.03872346168e-05  1.75373710944e-05  6.83015086923e-06  0.00477711106405  -0.00142549267131  
4.97997307777  -0.000125707909154  -1.0008409242e-05  1.70209565103e-05  -1.73476139032e-05  0.00439153270699  -0.00169358308351  
4.98807311058  -0.000124229099378  -9.59686649769e-06  1.64389761271e-05  -3.94925663204e-05  0.0035129301798  -0.0019303484073  
4.99642705917  -0.000122093951853  -9.15770090519e-06  1.58001325219e-05  -5.96732206356e-05  0.00317640208349  -0.00134363631771  
5.00431799889  -0.000119366672963  -8.6957829498e-06  1.5112805648e-05  -7.79167992791e-05  0.00235060894041  -0.0015872070356  
5.01260900497  -0.000116110160237  -8.21574625032e-06  1.43850258637e-05  -9.42604355675e-05  0.00157430824396  -0.00180205513192  
5.02059006691  -0.000112385713525  -7.72197718209e-06  1.36244512237e-05  -0.000108750173808  0.000352803587188  -0.00119592376579  
5.02856707573  -0.00010825277852  -7.2186068375e-06  1.28383488456e-05  -0.000121439991702  -0.00077608769735  -0.00142249945443  
5.03666305542  -0.00010376872169  -6.70950520418e-06  1.20335801491e-05  -0.000132390849404  -0.00131682652995  -0.000829580123768  
5.04473805428  -9.89886356021e-05  -6.19827741158e-06  1.12165897585e-05  -0.000141669769052  -0.00230308565284  -0.00107061607294  
5.05290389061  -9.39651734606e-05  -5.6882619156e-06  1.03933978558e-05  -0.000149348948136  -0.00319850781617  -0.000493218854703  
5.06101489067  -8.87484116436e-05  -5.18253047662e-06  9.56959576119e-06  -0.000155504909563  -0.00450016696688  -0.000750659693278  
5.06915187836  -8.33857389005e-05  -4.68388979619e-06  8.75034451839e-06  -0.000160217690863  -0.00567286596389  -0.000190380067539  
5.07724308968  -7.79217708353e-05  -4.19488467e-06  7.94037626105e-06  -0.000163570074512  -0.00671931249118  -0.000465489328023  
5.08549189568  -7.23982882474e-05  -3.7178025264e-06  7.14399813574e-06  -0.000165646860978  -0.00764281203324  -0.000716390853379  
5.09357309341  -6.68541978486e-05  -3.25467920508e-06  6.36509855844e-06  -0.000166534185665  -0.00894287362467  -0.000943367522402  
5.10164999962  -6.13255138748e-05  -2.80730585213e-06  5.60715558368e-06  -0.00115771279292  -0.0100865214981  -0.00114686772777  
5.10975003242  -5.5845359079e-05  -2.37723679805e-06  4.8732471728e-06  -0.00107341303559  -0.0115744717775  -0.00053433684278  
5.11783194542  -5.04439835969e-05  -1.96579829111e-06  4.16606314674e-06  -0.000988945624476  -0.0123793899472  -0.000759115760534  
5.12594389915  -4.51488001777e-05  -1.57409797414e-06  3.48791862229e-06  -0.00189629055682  -0.0135406494346  -0.00096177169755  
5.13397502899  -3.99844342927e-05  -1.20303498079e-06  2.84076872928e-06  -0.00173008090068  -0.0140320336243  -0.000349611161816  
5.14210391045  -3.4972787657e-05  -8.53310535744e-07  2.22622442144e-06  -0.00156598606278  -0.0143981437662  -0.000575878127989  
5.15027189255  -3.01331137267e-05  -5.25438972924e-07  1.64556919534e-06  -0.00140490948664  -0.0151421538401  -0.000781044131417  
5.15855693817  -2.54821037744e-05  -2.1975904504e-07  1.09977654384e-06  -0.00124761672683  -0.0152387393734  -0.000172320759947  
5.16652297974  -2.10339821854e-05  6.35545437879e-08  5.89527979957e-07  -0.0010947904189  -0.0152332091968  -0.000402858353494  
5.17459106445  -1.68006096703e-05  3.2447949104e-07  1.15231472819e-07  -0.000947032479109  -0.0156292463877  0.000180076086522  
5.18266606331  -1.27915931385e-05  5.63134198798e-07  -3.22959848408e-07  -0.000804866634492  -0.0158975460701  -7.64357234943e-05  
5.19078302383  -9.01440102891e-06  7.7976611889e-07  -7.25128861199e-07  -0.000668741241821  -0.0160463346665  -0.000312599030856  
5.19885897636  -5.47448296312e-06  9.74740196308e-07  -1.09157561629e-06  -0.000539032355615  -0.0160839664422  -0.000528488135439  
5.20694994926  -2.1753926446e-06  1.14852748462e-06  -1.42279861043e-06  -0.00140744032619  -0.0160188371016  -0.000724336848243  
5.21501493454  8.81087019059e-07  1.30169398409e-06  -1.71947629211e-06  -0.00120835184956  -0.0158593284557  -0.000107371764455  
5.22310996056  3.69481751379e-06  1.43488975687e-06  -1.98244887563e-06  -0.00101716876745  -0.0161094540853  -0.000330710122461  
5.23117494583  6.26717792075e-06  1.54883836484e-06  -2.21270056956e-06  -0.000834513586492  -0.0157444922782  -0.000534697086499  
5.23923301697  8.60093854244e-06  1.64432667395e-06  -2.41134228841e-06  0.000330535051642  -0.0153101058809  -0.00071952910151  
5.24737811089  1.07001357036e-05  1.72219505586e-06  -2.57959492095e-06  0.000411743653809  -0.0148144056365  -0.000885545872787  
5.25556707382  1.25699484123e-05  1.78332801572e-06  -2.71877321355e-06  0.000484042384677  -0.0142652284595  -0.000240064246481  
5.26363110542  1.42165775032e-05  1.82864527689e-06  -2.83027032377e-06  0.000547723790485  -0.0136701348236  0.000356837430992  
5.27176690102  1.56471278205e-05  1.85909333725e-06  -2.91554308247e-06  0.000603061553096  -0.0130363832917  0.000905185544679  
5.27967810631  1.68694939352e-05  1.87563751555e-06  -2.97609801031e-06  0.000650359900339  -0.0123709088968  0.00140534557452  
5.287733078  1.78922498325e-05  1.8792544985e-06  -3.01347810712e-06  0.000689949346206  -0.01168030521  0.00185795375054  
5.2958920002  1.87245429454e-05  1.87092539514e-06  -3.02925044091e-06  0.000722182598579  -0.0109708099192  0.00226389208474  
5.30399799347  1.93759928552e-05  1.8516293037e-06  -3.02499455515e-06  0.000747430646876  -0.0102482937376  0.00262426381557  
5.31209802628  1.98565949252e-05  1.8223373886e-06  -3.00229169533e-06  0.000766079039944  -0.0100139488137  0.00214725635985  
5.32016897202  2.01766290827e-05  1.78400747015e-06  -2.96271485789e-06  0.000778524362526  -0.00923996452436  0.00169391094111  
5.32847094536  2.03465739161e-05  1.73757911362e-06  -2.90781966899e-06  0.000785170916763  -0.00846868477317  0.00126524473481  
5.33649206161  2.03770262081e-05  1.68396921497e-06  -2.8391360768e-06  0.000786427613409  -0.00770471227189  0.000862002754937  
5.34468197823  2.02786259808e-05  1.62406806823e-06  -2.75816084587e-06  0.000782705075787  -0.00695222203254  0.00127782723997  
5.3525660038  2.00619870926e-05  1.55873590537e-06  -2.66635084192e-06  -0.000216979540588  -0.00671068992781  0.000860365849037  
5.3606569767  1.97376333843e-05  1.48879988876e-06  -2.56511709093e-06  -0.000146367773357  -0.00644627752942  0.00126304470716  
5.3687069416  1.93159403422e-05  1.41505154524e-06  -2.45581957351e-06  -8.02788859607e-05  -0.00616237727613  0.00162666288366  
5.37681603432  1.88070822096e-05  1.33824461754e-06  -2.33976275064e-06  -1.88222717652e-05  -0.00536656814746  0.00195195538528  
5.38497710228  1.82209844548e-05  1.25909332078e-06  -2.21819176906e-06  3.7980194672e-05  -0.00509489759881  0.00144676558212  
5.3929901123  1.75672814719e-05  1.17827097613e-06  -2.09228934232e-06  -0.000901255043352  -0.00530841255924  0.000971773568353  
5.40114092827  1.6855279373e-05  1.09640900795e-06  -1.9631732554e-06  -0.00077063956677  -0.00547242573641  0.00132073645355  
5.40937209129  1.60939237065e-05  1.01409627384e-06  -1.83189446502e-06  -0.0006453298318  -0.00509404062951  0.000841338198253  
5.41753411293  0.000413919418354  9.3187871596e-07  -1.69943576779e-06  -0.000525742288679  -0.00471338418152  0.00118700606573  
5.42551589012  0.00077831199367  8.50259303344e-07  -1.56671098657e-06  -0.000412175041877  -0.00433302087978  0.000705398854133  
5.43367195129  0.0011095848339  7.6969824666e-07  -1.43456465277e-06  -0.000304865683067  -0.00445098505709  0.00025676045793  
5.441644907  0.00140825273779  6.90613457632e-07  -1.30377214912e-06  -0.000203994514021  -0.00403649174022  0.000634469276286  
5.44981598854  0.00167499293136  6.13381242172e-07  -1.1750402572e-06  -0.000109687874916  -0.00362909477075  0.000185845656795  
5.45778393745  0.00191062825464  5.38337194144e-07  -1.04900809815e-06  -0.00101341345485  -0.00422218939035  -0.000229144752195  
5.46592903137  0.00211611074965  4.65777271033e-07  -9.26248419375e-07  -0.000849349508674  -0.00375169114078  0.000182616001715  
5.4740459919  0.00229250572051  3.95959034675e-07  -8.07269191309e-07  -0.00069269902473  -0.00379007528553  -0.000231794140625  
5.48213410378  0.00244097632797  3.29103032149e-07  -6.92515482367e-07  -0.000543909730357  -0.0038019785193  0.000180477486233  
5.49025607109  0.00256276877237  2.65394302745e-07  -5.82371583005e-07  -0.000403294942954  -0.00378935726403  -0.000233448023772  
5.49844694138  0.00265919811149  2.04983984141e-07  -4.77163333014e-07  -0.000271092914064  -0.00424988958303  0.000179280734159  
5.50653409958  0.00273163475192  1.47991006647e-07  -3.77160639266e-07  -0.000147471177943  -0.00464831469886  -0.000234215559218  
5.5146150589  0.00278149164556  9.45038544089e-08  -2.82580141585e-07  -3.25310015176e-05  -0.00498695540023  0.000178913714182  
5.52273011208  0.00281021221601  4.45823803189e-08  -1.93588004992e-07  7.36880997722e-05  -0.00477265500621  0.000558901343562  
5.5306930542  0.00281925903304  -1.74034289497e-09  -1.10302804642e-07  0.000171203813382  -0.00454533974305  0.0001128084969  
5.53881311417  0.00281010324753  -4.44561479894e-08  -3.27984874014e-08  0.00026008647911  -0.0048031523247  -0.000299394595148  
5.54694509506  0.00278421479324  -8.35798932879e-08  3.88926269914e-08  0.000340454564979  -0.0045154652777  0.00011537279544  
5.55507397652  0.00268806011248  -1.51214482872e-07  0.000605828006117  0.000476334756522  -0.00442091399055  0.000119766112743  
5.56315803528  0.00262065021315  -1.79853327111e-07  0.000869231541266  0.000532284596539  -0.00457691673899  -0.000290700663513  
5.57127308846  0.00254220602616  -2.05152464508e-07  0.00110679092436  0.000580586846038  -0.00469239794447  0.000125572987285  
5.57926106453  0.00245407109751  -2.27214121505e-07  0.00131903785517  0.000621535369317  -0.00526548211508  -0.000284319500167  
5.58736109734  0.00235754482571  -2.46152682488e-07  0.0015066198813  0.000655446865032  -0.0057614175373  0.000132444101199  
5.59561109543  0.00225387782315  -2.62093042476e-07  0.00167028738517  0.000682657127639  -0.00618308916908  -0.000277038978474  
5.60366392136  0.00214426794039  -2.75169006538e-07  0.00181088094278  0.000703517480547  -0.00653364475271  0.000140056909758  
5.61165690422  0.00202985692658  -2.85521775485e-07  0.00192931910409  0.00170978238327  -0.00681642911179  0.000523944849099  
5.61974406242  0.00191172769746  -2.93298492588e-07  0.0020265866379  0.000644585669778  -0.00753064356273  8.16669517693e-05  
5.62775397301  0.00179090218057  -2.98650865612e-07  0.00210372327833  0.00164075915043  -0.00764699696053  0.000466287091748  
5.63590097427  0.00166833970637  -3.0173387704e-07  0.00216181300372  0.00155812580915  -0.00770682373616  0.000818195497142  
5.64396190643  0.00154493591279  -3.0270456354e-07  0.00220197387317  0.00147218368172  -0.00771416667948  0.000344594270014  
5.65200304985  0.00142152213025  -3.01720884641e-07  0.00222534844055  0.00138377495282  -0.00767305462215  0.000698690452017  
5.66007494926  0.00129886521349  -2.98940668153e-07  0.00223309476064  0.00129363989782  -0.00758750441034  0.00022789059357  
5.66819500923  0.00117766778683  -2.94520639829e-07  0.00222637799723  0.00120247203924  -0.00746149690097  -0.000207816432523  
5.6762650013  0.00105856886896  -2.8861553678e-07  0.00220636263862  0.00111091747123  -0.00729895504486  0.000184702592262  
5.68438005447  0.000942144844151  -2.81377304073e-07  0.00217420532158  0.00101957453098  -0.00710372403075  0.000545644802349  
5.69260501862  0.000828910746778  -2.72954365353e-07  0.0021310482612  0.000928993792063  -0.00737524872212  8.20681213319e-05  
5.70069003105  0.000719321827037  -2.63490976379e-07  0.00207801328025  0.00183106884658  -0.00757993939725  0.000447039798189  
5.7087430954  0.000613775366154  -2.53126653482e-07  0.00201619642868  0.00265180024142  -0.00772168782361  0.000780944883823  
5.71680593491  0.000512612710535  -2.41995672581e-07  0.00194666318077  0.00240096561678  -0.00780450042889  0.0010840806895  
5.72491598129  0.00041612149521  -2.30226643434e-07  0.00187044419496  0.00215464767157  -0.0073367432757  0.000563843073484  
5.7330288887  0.000324538028075  -2.17942154272e-07  0.00178853161893  0.00191407705148  -0.0073554257862  0.000873561641806  
5.74115490913  0.000238049807648  -2.05258477594e-07  0.00170187592062  0.00168030090074  -0.00683133089297  0.00115385556467  
5.74931907654  0.00015679814835  -1.92285333811e-07  0.00161138322395  0.00145424289592  -0.00630549136097  0.001405227329  
5.7575750351  8.088088866e-05  -1.79125724763e-07  0.00151791312664  0.00222809726988  -0.0057813329397  0.00162836184658  
5.76571106911  1.03551589071e-05  -1.65875814785e-07  0.00142227697625  0.00292809777909  -0.00526197878502  0.00182406613829  
5.77361989021  -5.4759813117e-05  -1.52624858631e-07  0.0013252365796  0.00256419004887  -0.00524597481537  0.00120014393555  
5.78163599968  -0.000114479879069  -1.39455193965e-07  0.00122750331979  0.00221256354828  -0.00519867567436  0.000617166049728  
5.78972792625  -0.000168853148381  -1.26442258237e-07  0.0011297376549  0.00286589014392  -0.00512277816515  0.000868725599156  
5.7977809906  -0.000217957185393  -1.13654660401e-07  0.00103254897165  0.00146798091004  -0.0050209735559  0.000302294960305  
5.80590701103  -0.000261896241249  -1.01154285009e-07  0.000936495767415  0.00116076590197  -0.00539150750634  -0.000222081328531  
5.8139629364  -0.000300798535018  -8.89964286727e-08  0.000842086134076  0.000870247972454  -0.00520423289098  8.87399114196e-05  
5.82211399078  -0.000334813597119  -7.72299728222e-08  0.000749778517129  0.000596881479127  -0.00499916554569  0.000374922968352  
5.83015298843  -0.000364109686688  -6.58975685719e-08  0.000659982724075  0.000341031822277  -0.00527458853059  0.000636561833009  
5.83832097054  -0.000388871293177  -5.50358675158e-08  0.000573061156431  0.000102927301433  -0.00500031248027  8.08271982485e-05  
5.84657001495  -0.00040929673117  -4.46757485668e-08  0.000489330240365  -0.00110872132933  -0.00570756074869  -0.00122541945666  
5.85464310646  -0.000425595836093  -3.48425824109e-08  0.000409062031661  -0.00122808864551  -0.00582883313971  -0.00162958507317  
5.86259293556  -0.000437987767298  -2.55564992489e-08  0.000332485971509  -0.00133051297407  -0.00590448249114  -0.00199221666881  
5.87075805664  -0.00044669892382  -1.68326711019e-08  0.000259790770514  -0.000425337355544  -0.00544200521744  -0.0015212195698  
5.87874388695  -0.000451960976995  -8.68160304646e-09  0.000191126399283  0.000412261269827  -0.00547722587241  -0.00107730146622  
5.88680195808  -0.000454009023087  -1.10942613415e-09  0.000126606164948  0.00118227656967  -0.00498013724061  -0.000661158258946  
5.89486789703  -5.44533119018e-05  5.88179689686e-09  6.63088540783e-05  0.000893785962571  -0.00498630038903  -0.00106632726545  
5.90301609039  0.000314443622045  1.22937681761e-08  1.02809235047e-05  0.000622090023066  -0.0049610597295  -0.000640355458741  
5.91106510162  0.000652750560123  1.81316547628e-08  -4.14612782366e-05  0.00135901405828  -0.00490698324179  -0.000243434991363  
5.91917896271  0.000960742249443  2.34037856879e-08  -8.89292750283e-05  4.75682786232e-05  -0.00482664517658  0.000124182942304  
5.92727208138  0.00123886028703  2.81213546366e-08  -0.000132160227852  -0.000171080538849  -0.00472258295714  0.00046249119621  
5.93544387817  0.00148769742579  3.22981304906e-08  -0.000171214713863  -0.000371639845181  -0.00459728428757  0.000771665116109  
5.94364404678  0.00170798216057  3.59501684035e-08  -0.000206174532525  -0.000554322461391  -0.00445317557035  0.000258937140614  
5.95174503326  0.00190056366821  3.90955353529e-08  -0.000237140550326  -0.000719382201447  -0.00429261160365  0.000577473083526  
5.95966100693  0.00206639716759  4.17540403121e-08  -0.000264230594442  -0.000867162567609  -0.0046135610391  0.000867738782706  
5.9677670002  0.00220652975797  4.39469769439e-08  -0.00028757740466  -6.69866870488e-06  -0.00488098318262  0.000336974206298  
5.97582101822  0.0023220867864  4.56968749995e-08  -0.000307326651708  -0.000204327776112  -0.00460165216768  -0.000154720860826  
5.98390603065  0.00241425878773  4.70272662377e-08  -0.000323635029171  -0.00038539996573  -0.00481110938024  0.000185825599525  
5.99203109741  0.00248428903378  4.79624593168e-08  -0.000336668425106  -0.000550022869783  -0.00497446844283  -0.000294285565555  
6.00010704994  0.00253346172187  4.85273288951e-08  -0.000346600178521  -0.00168984039865  -0.00509426711659  -0.000735341157502  
6.00822806358  0.00256309082609  4.87471176116e-08  -0.000353609424963  -0.00173934746598  -0.00467744905283  -0.000344482417865  
6.01629400253  0.00257450962937  4.86472502338e-08  -0.000357879534554  -0.00177416047814  -0.00475962189486  1.82147341725e-05  
6.02454590797  0.00256906094822  4.8253162683e-08  -0.000359596645004  -0.0017952579633  -0.00480589758952  -0.000440467775262  
6.03245592117  0.00254808805726  4.75901417175e-08  -0.00035894829132  -0.00180357372127  -0.00481874867042  -6.77412451398e-05  
6.04055690765  0.00251292631538  4.66831809139e-08  -0.000356122133233  -0.00180004840073  -0.00480069017719  -0.000516596109662  
6.04862809181  0.00246489549117  4.55568482391e-08  -0.00035130478063  -0.00178562312849  -0.00425853950536  -0.000927442126353  
6.05672502518  0.00240529278084  4.42351650799e-08  -0.000344680716696  -0.00176123363044  -0.00422770964467  -0.000507526804533  
6.06487894058  0.00233538650836  4.27415009045e-08  -0.000336431317849  -0.00172780484242  -0.00417305714146  -0.000910126082179  
6.07291388512  0.00225641049388  4.10984791155e-08  -0.000326733969047  -0.00168624600639  -0.00409674355446  -0.00127586472233  
6.08108210564  0.00216955907345  3.93278932932e-08  -0.000315761272554  -0.00163744624476  -0.00400092418093  -0.00160529062146  
6.08917188644  0.00207598275057  3.74506375185e-08  -0.000303680347818  -0.000590882300435  -0.00339201392758  -0.00110606843504  
6.09727907181  0.00197678445731  3.5486645221e-08  -0.000290652219729  -0.00061323101441  -0.00280929166894  -0.00143180189976  
6.10555195808  0.00187301640102  3.34548420605e-08  -0.000276831292207  -0.000630092579722  -0.00275006285815  -0.000930294432048  
6.11366391182  0.00176567747074  3.13731046709e-08  -0.000262364903751  -0.000641733912644  -0.00267838855096  -0.0012550109815  
6.12166309357  0.00165571117582  2.92582304618e-08  -0.000247392961351  -0.000648488006523  -0.00259565260506  -0.00154677244154  
6.12959909439  0.00154400408847  2.71259206536e-08  -0.000232047648951  -0.000650692340916  -0.002007533293  -0.00101317320113  
6.13767409325  0.00143138476053  2.49907646014e-08  -0.000216453206479  -0.000648686438444  -0.00145258185746  -0.000514665371689  
6.14573287964  0.00131862308455  2.28662365077e-08  -0.000200725775351  -0.000642809598635  -0.000931695512657  -0.000844772074938  
6.15383195877  0.00120643006858  2.07646993748e-08  -0.000184973306233  -0.000633398809073  -0.000445463077971  -0.000350942709262  
6.16191506386  0.00109545799398  1.86974132648e-08  -0.000169295524814  0.000370601059207  5.78744911497e-06  0.00010677202575  
6.17002391815  0.000986300925463  1.66745513308e-08  -0.000153783951291  0.000303025091406  -7.3723242339e-05  0.000528290785641  
6.17816400528  0.000879495542988  1.47052216211e-08  -0.000138521969261  -0.000752628433194  0.000349062752488  0.000120697904825  
6.18627595901  0.000775522265241  1.27974927925e-08  -0.000123584939791  -0.000730324940325  0.000736887776227  -0.000256045919966  
6.19431495667  0.000674806635141  1.09584247514e-08  -0.000109040356427  -0.000705164597477  0.00109003110257  0.000191155932175  
6.20245504379  0.000577720938428  9.19410369299e-09  -9.49480369962e-05  -0.000677580254371  0.000913299197013  0.000602498083236  
6.2105588913  0.00048458602718  7.50967847178e-09  -8.13603481834e-05  -0.000647931317574  0.00124028440288  0.000978167072283  
6.21866106987  0.000395673321043  5.90940278975e-09  -6.83224589067e-05  -0.000616562108056  0.00103851995101  0.000525491437326  
6.22687196732  0.000311206959944  4.39667760704e-09  -5.58726187144e-05  0.000407586632435  0.00134163854477  0.000897760681529  
6.23490810394  0.000231366083172  2.97409661647e-09  -4.40424575177e-05  0.000358366484037  0.00111723123209  0.00123560133655  
6.24286293983  0.000156287210869  1.64349127422e-09  -3.28573031433e-05  0.00031068770056  0.00090328236875  0.00074643615846  
6.2509329319  8.60667051891e-05  4.05981381323e-10  -2.23365133544e-05  0.00125616913108  0.0011960293873  0.00108367689646  
6.25898599625  -3.95993932965e-05  -1.78854833101e-09  -3.33767638634e-06  0.00100487265423  0.000741978407031  0.000933526946188  
6.26718688011  -9.50302058909e-05  -2.74645809961e-09  5.12837727241e-06  0.000884031785045  0.000533546562166  0.00044696437806  
6.27526307106  -0.00014556793639  -3.61295488399e-09  1.29053624284e-05  0.000767084461715  0.000833677311767  0.000788464333829  
6.28328490257  -0.000191278735214  -4.38975680126e-09  1.99984977871e-05  0.000654454360763  0.000609667543913  0.000305494497508  
6.29132604599  -0.000232253580129  -5.07900665266e-09  2.6416841849e-05  0.000546505469217  0.000399235859435  0.000651186291038  
6.29945588112  -0.000268605784114  -5.68322174225e-09  3.21729385898e-05  0.000443544458992  0.000698355672868  0.0009660436593  
6.30751395226  -0.000300468558068  -6.2052534195e-09  3.7282469011e-05  0.00034582323273  0.000474253581414  0.00125046147446  
6.31572604179  -0.000327992639199  -6.64824036187e-09  4.17639102691e-05  0.00025354161197  0.000264577242546  0.000711928887515  
6.32382488251  -0.000351343994743  -7.01556842822e-09  4.563820391e-05  0.000166850139923  6.95361075502e-05  0.00100384817213  
6.33187890053  -0.0003707016094  -7.31083166861e-09  4.89284345612e-05  8.58529725552e-05  0.000384898163516  0.000473810158676  
6.33996605873  -0.000386255363743  -7.53779160039e-09  5.16595202654e-05  1.06108331697e-05  0.000177723339245  0.000775042522639  
6.348072052  -0.000398204009675  -7.70034221455e-09  5.38579154722e-05  -5.88559927709e-05  -1.4499232438e-05  0.000255015031728  
6.35616707802  -0.000406753248011  -7.8024743148e-09  5.55513275514e-05  -0.000122564644308  0.000303984149707  0.000566838788901  
6.36428689957  -0.000412113912144  -7.84824585271e-09  5.67684475352e-05  -0.000180566673264  0.000595884092527  0.000850981221863  
6.37244296074  -0.000414500260873  -7.84174786558e-09  5.75386956584e-05  -0.000232945052713  0.000861424437714  0.00110778279527  
6.38048696518  -0.000414128382485  -7.78707792029e-09  5.78919821258e-05  -0.000279811222653  0.00110100321079  0.000544663820165  
6.38859391212  -0.00041121471139  -7.68831400023e-09  5.78584834098e-05  -0.000321302188312  0.000819455406986  2.18350038303e-05  
6.39680504799  -0.000405974657744  -7.54949416631e-09  5.74684342626e-05  -0.000357577685028  0.00105034319769  -0.000460541233925  
6.40489006042  -0.000398621349838  -7.37458831281e-09  5.67519355122e-05  -0.000388817422127  0.000761121668928  -0.000109502966202  
6.4128100872  -0.000389364488258  -7.16748306792e-09  5.57387776112e-05  -0.00041521841678  0.000489600253612  -0.000578099762687  
6.42091107368  -0.000378409310295  -6.9319638969e-09  5.445827981e-05  -0.000436992427403  0.000236118374871  -0.00021366706465  
6.42916989326  -0.000365955662447  -6.67169933752e-09  5.29391447413e-05  -0.000454363494793  0.00049654222716  0.000123845387201  
6.43730211258  -0.000352197178382  -6.39022518936e-09  5.12093281196e-05  -0.000467565597914  0.000238001671165  0.000434387397663  
6.44525003433  -0.000337320559296  -6.09093727575e-09  4.92959231945e-05  0.000514545820451  0.000493719663751  0.000718125069599  
6.45336294174  -0.000321504953157  -5.77707430197e-09  4.72250595253e-05  0.000425890375643  0.000726549285847  0.000975377996378  
6.46140289307  -0.000304921429037  -5.45171749899e-09  0.000361000731321  0.000341417324209  0.000936793951392  0.0012066053623  
6.46960902214  -0.000287732542392  -5.11777881202e-09  0.000648194564226  0.000261382748415  0.000629208839728  0.00061928452022  
6.47759795189  -0.000270091986942  -4.77799485945e-09  0.00090906943113  0.000185938888579  0.000341568095509  0.000866776773534  
6.48569202423  -0.000252144328585  -4.43492924289e-09  0.00114404916375  0.000115197669905  7.41371549098e-05  0.00108972057173  
6.49378991127  -0.000234024816627  -4.09096641843e-09  0.00135368543258  4.92331374552e-05  -0.000172992852609  0.000495484890462  
6.50185990334  -0.000215859267498  -3.74831098601e-09  0.00153864439807  0.000979469868405  9.58290773707e-05  0.000737367372897  
6.50998687744  -0.000197764016051  -3.4089895546e-09  0.00169969368748  0.000840081520956  0.000343215379898  0.000955940300604  
6.51831388474  -0.000179845929492  -3.07485100877e-09  0.00183768975282  0.000706242685463  0.000569266173904  0.00115161112132  
6.52631211281  -0.000162202479005  -2.74756566474e-09  0.00195356565894  0.000578410059396  0.000774234583665  0.00132494315789  
