Ethan-CYM/ros_catkin_ws/test/servol_静止不动/ur_joint_target_degree.txt
time  shoulder_pan_joint  shoulder_lift_joint  elbow_joint  wrist_1_joint  wrist_2_joint  wrist_3_joint
0.161726951599  1.57000005245  -1.22109806538  2.09333586693  -3.15257933347  -1.57142728371  -0.241680031412  
0.169621944427  1.57000005245  -1.22109806538  2.09333586693  -3.15259421228  -1.57139862459  -0.246474424786  
0.177716016769  1.57000005245  -1.22109806538  2.09333586693  -3.15260544152  -1.57136812113  -0.250682351272  
0.185878992081  1.57000005245  -1.22109806538  2.09333586693  -3.15261323482  -1.5713310972  -0.254274773815  
0.193926095963  1.57000005245  -1.22109806538  2.09333586693  -3.1526228187  -1.57128786674  -0.257230396417  
0.202039003372  1.57000005245  -1.22109806538  2.09333586693  -3.15264192968  -1.57123813878  -0.259539877623  
0.210124015808  1.57000005245  -1.22109806538  2.09333586693  -3.15266261868  -1.57118376757  -0.261200953174  
0.218312978745  1.57000005245  -1.22109806538  2.09333586693  -3.15267878245  -1.57112941856  -0.262219566058  
0.226510047913  1.57000005245  -1.22109806538  2.09333586693  -3.15269067193  -1.57107689062  -0.262603520105  
0.234590053558  1.57000005245  -1.22109806538  2.09333586693  -3.15269854514  -1.57102636845  -0.262361612236  
0.242737054825  1.57000005245  -1.22109806538  2.09333586693  -3.15270266501  -1.57097800995  -0.261505841407  
0.25079703331  1.57000005245  -1.22110805743  2.09333268416  -3.15270830551  -1.57092944276  -0.260043070985  
0.258935928345  1.57000005245  -1.2211570229  2.09331676861  -3.15271823948  -1.57088202591  -0.257970702549  
0.267083883286  1.57000005245  -1.22152036604  2.09319453259  -3.1527669482  -1.57078944364  -0.251980037949  
0.275152921677  1.57000005245  -1.22190440473  2.09306052841  -3.1528017905  -1.57074470252  -0.248042967726  
0.283204078674  1.57000206655  -1.22246006554  2.09285938346  -3.15282806171  -1.57069945691  -0.243457164881  
0.291451931  1.57000710259  -1.22321173365  2.09258149271  -3.15282538448  -1.57065402683  -0.2382062334  
0.299392938614  1.57001690835  -1.22418068448  2.09221940645  -3.15278223431  -1.5706087086  -0.232283185367  
0.307497024536  1.57003424319  -1.22538519303  2.09177156552  -3.1526840682  -1.57056127078  -0.225680074352  
0.315682888031  1.57006160581  -1.22684065338  2.09124624837  -3.15250695128  -1.57051321349  -0.218393117643  
0.323745965958  1.57010123868  -1.22855570986  2.09065370239  -3.15223137898  -1.57046634611  -0.21042941954  
0.331876993179  1.57015513356  -1.2305283941  2.0900060493  -3.15183789033  -1.57042086717  -0.201810089361  
0.33998298645  1.57022302514  -1.23275178877  2.08931667311  -3.1513063412  -1.5703769512  -0.192563349021  
0.348052978516  1.57030139175  -1.23521196173  2.08859817162  -3.15062401645  -1.57033224538  -0.182735152784  
0.356183052063  1.57038775733  -1.23788309646  2.08785754328  -3.14978304987  -1.57028812966  -0.172380861393  
0.364417076111  1.5704809648  -1.24073340249  2.08709857507  -3.14878218071  -1.57024379096  -0.161562818082  
0.372407913208  1.57057990443  -1.24373127742  2.08632487271  -3.14762416474  -1.57019805885  -0.150354101839  
0.380512952805  1.57068351706  -1.24684665616  2.08553985254  -3.14630750962  -1.57015382947  -0.138825217773  
0.388524055481  1.57079079676  -1.25005107826  2.08474673632  -3.14483891535  -1.57011021958  -0.1270448514  
0.396610021591  1.57090079291  -1.25331773997  2.0839485465  -3.14323636694  -1.57007099747  -0.115084265239  
0.404694080353  1.57101261185  -1.25662153201  2.08314490936  -3.14151019391  -1.57003398353  -0.103012649741  
0.412771940231  1.57112340385  -1.25993906389  2.08233205106  -3.13967485616  -1.56999881399  -0.0908985201439  
0.420906066895  1.57123138422  -1.2632486757  2.08150401912  -3.13774521192  -1.56996702694  -0.078807677353  
0.428951025009  1.57133610094  -1.26653043817  2.08065448423  -3.13572761584  -1.56993605301  -0.066796662957  
0.4371509552  1.57143715737  -1.26976614206  2.07977614485  -3.13363556689  -1.56990706249  -0.0549228066675  
0.44521188736  1.57153421036  -1.27294127585  2.07886470815  -3.13148783119  -1.5698815443  -0.0432428180802  
0.453449010849  1.57162696825  -1.27604399848  2.07791669064  -3.12929705458  -1.56986189184  -0.0318078009122  
0.46150302887  1.57171518869  -1.27906183916  2.07693455777  -3.12708226007  -1.56984923495  -0.0206673782448  
0.469507932663  1.57180069042  -1.2819846527  2.07591494706  -3.12485196864  -1.56984310912  -0.00985981879485  
0.47755408287  1.57188433044  -1.28480284054  2.07485577895  -3.12262038383  -1.56984554991  0.000578313609437  
0.485666036606  1.5719657341  -1.28750903001  2.0737575157  -3.12039937578  -1.5698548358  0.0106149118013  
0.493788957596  1.57204456971  -1.29009828322  2.07262308814  -3.11819898365  -1.56986891454  0.0202211875278  
0.501874923706  1.57212054725  -1.29256677171  2.07145409704  -3.11602625661  -1.56988983119  0.0293749239288  
0.509946107864  1.57219341699  -1.29491171365  2.07025036798  -3.11388960753  -1.5699183883  0.0380567721942  
0.518059015274  1.57226296785  -1.29713330849  2.0690135541  -3.11179949865  -1.56995381548  0.0462494740745  
0.526179075241  1.57232902576  -1.29923367357  2.06774472288  -3.10976028298  -1.56999535947  0.0539401474404  
0.534415006638  1.57239145184  -1.30121551434  2.06644412494  -3.10777273284  -1.57003978298  0.0611240337852  
0.542453050613  1.57245014051  -1.303082062  2.06511378516  -3.1058372393  -1.5700851235  0.0678022310463  
0.550529003143  1.57250501763  -1.30483901076  2.06375349833  -3.10395884906  -1.57013102838  0.0739708763778  
0.55863404274  1.57255603844  -1.306493461  2.06236299283  -3.10213977994  -1.57017716886  0.0796329020192  
0.566729068756  1.5726031856  -1.30805059972  2.06094313601  -3.10037377379  -1.57022324024  0.0847948324541  
0.574803113937  1.57264646719  -1.30951664584  2.05949331437  -3.09865681154  -1.57027146643  0.0894634487659  
0.582917928696  1.57268591461  -1.31089906834  2.05801381287  -3.09698780815  -1.5703203395  0.0936480678122  
0.591021060944  1.57272158066  -1.31220527593  2.05650281834  -3.09536546607  -1.57036804261  0.097360287535  
0.59913611412  1.5727535375  -1.31344457375  2.05496018417  -3.09378328934  -1.57041437048  0.100613737882  
0.607206106186  1.57278187471  -1.31462712733  2.05338624122  -3.09223210996  -1.57046164683  0.103423838454  
0.615523099899  1.57280468329  -1.3157666617  2.05178375437  -3.09070327925  -1.57050846326  0.105807563851  
0.623491048813  1.57282107416  -1.31687843873  2.05015572232  -3.08918868214  -1.57055310164  0.10778321759  
0.631450891495  1.5728314438  -1.31797670806  2.0485057328  -3.08768074482  -1.57059545396  0.109370215321  
0.639609098434  1.57283619526  -1.31907469696  2.04683656752  -3.0861624214  -1.57063293025  0.110592885227  
0.647675991058  1.57283573521  -1.32018460758  2.04514997855  -3.08461220174  -1.5706617091  0.111470255038  
0.65583896637  1.57283047109  -1.32131762032  2.04344609357  -3.08301044318  -1.57067831958  0.112025350914  
0.663918018341  1.57282080851  -1.32248390442  2.04172260847  -3.08133934828  -1.57068213998  0.11228208703  
0.672034025192  1.57280714891  -1.32369263341  2.03997818344  -3.07958794032  -1.57067163498  0.112262031926  
0.680115938187  1.57278988739  -1.32495200518  2.0382110489  -3.07774451105  -1.57064651864  0.111986797894  
0.688216924667  1.57276941072  -1.32626926685  2.0364203774  -3.07579590551  -1.57060557664  0.111477903425  
0.696312904358  1.5727460956  -1.3276527418  2.03460808292  -3.0737356523  -1.57054632393  0.110756646914  
0.704472064972  1.57272030711  -1.32910886546  2.03277540056  -3.07155639249  -1.57046908656  0.109843991544  
0.712569952011  1.57269239734  -1.33064195525  2.03092266223  -3.06925416011  -1.57037073109  0.108760461177  
0.720635890961  1.57266270422  -1.3322575139  2.02904870394  -3.06682397747  -1.57025308554  0.107522039808  
0.728761911392  1.57263155051  -1.33395927425  2.02715484331  -3.06425912143  -1.57011483187  0.106150105367  
0.736857891083  1.57259924299  -1.33574897682  2.02524268751  -3.06155923544  -1.56995550166  0.104665880051  
0.744981050491  1.57256607177  -1.33762568245  2.02331130078  -3.0587277557  -1.56977521606  0.103087294394  
0.753082990646  1.57253230981  -1.33958681713  2.02136060147  -3.05576866811  -1.56957525802  0.101431472686  
0.761221885681  1.57249821254  -1.34162948304  2.01939156691  -3.05268143162  -1.56935839597  0.0997186965144  
0.769422054291  1.57246401765  -1.34375050104  2.01740521284  -3.0494684262  -1.56912728835  0.097966360438  
0.777415037155  1.57242994499  -1.34594645218  2.01540258345  -3.04613555383  -1.56888447565  0.0961844057763  
0.785556077957  1.57239619656  -1.34821171953  2.01338474077  -3.04268399372  -1.56862986925  0.0943838520123  
0.793601989746  1.57236295668  -1.35053952456  2.01135275772  -3.03911765245  -1.56836450193  0.0925773197998  
0.801745891571  1.57233039221  -1.35292122806  2.00930770936  -3.0354437727  -1.56809085632  0.0907764871393  
0.809856891632  1.57229865286  -1.35534735971  2.00724907052  -3.03166970204  -1.56780876917  0.0889920900675  
0.817883014679  1.57226787158  -1.35780890841  2.0051771054  -3.027802839  -1.56751918361  0.0872339291409  
0.825973033905  1.57223816508  -1.36029734295  2.00309147645  -3.02385058471  -1.56722447932  0.0855108812225  
0.834065914154  1.57220963432  -1.36280462733  2.00099102413  -3.01982029537  -1.5669243785  0.0838349233375  
0.842183113098  1.57218236513  -1.3653252308  1.99887636976  -3.01572925812  -1.56661969969  0.0822111370905  
0.850286960602  1.57215642883  -1.36785513698  1.99674910872  -3.01158963092  -1.56631268956  0.0806432106233  
0.858443021774  1.57213188295  -1.37039058356  1.99461079076  -3.00740707613  -1.56600042577  0.0791405474484  
0.86652302742  1.57210877192  -1.37292606723  1.99246131513  -3.00318708246  -1.56568483255  0.0777057426389  
0.87458896637  1.57208712781  -1.37545734266  1.99030132289  -2.99893494586  -1.56536458158  0.0763441007094  
0.882649898529  1.57206697108  -1.37798368611  1.9881308101  -2.99465575028  -1.56503909588  0.0750567280987  
0.890749931335  1.5720483114  -1.38050163167  1.98594890254  -2.99035435335  -1.56471080225  0.0738435092071  
0.898892879486  1.57203114837  -1.38300769796  1.98375486451  -2.98603036394  -1.56437945248  0.0727102255394  
0.907013893127  1.57200126519  -1.38797855012  1.97933130987  -2.97734249909  -1.5637035543  0.0706930423933  
0.915175914764  1.57198850107  -1.39043710755  1.97710894044  -2.97299976145  -1.5633623957  0.0698087558913  
0.923162937164  1.57197714718  -1.39287504281  1.97488511071  -2.96867102275  -1.56302211904  0.0690022483008  
0.931215047836  1.57196716453  -1.39528982587  1.97266522859  -2.96436326887  -1.56268476809  0.0682701466385  
0.939482927322  1.57195850863  -1.3976845885  1.97044721323  -2.96007071334  -1.56234970527  0.0676152263364  
0.947475910187  1.57195113021  -1.40006218626  1.96823085596  -2.95578916379  -1.56201736957  0.0670338949688  
0.955574989319  1.57194497591  -1.402421857  1.96601968147  -2.95152554607  -1.5616871077  0.0665217070659  
0.963531017303  1.57193998888  -1.40476300901  1.96381690863  -2.94727904489  -1.56135934548  0.0660764742556  
0.971657991409  1.57193610948  -1.40708521147  1.96162545474  -2.943047959  -1.56103341888  0.065699769678  
0.9797539711  1.5719332758  -1.40938818466  1.95944634321  -2.93883855873  -1.56071224984  0.0653909529123  
0.987772941589  1.57193142424  -1.41166979122  1.95727950668  -2.93464940081  -1.56039391685  0.065146670657  
0.995945930481  1.57193049006  -1.41392702515  1.95512320903  -2.93047818539  -1.56007975379  0.0649634293417  
1.00403308868  1.57193040783  -1.41615726489  1.952976447  -2.92632560588  -1.5597703458  0.0648376277017  
1.01207900047  1.57192909784  -1.41835626149  1.95083757037  -2.92219218659  -1.5594657811  0.064765587494  
1.02030110359  1.57192548683  -1.42051912235  1.94870567077  -2.91807829176  -1.55916757427  0.0647435823047  
1.02846693993  1.57191977584  -1.42263956034  1.94658079746  -2.91398413566  -1.55887457829  0.0647678644204  
1.03643393517  1.57191216335  -1.4247108725  1.94446454785  -2.90991480336  -1.55858674413  0.0648346897454  
1.04445195198  1.57190083014  -1.42672718099  1.94235608134  -2.90587274813  -1.55830295325  0.0649443480012  
1.0525290966  1.5718849587  -1.42868340591  1.94025430505  -2.90186214549  -1.55802319012  0.0650911672513  
1.06062698364  1.57186298624  -1.43057523446  1.93815910213  -2.897889579  -1.5577463746  0.0652690100599  
1.0687289238  1.57183434635  -1.43239908861  1.93607032448  -2.89396088461  -1.55747253318  0.0654783713078  
1.07683205605  1.57179973442  -1.43415208983  1.93398779541  -2.89008618143  -1.55719812579  0.0657178457659  
1.08501005173  1.5717598289  -1.43583202308  1.93191290939  -2.88627739432  -1.55692447774  0.0659796019383  
1.09305691719  1.57171528847  -1.43743929684  1.92984943727  -2.88254010419  -1.55665218745  0.0662619512699  
1.10113596916  1.57166674942  -1.438975907  1.92779373719  -2.87887108026  -1.55637887196  0.066559876378  
1.10938310623  1.57161482348  -1.44044413276  1.92574252752  -2.87527401003  -1.55609983513  0.0668679775485  
1.11744999886  1.57156009589  -1.44184450258  1.92370033964  -2.87175770054  -1.55581182218  0.0671835522856  
1.12550592422  1.57150312387  -1.44317475928  1.92167728548  -2.86833478283  -1.55551585453  0.0675040615017  
1.13352203369  1.57144443532  -1.44443208842  1.91968124409  -2.8650192542  -1.55521438689  0.0678271325931  
1.14158701897  1.57138049961  -1.44562433869  1.91769989718  -2.86179831435  -1.55490220446  0.0681505612426  
1.14970588684  1.57130775395  -1.4467569979  1.91572589833  -2.85865495476  -1.55457267837  0.0684763192735  
1.15772104263  1.57122414328  -1.44782882902  1.91376081414  -2.85558887628  -1.55422376951  0.0688045449372  
1.16577410698  1.57112582521  -1.44883989917  1.91180763169  -2.85260016819  -1.55385518064  0.0691330092363  
1.17388701439  1.57100817069  -1.44978981663  1.90986996411  -2.84969552374  -1.55346926429  0.0694596547332  
1.18203806877  1.57086702983  -1.45067743228  1.9079510468  -2.84687642914  -1.55306725663  0.069782595003  
1.19020605087  1.57069872092  -1.45150207293  1.90605374742  -2.84414288022  -1.55265143904  0.0701001130672  
1.19821190834  1.5705000165  -1.45226350855  1.90418217304  -2.84149726861  -1.55222546475  0.0704106588973  
1.20641493797  1.57027014264  -1.45296191932  1.90234248194  -2.83894125441  -1.55179276645  0.0707168533078  
1.21446895599  1.57000774138  -1.45359786266  1.90053949292  -2.83648082175  -1.55135655207  0.0710154674028  
1.22257304192  1.56971058559  -1.45417224047  1.89877648963  -2.8341188143  -1.55091980232  0.0713069020664  
1.23064088821  1.56937683657  -1.45468626679  1.89705784933  -2.83185431754  -1.55048526986  0.0715922467987  
1.23883891106  1.5690070398  -1.45514143605  1.89538667011  -2.82968588357  -1.55005297581  0.0718742103807  
1.2469329834  1.56860309868  -1.455539492  1.89376458238  -2.82761658927  -1.54962396685  0.0721536462534  
1.25497102737  1.56816496645  -1.45588239755  1.89219438205  -2.82565158318  -1.54920065098  0.0724330225461  
1.26315689087  1.56769163597  -1.45617230559  1.89067606515  -2.82378494874  -1.54878270941  0.0727169576704  
1.27137708664  1.56718038296  -1.45641153081  1.88921063366  -2.82201478313  -1.54836835149  0.0730096836768  
1.27945995331  1.56662976693  -1.45660252286  1.88779895229  -2.82034458542  -1.54795840784  0.0733150494932  
1.28751301765  1.5660378664  -1.45674784059  1.88644214894  -2.8187719535  -1.54755508045  0.0736365267707  
1.29558396339  1.56540400296  -1.45685012773  1.8851434528  -2.81729614861  -1.54716035933  0.0739772176397  
1.30366492271  1.56472697351  -1.4569120899  1.88390481795  -2.81591881482  -1.54677602653  0.0743358569124  
1.31173110008  1.56400677387  -1.45693647296  1.88272833767  -2.81463584826  -1.54640366131  0.0747128322289  
1.31984305382  1.56324685874  -1.4569260429  1.88161489272  -2.8134399514  -1.54604464603  0.0751107285513  
1.32792806625  1.56245183762  -1.45688356706  1.88056397163  -2.81232886175  -1.54570267737  0.0755277930628  
1.33602190018  1.56162618053  -1.45681179688  1.87957471481  -2.81130289256  -1.54538001798  0.075959948813  
1.34416294098  1.56077621455  -1.45671345204  1.87864594661  -2.81035679536  -1.54507466721  0.0764073481417  
1.35240602493  1.55990708883  -1.45659120605  1.87777780368  -2.80948731584  -1.54479072256  0.0768643647697  
1.3605029583  1.559022495  -1.45644767321  1.87696937153  -2.80869390323  -1.5445287068  0.0773330881272  
1.36846590042  1.55812392049  -1.45628539705  1.87621850344  -2.80797557737  -1.54428708073  0.0778143818151  
1.37656402588  1.55721366124  -1.45610683994  1.87552445879  -2.80732595998  -1.54406576134  0.0783082896432  
1.38463592529  1.5562950839  -1.45591437419  1.87488713452  -2.80674082355  -1.543864546  0.0788171149156  
1.39279007912  1.55537335948  -1.45571027426  1.87430608343  -2.80621879451  -1.54368312302  0.0793348750637  
1.40084004402  1.55445042613  -1.45549671026  1.87378054376  -2.80575821415  -1.54352108205  0.0798633357458  
1.40890598297  1.55352975356  -1.45527574259  1.87330946831  -2.80535717112  -1.54337792429  0.0804030683086  
1.41705799103  1.5526128531  -1.45504931764  1.87288995657  -2.80501353286  -1.54325557696  0.0809498473557  
1.42513990402  1.55170075644  -1.45481926459  1.87251967688  -2.80472497604  -1.54315464722  0.0815037389975  
1.43338704109  1.55079757595  -1.45458729312  1.87219710575  -2.80448901578  -1.5430740989  0.0820630940501  
1.44142389297  1.54990822587  -1.4543549921  1.87192054182  -2.80430303362  -1.5430153538  0.0826240162343  
1.44948506355  1.54903513901  -1.45412382911  1.87168813019  -2.80416430413  -1.54297854693  0.0831869092389  
1.45752191544  1.54817928163  -1.45389515072  1.87149788594  -2.80407002016  -1.54296220367  0.0837504671714  
1.46557688713  1.54734143803  -1.45367018354  1.87134771644  -2.80401731657  -1.54296483684  0.0843111401783  
1.4736790657  1.54652423388  -1.45345003594  1.87123544278  -2.80400329256  -1.54298495693  0.0848696783855  
1.48175501823  1.54572912603  -1.4532357003  1.87115881999  -2.80402002339  -1.54302108149  0.0854291284532  
1.48981809616  1.5449581582  -1.4530280559  1.87111555603  -2.80406710015  -1.54307424834  0.0859882880707  
1.49792909622  1.54421424207  -1.45282787223  1.87110332976  -2.80413979232  -1.54314176319  0.0865437088545  
1.5061070919  1.54349989537  -1.4526358127  1.87111980757  -2.80423774258  -1.54322313432  0.0870882261156  
1.51417088509  1.5428172568  -1.45245243883  1.87116265882  -2.80435629959  -1.54331824422  0.0876209722769  
1.52244901657  1.54216810222  -1.45227821461  1.8712295701  -2.80449020116  -1.54342543593  0.0881459026096  
1.53046894073  1.54155386178  -1.45211351121  1.87131825824  -2.80463742487  -1.54354060161  0.0886627066293  
1.53852701187  1.54097563787  -1.45195861189  1.87142648214  -2.80480103166  -1.54366595313  0.0891647999665  
1.54662394524  1.54043422374  -1.45181371707  1.87155205341  -2.8049766516  -1.54380034363  0.0896518739401  
1.55463695526  1.53993012254  -1.45167894951  1.87169284587  -2.80515933542  -1.54394077394  0.09012441228  
1.56272888184  1.53946356679  -1.45155435957  1.87184680392  -2.80534740074  -1.54408590345  0.0905846174203  
1.57082009315  1.53903453784  -1.45143993051  1.87201194981  -2.80554427142  -1.54423947551  0.0910289241183  
1.57894611359  1.53828784796  -1.45124118457  1.87236831979  -2.80595292103  -1.54456786688  0.091857146138  
1.58708405495  1.5379690702  -1.45115654643  1.87255602877  -2.80616638894  -1.54474206606  0.0922350671533  
1.59514689445  1.53768562392  -1.45108143704  1.872747903  -2.80637952387  -1.5449188  0.0925925573658  
1.60314798355  1.53743652576  -1.4510155829  1.87294242808  -2.80659311114  -1.54510032064  0.0929296589805  
1.61134290695  1.53722065547  -1.45095867429  1.87313819072  -2.80680370733  -1.5452855516  0.0932475282795  
1.61946988106  1.53703677349  -1.45091037  1.87333387967  -2.80701231987  -1.5454740963  0.0935440191527  
1.6274869442  1.53688353795  -1.45087030191  1.87352828594  -2.80722073434  -1.54566599037  0.0938166095688  
1.63555407524  1.5367595209  -1.45083807936  1.87372030233  -2.80742767241  -1.54585978263  0.0940654628834  
1.64360499382  1.5366632239  -1.45081329329  1.87390892245  -2.80762695513  -1.54605161827  0.094294884357  
1.6516699791  1.53659309272  -1.45079552025  1.87409323913  -2.80781501322  -1.54624149961  0.0945032924036  
1.65973305702  1.53654753142  -1.45078432614  1.87427244232  -2.80799655975  -1.54642986299  0.094692690661  
1.66783189774  1.53652491539  -1.45077926971  1.87444581659  -2.8081688908  -1.54661565697  0.0948617132204  
1.67596507072  1.53652360375  -1.45077990586  1.87461273825  -2.80833373454  -1.54679792775  0.0950125586917  
1.68401193619  1.53654195074  -1.45078578873  1.87477267209  -2.80848856649  -1.54697581739  0.0951480430754  
1.69210791588  1.53657831633  -1.45079647447  1.8749251678  -2.80863528525  -1.54715106629  0.095264510635  
1.70017790794  1.53663107598  -1.45081152392  1.87506985621  -2.80877653647  -1.54732425488  0.0953603734786  
1.70843195915  1.53669862949  -1.45083050488  1.87520644529  -2.80890685877  -1.54749196355  0.0954406433653  
1.71651291847  1.53677940904  -1.45085299432  1.87533471592  -2.80902336509  -1.5476521134  0.0955083737775  
1.72454094887  1.53687188645  -1.45087858027  1.87545451767  -2.80912640479  -1.54780680165  0.0955601105099  
1.73260688782  1.53697457954  -1.45090686352  1.87556576432  -2.80922139271  -1.54795445081  0.0955944327877  
1.74078607559  1.5370860578  -1.45093745912  1.87566842947  -2.80931129083  -1.54809322758  0.0956164867101  
1.74891209602  1.53720494722  -1.45096999762  1.87576254204  -2.80939092723  -1.54822295927  0.0956294290364  
1.75696396828  1.53732993447  -1.45100412622  1.87584818177  -2.80946268669  -1.5483460473  0.0956338867778  
1.76509594917  1.53745977032  -1.45103950963  1.87592547484  -2.8095246528  -1.54846120212  0.095630490937  
1.77309203148  1.53759327241  -1.45107583079  1.87599458941  -2.80957928365  -1.54856686151  0.0956198722809  
1.78127288818  1.53772932743  -1.45111279144  1.87605573138  -2.80962973612  -1.54866561127  0.095602657444  
1.78958106041  1.53786689265  -1.45115011252  1.87610914014  -2.80967602141  -1.54875633358  0.0955794653591  
1.79753494263  1.53800499689  -1.45118753436  1.87615508451  -2.8097181757  -1.54884012971  0.0955509040134  
1.80562496185  1.53814274104  -1.45122481686  1.87619385876  -2.80975625803  -1.54891848047  0.0955175675242  
1.81375193596  1.53827929803  -1.45126173941  1.87622577883  -2.80979034812  -1.54899132224  0.0954800335276  
1.82184696198  1.53841391235  -1.45129810075  1.87625117869  -2.80982054428  -1.54905863053  0.0954428680756  
1.82995700836  1.53854589921  -1.45133371875  1.87627040684  -2.80984195236  -1.54912041711  0.0954046072849  
1.83801388741  1.53867464328  -1.45136843001  1.87628382305  -2.80985720416  -1.54917672709  0.0953672396619  
1.84614109993  1.53879959715  -1.45140208947  1.87629179523  -2.80986960948  -1.54922763611  0.0953332690544  
1.85441493988  1.5389202794  -1.45143456983  1.87629469653  -2.80987931229  -1.54927074293  0.0953026426154  
1.86249804497  1.53903627254  -1.45146576101  1.87629290258  -2.80988145316  -1.54930742689  0.0952792980433  
1.8705739975  1.53914722057  -1.45149556948  1.87628678904  -2.80987367929  -1.54933691768  0.0952651561739  
1.87861895561  1.53925282646  -1.45152391755  1.87627672919  -2.80985680865  -1.54936063188  0.0952595903695  
1.88679003716  1.53935284937  -1.45155074262  1.87626309183  -2.80983165215  -1.54938033401  0.0952619694038  
1.89482688904  1.53944710185  -1.45157599641  1.87624623934  -2.80980401821  -1.54939621323  0.0952716617373  
1.90292811394  1.5395354468  -1.45159964414  1.87622652594  -2.80977719723  -1.54940846775  0.0952880394611  
1.91100597382  1.53961779444  -1.4516216637  1.87620429608  -2.80975129259  -1.5494173029  0.0953144891122  
1.91915988922  1.53969409919  -1.45164204481  1.87617988311  -2.80972138494  -1.54942292928  0.0953524058386  
1.92724299431  1.53976435651  -1.45166078815  1.87615360806  -2.80969005317  -1.54942556108  0.095400664066  
1.93529009819  1.53982859976  -1.45167790451  1.87612577858  -2.80965551985  -1.54942791892  0.0954581614068  
1.9435069561  1.53988689704  -1.45169341395  1.87609668809  -2.80961532133  -1.54943147273  0.0955238237025  
1.95147299767  1.53993934807  -1.45170734494  1.87606661507  -2.80957014696  -1.54943610759  0.0955966095005  
1.95963001251  1.53998608112  -1.45171973356  1.87603582246  -2.80952567243  -1.54944421484  0.0956755139795  
1.96772503853  1.54002725  -1.45173062262  1.87600455727  -2.80948003704  -1.54945693759  0.095759572343  
1.97582793236  1.5400630311  -1.45174006096  1.87597305027  -2.80943569662  -1.54947634306  0.0958478627013  
1.98387408257  1.5400936206  -1.45174810261  1.87594151579  -2.80939074344  -1.54950325527  0.0959395084628  
1.99197006226  1.54011923163  -1.45175480607  1.87591015173  -2.80934257756  -1.54953942892  0.096033680259  
2.00014400482  1.5401400917  -1.45176023363  1.87587913954  -2.80929174737  -1.54958538373  0.0961295974266  
2.00823402405  1.54015644016  -1.45176445064  1.87584864441  -2.80924378423  -1.54964007514  0.0962265290725  
2.01633191109  1.54016852577  -1.4517675249  1.8758188155  -2.80919668085  -1.5497049899  0.0963237947465  
2.02437996864  1.54017660444  -1.45176952605  1.87578978625  -2.80915274531  -1.54978039468  0.0964207647499  
2.032558918  1.54018093709  -1.45177052496  1.87576167477  -2.80910992198  -1.54986500706  0.0965168601039  
2.04066896439  1.54018178764  -1.45177059325  1.87573458432  -2.80907047277  -1.54995758702  0.0966115522059  
2.04875087738  1.54017942112  -1.45176980273  1.87570860378  -2.80903730719  -1.55005944582  0.0967043622006  
2.0568010807  1.54017410197  -1.45176822499  1.87568380828  -2.80900513428  -1.55016818964  0.0967948600899  
2.06491208076  1.54016609244  -1.45176593093  1.87566025973  -2.80897115015  -1.55028114568  0.0968866708014  
2.07302594185  1.54015565109  -1.45176299039  1.8756380075  -2.80894071536  -1.55039979029  0.0969774565606  
2.08110308647  1.54014303152  -1.45175947183  1.87561868557  -2.80891666984  -1.55052190414  0.0970643921515  
2.08922100067  1.54012848118  -1.45175544195  1.87560311917  -2.80889866684  -1.55064750113  0.097147236825  
2.09732508659  1.54011224027  -1.45175096547  1.87559111336  -2.80888634901  -1.55077699449  0.0972257939157  
2.10553407669  1.54009454085  -1.45174610484  1.87558246627  -2.80887935148  -1.55090677344  0.0973039158305  
2.1135160923  1.540075606  -1.45174092005  1.87557697083  -2.80887229566  -1.55103454692  0.0973834926607  
2.12157201767  1.54005564918  -1.45173546846  1.87557441647  -2.80886731231  -1.55116218199  0.0974599103033  
2.12969398499  1.54003487361  -1.45172980462  1.87557459073  -2.80886218904  -1.55129036039  0.0975305984135  
2.13774991035  1.5400134718  -1.45172398015  1.87557728071  -2.80885905094  -1.55141573978  0.0975955629952  
2.14579701424  1.53999162522  -1.4517180437  1.8755822744  -2.80886068995  -1.55153880039  0.0976548451145  
2.15392589569  1.53996950401  -1.4517120408  1.87558936197  -2.80886672503  -1.55166042163  0.0977085179229  
2.16196894646  1.53994726681  -1.45170601387  1.87559833687  -2.80887677745  -1.55177996028  0.0977566837123  
2.17007303238  1.53992506066  -1.45170000219  1.87560899687  -2.80889047293  -1.55189683599  0.0977994710178  
2.17822408676  1.53990302098  -1.45169404189  1.87562274147  -2.80890243465  -1.5520080255  0.0978370317825  
2.18650507927  1.53988127167  -1.45168816598  1.87564017866  -2.8089097964  -1.55211432126  0.0978695385971  
2.19455695152  1.53985992519  -1.45168240438  1.87566091353  -2.80891286958  -1.55221440215  0.0979011892119  
2.20255899429  1.53983908277  -1.45167678399  1.87568456137  -2.80891697704  -1.5523066661  0.097934194873  
2.21062588692  1.53981883466  -1.45167132873  1.87571074925  -2.80891993055  -1.55239114725  0.0979682455063  
2.21874594688  1.53979926041  -1.45166605964  1.87574071438  -2.80891887481  -1.55246792538  0.0980030486225  
2.22686910629  1.53978042921  -1.45166099499  1.87577491055  -2.80891913659  -1.55253712189  0.0980343225834  
2.23502492905  1.53974522323  -1.45165153865  1.87585385217  -2.80892672301  -1.55266220675  0.0980837973591  
2.24308609962  1.53972893857  -1.45164717051  1.87589757512  -2.80893084709  -1.55271943327  0.0981045976728  
2.25111293793  1.53971559169  -1.45164305411  1.87594348737  -2.80893873883  -1.55277550706  0.0981199842898  
2.25920295715  1.53970621385  -1.45163919545  1.87599113397  -2.80895005675  -1.55282912832  0.0981342891569  
2.26719903946  1.53970055513  -1.45163559849  1.87604008451  -2.80896446462  -1.55287869131  0.0981498487055  
2.27540206909  1.53969836193  -1.45163226523  1.87608993391  -2.80897662414  -1.55292420344  0.098166468948  
2.2835149765  1.53969937884  -1.45162919589  1.87614030296  -2.80898871679  -1.55296820114  0.0981799571907  
2.29151391983  1.53970335033  -1.45162638904  1.87619083866  -2.80900359926  -1.55301449666  0.0981881315988  
2.29956197739  1.53971002239  -1.45162384172  1.87624121436  -2.80902096259  -1.55306158303  0.0981913539527  
2.30769610405  1.53971914394  -1.45162154959  1.87629112979  -2.80903549743  -1.55310764329  0.098189988687  
2.31572389603  1.53973046822  -1.45161950708  1.87634031084  -2.80904440656  -1.55315247117  0.0981884076015  
2.32381796837  1.53974375391  -1.45161770749  1.87638850923  -2.80905308041  -1.55319838859  0.0981849713375  
2.33190393448  1.53975876629  -1.45161614312  1.87643550205  -2.80906440995  -1.5532464892  0.0981775039937  
2.33998608589  1.53977527812  -1.45161480543  1.8764810912  -2.80907310972  -1.55329630495  0.0981663648629  
2.34804701805  1.5397930705  -1.45161368512  1.87652510266  -2.80908141228  -1.55334739346  0.0981519081375  
2.35615992546  1.53981193357  -1.45161277227  1.8765673857  -2.80909222349  -1.55339933879  0.0981344811073  
2.36432790756  1.53983166713  -1.45161205644  1.87660781204  -2.80910027252  -1.5534492475  0.0981184297166  
2.37252497673  1.5398520811  -1.45161152679  1.87664627487  -2.80910780624  -1.55349800909  0.0981060880639  
2.38062000275  1.53987299594  -1.45161117214  1.87668268788  -2.80911273549  -1.55354687322  0.0980972447654  
2.38864803314  1.53989424295  -1.45161098111  1.87671698415  -2.80911230529  -1.5535955286  0.0980876759548  
2.39670205116  1.53991566444  -1.45161094218  1.87674911513  -2.80911194334  -1.55364118493  0.0980751560971  
2.40477705002  1.53993711389  -1.45161104379  1.87677904947  -2.80911457317  -1.55368232834  0.0980639991789  
2.41290187836  1.53995845601  -1.4516112744  1.87680677187  -2.8091199462  -1.55372155827  0.0980525027291  
2.42104005814  1.53997956662  -1.45161162257  1.87683228197  -2.80912781612  -1.55376024303  0.0980384232128  
2.42905807495  1.54000234673  -1.45161207699  1.87685559317  -2.80913794023  -1.55379818482  0.09802605573  
2.43714094162  1.54002770206  -1.45161262661  1.87687673146  -2.80914507172  -1.55383520579  0.0980176853998  
2.44529008865  1.5400552753  -1.45161326062  1.8768973308  -2.80914647207  -1.55387114763  0.0980090467001  
2.45354604721  1.54008673716  -1.45161396854  1.87691983441  -2.80914758648  -1.553905871  0.0980018800045  
2.46147108078  1.54012276722  -1.45161474023  1.87694648403  -2.8091513568  -1.55393675047  0.0979984567837  
2.46953105927  1.54016480123  -1.45161556595  1.8769793221  -2.80915755345  -1.55396493396  0.0979945005014  
2.47762393951  1.54021328892  -1.45161643639  1.87701859738  -2.80916594961  -1.55399191911  0.0979877358394  
2.48574495316  1.54026742829  -1.45161734266  1.87706516285  -2.80917632239  -1.55401512695  0.0979824299802  
2.49387907982  1.54032644453  -1.45161827636  1.87711909626  -2.80918845398  -1.55403324338  0.0979808438699  
2.50200009346  1.5403895927  -1.45161922957  1.87717949085  -2.80920213251  -1.55404905567  0.097978691412  
2.5100979805  1.54045616005  -1.45162019485  1.87724706661  -2.809217153  -1.55406410784  0.0979736886737  
2.51840305328  1.54052546792  -1.45162116528  1.87732177935  -2.80922830905  -1.55407836547  0.0979700951519  
2.52646994591  1.54059888693  -1.45162213443  1.87740261125  -2.80923290484  -1.55409180173  0.0979701650146  
2.53450989723  1.54067681866  -1.45162309638  1.87748858551  -2.80923643008  -1.55410439698  0.0979736134328  
2.54263591766  1.54075842901  -1.45162404572  1.87758036572  -2.8092418726  -1.55411864282  0.0979761495482  
2.55065703392  1.54084292583  -1.45162497755  1.87767786421  -2.80924904976  -1.55413578596  0.0979754871791  
2.55873203278  1.54092956052  -1.45162588742  1.87778003184  -2.80925778236  -1.55415549506  0.0979718787414  
2.56687688828  1.5410196434  -1.45162677141  1.87788587196  -2.80926789542  -1.5541774486  0.0979655753425  
2.57494902611  1.54111352433  -1.45162762603  1.87799444245  -2.80927421004  -1.55419883156  0.097960832493  
2.58300805092  1.54121032571  -1.45162844825  1.87810485743  -2.80927906429  -1.5542205967  0.0979558925817  
2.59116411209  1.54130921993  -1.4516292355  1.8782162883  -2.80928045902  -1.55424404255  0.0979484603065  
2.59917998314  1.54140943066  -1.45162998559  1.8783279645  -2.80928073653  -1.55427139709  0.0979387752893  
2.60738897324  1.54151224768  -1.45163069675  1.87843917378  -2.80928290841  -1.5543011461  0.0979270725333  
2.61556506157  1.54161800718  -1.4516313676  1.87854926205  -2.80928180514  -1.55432895153  0.0979175884891  
2.62350893021  1.54172582425  -1.4516319971  1.87865763298  -2.80927977022  -1.55435583283  0.0979085438854  
2.63155198097  1.54183688393  -1.45163258454  1.87876374719  -2.80927981518  -1.5543831582  0.0979016266506  
2.63967204094  1.54195142184  -1.45163312956  1.87886712117  -2.80927676932  -1.55441072353  0.0978990558377  
2.64776802063  1.54206845699  -1.45163363205  1.87896732598  -2.8092679649  -1.55443833908  0.0979005099844  
2.65588998795  1.54218706903  -1.45163409221  1.87906398562  -2.80925891259  -1.55446582954  0.097901660435  
2.66398596764  1.54230639926  -1.45163451046  1.87915677531  -2.80925261441  -1.55449303398  0.0979001823571  
2.67209005356  1.54242565119  -1.45163488745  1.8792454195  -2.80924388668  -1.55451980572  0.0978962889832  
2.68020701408  1.54254207663  -1.45163522406  1.87932968975  -2.80923505457  -1.55454601218  0.0978901919846  
2.68833494186  1.54265399553  -1.45163552133  1.87940940254  -2.80922910759  -1.55457403858  0.0978821002794  
2.69657588005  1.54276106303  -1.45163578046  1.87948441684  -2.80922585867  -1.55460252867  0.0978722189485  
2.70454096794  1.54286299114  -1.45163600281  1.87955463177  -2.80922010958  -1.55462980658  0.0978647554234  
2.71260905266  1.54295954612  -1.45163618985  1.87961998406  -2.80921417246  -1.55465579709  0.0978579024427  
2.72070789337  1.54305054575  -1.45163634317  1.87968044554  -2.80920601639  -1.55468043882  0.0978493138779  
2.72885203362  1.54313585643  -1.45163646442  1.87973602058  -2.80919794663  -1.55470618751  0.0978391777781  
2.73690605164  1.54321539024  -1.45163655536  1.87978674354  -2.80918792421  -1.55473175642  0.0978316843607  
2.74500393867  1.54328910195  -1.45163661775  1.87983267624  -2.80917824528  -1.55475553776  0.0978290162556  
2.7531208992  1.54335698599  -1.45163665344  1.87987390545  -2.80917186987  -1.55477752268  0.0978268082672  
2.76125001907  1.54341907338  -1.45163666428  1.87991054036  -2.80916858108  -1.55479771417  0.0978226971099  
2.76929593086  1.54347542873  -1.45163665212  1.87994271024  -2.80916815972  -1.55481612612  0.0978168560496  
2.77748203278  1.5435261472  -1.45163661883  1.87997056202  -2.80916537683  -1.5548327824  0.0978134627983  
2.78555798531  1.54357135156  -1.45163656626  1.87999425804  -2.80915750643  -1.55484771589  0.0978146896647  
2.7936630249  1.54361118929  -1.45163649622  1.88001397383  -2.80914499232  -1.55486096766  0.097820170365  
2.80170297623  1.54364582971  -1.45163641052  1.88002989599  -2.80912827269  -1.55487258599  0.0978295406457  
2.80978298187  1.54367546127  -1.45163631089  1.8800422202  -2.8091077778  -1.55488262558  0.0978384332294  
2.81788802147  1.54369827485  -1.45163619904  1.88005114926  -2.8090889369  -1.55489114665  0.097844488726  
2.82604503632  1.54371348136  -1.4516360766  1.88005689133  -2.80906965619  -1.55489570973  0.0978518969512  
2.83416199684  1.54372157697  -1.45163594517  1.88005965818  -2.80904716291  -1.55489763494  0.0978588410237  
2.84237790108  1.54372306345  -1.45163580626  1.88005966359  -2.80902184606  -1.55489857841  0.0978669797517  
2.85058093071  1.54371844466  -1.4516356613  1.88005712191  -2.80899408201  -1.55489610601  0.0978745039924  
2.85854506493  1.54370822323  -1.45163551167  1.88005224666  -2.80896423307  -1.55489153946  0.0978790734671  
2.8666779995  1.54369289755  -1.45163535866  1.88004524926  -2.80893264638  -1.55488653297  0.097880889195  
2.87475800514  1.54367295901  -1.45163520348  1.88003633788  -2.80890466188  -1.55487864729  0.0978801536833  
2.88292694092  1.54364888947  -1.45163504727  1.88002571643  -2.80887809127  -1.55486919608  0.0978810767088  
2.89109802246  1.54359022408  -1.45163473585  1.88000013203  -2.80883839809  -1.55484807518  0.0978801621727  
2.89918208122  1.54355652535  -1.4516345825  1.8799855476  -2.80882768023  -1.55483274711  0.0978761923091  
2.90719795227  1.54352048661  -1.45163443182  1.87997000878  -2.80882252263  -1.55481671618  0.0978701495073  
2.91532301903  1.54348251322  -1.45163428455  1.87995368613  -2.8088175167  -1.5547990953  0.0978622322031  
2.92346596718  1.5434429911  -1.45163414133  1.87993674181  -2.80880975515  -1.55478115844  0.0978526350636  
2.9315199852  1.54340228579  -1.45163400274  1.87991932926  -2.80879950008  -1.55476450479  0.0978415480707  
2.9395160675  1.54336074183  -1.45163386928  1.87989999645  -2.80879201767  -1.5547491381  0.0978291557059  
2.94759488106  1.5433186822  -1.45163374138  1.87987807968  -2.80878505677  -1.55473505384  0.0978196433823  
2.95567297935  1.54327640802  -1.4516336194  1.87985391559  -2.80878070245  -1.5547247439  0.0978111806953  
2.96376895905  1.54323419836  -1.45163350364  1.87982782864  -2.808781706  -1.5547194423  0.0978013974094  
2.97186803818  1.54319231021  -1.45163339433  1.87980013004  -2.80878263629  -1.55471879313  0.0977944639232  
2.97998309135  1.54315097864  -1.45163329166  1.87977111684  -2.80878557557  -1.55472243925  0.0977885361741  
2.98811388016  1.54311041701  -1.45163319574  1.87974107119  -2.80878826731  -1.55473002457  0.0977812315982  
2.99620604515  1.54307081731  -1.45163310664  1.87971025975  -2.8087877874  -1.55474370069  0.0977727024234  
3.00431108475  1.54303235069  -1.4516330244  1.87967893322  -2.80878939399  -1.55476186868  0.0977630966616  
3.01253509521  1.54299516796  -1.45163294898  1.87964732606  -2.80879083279  -1.55478260377  0.097752557517  
3.0206489563  1.54295940026  -1.45163288033  1.87961565624  -2.80879419023  -1.55480808243  0.0977412228706  
3.02872300148  1.54292515976  -1.45163281835  1.87958412521  -2.80880222312  -1.55483924154  0.0977292248373  
3.03683209419  1.54289254046  -1.45163276289  1.87955291794  -2.80880950971  -1.55487544672  0.0977166893937  
3.04496908188  1.54286161896  -1.45163271381  1.879522203  -2.80881313609  -1.55491608148  0.0977037360725  
3.0530359745  1.54283245541  -1.45163267091  1.87949213282  -2.80881837283  -1.55496305418  0.0976904777209  
3.06117987633  1.54280509438  -1.45163263398  1.87946284402  -2.80882798902  -1.55501704452  0.0976770203188  
3.06936693192  1.54277956576  -1.45163260278  1.87943445774  -2.808841585  -1.55507717258  0.0976634628545  
3.07735610008  1.54275588577  -1.45163257707  1.87940708013  -2.80885876739  -1.55514008415  0.0976498972527  
3.08552098274  1.54273405789  -1.45163255657  1.87938080281  -2.80887915114  -1.55520621381  0.0976404154963  
3.09359097481  1.54271407383  -1.45163254101  1.87935570349  -2.80889735224  -1.55527636452  0.0976330935502  
3.10169291496  1.5426959145  -1.4516325301  1.87933184653  -2.80891550947  -1.55534978869  0.0976254679067  
3.10978293419  1.54267955097  -1.45163252354  1.87930928355  -2.80893644015  -1.5554257764  0.097617609478  
3.11789107323  1.54266494539  -1.45163252105  1.87928805417  -2.80895979905  -1.55550365697  0.0976095851161  
3.12599205971  1.54265205197  -1.45163252232  1.87926818664  -2.80898024372  -1.5555828  0.0976054646552  
3.13407492638  1.54264081782  -1.45163252705  1.87924969856  -2.80899995581  -1.55566261622  0.0976033047536  
3.14216303825  1.54263118385  -1.45163253494  1.8792325976  -2.80901678751  -1.55574506239  0.0976046324686  
3.15035295486  1.54262308565  -1.4516325457  1.87921688223  -2.80903294028  -1.5558283814  0.0976115100987  
3.15847301483  1.54261645427  -1.45163255904  1.87920254244  -2.80904628422  -1.55591302945  0.0976194569613  
3.16650509834  1.54261121698  -1.45163257468  1.87918956045  -2.80905402796  -1.55599733676  0.09763000657  
3.17460489273  1.54260729809  -1.45163259234  1.87917791143  -2.8090615671  -1.55608184762  0.0976412255344  
3.18265104294  1.54260461955  -1.45163261175  1.87916756422  -2.80907179735  -1.55616748494  0.0976546580988  
3.19074606895  1.54260310172  -1.45163263266  1.87915848199  -2.80907943736  -1.55625112521  0.0976683831886  
3.1988298893  1.5426026639  -1.45163265482  1.8791506229  -2.8090867231  -1.55633094098  0.0976839587441  
3.20695900917  1.54260322497  -1.45163267799  1.87914553726  -2.80909155454  -1.5564067337  0.097703485719  
3.21514511108  1.5426047039  -1.45163270196  1.87914397411  -2.80909617453  -1.55647834521  0.0977225290077  
3.22317504883  1.54260702025  -1.45163272652  1.87914566971  -2.80910349742  -1.55654565557  0.0977386666568  
3.23144507408  1.54261009464  -1.45163275146  1.87915036053  -2.80911326793  -1.55661108535  0.0977560312007  
3.23949694633  1.54261384914  -1.4516327766  1.87915778494  -2.8091252354  -1.55667583769  0.0977727537617  
3.24756002426  1.54261820763  -1.45163280177  1.87916768464  -2.80913915498  -1.55673956324  0.0977864390799  
3.25564408302  1.54262309618  -1.45163282681  1.87917980601  -2.80915478873  -1.55679944167  0.0978012451277  
3.26374197006  1.54262844329  -1.45163285157  1.87919230488  -2.80917190652  -1.55685644112  0.0978153271531  
3.27186703682  1.54263418017  -1.45163287593  1.87920414157  -2.80918527797  -1.5569093901  0.0978303197904  
3.27996587753  1.54264024095  -1.45163289976  1.879215294  -2.8091971932  -1.55695681108  0.0978484005775  
3.28806090355  1.54264656287  -1.45163292296  1.87922574608  -2.80921061794  -1.5570013433  0.0978692175413  
3.29619002342  1.54265308641  -1.45163294543  1.87923548728  -2.80922034273  -1.55704189345  0.0978884219136  
3.30427289009  1.54265975541  -1.45163296709  1.87924451233  -2.80922366782  -1.5570795601  0.0979036783766  
3.31234908104  1.54266651721  -1.45163298787  1.87925282081  -2.80922607831  -1.55711329214  0.0979192058438  
3.32041597366  1.5426733226  -1.4516330077  1.87926041676  -2.80923055686  -1.55714172232  0.0979332210561  
3.32852005959  1.54268012598  -1.45163302654  1.87926730836  -2.80923691514  -1.55716508575  0.0979434131161  
3.33663892746  1.54268688526  -1.45163304435  1.87927350749  -2.80924496775  -1.55718363074  0.0979540226884  
3.34471201897  1.5426935619  -1.45163306109  1.87927902945  -2.80924952423  -1.55719761626  0.0979672928015  
3.3527970314  1.54270012089  -1.45163307675  1.87928389251  -2.80925291002  -1.55720730943  0.0979789274083  
3.36096191406  1.54270653063  -1.45163309131  1.87928811766  -2.80925812161  -1.55721548778  0.0979866399556  
3.36898899078  1.54271276293  -1.45163310477  1.87929172817  -2.80926498491  -1.55722368146  0.0979946941761  
3.37719607353  1.54271879288  -1.45163311713  1.87929474936  -2.80927332908  -1.5572318384  0.0980013477188  
3.38528704643  1.54272459875  -1.45163312839  1.87929720822  -2.80928298738  -1.55723740637  0.0980083338493  
3.39330101013  1.5427301619  -1.45163313858  1.87929913315  -2.80929379782  -1.55724159294  0.0980139175536  
3.40140604973  1.54273546664  -1.45163314771  1.87930055364  -2.80930059495  -1.55724343822  0.0980198388722  
3.40961503983  1.54274050011  -1.45163315581  1.87930150003  -2.80930573042  -1.55724415365  0.0980243690122  
3.41763496399  1.54274525211  -1.45163316291  1.87930200326  -2.80931222797  -1.55724528582  0.0980252465507  
3.42566800117  1.542749715  -1.45163316904  1.87930209461  -2.80931493263  -1.55724429089  0.0980267567268  
3.43378901482  1.54275388352  -1.45163317424  1.87930180549  -2.80931620432  -1.55724238131  0.0980271752283  
3.44186902046  1.54275775466  -1.45163317855  1.87930116722  -2.80931907305  -1.55724360772  0.0980242429028  
3.45000696182  1.54276132745  -1.45163318201  1.87930021087  -2.80931838809  -1.55724667791  0.0980182380831  
3.4581348896  1.5427646029  -1.45163318466  1.87929896708  -2.80931651187  -1.55724996637  0.0980134436935  
3.46622395515  1.54276758374  -1.45163318656  1.87929746588  -2.80931647514  -1.55725343573  0.0980121368314  
3.4744811058  1.54277027435  -1.45163318775  1.87929573656  -2.80931813533  -1.55725705043  0.0980100477399  
3.48256802559  1.54277268056  -1.45163318827  1.87929540405  -2.80932135041  -1.55726077674  0.0980049088076  
3.49050307274  1.54277480951  -1.45163318818  1.87929729474  -2.80932597969  -1.55726458286  0.0979969886984  
3.49858498573  1.54277666951  -1.45163318752  1.87930122433  -2.80933689265  -1.55727094343  0.0979905596085  
3.50667309761  1.54277826988  -1.45163318634  1.87930701013  -2.80935645981  -1.55728108398  0.0979838798768  
3.51478695869  1.54277962086  -1.45163318469  1.87931447212  -2.80938388788  -1.55729464812  0.0979746691185  
3.52283501625  1.54278073342  -1.45163318262  1.87932343386  -2.80941839633  -1.55730878141  0.0979671881203  
3.53092193604  1.54278161915  -1.45163318017  1.87933372329  -2.80945922131  -1.55732439307  0.0979636903429  
3.53904700279  1.542782759  -1.45163317431  1.87935762323  -2.80955686886  -1.55736348066  0.0979574741794  
3.54708504677  1.5427830384  -1.45163317099  1.87937091766  -2.80961227599  -1.55738631537  0.0979587168215  
3.5551469326  1.54278314135  -1.45163316745  1.87938490868  -2.80967117375  -1.55741093498  0.0979633180375  
3.56322789192  1.54278308091  -1.45163316375  1.87939945537  -2.80973292555  -1.55743704811  0.0979669814121  
3.57141709328  1.54278287014  -1.45163315991  1.87941442428  -2.80979692651  -1.55746437671  0.0979674157018  
3.57939100266  1.54278252202  -1.45163315597  1.87942968972  -2.80986260475  -1.55749516124  0.0979688760115  
3.58751797676  1.54278204938  -1.45163315197  1.87944513391  -2.80992942236  -1.55752790118  0.0979696078143  
3.59553694725  1.5427814648  -1.45163314792  1.87946064711  -2.80999687612  -1.55756328264  0.0979673218124  
3.60355591774  1.54278078062  -1.45163314387  1.87947612766  -2.81006449795  -1.55760234424  0.0979662735931  
3.61168193817  1.54278000881  -1.45163313983  1.87949148201  -2.81013185503  -1.55764455781  0.0979687148833  
3.61974310875  1.54277916096  -1.45163313583  1.87950662464  -2.8101985498  -1.55768941663  0.0979703525132  
3.62784790993  1.54277824825  -1.45163313189  1.87952147798  -2.81026421969  -1.55773393244  0.0979729045133  
3.63594794273  1.54277728136  -1.45163312803  1.87953597231  -2.81032853661  -1.5577763922  0.0979746182525  
3.64408302307  1.54277627052  -1.45163312428  1.87955004551  -2.81039120635  -1.55781919642  0.0979732068556  
3.65217804909  1.5427752254  -1.45163312064  1.87956364292  -2.81045196778  -1.55786101153  0.0979689216935  
3.6603178978  1.54277415516  -1.45163311712  1.87957671707  -2.81051059186  -1.55790019143  0.0979660195788  
3.66832590103  1.54277306838  -1.45163311375  1.87958922743  -2.81057188953  -1.55793920194  0.0979627453548  
3.67653298378  1.5427719731  -1.45163311052  1.87960114011  -2.81063319047  -1.55797927738  0.097956806919  
3.68456602097  1.54277087678  -1.45163310746  1.87961242756  -2.81069118726  -1.55801758186  0.0979524550774  
3.6926009655  1.54276978631  -1.45163310456  1.87962306825  -2.8107457764  -1.55805255177  0.0979519349884  
3.70070505142  1.54276669397  -1.45163310183  1.87963304634  -2.81079688358  -1.55808422891  0.0979549524148  
3.70881104469  1.54276059759  -1.45163309927  1.87964235133  -2.81084446186  -1.55811267226  0.0979572068876  
3.71688389778  1.54275176823  -1.45163309689  1.87965097772  -2.81088848985  -1.55813795631  0.0979564023258  
3.7249879837  1.54274047287  -1.45163109655  1.87965572939  -2.81093397878  -1.55816016937  0.0979567883158  
3.73313999176  1.54272697305  -1.45162609827  1.87965501068  -2.81097845061  -1.55817941198  0.0979606113541  
3.7414290905  1.54271152371  -1.45161836581  1.87964925074  -2.8110237905  -1.55819579527  0.0979635737719  
3.74947690964  1.5426943721  -1.45160815944  1.87963887668  -2.81106756736  -1.55820943953  0.0979673897872  
3.7574930191  1.54267575683  -1.45159573456  1.8796243111  -2.81110670414  -1.55821796824  0.0979743107641  
3.7654709816  1.54265590709  -1.45158134053  1.8796059698  -2.81114632703  -1.55822276673  0.0979800455854  
3.77358388901  1.54263504192  -1.45156521955  1.87958425976  -2.81118907897  -1.55822305366  0.0979823094173  
3.78168606758  1.54261336967  -1.45154760578  1.87955957725  -2.81123445169  -1.55821771417  0.0979853647778  
3.78975510597  1.54259108752  -1.45152872443  1.87953230626  -2.81128196006  -1.55820721818  0.0979914725729  
3.79781794548  1.54256838114  -1.45150879111  1.87950281701  -2.81133114341  -1.55819203117  0.0979963508122  
3.80593705177  1.5425454244  -1.45148801123  1.87947146476  -2.8113765575  -1.55817010712  0.0980017304574  
3.81406402588  1.54252237925  -1.45146657948  1.87943858875  -2.81142029527  -1.55814064182  0.0980098805104  
3.82218503952  1.5424993956  -1.45144467952  1.87940451136  -2.81146514203  -1.55810189915  0.0980205353088  
3.8302590847  1.54247661135  -1.45142248363  1.87936953738  -2.8115107333  -1.55805087205  0.0980334342662  
3.83851003647  1.54245415244  -1.45140015256  1.87933395351  -2.81156173716  -1.55798987205  0.0980443159864  
3.84652090073  1.54243213302  -1.45137783543  1.87929802798  -2.8116203435  -1.5579190109  0.0980509282019  
3.85454297066  1.54240864213  -1.45135566969  1.87926201032  -2.81168559831  -1.55783803066  0.0980535613172  
3.86260008812  1.54238276329  -1.45133378117  1.87922613125  -2.81175157151  -1.55774821959  0.0980565149999  
3.87068104744  1.54235484253  -1.45131228423  1.87919060275  -2.81181988005  -1.55765082072  0.0980580802447  
3.87878799438  1.54232521168  -1.4512912819  1.87915561812  -2.81189284526  -1.55754702771  0.098056013799  
3.88686394691  1.54229418744  -1.45127086617  1.87912135231  -2.81196965272  -1.55743547725  0.0980546175313  
3.89491009712  1.54226207055  -1.45125111821  1.87908796223  -2.81204952737  -1.55731600094  0.0980561894059  
3.90301895142  1.5422291452  -1.45123210878  1.87905558714  -2.81213173528  -1.55718995573  0.0980604892434  
3.91115999222  1.54219567854  -1.45121389853  1.87902434923  -2.81221558502  -1.55705863398  0.0980672785765  
3.91923594475  1.54216192032  -1.45119653847  1.87899435411  -2.81230042865  -1.55692075604  0.0980723148918  
3.92726588249  1.54212810274  -1.45118007035  1.8789656915  -2.81238566234  -1.55677622342  0.098073361691  
3.93550491333  1.54209444031  -1.45116452716  1.87893843587  -2.81247072674  -1.5566264499  0.0980707221893  
3.94352388382  1.54206112996  -1.45114993357  1.87891264719  -2.81256011585  -1.55647277205  0.0980687060494  
3.95159196854  1.54202835112  -1.45113630646  1.87888837165  -2.81265085683  -1.5563164469  0.0980656116168  
3.95972394943  1.541996266  -1.45112365537  1.87886564248  -2.81273935481  -1.55615865035  0.0980592004824  
3.96778702736  1.54196501991  -1.45111198309  1.87884448071  -2.81282523456  -1.55600047614  0.098053777027  
3.97589111328  1.54193474167  -1.45110128606  1.87882489602  -2.81291317515  -1.55584293542  0.0980476324665  
3.98401689529  1.5419055441  -1.45109155498  1.87880688756  -2.81300539737  -1.55568695695  0.098038519595  
3.99212503433  1.54187752454  -1.45108277528  1.87879044474  -2.81310099637  -1.55553338765  0.0980267254149  
4.00020194054  1.54185076548  -1.45107492758  1.87877554809  -2.81319911658  -1.55538299378  0.0980165383937  
4.00841593742  1.54182533515  -1.45106798825  1.87876217004  -2.81329895319  -1.55523646237  0.0980102383292  
4.01657795906  1.54180128827  -1.45106192985  1.87875027575  -2.81339975325  -1.55509440316  0.0980035554766  
4.02460503578  1.5417786667  -1.4510567216  1.87873982386  -2.81350081625  -1.55495735077  0.0979942197052  
4.03269004822  1.54175750022  -1.45105232983  1.87873076728  -2.81360149443  -1.55482576726  0.0979824949168  
4.04079008102  1.54173780725  -1.45104871841  1.8787230539  -2.81370119272  -1.55470004487  0.0979686393556  
4.04885005951  1.54171959564  -1.45104584918  1.87871662733  -2.81379936833  -1.55458050898  0.0979529044442  
4.05694007874  1.54170286345  -1.45104368233  1.87871142756  -2.81389553004  -1.55446742135  0.0979395408518  
4.06503105164  1.54168759968  -1.4510421768  1.87870739163  -2.81398923728  -1.55436098336  0.0979307887739  
4.07313394547  1.54167378509  -1.45104129058  1.87870445424  -2.81408009892  -1.5542613395  0.0979263445383  
4.08125090599  1.54166139292  -1.45104098109  1.87870254835  -2.81416777186  -1.55416858085  0.0979218942089  
4.08952093124  1.54165038968  -1.4510412055  1.87870160571  -2.81425195941  -1.55408274869  0.0979151245507  
4.09753894806  1.54164073584  -1.45104192094  1.87870155739  -2.81433741845  -1.5540038381  0.0979062576394  
4.10554790497  1.54163238657  -1.45104308488  1.87870233426  -2.81442143758  -1.55392929714  0.0978955113288  
4.11369299889  1.54162529243  -1.45104465525  1.87870386744  -2.81450068037  -1.55385778596  0.0978830982268  
4.12175989151  1.54161738599  -1.45104659077  1.8787060887  -2.81457502573  -1.55378951325  0.0978692247826  
4.12985301018  1.54160760261  -1.45104885106  1.87870893083  -2.81464940123  -1.55372465139  0.0978540904831  
4.13797593117  1.54159614874  -1.45105139689  1.878712328  -2.81472126066  -1.55366083379  0.0978378871556  
4.14611697197  1.54158322515  -1.45105419029  1.87871621602  -2.81479243548  -1.55359691218  0.0978207983712  
4.15423202515  1.54156902617  -1.4510571947  1.87872053266  -2.81486045483  -1.55353078698  0.0978070060409  
4.16244792938  1.54155172493  -1.45106037509  1.87872521785  -2.81492722365  -1.55346408083  0.0977946741121  
4.17047905922  1.54153049287  -1.45106369805  1.87873021388  -2.81499034236  -1.55339871623  0.0977854315174  
4.17857694626  1.54150576696  -1.45106713189  1.87873546563  -2.81504677584  -1.55333249036  0.097781437136  
4.18667292595  1.5414779719  -1.45107064668  1.87874092063  -2.81509669279  -1.55326441782  0.0977823083345  
4.19479703903  1.5414475185  -1.45107421433  1.87874652925  -2.81514028922  -1.55319506452  0.0977876619816  
4.20281291008  1.54141480216  -1.45107780858  1.87875224475  -2.8151777852  -1.55312496041  0.0977971168645  
4.21091508865  1.54138020165  -1.45108140507  1.87875802335  -2.81520942155  -1.55305459892  0.097806288815  
4.21898007393  1.54130677373  -1.45108851659  1.87876960979  -2.81527369751  -1.55291489412  0.0978208280988  
4.22715306282  1.54126861202  -1.45109199224  1.87877534519  -2.81530874095  -1.55284635445  0.0978285354386  
4.23512291908  1.54122989632  -1.45109539129  1.87878099874  -2.81534523781  -1.55277916537  0.097833559144  
4.24319505692  1.54119090998  -1.45109869857  1.87878654172  -2.81538284872  -1.55271363912  0.0978360763661  
4.25136709213  1.541151916  -1.45110190069  1.87879194829  -2.81542125373  -1.55265005335  0.0978362660622  
4.25952911377  1.54111315703  -1.45110498592  1.87879719549  -2.81545514392  -1.55258614768  0.0978383148339  
4.26755404472  1.54107485542  -1.4511079442  1.87880226312  -2.8154867416  -1.55252338474  0.0978444069819  
4.27556610107  1.54103721342  -1.45111076702  1.87880713367  -2.81552396416  -1.55246102431  0.097850183707  
4.28366398811  1.54100041347  -1.45111344737  1.87881179219  -2.81556907055  -1.55240046334  0.0978532922952  
4.29175496101  1.54096461865  -1.45111597966  1.87881622623  -2.81562116875  -1.55234340139  0.0978579276699  
4.29989790916  1.54092997311  -1.45111835969  1.87882042569  -2.81567939256  -1.55228741661  0.0978662838735  
4.30801391602  1.54089660269  -1.45112058449  1.87882438272  -2.81574791391  -1.55223381398  0.0978740130944  
4.31615400314  1.54086461555  -1.4511226523  1.87882809157  -2.81582843471  -1.55218420465  0.0978827817703  
4.32419896126  1.54083410285  -1.45112456248  1.8788315485  -2.8159195236  -1.55213858656  0.0978907890341  
4.33246898651  1.54080513954  -1.4511263154  1.87883475159  -2.81602480266  -1.55209693303  0.0978957029466  
4.34048700333  1.54077778513  -1.45112791239  1.87883770067  -2.816140435  -1.55205669041  0.0979017402328  
4.34852290154  1.5407520845  -1.45112935565  1.87884039715  -2.81626698087  -1.55201904007  0.0979111175527  
4.35662508011  1.54072806882  -1.45113064815  1.87884284391  -2.81640573366  -1.5519854778  0.0979195103201  
4.36470508575  1.54070575634  -1.45113179357  1.87884504514  -2.81655488444  -1.55195589459  0.0979286086083  
4.37277507782  1.54068515336  -1.45113279622  1.87884700624  -2.816717709  -1.55192766074  0.0979366354325  
4.38092088699  1.54066625504  -1.45113366096  1.87884873368  -2.81689005294  -1.55190188784  0.0979452898832  
4.3889811039  1.54064904637  -1.45113439313  1.87885023487  -2.81707218961  -1.55188000816  0.097952803779  
4.39707708359  1.54063350299  -1.45113499846  1.87885151806  -2.81726515488  -1.55186185529  0.0979608847565  
4.40518188477  1.5406195921  -1.45113548306  1.87885259222  -2.8174669103  -1.55184975702  0.0979717799783  
4.41342687607  1.54060727334  -1.45113585329  1.87885346689  -2.81767051222  -1.55183977291  0.0979852033385  
4.42148709297  1.54059649955  -1.45113611573  1.87885415214  -2.81787663564  -1.55182887411  0.0979968681674  
4.42952990532  1.54058721769  -1.45113627711  1.87885465841  -2.81808673201  -1.55181970371  0.0980044972255  
4.43753504753  1.54057936954  -1.45113634428  1.87885499646  -2.81829918873  -1.55181364781  0.0980123635412  
4.44560599327  1.54057289253  -1.45113632414  1.87885517726  -2.81850749492  -1.55180799779  0.0980227412159  
4.4536678791  1.54056772041  -1.45113622359  1.87885521188  -2.81871276191  -1.55180129386  0.09803136379  
4.46177697182  1.54056378398  -1.4511360495  1.87885511146  -2.81891687815  -1.55179616388  0.0980399797204  
4.4698638916  1.54056101176  -1.45113580865  1.8788548871  -2.81911866596  -1.55179398085  0.0980468703118  
4.47795796394  1.54055933058  -1.45113550773  1.87885454982  -2.81932206235  -1.55179452955  0.0980537924604  
4.48607492447  1.54055866616  -1.45113515326  1.87885411048  -2.81952359774  -1.55179509007  0.0980590350207  
4.49411511421  1.5405589437  -1.45113475161  1.87885357974  -2.81971923889  -1.55179419468  0.0980603544875  
4.50225400925  1.54056008835  -1.45113430892  1.87885296797  -2.8199132378  -1.55179446637  0.0980580472271  
4.51030802727  1.5405620257  -1.45113383114  1.87885228527  -2.82010243559  -1.55179477179  0.0980564161882  
4.51851511002  1.54056468217  -1.45113332395  1.87885154138  -2.82028310385  -1.55179364306  0.0980537532751  
4.52655506134  1.54056798545  -1.45113279278  1.87885074567  -2.82045478325  -1.55179119854  0.098051820847  
4.5347058773  1.54057186483  -1.4511322428  1.8788499071  -2.8206221148  -1.55178755554  0.098048908468  
4.54279208183  1.54057625149  -1.45113167887  1.87884903421  -2.82078231516  -1.55178032529  0.0980467760134  
4.55087304115  1.54058107883  -1.45113110558  1.87884813508  -2.82093201683  -1.55177087224  0.0980437104523  
4.5590159893  1.54058628267  -1.45113052722  1.87884721732  -2.82107110557  -1.55176089096  0.0980374618978  
4.56718111038  1.54059180148  -1.45112994777  1.87884628808  -2.8211995419  -1.55174798001  0.0980323233132  
4.57527899742  1.54059757655  -1.45112937091  1.87884535402  -2.82131735554  -1.55173098361  0.0980265747083  
4.58354997635  1.54060355214  -1.45112880002  1.87884442131  -2.82142463982  -1.55171032442  0.0980179577678  
4.59160208702  1.54060967559  -1.45112823819  1.87884349564  -2.8215215462  -1.55168391061  0.0980067486545  
4.59970188141  1.54061589741  -1.45112768818  1.8788425822  -2.8216082788  -1.55165339396  0.097993218183  
4.6078441143  1.54062217134  -1.45112715251  1.87884168571  -2.82168508904  -1.55162074575  0.0979816376264  
4.61584496498  1.54062845439  -1.45112663339  1.87884081044  -2.82175227042  -1.5515838297  0.0979702617795  
4.62396097183  1.54063470685  -1.45112613274  1.87883996015  -2.82181015343  -1.55154424736  0.097956804007  
4.63208603859  1.54064089229  -1.45112565225  1.87883913819  -2.8218591006  -1.55150141035  0.0979415094703  
4.64021992683  1.54064697752  -1.45112519333  1.87883834746  -2.82189950182  -1.55145437388  0.0979286227714  
4.64845204353  1.54065293253  -1.45112475716  1.87883759045  -2.82193176972  -1.55140125198  0.0979203783377  
4.6565079689  1.54065873047  -1.45112434468  1.87883686924  -2.82196134426  -1.55134388771  0.0979124598877  
4.66448402405  1.54066434755  -1.4511239566  1.87883618552  -2.82198115997  -1.5512794212  0.0979065569783  
4.67263698578  1.54066976294  -1.45112359345  1.87883554063  -2.82199100686  -1.55120838195  0.0979008840715  
4.68063902855  1.54067495868  -1.45112325555  1.87883493556  -2.82199452442  -1.55113318456  0.0978971242349  
4.6887280941  1.54067991958  -1.45112294302  1.87883437097  -2.82199218217  -1.55105461859  0.0978974936531  
4.69680500031  1.54068463306  -1.45112265585  1.87883384723  -2.82198444956  -1.55097343326  0.0978976624029  
4.70495200157  1.54068908907  -1.45112239384  1.87883336441  -2.82197680189  -1.55089033585  0.0978953036534  
4.71299099922  1.54069327996  -1.45112215667  1.87883292233  -2.8219671979  -1.55080348621  0.0978946353286  
4.72115898132  1.54069720027  -1.45112194388  1.87883252058  -2.82195292238  -1.55071225138  0.0978938646411  
4.72921705246  1.54070084669  -1.4511217549  1.87883215852  -2.8219344266  -1.55062004255  0.0978906629587  
4.73738598824  1.54070421783  -1.45112158905  1.87883183531  -2.82191215299  -1.55052646664  0.097889245945  
4.74554204941  1.54070731415  -1.45112144557  1.87883154995  -2.82188152426  -1.55043074728  0.0978918252124  
4.75354194641  1.54071013776  -1.45112132362  1.87883130127  -2.82184546128  -1.55033364505  0.0978940674457  
4.76168608665  1.5407126923  -1.45112122227  1.87883108796  -2.8218075365  -1.55023587006  0.0978976505928  
4.76972198486  1.54071498281  -1.45112114056  1.87883090861  -2.82176812985  -1.55013808146  0.0979047896786  
4.77784490585  1.54071701556  -1.45112107748  1.87883076168  -2.82172760101  -1.55004088731  0.097911157269  
4.78590703011  1.54071879795  -1.45112103195  1.87883064558  -2.82168628865  -1.54994484481  0.097914432365  
4.79404997826  1.54072033834  -1.45112100292  1.87883055863  -2.82164451005  -1.54985046071  0.0979188417771  
4.80213999748  1.54072164596  -1.45112098927  1.87883049911  -2.82160756958  -1.54976069657  0.0979226043772  
4.81022191048  1.54072273078  -1.45112098989  1.87883046526  -2.82157323883  -1.54967470988  0.0979274127198  
4.81857204437  1.54072360334  -1.45112100368  1.8788304553  -2.82154361042  -1.54959378219  0.0979314900781  
4.8264400959  1.5407242747  -1.45112102953  1.87883046743  -2.82151642111  -1.54951698207  0.0979365335858  
4.83445692062  1.54072475634  -1.45112106633  1.87883049986  -2.82148872359  -1.54944300246  0.0979407712368  
4.84255099297  1.54072505997  -1.45112111302  1.87883055082  -2.82145572042  -1.54936957919  0.0979459049807  
4.85059404373  1.54072519754  -1.45112116853  1.87883061855  -2.82142011047  -1.5492981659  0.0979501676915  
4.85865497589  1.54072518108  -1.45112123184  1.87883070133  -2.82138524387  -1.54922800879  0.09795125916  
4.86674308777  1.54072502265  -1.45112130194  1.87883079748  -2.82135127933  -1.54915798248  0.0979534258611  
4.87489795685  1.54072473426  -1.45112137787  1.87883090536  -2.82131334884  -1.54908851149  0.0979589122424  
4.88305401802  1.54072381492  -1.45112154359  1.87883115005  -2.82124174972  -1.5489552564  0.0979746737655  
4.89109492302  1.5407232071  -1.45112163164  1.87883128388  -2.82121394404  -1.54889089017  0.0979823730005  
4.89911198616  1.54072251548  -1.45112172209  1.87883142351  -2.82118755561  -1.54882683445  0.0979927827286  
4.90718889236  1.54072175085  -1.45112181419  1.8788315676  -2.82116263821  -1.54876492612  0.0980016208534  
4.9152109623  1.54072092363  -1.45112190723  1.87883171493  -2.82113923231  -1.54870538276  0.0980066131479  
4.92332005501  1.54072004381  -1.45112200057  1.87883186431  -2.82112237469  -1.54864839037  0.0980080271815  
4.93142604828  1.54071912093  -1.4511220936  1.87883201468  -2.82110957952  -1.54859410471  0.098010139021  
4.93953299522  1.54071816407  -1.45112218577  1.87883216501  -2.82109768415  -1.54854265262  0.0980112157008  
4.94755411148  1.54071718181  -1.45112227657  1.87883231438  -2.82108669254  -1.54849413349  0.0980089895259  
4.95564603806  1.54071618221  -1.45112236555  1.87883246193  -2.82107660278  -1.54844862083  0.0980037307215  
4.96375489235  1.54071517283  -1.45112245229  1.8788326069  -2.82106740748  -1.54840616375  0.0979957073594  
4.97187399864  1.54071416068  -1.45112253644  1.87883274857  -2.82106410311  -1.54836678859  0.0979851838615  
4.97995710373  1.54071315228  -1.45112261766  1.87883288633  -2.82106417075  -1.54833050051  0.0979724196412  
4.9880399704  1.54071215358  -1.45112269569  1.87883301963  -2.82106442149  -1.54829978952  0.0979576678825  
4.99639105797  1.54071117003  -1.45112277029  1.87883314798  -2.82106483955  -1.54827337225  0.0979451815064  
5.0042951107  1.54071020656  -1.45112284125  1.87883327097  -2.82106540936  -1.5482521204  0.0979331964764  
5.0125579834  1.5407092676  -1.45112290843  1.87883338826  -2.82106611558  -1.54823722825  0.0979194068921  
5.02054309845  1.54070835707  -1.45112297169  1.87883349955  -2.82106694325  -1.54823079894  0.0979080454954  
5.0285449028  1.54070747841  -1.45112303096  1.87883360463  -2.82106787781  -1.54823367876  0.0978973286301  
5.03662705421  1.5407066346  -1.45112308616  1.87883370332  -2.82106890515  -1.54824262274  0.0978889384596  
5.04472398758  1.54070582819  -1.45112313728  1.87883379551  -2.82107001169  -1.54825814563  0.0978810807649  
5.05287694931  1.54070506126  -1.45112318432  1.87883388113  -2.82107118442  -1.54828110371  0.097875428659  
5.06099510193  1.54070433551  -1.45112322729  1.87883396016  -2.82107241092  -1.54831328121  0.0978701803295  
5.0691139698  1.54070365226  -1.45112326625  1.87883403262  -2.8210736794  -1.54835522575  0.0978670026819  
5.07721710205  1.54070301245  -1.45112330127  1.87883409856  -2.82107497873  -1.54840591874  0.0978640890184  
5.08541607857  1.54070241666  -1.45112333244  1.87883415809  -2.82107629844  -1.54846436634  0.0978590955525  
5.09352397919  1.5407018652  -1.45112335986  1.87883421134  -2.82107762877  -1.54853210817  0.0978522147394  
5.1016099453  1.54070135803  -1.45112338365  1.87883425846  -2.82108396945  -1.54860946554  0.0978436358092  
5.1097240448  1.54070089486  -1.45112340394  1.87883429963  -2.82109281007  -1.54869771622  0.0978375508919  
5.11780595779  1.54070047516  -1.45112342089  1.87883433506  -2.82110097494  -1.54879442568  0.0978321384763  
5.12591290474  1.54070009816  -1.45112343465  1.87883436498  -2.82111347467  -1.54889937799  0.0978250385707  
5.13395500183  1.54069976288  -1.45112344537  1.87883438963  -2.82112781305  -1.5490102407  0.0978204332983  
5.14208292961  1.54069946816  -1.45112345323  1.87883440926  -2.82114083161  -1.54912440345  0.097816491917  
5.15021896362  1.54069921269  -1.45112345841  1.87883442414  -2.821152552  -1.54924340581  0.0978108459714  
5.15852403641  1.54069899501  -1.45112346107  1.87883443456  -2.82116300224  -1.54936509233  0.0978076698835  
5.16647601128  1.54069881352  -1.4511234614  1.87883444078  -2.82117221607  -1.54948703592  0.0978051259655  
5.17455601692  1.54069866655  -1.45112345957  1.87883444311  -2.82118023228  -1.54961096406  0.097804846595  
5.18264698982  1.54069855233  -1.45112345577  1.87883444181  -2.82118709408  -1.54973741679  0.097804992043  
5.19074606895  1.54069846903  -1.45112345016  1.8788344372  -2.8211928485  -1.54986541318  0.0978031870434  
5.19882702827  1.54069841477  -1.45112344294  1.87883442954  -2.82119754578  -1.54999403886  0.097799594217  
5.20692610741  1.54069838762  -1.45112343426  1.87883441913  -2.82120624766  -1.55012244655  0.0977943746582  
5.21499109268  1.54069838565  -1.45112342429  1.87883440624  -2.82121650714  -1.5502498561  0.0977916940976  
5.223072052  1.54069840692  -1.4511234132  1.87883439115  -2.8212252129  -1.55037805851  0.0977897064089  
5.23114395142  1.54069844949  -1.45112340114  1.87883437412  -2.8212324315  -1.5505051554  0.0977860287557  
5.23918509483  1.54069851144  -1.45112338826  1.87883435541  -2.82123322479  -1.55062898027  0.0977808151617  
5.2472550869  1.54069859089  -1.4511233747  1.87883433526  -2.82123016871  -1.55074901851  0.0977742172275  
5.25550198555  1.54069868598  -1.45112336061  1.87883431391  -2.82122650781  -1.55086481896  0.0977703904206  
5.26360201836  1.54069879491  -1.45112334611  1.87883429158  -2.82122231176  -1.55097599177  0.0977714847554  
5.27166199684  1.54069891593  -1.45112333132  1.8788342685  -2.82121764817  -1.55108220612  0.097777111402  
5.27966308594  1.54069904735  -1.45112331635  1.87883424486  -2.82121258226  -1.55118318761  0.0977868835823  
5.28771591187  1.54069918754  -1.45112330132  1.87883422085  -2.82120717673  -1.55127871565  0.0978004188111  
5.2958650589  1.54069933495  -1.45112328632  1.87883419665  -2.82120149149  -1.55136862062  0.0978173409379  
5.30395293236  1.54069948812  -1.45112327145  1.87883417242  -2.82119558355  -1.55145278097  0.0978372819892  
5.31205010414  1.54069964563  -1.45112325677  1.87883414832  -2.82118950686  -1.55153362465  0.0978558767784  
5.32012200356  1.54069980618  -1.45112324238  1.87883412449  -2.82118331225  -1.55160986629  0.0978707730029  
5.32831192017  1.54069996853  -1.45112322834  1.87883410106  -2.82117704733  -1.5516799265  0.0978821653219  
5.33638310432  1.54070013154  -1.4511232147  1.87883407813  -2.82117075643  -1.55174385028  0.0978902550331  
5.34463596344  1.54070029414  -1.45112320152  1.87883405581  -2.82116448064  -1.55180171721  0.097899255346  
5.35254788399  1.54070045536  -1.45112318885  1.8788340342  -2.82116326654  -1.55185614268  0.0979073740538  
5.36061501503  1.5407006143  -1.45112317673  1.87883401337  -2.82116464665  -1.5519085194  0.0979162948469  
5.36869001389  1.54070077015  -1.45112316519  1.87883399339  -2.82116548427  -1.55195868129  0.0979282414751  
5.37677192688  1.54070092218  -1.45112315425  1.87883397432  -2.82116581632  -1.55200398451  0.0979429048801  
5.38494896889  1.54070106975  -1.45112314394  1.87883395621  -2.82116567998  -1.55204556607  0.0979559760952  
5.39297699928  1.54070121229  -1.45112313427  1.87883393909  -2.82117012127  -1.55208742454  0.0979651561935  
5.40108704567  1.54070134931  -1.45112312525  1.878833923  -2.82117667519  -1.55213074197  0.0979746973005  
5.4093170166  1.54070148037  -1.45112311689  1.87883390795  -2.8211822103  -1.55217263181  0.0979828465234  
5.41749501228  1.54070361912  -1.45112310919  1.87883389395  -2.82118677133  -1.55221148148  0.0979913269718  
5.42546391487  1.54070877322  -1.45112310214  1.87883388102  -2.82119040561  -1.55224728584  0.0979983946506  
5.43362903595  1.5407166766  -1.45112309575  1.87883386915  -2.8211931625  -1.55228256345  0.0980017739685  
5.44158291817  1.54072706677  -1.45112308998  1.87883385833  -2.82119509301  -1.5523160952  0.0980057373167  
5.44977593422  1.54073968618  -1.45112308485  1.87883384854  -2.82119624931  -1.5523463451  0.0980085491159  
5.4577729702  1.54075428343  -1.45112308032  1.87883383977  -2.82120169312  -1.55237838895  0.0980079399128  
5.46590995789  1.54077061437  -1.45112307637  1.878833832  -2.82120897577  -1.55240980652  0.0980081861002  
5.47402191162  1.54078844304  -1.451123073  1.87883382519  -2.82121498253  -1.55244002907  0.0980075541089  
5.48211193085  1.5408075425  -1.45112307017  1.8788338193  -2.82121977517  -1.55247042514  0.0980077816714  
5.49022889137  1.54082769553  -1.45112306786  1.87883381432  -2.8212234182  -1.55250079257  0.0980071350122  
5.49840903282  1.54084869524  -1.45112306604  1.87883381019  -2.82122597824  -1.55253344948  0.0980073516462  
5.50651788712  1.54087034556  -1.45112306468  1.87883380687  -2.82122752349  -1.55256947881  0.0980066975771  
5.51457691193  1.54089246158  -1.45112306377  1.87883380433  -2.82122812312  -1.55260839508  0.098006910091  
5.52267289162  1.54091486987  -1.45112306326  1.87883380252  -2.82122784684  -1.55264722823  0.0980102619936  
5.53067493439  1.54093740864  -1.45112306314  1.87883380139  -2.82122676434  -1.55268428026  0.098012481732  
5.53877305984  1.54095992785  -1.45112306337  1.8788338009  -2.82122494494  -1.55272196386  0.0980113020195  
5.54691004753  1.54098228924  -1.45112306393  1.878833801  -2.82122245714  -1.55275895505  0.0980110011135  
5.55503296852  1.54102604391  -1.45112306589  1.87883939268  -2.82121574417  -1.55282841276  0.0980095787952  
5.56312608719  1.54104721867  -1.45112306724  1.87884557259  -2.82121164888  -1.55286458614  0.0980084636762  
5.57124590874  1.54106779813  -1.45112306881  1.87885373021  -2.82120714441  -1.55290180344  0.0980082399665  
5.57924699783  1.54108770076  -1.45112307057  1.87886366138  -2.82120229048  -1.55294225699  0.0980071742279  
5.58733201027  1.54110685556  -1.45112307248  1.87887516677  -2.82119714435  -1.55298690783  0.0980070040685  
5.59551405907  1.54112520168  -1.45112307453  1.87888805274  -2.82119176064  -1.55303515293  0.0980059953953  
5.60351705551  1.54114268801  -1.45112307669  1.87890213213  -2.82118619123  -1.55308641381  0.0980058851881  
5.61161494255  1.54115927277  -1.45112307895  1.8789172249  -2.82117547631  -1.55314013814  0.0980089457848  
5.61970305443  1.54117492299  -1.45112308127  1.8789331587  -2.82116717266  -1.55319830558  0.0980109050067  
5.62773609161  1.54118961407  -1.45112308365  1.87894976931  -2.82115698058  -1.55325916913  0.0980135018144  
5.63587498665  1.54120332929  -1.45112308605  1.8789669011  -2.82114426521  -1.55332067829  0.0980190119964  
5.64392590523  1.54121605926  -1.45112308847  1.87898440725  -2.82113222812  -1.55338240114  0.0980231681539  
5.65198588371  1.54122780145  -1.45112309089  1.87900215004  -2.82112089138  -1.55344393794  0.0980277152219  
5.66006398201  1.54123855966  -1.45112309329  1.87902000097  -2.82111027099  -1.55350492116  0.0980309290101  
5.66817593575  1.54124834349  -1.45112309566  1.87903784082  -2.82110037726  -1.55356501522  0.0980305516678  
5.67622709274  1.54125716785  -1.45112309799  1.87905555971  -2.8210912152  -1.55362391613  0.0980308713459  
5.6843650341  1.54126505245  -1.45112310026  1.87907305706  -2.82108278487  -1.55368135088  0.0980341733561  
5.69256901741  1.54127202131  -1.45112310247  1.87909024145  -2.82107508181  -1.55373958118  0.0980361986557  
5.70064687729  1.54127810226  -1.45112310461  1.87910703049  -2.82106308858  -1.55379964717  0.0980386994002  
5.70872187614  1.54128332647  -1.45112310667  1.87912335067  -2.82104428592  -1.55386103351  0.0980439645648  
5.71678805351  1.54128772803  -1.45112310864  1.87913913708  -2.82102432796  -1.55392325664  0.0980517468597  
5.72489309311  1.54129134349  -1.45112311052  1.87915433316  -2.82100635504  -1.55398336096  0.0980577955473  
5.73298597336  1.54129421142  -1.4511231123  1.87916889042  -2.82099032462  -1.55404217887  0.098063873275  
5.74113488197  1.54129637206  -1.45112311398  1.87918276808  -2.82097618541  -1.55409840414  0.0980722814708  
5.74925494194  1.5412978669  -1.45112311555  1.87919593276  -2.82096387835  -1.55415042562  0.0980827870235  
5.75754189491  1.54129873836  -1.45112311703  1.87920835809  -2.82094832884  -1.55419824676  0.0980951618992  
5.76561999321  1.5412990294  -1.45112311839  1.87922002433  -2.82092695834  -1.55424189679  0.0981091841633  
5.77359604836  1.5412987833  -1.45112311965  1.879230918  -2.82090536017  -1.55428393295  0.0981206318659  
5.78162193298  1.54129804326  -1.45112312081  1.87924103146  -2.82088661286  -1.55432568298  0.098127292403  
5.78968310356  1.54129685224  -1.45112312186  1.8792503625  -2.82086560268  -1.55436690993  0.0981335030835  
5.79776406288  1.54129525264  -1.45112312281  1.87925891392  -2.8208497265  -1.55440739851  0.0981375946733  
5.80588197708  1.5412932861  -1.45112312365  1.87926669319  -2.82083952907  -1.55444945861  0.0981373648705  
5.81394600868  1.54129099332  -1.4511231244  1.87927371194  -2.82083170608  -1.55449166636  0.0981371575953  
5.82208299637  1.54128841386  -1.45112312505  1.87927998565  -2.82082612175  -1.55453228517  0.0981393137987  
5.83013510704  1.54128558598  -1.45112312562  1.87928553322  -2.82082263695  -1.55457369018  0.0981436366152  
5.83827805519  1.54128254652  -1.45112312609  1.87929037659  -2.82082111033  -1.55461452253  0.0981459239981  
5.84638810158  1.54127933078  -1.45112312648  1.87929454035  -2.82082640812  -1.55465811841  0.0981399713338  
5.85459303856  1.5412759724  -1.45112312678  1.87929805142  -2.82083588564  -1.55470441478  0.0981281208621  
5.86257600784  1.5412725033  -1.45112312702  1.87930093867  -2.8208462328  -1.55475145123  0.0981132454158  
5.87072300911  1.54126895362  -1.45112312718  1.87930323261  -2.8208523091  -1.5547963744  0.0980996791808  
5.87870192528  1.54126535163  -1.45112312727  1.87930496506  -2.8208514816  -1.55484011031  0.0980897461475  
5.88678193092  1.54126172377  -1.4511231273  1.87930616886  -2.82084429138  -1.55488143883  0.0980832259225  
5.89484906197  1.54126010853  -1.45112312727  1.87930687758  -2.8208362858  -1.55492133111  0.0980758870244  
5.90298390388  1.54126153652  -1.4511231272  1.87930712524  -2.82083050463  -1.55496111415  0.0980695041593  
5.91103005409  1.54126576261  -1.45112312707  1.8793069461  -2.82082180229  -1.55500054947  0.0980663841468  
5.91916108131  1.54127254337  -1.4511231269  1.87930637441  -2.82081755036  -1.55503941927  0.0980662930532  
5.92725610733  1.54128163837  -1.45112312668  1.8793054442  -2.8208182745  -1.55507752617  0.0980689963036  
5.9353260994  1.5412928115  -1.45112312644  1.87930418906  -2.82082065715  -1.55511469286  0.0980742601881  
5.9435710907  1.54130583207  -1.45112312616  1.87930264202  -2.82082455477  -1.55515076162  0.0980778462345  
5.95164394379  1.54132047584  -1.45112312586  1.87930083533  -2.82082982554  -1.55518559379  0.0980815280275  
5.95964288712  1.5413365259  -1.45112312553  1.87929880038  -2.82083633016  -1.55522157353  0.098087616699  
5.9677259922  1.54135377344  -1.45112312519  1.87929656751  -2.82083892369  -1.55525985181  0.0980918805947  
5.97578597069  1.54137201844  -1.45112312483  1.87929416594  -2.82083997565  -1.55529750819  0.0980920934872  
5.98388791084  1.54139107022  -1.45112312445  1.87929162369  -2.82084252595  -1.55533539819  0.0980925755502  
5.99199008942  1.54141074788  -1.45112312407  1.87928896745  -2.82084644246  -1.55537473188  0.0980916373077  
6.00007104874  1.54143088067  -1.45112312368  1.87928622256  -2.82085660356  -1.55541515302  0.0980870534234  
6.00818896294  1.54145130831  -1.4511231233  1.87928341295  -2.82087037942  -1.55545382188  0.0980831423764  
6.01627802849  1.54147188109  -1.45112312291  1.87928056107  -2.82088447712  -1.55549167547  0.0980822176324  
6.02449393272  1.54149246005  -1.45112312252  1.87927768791  -2.82089878417  -1.5555300055  0.0980800460932  
6.03243803978  1.54151291696  -1.45112312214  1.87927481296  -2.82091319551  -1.55556853704  0.0980784036128  
6.04054093361  1.54153313431  -1.45112312176  1.8792719542  -2.82092761358  -1.55560701527  0.0980755937322  
6.048609972  1.54155300521  -1.45112312139  1.87926912812  -2.82094194836  -1.5556427011  0.0980693830973  
6.0566868782  1.5415724332  -1.45112312103  1.87926634973  -2.82095611734  -1.55567663078  0.0980640812718  
6.06484007835  1.54159133207  -1.45112312069  1.87926363257  -2.82097004543  -1.55571019342  0.0980579850331  
6.07287597656  1.54160962558  -1.45112312035  1.87926098876  -2.82098366488  -1.55574320917  0.0980488524701  
6.08105492592  1.54162724717  -1.45112312003  1.879258429  -2.82099691511  -1.55577551556  0.0980369759876  
6.08915996552  1.54164413963  -1.45112311973  1.87925596267  -2.82100473376  -1.55580446273  0.0980266493267  
6.09721803665  1.54166025469  -1.45112311944  1.87925359783  -2.82100957595  -1.55582866838  0.0980161506961  
6.10545992851  1.54167555267  -1.45112311916  1.87925134126  -2.82101456947  -1.55585085474  0.0980072241923  
6.11363792419  1.54169000205  -1.45112311891  1.87924919859  -2.82101967158  -1.55587250423  0.0979981376025  
6.12163305283  1.54170357901  -1.45112311867  1.87924717425  -2.82102484217  -1.55589352415  0.097986618332  
6.12954902649  1.541716267  -1.45112311844  1.87924527164  -2.82103004383  -1.55591132851  0.0979769337405  
6.13763308525  1.54172805627  -1.45112311824  1.87924349311  -2.82103524187  -1.55592459303  0.0979713429424  
6.14568209648  1.54173894341  -1.45112311805  1.87924184007  -2.82104040429  -1.55593358781  0.0979655558325  
6.15380692482  1.54174893088  -1.45112311787  1.87924031304  -2.82104550182  -1.55593858847  0.0979612891464  
6.16187810898  1.54175802652  -1.45112311772  1.87923891172  -2.82104549909  -1.55593987406  0.0979607927646  
6.16997790337  1.5417662431  -1.45112311758  1.87923763504  -2.82104287403  -1.55594022937  0.0979637770728  
6.17812609673  1.54177359787  -1.45112311746  1.87923648126  -2.82104578206  -1.55593868344  0.0979659463347  
6.18623209  1.54178011207  -1.45112311735  1.87923544799  -2.82105169362  -1.55593393006  0.0979650089285  
6.1942949295  1.54178581052  -1.45112311725  1.8792345323  -2.82105741205  -1.55592624775  0.097965218848  
6.20240902901  1.54179072118  -1.45112311718  1.87923373073  -2.82106291685  -1.55591841593  0.0979688271517  
6.21052193642  1.54179487473  -1.45112311711  1.87923303942  -2.82106819043  -1.55590945386  0.0979755476189  
6.21855807304  1.54179830415  -1.45112311706  1.87923245408  -2.82107321801  -1.55590054588  0.0979810899325  
6.2268269062  1.54180104437  -1.45112311702  1.87923197012  -2.82107297872  -1.55589070212  0.0979871767171  
6.23485302925  1.54180313189  -1.45112311699  1.87923158269  -2.82106996489  -1.55588109731  0.0979960693531  
6.24284005165  1.54180460443  -1.45112311697  1.87923128668  -2.8210673374  -1.55587323591  0.0980034878207  
6.25090909004  1.54180550057  -1.45112311697  1.87923107685  -2.82106007383  -1.555864527  0.0980111660763  
6.25895500183  1.54180585951  -1.45112311697  1.87923094779  -2.82105066112  -1.55585613141  0.0980173707271  
6.26714706421  1.54180512371  -1.451123117  1.87923091011  -2.82103481884  -1.5558446546  0.0980288570205  
6.27524089813  1.54180410774  -1.45112311703  1.87923099045  -2.82102833388  -1.55583886776  0.0980341598099  
6.28324389458  1.54180271166  -1.45112311706  1.87923112959  -2.82102276316  -1.55583332668  0.0980380306764  
6.29130101204  1.54180097363  -1.4511231171  1.87923132208  -2.82101807029  -1.55582951007  0.0980422223136  
6.29942393303  1.541798931  -1.45112311714  1.87923156261  -2.82101421624  -1.55582480337  0.0980490252356  
6.30748391151  1.54179662008  -1.45112311719  1.87923184594  -2.82101115982  -1.55582034588  0.0980581944953  
6.3156619072  1.54179407605  -1.45112311724  1.87923216699  -2.82100885808  -1.55581760931  0.0980654824797  
6.32377910614  1.5417913328  -1.4511231173  1.87923252085  -2.82100726673  -1.55581647706  0.098072655552  
6.331854105  1.54178842283  -1.45112311735  1.87923290276  -2.82100634049  -1.55581432723  0.0980780125516  
6.33993887901  1.54178537713  -1.45112311741  1.87923330818  -2.82100603347  -1.55581229314  0.0980833267649  
6.34803700447  1.54178222516  -1.45112311748  1.87923373278  -2.82100629952  -1.55581184182  0.0980869029722  
6.35612988472  1.54177899472  -1.45112311754  1.87923417241  -2.82100709249  -1.55581034885  0.0980905194521  
6.36427092552  1.54177571197  -1.4511231176  1.8792346232  -2.82100836656  -1.55580644094  0.0980964920674  
6.37240099907  1.54177240133  -1.45112311766  1.87923508147  -2.82101007646  -1.55580032983  0.0981046008328  
6.38046002388  1.54176908553  -1.45112311773  1.87923554379  -2.82101217775  -1.55579222449  0.0981106225909  
6.38857507706  1.54176578555  -1.45112311779  1.87923600699  -2.821014627  -1.55578483443  0.0981123405409  
6.3966550827  1.54176252065  -1.45112311785  1.87923646812  -2.821017382  -1.55577710902  0.0981100781311  
6.40482401848  1.54175930836  -1.45112311791  1.87923692448  -2.8210204019  -1.55577016321  0.0981081653962  
6.412774086  1.54175616455  -1.45112311797  1.87923737361  -2.8210236474  -1.55576544301  0.0981049215154  
6.4208650589  1.54175310341  -1.45112311802  1.87923781328  -2.82102708084  -1.55576280493  0.0981021355113  
6.42913889885  1.54175013753  -1.45112311808  1.87923824149  -2.82103066631  -1.55575959934  0.098102130573  
6.43726301193  1.54174727792  -1.45112311813  1.87923865647  -2.82103436976  -1.55575693116  0.0981046908322  
6.4452009201  1.54174453408  -1.45112311818  1.87923905669  -2.82103315029  -1.55575373428  0.0981096012556  
6.45332288742  1.54174191406  -1.45112311822  1.87923944079  -2.82102947959  -1.55574860617  0.0981166489148  
6.46136593819  1.5417394245  -1.45112311827  1.87924140406  -2.82102649754  -1.55574172859  0.0981256241449  
6.46955394745  1.54173707075  -1.45112311831  1.87924574455  -2.82102416919  -1.55573578441  0.0981323146064  
6.47755408287  1.54173485685  -1.45112311835  1.87925225079  -2.82102245825  -1.55573220149  0.0981385216815  
6.48567199707  1.5417327857  -1.45112311839  1.87926071424  -2.8210213274  -1.55573081874  0.0981465858104  
6.49375200272  1.54173085908  -1.45112311842  1.87927093043  -2.82102073864  -1.55573147395  0.0981523057847  
6.50184106827  1.54172907771  -1.45112311845  1.87928269988  -2.82101564479  -1.55573150048  0.0981574936189  
6.50994992256  1.54172744139  -1.45112311848  1.87929582895  -2.82100850914  -1.55572948355  0.0981644998657  
6.51825594902  1.54172594901  -1.45112311851  1.87931013059  -2.82100246131  -1.55572559434  0.0981731398681  
6.52627801895  1.54172459866  -1.45112311853  1.87932542499  -2.82099745438  -1.55572000231  0.0981832331627  
6.53427910805  1.54172338769  -1.45112311855  1.87934154015  -2.82099343862  -1.55571537876  0.098190597292  
6.54237604141  1.54172231281  -1.45112311857  1.87935831232  -2.82099036203  -1.5557131406  0.0981930569675  
6.55045294762  1.54172137011  -1.45112311858  1.87937718278  -2.82098316205  -1.55571061217  0.0981949846442  
6.55846905708  1.5417205552  -1.4511231186  1.87939880436  -2.82097428541  -1.55570887267  0.0981947441218  
6.56657195091  1.5417198632  -1.45112311861  1.87942282926  -2.82096684417  -1.55570933505  0.0981901637669  
6.57466101646  1.54171928887  -1.45112311862  1.87944892178  -2.8209607731  -1.55570932114  0.0981856159013  
6.58275198936  1.54171882665  -1.45112311862  1.87947675944  -2.82095600352  -1.55570990896  0.0981794607009  
6.59081506729  1.54171847069  -1.45112311863  1.87950603395  -2.82095246399  -1.55571501592  0.0981695197052  
6.5989010334  1.54171821496  -1.45112311863  1.87953645207  -2.820950081  -1.55572321854  0.0981601554997  
6.60725307465  1.54171805327  -1.45112311863  1.87956773618  -2.82094877955  -1.55573276217  0.0981497159043  
6.61527204514  1.54171797931  -1.45112311863  1.87959962487  -2.82094848376  -1.55574598782  0.0981400147358  
6.62332010269  1.54171798674  -1.45112311863  1.87963187325  -2.82094911739  -1.55576148661  0.0981333963377  
6.63132190704  1.5417180692  -1.45112311863  1.87966425323  -2.82094559564  -1.55578002681  0.0981296624722  
6.63943099976  1.54171822033  -1.45112311862  1.87969655359  -2.82093533612  -1.55580272063  0.0981286123858  
6.64748191833  1.54171843389  -1.45112311862  1.87972858002  -2.82092393433  -1.55582910476  0.0981260372726  
6.65563297272  1.54171870368  -1.45112311861  1.87976015497  -2.82091447653  -1.55585872893  0.0981197300565  
6.66370105743  1.54171902368  -1.4511231186  1.8797911175  -2.82090687051  -1.55589115772  0.0981100196187  
6.67177510262  1.541719388  -1.4511231186  1.87982132295  -2.82090101973  -1.55592346775  0.0981012374101  
6.67994594574  1.54171979094  -1.45112311859  1.8798506426  -2.82089682425  -1.55595650861  0.098091700362  
6.6879799366  1.54172022699  -1.45112311858  1.87987736682  -2.82089418161  -1.5559914819  0.0980831917969  
6.6962389946  1.54172069089  -1.45112311857  1.87990059835  -2.82089298765  -1.55602551613  0.0980780261413  
6.70435905457  1.54172117758  -1.45112311856  1.87992046413  -2.82089313734  -1.5560595139  0.0980719689697  
6.71231889725  1.54172168229  -1.45112311855  1.87993710213  -2.82089452542  -1.55609222604  0.0980667926118  
6.72044610977  1.54172220047  -1.45112311854  1.87995065966  -2.82089704715  -1.5561220859  0.0980607953005  
6.72848892212  1.54172272786  -1.45112311853  1.8799612917  -2.82090059886  -1.55614912954  0.0980557435146  
6.73658108711  1.54172326049  -1.45112311852  1.87996915936  -2.82090006982  -1.55617591209  0.0980539366649  
6.74467301369  1.54172379462  -1.45112311851  1.87997442841  -2.82089786202  -1.55620375098  0.0980511270843  
6.75273609161  1.54172432684  -1.4511231185  1.87997726788  -2.82089203758  -1.55622988703  0.0980490755733  
6.7607998848  1.54172485398  -1.45112311849  1.87997784875  -2.82088499532  -1.5562528268  0.0980500774725  
6.76887798309  1.54172537317  -1.45112311848  1.87997634276  -2.82087479161  -1.55627518036  0.0980538895212  
6.77698087692  1.5417258818  -1.45112311847  1.87997292125  -2.82085880838  -1.55629581354  0.0980562629282  
6.78506398201  1.54172637754  -1.45112311846  1.87996775419  -2.82084260224  -1.55631577275  0.0980549531875  
6.79328608513  1.5417268583  -1.45112311845  1.87996100914  -2.8208242092  -1.55633644983  0.0980542613293  
6.80126404762  1.54172732227  -1.45112311845  1.87995285048  -2.82080599511  -1.55635515635  0.0980524781687  
6.80938696861  1.54172776788  -1.45112311844  1.8799434386  -2.82078597723  -1.55637046575  0.0980473580356  
6.81753110886  1.54172819377  -1.45112311843  1.87993452561  -2.82076650175  -1.55638505108  0.0980391917678  
6.8255739212  1.54172859883  -1.45112311842  1.87992706096  -2.82075057429  -1.55640034142  0.0980282665334  
6.8336660862  1.54172898218  -1.45112311842  1.87992097854  -2.82073801827  -1.55641368279  0.098018871302  
6.8418200016  1.54172934311  -1.45112311841  1.87991620881  -2.82072364118  -1.55642368024  0.0980132870768  
6.8499250412  1.54172968113  -1.4511231184  1.87991267947  -2.82070474682  -1.55643053131  0.0980112526663  
6.85805892944  1.54172999591  -1.4511231184  1.87991031614  -2.82068681186  -1.5564369421  0.0980084981526  
6.86625003815  1.54173028731  -1.45112311839  1.87990904296  -2.82067279999  -1.5564443704  0.0980067620436  
6.87432289124  1.54173256881  -1.45112311839  1.8799087832  -2.82065748491  -1.55645018676  0.0980083175166  
6.88239502907  1.54173784833  -1.45112311838  1.87990945982  -2.82064314475  -1.55645552114  0.0980128993851  
6.89046096802  1.54174586036  -1.45112311838  1.8799109959  -2.82063271966  -1.55645933692  0.0980202442632  
6.89845991135  1.54175634303  -1.45112311838  1.87991331521  -2.82062096171  -1.55646276924  0.0980260850951  
6.90660309792  1.54176903947  -1.45112311837  1.87991634252  -2.82061012925  -1.55646728998  0.0980321678887  
6.91464209557  1.54178369901  -1.45112311837  1.8799200041  -2.82060314449  -1.55647278658  0.0980367705998  
6.92276597023  1.54180007826  -1.45112311837  1.87992422798  -2.82059975209  -1.55647914916  0.0980416450602  
6.93080997467  1.54181794203  -1.45112311837  1.87992894427  -2.82059969423  -1.55648627101  0.0980450744154  
6.93892097473  1.5418370642  -1.45112311837  1.87993408549  -2.8206027124  -1.55649655332  0.0980448080995  
6.94717788696  1.54188024244  -1.45112311836  1.87994538587  -2.82059941616  -1.55652086996  0.0980443608736  
6.95522499084  1.54190691914  -1.45112311836  1.87995142382  -2.82059575856  -1.55653564355  0.098040215713  
6.9632999897  1.54193680855  -1.45112311836  1.87995764454  -2.82059047216  -1.55655163617  0.0980329930642  
6.97119998932  1.54196947573  -1.45112311836  1.87996399523  -2.8205807894  -1.55656719051  0.0980229766719  
6.97932696342  1.54200450225  -1.45112311836  1.87997042639  -2.82057212037  -1.55658224402  0.0980144525569  
6.98733592033  1.54204148753  -1.45112311836  1.87997689184  -2.82056235833  -1.55659674215  0.0980096992507  
6.99542307854  1.54208004992  -1.45112311836  1.87998334879  -2.82055373059  -1.55661063802  0.0980044465633  
7.00351595879  1.54211982763  -1.45112311837  1.87998975782  -2.82054412079  -1.55662138777  0.0980044375922  
7.01163601875  1.54216047938  -1.45112311837  1.87999608286  -2.82053574668  -1.55663020984  0.0980099415932  
7.0197019577  1.54220168498  -1.45112311837  1.88000229118  -2.82053149115  -1.55663866254  0.0980141484172  
7.02784705162  1.54224314566  -1.45112311837  1.88000835329  -2.82053106089  -1.55664672208  0.0980147911842  
7.0359480381  1.54228458424  -1.45112311837  1.88001424292  -2.8205291529  -1.55665436896  0.0980161495473  
7.04397892952  1.54232574523  -1.45112311837  1.88001993689  -2.8205279756  -1.55666158773  0.0980164940325  
7.05223894119  1.54236639466  -1.45112311837  1.88002541506  -2.82052539773  -1.55666836682  0.0980175666989  
7.06031489372  1.54240631992  -1.45112311837  1.88003066016  -2.82051861715  -1.55667469829  0.0980176388704  
7.06832504272  1.5424453294  -1.45112311838  1.88003565774  -2.82051301094  -1.55668057758  0.0980144462984  
7.07639098167  1.54248325204  -1.45112311838  1.88004039599  -2.82050644087  -1.55668349895  0.0980122692057  
7.08445501328  1.54251993682  -1.45112311838  1.88004486563  -2.82050110439  -1.55668471483  0.0980093767872  
7.09260988235  1.54255525212  -1.45112311838  1.88004905976  -2.82049485702  -1.55668581349  0.0980075080143  
7.10065603256  1.54258908503  -1.45112311838  1.88005297374  -2.82048989011  -1.5566867972  0.0980049295357  
7.10866904259  1.54262134062  -1.45112311838  1.88005660503  -2.82048405322  -1.55668766879  0.098003377936  
7.11681199074  1.54265194112  -1.45112311839  1.88005995302  -2.82047953199  -1.55668843156  0.0980011176457  
7.12490797043  1.54268082506  -1.45112311839  1.88006461533  -2.82047917918  -1.55668658485  0.097999883194  
7.13295793533  1.54270794642  -1.45112311839  1.88007139383  -2.82047766468  -1.55668338365  0.097997937125  
7.14108800888  1.54273327366  -1.45112311839  1.88008008217  -2.82047716994  -1.55668041639  0.0979970122431  
7.1491150856  1.54275678886  -1.45112311839  1.88009207501  -2.8204805457  -1.55667768334  0.0979993764873  
7.15727496147  1.54277848672  -1.45112311839  1.8801079745  -2.82048246183  -1.55667518328  0.098004759841  
7.16539692879  1.54279837363  -1.45112311839  1.88012737867  -2.82048510162  -1.55667291364  0.0980128945089  
7.1734919548  1.54281646673  -1.4511231184  1.880149895  -2.82048631064  -1.55667087062  0.0980195094538  
7.18157291412  1.54283077903  -1.4511231184  1.88017514211  -2.8204832656  -1.55666904931  0.0980223401169  
7.18962407112  1.54284033835  -1.4511231184  1.8802027513  -2.82047631568  -1.5566674438  0.0980256696597  
7.19770503044  1.54284545432  -1.4511231184  1.8802323678  -2.82047081583  -1.55666604731  0.0980277732102  
7.20582199097  1.54284644014  -1.4511231184  1.88026365194  -2.82046961449  -1.55666234793  0.0980303983613  
7.2139070034  1.54284361031  -1.4511231184  1.88029628007  -2.82046737671  -1.55665508398  0.098035829802  
7.22199988365  1.54283727862  -1.4511231184  1.88032994532  -2.82046126999  -1.55664708161  0.0980398090094  
7.23008108139  1.54282775623  -1.4511231184  1.8803643582  -2.8204516326  -1.55663740691  0.0980400825445  
7.23818302155  1.54281534995  -1.4511231184  1.88039924706  -2.82043879845  -1.55662478633  0.0980369363871  
7.24626898766  1.54280036066  -1.4511231184  1.88043435836  -2.82042810406  -1.5566095269  0.0980306555434  
7.25434803963  1.54278308194  -1.4511231184  1.88046945691  -2.82041736787  -1.55659192821  0.0980255293012  
7.26255607605  1.54276379877  -1.4511231184  1.88050432581  -2.82040373292  -1.5565722811  0.0980238413271  
7.2705039978  1.54274278646  -1.45112311841  1.88053876645  -2.82039251757  -1.55655086654  0.0980213282319  
7.27858710289  1.54272030968  -1.45112311841  1.88057259829  -2.82038653045  -1.55653045902  0.0980157281907  
7.28663492203  1.54269662165  -1.45112311841  1.88060565857  -2.82038039417  -1.55651006613  0.0980073156104  
7.29479789734  1.54267196343  -1.45112311841  1.88063939839  -2.82037123153  -1.55648834988  0.0980003680006  
7.30284309387  1.5426465634  -1.45112311841  1.88067448839  -2.82036434304  -1.55646805217  0.0979931492942  
7.3109190464  1.54262063683  -1.45112311841  1.88071060595  -2.82035751309  -1.55644814793  0.0979873908113  
7.31901907921  1.54259438552  -1.45112311841  1.88074744711  -2.82035286136  -1.55642977111  0.0979813494732  
7.32715892792  1.54256799763  -1.45112311841  1.88078472699  -2.82035317449  -1.55641187627  0.0979727432571  
7.33525490761  1.54254164758  -1.45112311841  1.88082218013  -2.8203530564  -1.556395578  0.0979658316465  
7.34342288971  1.54251549599  -1.45112311841  1.88085956059  -2.82035462314  -1.55637981261  0.0979588605277  
7.35142493248  1.54248968978  -1.45112311841  1.88089664198  -2.82036066104  -1.55636317316  0.0979535432539  
7.35956406593  1.54246436233  -1.45112311841  1.88093321733  -2.82037078553  -1.5563458308  0.0979481189804  
7.36753606796  1.54243963369  -1.45112311841  1.8809690989  -2.82037960782  -1.55632544339  0.0979402882002  
7.37563204765  1.54241561088  -1.45112311841  1.88100411781  -2.82038925606  -1.55630341481  0.0979302863435  
7.38370990753  1.54239238822  -1.45112311841  1.88103812365  -2.82039752442  -1.55628147262  0.0979183440402  
7.39182806015  1.54237004775  -1.45112311841  1.88107098399  -2.82040154183  -1.55625974632  0.0979046860612  
7.39996099472  1.54234865965  -1.45112311841  1.88110258376  -2.82040161337  -1.55623835402  0.0978935373205  
7.40802192688  1.54232828277  -1.45112311841  1.88113282469  -2.82039804492  -1.55621489824  0.0978871137122  
7.41614603996  1.54230896507  -1.45112311841  1.88116162454  -2.8203911412  -1.55619072568  0.0978810813485  
7.42422199249  1.54229074425  -1.4511231184  1.88118891641  -2.82038120399  -1.55616500112  0.097877112756  
7.43226599693  1.54227364826  -1.4511231184  1.88121464796  -2.82036853048  -1.5561365413  0.0978734069017  
7.44046998024  1.5422576959  -1.4511231184  1.8812387806  -2.82035341175  -1.55610573522  0.0978676249048  
7.44864106178  1.54224289741  -1.4511231184  1.88126128864  -2.82033613148  -1.55607295626  0.0978639707711  
7.45651507378  1.54222925508  -1.4511231184  1.88128215849  -2.82031696475  -1.55603605716  0.0978646434821  
7.46457910538  1.54221676382  -1.4511231184  1.88130138778  -2.82029617696  -1.55599412367  0.0978693029613  
7.47263503075  1.54220541183  -1.4511231184  1.88131898451  -2.82027402302  -1.55594780692  0.0978736038468  
7.48072099686  1.54219518112  -1.4511231184  1.88133496618  -2.82025074649  -1.5558977347  0.0978792127286  
