Ethan-CYM/ros_catkin_ws/test/servol_静止不动/ur_joint_actual_velocity.txt
time  shoulder_pan_joint  shoulder_lift_joint  elbow_joint  wrist_1_joint  wrist_2_joint  wrist_3_joint
0.16156411171  0.0  0.0  -0.0  -0.0129429632798  0.0560382381082  -0.673297762871  
0.169593095779  0.0  0.0  -0.0  0.0123916892335  -0.0431911498308  -0.603214025497  
0.177687883377  0.0  0.0  -0.0  0.0291696041822  0.0140215437859  -0.531212747097  
0.18580698967  0.0  0.0  -0.0  -0.0420885980129  -0.00985103286803  -0.453459113836  
0.193898916245  0.0  0.0  -0.0  0.0404108092189  -0.0279951505363  -0.365902364254  
0.202003002167  0.0  0.0  -0.0  -0.0323813781142  0.0513404197991  -0.281317710876  
0.210095882416  0.0  0.0  -0.0  0.0215955749154  -0.0259098950773  -0.201622605324  
0.218225955963  0.0  0.0  -0.0  -0.0259098950773  0.0127512160689  -0.120920836926  
0.226473093033  0.0  0.0  -0.0  0.0147166289389  0.0499502532184  -0.0143810706213  
0.234561920166  0.0  0.0  -0.0  -0.0119842253625  -0.0321656614542  0.0511247068644  
0.242665052414  0.0  0.0  -0.0  -0.00431432109326  0.0431911498308  0.142228782177  
0.250726938248  0.0  0.0  -0.0  0.0044341632165  -0.0259098950773  0.195774301887  
0.258863925934  0.0  0.0  -0.0  -0.0426398739219  0.0143331335858  0.274582564831  
0.267014980316  0.0  -0.0239301007241  -0.0157872196287  -0.0478889644146  -0.0434068627656  0.427309542894  
0.275068998337  0.0  -0.0438462868333  -0.0192514602095  0.0233213026077  0.0259098950773  0.507148444653  
0.283127069473  0.0  -0.0630593970418  -0.0296825282276  -0.0431911498308  -0.0257181469351  0.587394833565  
0.291229963303  0.0  -0.0896100476384  -0.0366621427238  0.0264372006059  -0.00385892065242  0.673297762871  
0.29931807518  0.0  -0.118052609265  -0.0469142459333  -0.0239684507251  0.0528264641762  0.753903627396  
0.307408094406  0.0  -0.148003578186  -0.0588025972247  0.0397157222033  -0.0366956964135  0.840477705002  
0.315601110458  0.000166181256645  -0.188411191106  -0.0706653818488  0.00680703995749  0.0348980650306  0.926716208458  
0.323699951172  0.00623818859458  -0.225124463439  -0.0786420851946  0.0431911498308  -0.0146926604211  1.01228356361  
0.331785917282  0.00488317245618  -0.256839513779  -0.0843817293644  0.055510930717  0.0110973929986  1.09583759308  
0.339888095856  0.0132178012282  -0.292389541864  -0.0898017957807  0.0653859302402  0.0517239160836  1.17876839638  
0.348007917404  0.0104566356167  -0.328655391932  -0.0944676548243  0.0844648182392  -0.0399793758988  1.25141680241  
0.356106996536  0.0125402929261  -0.349466383457  -0.0960911139846  0.106012456119  0.0431911498308  1.31740188599  
0.364223957062  0.0132305845618  -0.378036797047  -0.0963595584035  0.122550688684  -0.0259338635951  1.3789049387  
0.372334003448  0.0124380281195  -0.388314455748  -0.0968708917499  0.149515196681  0.0123677207157  1.42267131805  
0.380434989929  0.0124763771892  -0.407092928886  -0.0985326990485  0.167755186558  0.0382536463439  1.46320199966  
0.388472080231  0.0123741123825  -0.411298602819  -0.100271210074  0.183814048767  -0.0368155390024  1.49606275558  
0.396537065506  0.0123485457152  -0.422675639391  -0.0986733138561  0.204666599631  0.0410819239914  1.51607644558  
0.404625892639  0.0148029150441  -0.419697165489  -0.0987755805254  0.211641415954  -0.0334839262068  1.52901935577  
0.412724018097  0.0126936910674  -0.422292143106  -0.098916195333  0.237695127726  0.0323813781142  1.53661739826  
0.420823097229  0.0130516197532  -0.416820943356  -0.0996320545673  0.24572455883  -0.0185036435723  1.53108072281  
0.428909063339  0.0150841446593  -0.414801210165  -0.104975417256  0.261807382107  0.0141413863748  1.51912045479  
0.437050104141  0.0110063124448  -0.403667062521  -0.105998076499  0.271466672421  0.0419687591493  1.50234246254  
0.445147037506  0.0132561512291  -0.396252810955  -0.113859727979  0.276140511036  -0.0262454543263  1.47240591049  
0.453341007233  0.0113770244643  -0.386141330004  -0.117451801896  0.281988829374  0.0455160886049  1.44738280773  
0.461342096329  0.0113770244643  -0.376119315624  -0.124559246004  0.286327123642  -0.030583743006  1.40371227264  
0.469422101974  0.0124891605228  -0.362581938505  -0.128368631005  0.281868994236  0.0323813781142  1.35915493965  
0.477510929108  0.00844967737794  -0.352905064821  -0.133533030748  0.28333106637  -0.0323813781142  1.31442987919  
0.485601902008  0.0142788048834  -0.333845347166  -0.137457460165  0.278297692537  0.0185036435723  1.25968587399  
0.49370098114  0.00965129584074  -0.323989540339  -0.144206985831  0.278968811035  0.0338434539735  1.20652389526  
0.501802921295  0.0102137560025  -0.303319126368  -0.147044837475  0.273048579693  -0.0375825315714  1.14950287342  
0.509890079498  0.00888430513442  -0.288350045681  -0.14988270402  0.26856648922  0.0294811949134  1.08605849743  
0.517980098724  0.00940841529518  -0.272498905659  -0.155967503786  0.268374741077  -0.040698427707  1.02388429642  
0.526108026505  0.00837297830731  -0.25663498044  -0.159163296223  0.257804661989  0.0215955749154  0.957132160664  
0.534203052521  0.00502378726378  -0.244235306978  -0.165171384811  0.25111746788  -0.0185036435723  0.895461320877  
0.542366981506  0.0094339819625  -0.231209263206  -0.168776243925  0.243855014443  0.0108337393031  0.828062057495  
0.550457954407  0.0062765381299  -0.212660878897  -0.172892421484  0.235897496343  -0.0125834364444  0.763467073441  
0.558559894562  0.00357928848825  -0.202805042267  -0.176216050982  0.230097129941  -0.035473305732  0.700717687607  
0.56666302681  0.00999644212425  -0.192463457584  -0.178900510073  0.219958469272  0.0225782804191  0.638998925686  
0.574760913849  0.00396278360859  -0.176522836089  -0.181342095137  0.217321947217  -0.0443656034768  0.576177597046  
0.582858085632  0.00328527553938  -0.166590318084  -0.185854554176  0.207494884729  0.0260776747018  0.512876927853  
0.590974092484  0.00662168394774  -0.157335296273  -0.190328672528  0.20500215888  -0.0199896879494  0.454801350832  
0.599080085754  0.00418009795249  -0.149997755885  -0.192195013165  0.193665087223  -0.0423762202263  0.39243543148  
0.607177972794  0.00221148901619  -0.144411504269  -0.197269931436  0.189422667027  0.0291456356645  0.339465171099  
0.615252017975  0.00190469285008  -0.138198882341  -0.202204242349  0.186618357897  -0.0459714904428  0.283115327358  
0.623357057571  0.00538171594962  -0.133622512221  -0.205962494016  0.185827404261  0.0297208782285  0.231918722391  
0.631407022476  0.0  -0.132676556706  -0.207931101322  0.190405368805  -0.0155555242673  0.185875341296  
0.639530897141  0.0  -0.133111178875  -0.209324464202  0.186810106039  -0.048608019948  0.14544056356  
0.647631883621  0.0  -0.137431904674  -0.211906671524  0.191843479872  0.0369833186269  0.0926620289683  
0.655757904053  0.0  -0.140512645245  -0.213990330696  0.192922055721  -0.0408182702959  0.0480807125568  
0.663842916489  0.0  -0.141433030367  -0.216700360179  0.205625340343  0.0323813781142  0.0107858031988  
0.671936988831  0.0  -0.149831578135  -0.219602137804  0.205385655165  -0.0182639602572  -0.0260297376662  
0.680038928986  0.0  -0.156261518598  -0.220177382231  0.223697558045  0.011936288327  -0.0692208856344  
0.688106060028  0.0  -0.166782066226  -0.225865885615  0.235801622272  0.0460913293064  -0.0829068720341  
0.696217060089  0.0  -0.174349710345  -0.226862981915  0.258859276772  -0.0245436932892  -0.099013671279  
0.704444885254  -0.000127831735881  -0.183297932148  -0.229342922568  0.273671776056  0.0388528592885  -0.131538853049  
0.712543010712  -0.000127831735881  -0.192284494638  -0.23175893724  0.289011567831  -0.0117205725983  -0.145512461662  
0.720607042313  -0.000127831735881  -0.206473812461  -0.235568314791  0.307467281818  0.0215955749154  -0.168785825372  
0.728733062744  -0.00186634331476  -0.215191945434  -0.237473011017  0.321416914463  0.00654338719323  -0.186330735683  
0.736829996109  -0.00279951491393  -0.225904241204  -0.24174259603  0.333760678768  0.0323813781142  -0.19251459837  
0.744952917099  -0.00279951491393  -0.236744374037  -0.240988388658  0.34946000576  0.00937166437507  -0.215740025043  
0.75305390358  -0.00208365730941  -0.249271884561  -0.247968003154  0.367412388325  0.0327648706734  -0.221132934093  
0.761193990707  -0.000357928860467  -0.258565247059  -0.246446803212  0.388217002153  0.0180722121149  -0.229210302234  
0.769255876541  -0.000357928860467  -0.26821655035  -0.249476417899  0.40374854207  0.0317102596164  -0.232158407569  
0.777369976044  -0.00626375479624  -0.280680149794  -0.252135306597  0.420622348785  0.0293134152889  -0.233620494604  
0.785450935364  -0.00418009795249  -0.286419779062  -0.25388661027  0.433517366648  0.0314945429564  -0.233141124249  
0.793555021286  -0.00221148901619  -0.293501675129  -0.256839513779  0.449504315853  0.0423282831907  -0.233356833458  
0.801666975021  -0.0017768611433  -0.305121570826  -0.25852689147  0.467528611422  0.0349220335484  -0.228179648519  
0.809786081314  -0.00492152199149  -0.30467414856  -0.257491469383  0.478649973869  0.038469363004  -0.224800094962  
0.817848920822  -0.00300404569134  -0.313622385263  -0.2614158988  0.491473078728  0.0352096557617  -0.222523093224  
0.825917959213  -0.00182799377944  -0.312216222286  -0.263320595026  0.493198812008  0.0357129909098  -0.213582858443  
0.83403801918  -0.00736310798675  -0.31638354063  -0.265813320875  0.506381452084  0.036863476038  -0.20500215888  
0.842143058777  -0.00375825306401  -0.319962829351  -0.26592835784  0.519779801369  0.0411058925092  -0.197907492518  
0.850233078003  -0.00233932072297  -0.314772874117  -0.265365898609  0.515513420105  0.0447730645537  -0.198027342558  
0.858401060104  -0.00233932072297  -0.3204613626  -0.268229335546  0.53658169508  0.0418009795249  -0.18820028007  
0.866456031799  -0.00308074476197  -0.317265570164  -0.268229335546  0.527545630932  0.0396677851677  -0.179499730468  
0.874553918839  -0.00471699098125  -0.315897792578  -0.271067202091  0.5399132967  0.042184472084  -0.175808593631  
0.882621049881  -0.0027867318131  -0.318607807159  -0.271195024252  0.534352660179  0.0447251275182  -0.160660520196  
0.890717983246  -0.00175129482523  -0.313136607409  -0.274441957474  0.543772220612  0.0457078367472  -0.149587094784  
0.898819923401  -0.00144449865911  -0.315539866686  -0.274326890707  0.540081083775  0.0414414517581  -0.145152941346  
0.906907081604  -0.00341310724616  -0.308317363262  -0.277791142464  0.547990679741  0.0377982482314  -0.132138073444  
0.915009021759  -0.00227540498599  -0.309161037207  -0.278545349836  0.551657855511  0.0416811369359  -0.116151109338  
0.923079967499  -0.00154676404782  -0.299650371075  -0.278903275728  0.542334139347  0.0462591089308  -0.0953225269914  
0.93118596077  -0.00534336641431  -0.305274963379  -0.279798090458  0.539841413498  0.0433828942478  -0.0929256826639  
0.9392619133  -0.00396278360859  -0.296556830406  -0.276538401842  0.537156939507  0.0395000055432  -0.0813249498606  
0.947293996811  0.0  -0.298474311829  -0.277151972055  0.541950643063  0.0397157222033  -0.0696283504367  
0.955458879471  0.0  -0.296032726765  -0.277650535107  0.534352660179  0.0439341701567  -0.0653379932046  
0.963475942612  -0.00291456351988  -0.289922386408  -0.276052623987  0.530709445477  0.0444135405123  -0.0525148771703  
0.971568107605  -0.00291456351988  -0.290344208479  -0.27591201663  0.52991849184  0.0395479425788  -0.041896853596  
0.979665994644  -0.00182799377944  -0.286240816116  -0.271668016911  0.529415130615  0.0392363555729  -0.0307035855949  
0.987729072571  -0.00131666683592  -0.283262342215  -0.269175291061  0.524070203304  0.0387330166996  -0.0248552840203  
0.995852947235  -0.00102265388705  -0.283658623695  -0.266848742962  0.51373976469  0.0383255518973  -0.0215955749154  
1.00394296646  -0.000843689427711  -0.276794046164  -0.266388565302  0.517023444176  0.0417530424893  -0.0138297956437  
1.01203203201  -0.000715857720934  -0.272396653891  -0.266158461571  0.518677294254  0.0418009795249  -0.0104023078457  
1.02016806602  -0.000613592332229  -0.270070105791  -0.265813320875  0.518126010895  0.0376544371247  -0.00517718540505  
1.02826690674  -0.000588025955949  -0.263831913471  -0.264330476522  0.515513420105  0.0338913910091  0.0011025487911  
1.03636598587  -0.00342589057982  -0.256967365742  -0.262655854225  0.50978499651  0.0360725186765  0.0297208782285  
1.04440402985  -0.00342589057982  -0.254091143608  -0.263985306025  0.505207002163  0.0370072871447  0.0121999410912  
1.05250191689  -0.00208365730941  -0.244823336601  -0.263985306025  0.503025889397  0.0376544371247  0.0367196649313  
1.06059789658  -0.00158511346672  -0.234405055642  -0.262208461761  0.496889948845  0.0369114130735  0.0152439344674  
1.06868696213  -0.00806618202478  -0.228243559599  -0.26197835803  0.494565010071  0.0332202725112  0.0332682095468  
1.07680010796  -0.00442297803238  -0.216137900949  -0.259332239628  0.483994930983  0.0272760968655  0.0214517638087  
1.08490896225  -0.00832184590399  -0.206882879138  -0.258680313826  0.475725799799  0.0320458188653  0.031973913312  
1.09301710129  -0.00848802737892  -0.196975916624  -0.256532728672  0.467936068773  0.0318780392408  0.0437424220145  
1.10110497475  -0.00479369005188  -0.190418154001  -0.254832565784  0.458636313677  0.0344426631927  0.0371990352869  
1.10920095444  -0.0120800985023  -0.180869117379  -0.255689024925  0.449504315853  0.0359287075698  0.0418489165604  
1.11738109589  -0.00579077750444  -0.16855892539  -0.256750047207  0.440180599689  0.0355452112854  0.0395479425788  
1.12543201447  -0.0111085781828  -0.161860540509  -0.25388661027  0.425008565187  0.0369593501091  0.0398355647922  
1.1334939003  -0.00752928899601  -0.155264422297  -0.250895351171  0.415181517601  0.0376544371247  0.0403628721833  
1.1415579319  -0.00582912703976  -0.144411504269  -0.248070269823  0.397588670254  0.0403149351478  0.0393801629543  
1.14963006973  -0.0141126234084  -0.137278497219  -0.247571721673  0.390134483576  0.04379035905  0.0439821071923  
1.15769004822  -0.00968964584172  -0.130477845669  -0.243954077363  0.384190291166  0.0456838682294  0.0444854460657  
1.16574788094  -0.0174873806536  -0.121721379459  -0.245309099555  0.377622932196  0.0437663905323  0.0423043146729  
1.17385292053  -0.015199193731  -0.116646461189  -0.243378847837  0.370096862316  0.0459714904428  0.04029096663  
1.18194389343  -0.0200184490532  -0.110561668873  -0.239492759109  0.353294968605  0.0501659661531  0.038685079664  
1.19007897377  -0.0229074470699  -0.1033391729  -0.235478833318  0.342005819082  0.0554390251637  0.0436705164611  
1.19817996025  -0.0269597135484  -0.0940330252051  -0.233957648277  0.326354414225  0.0534256771207  0.0440060757101  
1.20634698868  -0.0291584189981  -0.0864398181438  -0.230685144663  0.322040110826  0.0531140863895  0.0364320464432  
1.21444201469  -0.0307690985501  -0.0782458037138  -0.225328996778  0.304183602333  0.0568531639874  0.037846185267  
1.22250699997  -0.0389758944511  -0.0688501745462  -0.21955101192  0.292103499174  0.0590822324157  0.0330764614046  
1.2305700779  -0.0423250868917  -0.0598380342126  -0.212008938193  0.283211201429  0.0539050474763  0.0358088649809  
1.23879098892  -0.0481286495924  -0.0526666752994  -0.204939842224  0.269501268864  0.049231197685  0.0362163297832  
1.24685502052  -0.0522192642093  -0.0476428866386  -0.197691783309  0.257229417562  0.0509808957577  0.0362882353365  
1.25491809845  -0.0565399751067  -0.0396661870182  -0.192655205727  0.247258543968  0.0536893308163  0.0335558317602  
1.2630109787  -0.0607584230602  -0.0329933725297  -0.186442583799  0.232086509466  0.0526586845517  0.0341790094972  
1.27130699158  -0.0653731524944  -0.0273943413049  -0.180933043361  0.224057078362  0.0500461235642  0.0320458188653  
1.27940201759  -0.0712789744139  -0.0209644045681  -0.173978984356  0.208789169788  0.0516999475658  0.0412017665803  
1.28745102882  -0.0740529224277  -0.0157233029604  -0.168840155005  0.197907492518  0.0536174252629  0.0405546203256  
1.29551792145  -0.0816972628236  -0.0118500022218  -0.160096466541  0.180889904499  0.0493510402739  0.0439821071923  
1.30358195305  -0.0856089144945  -0.00662168394774  -0.151659563184  0.170247912407  0.0464029200375  0.0461392663419  
1.31166410446  -0.091310210526  -0.00442297803238  -0.145280763507  0.156873509288  0.0422563776374  0.0456838682294  
1.31977105141  -0.0960527658463  0.00975356157869  -0.137457460165  0.150665685534  0.0440060757101  0.0484162718058  
1.32787799835  -0.100168950856  0.00488317245618  -0.131027534604  0.137147471309  0.0465227626264  0.0550795011222  
1.33596110344  -0.104924291372  0.016682041809  -0.121325097978  0.125546738505  0.0403149351478  0.0543844141066  
1.34410500526  -0.105729624629  0.0140614910051  -0.114959076047  0.112340129912  0.0353534631431  0.0534256771207  
1.35224103928  -0.108235128224  0.0183438546956  -0.108068950474  0.108385331929  0.0358807705343  0.0589623898268  
1.36040592194  -0.109066039324  0.0213351156563  -0.0993891730905  0.0968565121293  0.0318301022053  0.0612154230475  
1.36841988564  -0.110088691115  0.021220067516  -0.092038847506  0.0900974050164  0.033459957689  0.0600170008838  
1.37649798393  -0.111878335476  0.0227923989296  -0.0834229886532  0.0742302909493  0.031973913312  0.060951769352  
1.38458991051  -0.11299046874  0.0246715247631  -0.0775683000684  0.0724566280842  0.0228419341147  0.0650743469596  
1.39270401001  -0.114064253867  0.0261288061738  -0.0693998485804  0.0657933950424  0.0244717877358  0.0693646967411  
1.40076303482  -0.113770246506  0.0268574468791  -0.0620750896633  0.0549356900156  0.0140934493393  0.0651462525129  
1.40886092186  -0.114115387201  0.0281868968159  -0.0552360936999  0.0416092313826  0.0194623824209  0.0729359984398  
1.41698503494  -0.114626720548  0.0279056672007  -0.0490106865764  0.0407943017781  0.00994690693915  0.0708986744285  
1.42505192757  -0.113361179829  0.029324600473  -0.0423762202263  0.0292415097356  0.00520115392283  0.0695085078478  
1.43314099312  -0.11342509836  0.0289794541895  -0.0350131131709  0.0288819838315  0.0143810706213  0.0736310780048  
1.44123005867  -0.11176328361  0.0291200689971  -0.030117155984  0.019821908325  0.00517718540505  0.0728880614042  
1.44938492775  -0.109270565212  0.0283147301525  -0.0247354414314  0.0151959974319  0.0  0.0689572319388  
1.45745205879  -0.107838854194  0.0261671561748  -0.0200695823878  0.0124635947868  0.0  0.0749014094472  
1.46551299095  -0.10529500246  0.02722815983  -0.0155315557495  0.00517718540505  0.0027803403791  0.0744220390916  
1.47361493111  -0.102981247008  0.0264611691236  -0.0108145652339  0.00313986698166  -0.0078616514802  0.066824041307  
1.48172688484  -0.0998238027096  0.0238278359175  -0.00752928899601  -0.000551274395548  -0.00711862975731  0.06970025599  
1.48979091644  -0.0958226695657  0.0262055061758  -0.00352815585211  -0.021092236042  -0.00517718540505  0.0716416984797  
1.49789094925  -0.0948127955198  0.0234187729657  -0.00352815585211  0.0  -0.000886832654942  0.0691489800811  
1.50602197647  -0.0918470993638  0.0235593896359  0.000741424039006  -0.0382776148617  -0.0122478781268  0.0706829577684  
1.51414108276  -0.0887535735965  0.0232781581581  0.00671116588637  -0.00841292645782  0.00580036500469  0.0673753172159  
1.5222671032  -0.0839726701379  0.0224472526461  0.0113770244643  -0.0343467891216  -0.0300324689597  0.0630849599838  
1.53035593033  -0.0799843147397  0.021130586043  0.0168098732829  -0.0117685096338  0.00297208782285  0.0638040155172  
1.53844809532  -0.0726339891553  0.0187273491174  0.0155443390831  -0.0374626889825  -0.0323813781142  0.0663686394691  
1.54653906822  -0.0684538930655  0.0208110064268  0.0183566380292  -0.0181441176683  -0.00870054773986  0.0592979490757  
1.5546040535  -0.0643249303102  0.0171166695654  0.0148796141148  -0.0319259762764  -0.0335078947246  0.0563737973571  
1.56270194054  -0.058201789856  0.0143938530236  0.0203635953367  -0.0179044324905  -0.00807736814022  0.0587466731668  
1.57078909874  -0.0529734715819  0.0153142418712  0.0209132712334  -0.0317821651697  -0.0307275541127  0.0572845973074  
1.57888889313  -0.0484482273459  0.012003400363  0.0205809101462  -0.0192706342787  -0.0161787047982  0.0488237328827  
1.587018013  -0.0395767055452  0.0108145652339  0.0222682878375  -0.0253346525133  -0.0126553419977  0.0470980070531  
1.59507489204  -0.0329805873334  0.00649385200813  0.0213351156563  -0.0316143855453  -0.0398355647922  0.0413695462048  
1.60311388969  -0.0295291300863  0.0102648884058  0.0235210396349  -0.0299365948886  -0.0181441176683  0.0393322259188  
1.61118292809  -0.0236744377762  0.00769547047094  0.0227156989276  -0.0292894467711  -0.0318061336875  0.0360485501587  
1.61936688423  -0.0216674786061  0.00342589057982  0.0258347932249  -0.0269405394793  -0.0163944195956  0.0364320464432  
1.62742590904  -0.0167843066156  0.00201974133961  0.0239301007241  -0.0256462432444  -0.0242560729384  0.0300564374775  
1.63548994064  -0.0123101957142  0.00573964510113  0.0235338229686  -0.0238246396184  -0.0224584378302  0.0315664485097  
1.64355587959  -0.0109551800415  0.00375825306401  0.0230224952102  -0.0268446654081  -0.0224584378302  0.0255983062088  
1.65163993835  -0.00685178115964  0.00208365730941  0.023482689634  -0.0198938138783  -0.0351377502084  0.02722815983  
1.65970492363  -0.00502378726378  0.0  0.0225111693144  -0.0256941784173  -0.0222906600684  0.017041567713  
1.66780495644  -0.00242880289443  0.0  0.0197244361043  -0.019342539832  -0.0323574095964  0.0282588042319  
1.67590403557  0.000434627901996  0.0  0.0219359248877  -0.0274678450078  -0.0180722121149  0.00925182178617  
1.68398594856  0.00621262239292  0.0  0.0181137565523  -0.0160109251738  -0.0276835598052  0.0335078947246  
1.69208097458  0.00313187739812  0.0  0.0208237897605  -0.0250949673355  -0.0152439344674  0.0107858031988  
1.7001490593  0.0146111669019  0.0  0.0174490325153  -0.0161787047982  -0.0291935727  0.0  
1.70836591721  0.00752928899601  -0.000191747603822  0.0176152139902  -0.0178804639727  -0.0142372595146  0.00970722269267  
1.71639990807  0.00727362558246  -0.00308074476197  0.016733173281  -0.0185036435723  -0.0275397505611  0.00807736814022  
1.72449493408  0.0154292900115  -0.00308074476197  0.0132050178945  0.0  -0.0148364705965  0.0150521872565  
1.73257994652  0.0110190957785  0.0  0.0165286436677  -0.0143810706213  -0.0278034023941  -0.00275637186132  
1.74070310593  0.0172700677067  0.0  0.0128854392096  -0.00582433352247  -0.0121040679514  0.0253825895488  
1.74883794785  0.0119139179587  -0.00424401368946  0.0131538854912  -0.0187433287501  -0.0277075283229  -0.0417530424893  
1.7569360733  0.0184716861695  -0.00242880289443  0.0116454707459  -0.0135182058439  -0.00939563289285  0.0438143275678  
1.76500701904  0.0131538854912  -0.00178964424413  0.00816844776273  -0.00587227055803  -0.0258140210062  -0.0323813781142  
1.77306509018  0.018037058413  -0.00616148952395  0.0109168300405  0.0  -0.008868326433  0.0142612280324  
1.78120398521  0.0163113288581  -0.00313187739812  0.00538171594962  -0.0139736067504  -0.032189629972  -0.0133743956685  
1.78943610191  0.0182927213609  -0.00190469285008  0.00444854423404  0.00174969690852  0.00304399314336  -0.0461152978241  
1.79750704765  0.0158767011017  -0.00635323720053  0.00294012995437  -0.0167539473623  -0.0361923612654  0.0311110485345  
1.80559301376  0.0147006493062  -0.0026461170055  0.00644271960482  -0.00728640891612  0.0171853788197  -0.0524190030992  
1.81368207932  0.017295634374  -0.0026461170055  0.00313187739812  -0.00680703995749  -0.0323813781142  0.0352815613151  
1.8218100071  0.0153270252049  -0.0062765381299  0.001879126532  -0.00369114149362  0.0221468489617  -0.0150521872565  
1.82993006706  0.0165797751397  -0.00625097192824  0.00134223327041  -0.00254065566696  -0.0185036435723  -0.0361204557121  
1.83798694611  0.0164008121938  -0.00327249243855  0.00103543710429  -0.00191747606732  0.0144290076569  0.034083135426  
1.84611010551  0.0143299372867  -0.0066344672814  0.000856472644955  -0.00155794934835  -0.0143810706213  -0.0495188198984  
1.85423088074  0.0172317177057  -0.00942119862884  0.000715857720934  -0.00129429635126  -0.00321177230217  0.0323813781142  
1.86232590675  0.0144449863583  -0.00313187739812  0.000472977408208  -0.00112651719246  0.00364320445806  -0.0259098950773  
1.87044906616  0.0140998400748  -0.00550954788923  0.000472977408208  -0.000982706435025  -0.0376784056425  0.0159629881382  
1.87853693962  0.0125914262608  -0.00749093946069  0.000472977408208  -0.000862864253577  0.0327648706734  0.00369114149362  
1.88663601875  0.0120417494327  -0.00327249243855  0.000472977408208  -0.000790958874859  -0.045396246016  -0.0354493372142  
1.89473700523  0.0143682872877  0.0  0.000472977408208  -0.000719053496141  0.0259098950773  0.0485121458769  
1.9028570652  0.0117349531502  -0.00685178115964  0.000472977408208  0.0  -0.0185036435723  -0.0323813781142  
1.91095900536  0.00750372279435  -0.00368155399337  -0.000792556733359  0.0  -0.00395479425788  0.0259098950773  
1.91909909248  0.0120800985023  -0.0027867318131  -0.000792556733359  0.0  0.0338674224913  -0.0215955749154  
1.92715406418  0.00942119862884  -0.00175129482523  -0.000792556733359  0.0  -0.0435986109078  -0.0042663840577  
1.93521904945  0.00538171594962  -0.000396278366679  -0.00148284807801  0.00194144446868  0.0469302274287  0.0536413937807  
1.94332695007  0.00613592332229  -0.0039883502759  -0.00148284807801  0.00529702752829  -0.0321656614542  -0.00323574081995  
1.95142507553  0.00916553568095  -0.00617427285761  -0.00286343088374  0.00529702752829  0.0269165709615  0.0568291954696  
1.95955204964  0.00502378726378  0.000882038963027  -0.00286343088374  0.00369114149362  0.00534496456385  -0.0204450879246  
1.967648983  0.00242880289443  -0.00856472644955  -0.00193025916815  0.00254065566696  -0.0356650538743  0.0323813781142  
1.97573900223  0.00199417513795  -0.00517718540505  -0.00135501637124  0.0149802817032  0.028138961643  -0.00486559560522  
1.98382711411  0.00538171594962  -0.00327249243855  -0.0045891595073  -0.00313986698166  -0.0535215511918  0.0323813781142  
1.9919219017  0.00250550196506  -0.00193025916815  -0.0045891595073  0.00198938138783  0.0259098950773  -0.0161307677627  
2.0000538826  0.00170016207267  -0.00136779958848  -0.0023521038238  -0.00424241600558  -0.0422324091196  0.0323813781142  
2.0081820488  0.00170016207267  -0.00106100342236  -0.001879126532  -0.00716656679288  0.0185036435723  -0.00982706528157  
2.01623988152  0.00170016207267  -0.000856472644955  -0.001879126532  0.0161307677627  -0.0172093473375  0.0215955749154  
2.02431702614  0.00153398083057  0.000639158650301  -0.00579077750444  0.029888657853  -0.0551514066756  -0.0156513992697  
2.03246808052  0.00115048559383  -0.00271003274247  -0.00442297803238  -0.0258619580418  0.00302002485842  0.0132305845618  
2.0405728817  0.000920388498344  -0.00271003274247  -0.00227540498599  0.0439821071923  -0.032812807709  0.0533058345318  
2.04866099358  0.000766990415286  -0.00214757304639  -0.00201974133961  -0.0320937559009  0.00313986698166  -0.0259818006307  
2.05672097206  0.000664725026581  -0.00147006497718  -0.003016829025  0.0259098950773  -0.0304159633815  0.0523950345814  
2.0648419857  0.000575242796913  -0.00112491927575  -0.00389886787161  -0.0110254874453  0.00359526765533  -0.0215955749154  
2.07294988632  0.000511326943524  -0.000907605339307  -0.00389886787161  0.0114089827985  -0.0467384792864  0.015004250221  
2.08105301857  0.000357928860467  -0.00075420725625  -0.0023521038238  0.0046019423753  0.0022770029027  0.029888657853  
2.08913803101  0.000357928860467  -0.000651941867545  -0.00155954714864  -0.0395000055432  -0.042520031333  -0.0278753079474  
2.09724092484  0.0  -0.000575242796913  -0.0011760519119  0.0482245236635  0.0027803403791  0.0413935147226  
2.10532307625  0.0  -0.000511326943524  -0.00093317165738  -0.0323813781142  -0.0441738553345  -0.0259098950773  
2.11342096329  0.0  -0.000460194249172  -0.000779773574322  0.0143571021035  -0.00994690693915  0.0290497615933  
2.12150096893  0.0  -0.000409061554819  -0.000664725026581  0.00395479425788  -0.0402190610766  0.0523950345814  
2.12959909439  0.0  -0.000383495207643  -0.000588025955949  -0.0493510402739  -0.0185036435723  -0.0359287075698  
2.13766694069  0.0  -0.000345145672327  -0.000511326943524  0.0479129329324  -0.00673513486981  0.0467145107687  
2.14574289322  0.0  -0.000319579325151  -0.000460194249172  -0.0317821651697  -0.0238486081362  -0.0185036435723  
2.15381908417  -0.000741424039006  -0.000306796166115  -0.000421844713856  0.0291935727  -0.00740625150502  0.0263413265347  
2.16189098358  -0.000741424039006  -0.000281229818938  -0.000383495207643  -0.0215955749154  -0.0185036435723  0.00381098361686  
2.17000293732  -0.000741424039006  -0.000268446630798  -0.000357928860467  -0.00453003728762  -0.00922785326838  -0.0046019423753  
2.17813611031  -0.000741424039006  -0.000255663471762  -0.000332362513291  0.0412976406515  -0.0280910246074  0.0546480678022  
2.18627309799  -0.000997087568976  -0.000242880298174  -0.000230097124586  -0.0366237945855  -0.00675910292193  -0.0323813781142  
2.19445610046  -0.000997087568976  -0.000230097124586  -0.000230097124586  0.0400033444166  -0.0185036435723  0.0215955749154  
2.20253109932  -0.000997087568976  -0.000217313950998  -0.000230097124586  -0.0215955749154  -0.00862864218652  -0.0103543708101  
2.21059703827  -0.00191747606732  -0.00020453077741  -0.000230097124586  -0.00417051045224  -0.031638354063  0.0126553419977  
2.2186870575  -0.00191747606732  -0.000191747603822  0.0012399678817  0.0307754911482  0.00242081354372  0.0496146939695  
2.22678995132  -0.00181521067861  -0.000191747603822  0.0012399678817  -0.0290976986289  -0.0289778579026  -0.0431911498308  
2.23487997055  -0.00181521067861  -0.000178964430233  0.00242880289443  0.0428795590997  -0.0137099539861  0.0323813781142  
2.24292588234  -0.00149563129526  -0.000166181256645  0.00342589057982  0.0323813781142  -0.0129669317976  0.0133504271507  
2.25098109245  -0.00149563129526  -0.000166181256645  0.00342589057982  0.0323813781142  -0.0129669317976  0.0133504271507  
2.25915789604  -0.00116326881107  -0.000153398083057  0.00561181316152  -0.0456598997116  0.00285224569961  -0.0445333831012  
2.26712608337  -0.00116326881107  -0.000153398083057  0.0062765381299  0.0454441830516  -0.039739690721  0.0215955749154  
2.27521109581  -0.00125275098253  -0.000140614909469  0.00538171594962  -0.0359047390521  0.0216195434332  -0.0215955749154  
2.28332495689  -0.00125275098253  -0.000140614909469  0.00439741183072  0.0377742797136  -0.0478889644146  -0.00397876277566  
2.29146289825  -0.00125275098253  -0.000140614909469  0.00538171594962  -0.0259098950773  0.0243998821825  0.0556787103415  
2.29951310158  -0.00125275098253  -0.000127831735881  0.00570129556581  -0.004889564123  -0.0277794338763  -0.0594657249749  
2.30757808685  -0.00108656974044  -0.000127831735881  0.00572686176747  -0.0121999410912  0.0203492138535  0.0259098950773  
2.31567597389  -0.000882038963027  0.0  0.0062765381299  -0.0449408441782  -0.0142132909968  -0.0138297956437  
2.32374405861  -0.000741424039006  0.0  0.00577799463645  0.0518677271903  -0.0298167522997  -0.033795516938  
2.3318169117  -0.000639158650301  0.0  0.00595695897937  -0.0455400571227  0.00436225812882  0.0430713072419  
2.33994603157  0.000575242796913  0.0  0.00631488766521  0.0403628721833  -0.0492551662028  -0.0345385372639  
2.34801602364  0.000575242796913  0.0  0.00600809138268  -0.0323813781142  0.0284505505115  0.0107858031988  
2.35610795021  0.0  0.0  0.00570129556581  -0.00481765856966  -0.0449168756604  -0.0174730010331  
2.36424589157  0.0  0.0  0.00409061554819  0.0282827727497  0.0312069226056  -0.0373428463936  
2.37231993675  0.0  0.0  0.00487038912252  -0.0320458188653  -0.0185036435723  0.041561294347  
2.38048696518  0.00162346300203  0.0  0.00685178115964  0.0417290739715  0.0136620169505  -0.0431911498308  
2.38856291771  0.00162346300203  0.0  0.00625097192824  -0.0416571684182  0.0046019423753  0.0323813781142  
2.39663100243  0.00162346300203  0.0  0.00300404569134  0.0423522517085  -0.037294909358  0.0311110485345  
2.40469908714  0.00126553419977  0.0  0.00208365730941  -0.0431911498308  0.0386371426284  -0.0528264641762  
2.41282200813  0.000997087568976  0.0  0.00576521130279  0.0323813781142  -0.0323813781142  0.0448449701071  
2.4209458828  0.000920388498344  0.0  0.00579077750444  -0.0185036435723  0.0185036435723  -0.0259098950773  
2.42898201942  0.00292734662071  0.0  0.00259498413652  -0.00448210025206  -0.0132785215974  0.0185036435723  
2.43708705902  0.00292734662071  0.0  0.00167459575459  0.0299126263708  -0.0496865995228  0.0321416929364  
2.44519209862  0.00292734662071  0.0  0.0014061491238  -0.0442457608879  0.0304878689349  -0.0377263426781  
2.45344996452  0.00319579336792  0.0  0.00584191037342  0.0400033444166  -0.0503337457776  0.0430473387241  
2.46140599251  0.00466585811228  0.0  0.00425679655746  -0.0404827147722  0.0185036435723  -0.0200136564672  
2.46950101852  0.00657055107877  0.0  0.00313187739812  0.0375585630536  -0.0215955749154  0.0113370772451  
2.47759389877  0.00616148952395  0.0  0.00867977458984  -0.0323813781142  -0.00505734328181  0.0317821651697  
2.48571491241  0.00937006622553  0.0  0.0120417494327  0.0323813781142  0.0303200893104  -0.0423282831907  
2.49384903908  0.0107634318992  0.0  0.00694126309827  -0.019342539832  -0.0411058925092  0.0259098950773  
2.50196909904  0.0107889985666  0.0  0.0136012965813  -0.00349939381704  0.037079192698  -0.0193665083498  
2.51003408432  0.0100220078602  0.0  0.00871812459081  0.0429994016886  -0.0157233029604  -0.0304878689349  
2.51816987991  0.010610033758  0.0  0.0135373808444  -0.0412257350981  -0.0508131161332  0.0439821071923  
2.52633810043  0.0120673161  0.0  0.0150713613257  0.0383495204151  0.0392842926085  -0.0259098950773  
2.53443694115  0.0120417494327  0.0  0.0134478984401  -0.0361923612654  -0.0431911498308  0.0195822250098  
2.54253602028  0.0115048559383  0.0  0.0137291280553  0.0259098950773  0.0122478781268  0.0392363555729  
2.55059909821  0.0138825261965  0.0  0.0147389993072  0.00366717297584  -0.0128710577264  -0.0484881773591  
2.5586669445  0.0110702281818  0.0  0.0133328502998  -0.0469302274287  -0.0387569852173  0.0423522517085  
2.56679010391  0.00991974305362  0.0  0.0157616529614  0.0330764614046  0.0422563776374  -0.0323813781142  
2.57485103607  0.0131922354922  0.0  0.0151224946603  -0.0389966703951  -0.0503097772598  0.0185036435723  
2.58292198181  0.0114665068686  0.0  0.0140231410041  0.0344906002283  0.0215955749154  0.0367196649313  
2.59106302261  0.012156797573  0.0  0.0147901317105  -0.0323813781142  -0.0132545530796  -0.0445094145834  
2.59912896156  0.0127064744011  0.0  0.0159789677709  0.0259098950773  -0.0468343533576  0.0431911498308  
2.60722994804  0.0122079309076  0.0  0.0138953095302  0.00419447897002  0.0371510982513  -0.0209004897624  
2.61543703079  0.0156721714884  0.0  0.0125786429271  -0.00400273129344  -0.0431911498308  0.0133264586329  
2.62344908714  0.0121056651697  0.0  0.0126297753304  0.0472657866776  0.0323813781142  0.0338434539735  
2.63149094582  0.0138186104596  0.0  0.0132305845618  -0.0408422388136  -0.013614079915  -0.0431911498308  
2.63959097862  0.0125914262608  0.0  0.0124763771892  0.0403149351478  -0.00390685768798  0.0259098950773  
2.6476919651  0.0169249214232  0.0  0.010546118021  -0.0328847132623  -0.0113131087273  -0.0215955749154  
2.65578603745  0.0134223317727  0.0  0.0117221698165  0.0166101362556  -0.04357464239  -0.0339393280447  
2.66390991211  0.0180242750794  -7.66990415286e-05  0.00997087545693  -0.0127512160689  0.0382536463439  -0.0129429632798  
2.67201495171  0.0133711993694  -7.66990415286e-05  0.011351457797  -0.025837989524  -0.0489675439894  0.0150282187387  
2.68010401726  0.0175129473209  -7.66990415286e-05  0.00899935420603  0.044341634959  0.0371031612158  -0.015986956656  
2.68824911118  0.0127320410684  -7.66990415286e-05  0.0101881893352  -0.0369593501091  -0.0177126843482  -0.0362642668188  
2.69642710686  0.0138953095302  -7.66990415286e-05  0.0082323634997  0.0446771904826  -0.0295051634312  0.0459714904428  
2.70447707176  0.0145472511649  -7.66990415286e-05  0.00763155473396  -0.0259098950773  0.00385892065242  -0.0431911498308  
2.71257805824  0.0108017819002  -7.66990415286e-05  0.00792556721717  0.0215955749154  -0.0511486753821  0.0323813781142  
2.72067594528  0.0133839827031  -7.66990415286e-05  0.0038605183363  0.00395479425788  0.0369593501091  -0.0303200893104  
2.72877407074  0.0105333346874  -7.66990415286e-05  0.00722249317914  -0.0317342281342  -0.0421365350485  -0.0502378717065  
2.73687696457  0.00908883661032  0.0  0.00534336641431  0.046019423753  0.0321416929364  0.0429274961352  
2.74497294426  0.0100603578612  0.0  0.0027867318131  -0.0431911498308  -0.0153877455741  -0.0323813781142  
2.7530670166  0.00825793016702  0.0  0.00175129482523  0.0323813781142  -0.0461152978241  0.0185036435723  
2.76116991043  0.00648106914014  0.0  0.00167459575459  -0.0125834364444  0.0467384792864  -0.0161787047982  
2.76923704147  0.00565016269684  0.0  0.00432071276009  -0.00448210025206  -0.0431911498308  -0.004050668329  
2.77737593651  0.00603365805  0.0  0.00302961212583  0.00397876277566  0.0259098950773  0.047409594059  
2.78547692299  0.00559902982786  0.0  0.00302961212583  -0.0457797423005  -0.0185036435723  -0.0431911498308  
2.79357409477  0.00396278360859  0.0  -0.0  0.0518677271903  -0.0432630553842  0.0215955749154  
2.80163788795  0.00214757304639  0.0  -0.0  -0.0376784056425  0.0483203977346  -0.0185036435723  
2.80972909927  0.00147006497718  0.0  -0.0  0.0259098950773  -0.0499023161829  -0.0351377502084  
2.81781697273  0.00129110051785  0.0  -0.0  -0.0192946027964  0.0185036435723  0.0505734309554  
2.82595610619  0.00129110051785  0.0  -0.0  -0.00560861732811  -0.0192226972431  -0.0429754331708  
2.83408308029  0.00217313948087  0.0  -0.0  0.0329086817801  -0.0312548615038  0.0215955749154  
2.84220910072  0.00217313948087  0.0  -0.0  -0.0322375670075  0.0486559532583  -0.0174490325153  
2.85043501854  0.00159789668396  0.0  -0.0  0.0323813781142  -0.0411538295448  -0.0289059523493  
2.85851502419  0.00118883512914  0.0  -0.0  -0.026964507997  0.0431911498308  0.0459954552352  
2.86660289764  -0.000997087568976  0.0  -0.0  0.0323813781142  -0.0215955749154  -0.0323813781142  
2.8747279644  -0.000997087568976  0.0  -0.0  -0.0161787047982  0.0169217269868  0.0178085584193  
2.88284301758  -0.000997087568976  0.0  0.000306796166115  0.0202773101628  0.0391404815018  -0.0131826475263  
2.89095807076  -0.000997087568976  0.0  0.000306796166115  0.0220270063728  0.0422324091196  -0.0185036435723  
2.89906311035  -0.000984304351732  0.0  0.000306796166115  0.0396677851677  -0.0259098950773  0.0295531004667  
2.90710687637  -0.00613592332229  0.0  0.000306796166115  -0.0435986109078  0.0142132909968  0.0049375006929  
2.91517305374  -0.00268446654081  0.0  0.000306796166115  0.0323813781142  0.0486319884658  -0.0308953337371  
2.92323589325  -0.00216035638005  0.0  0.000306796166115  -0.0185036435723  -0.0462830774486  0.0399793758988  
2.93138408661  -0.00538171594962  0.0  -0.000664725026581  0.0259098950773  0.0431911498308  -0.041896853596  
2.93944406509  -0.00268446654081  0.0  -0.000664725026581  -0.0102345282212  -0.0185755491257  0.0259098950773  
2.94752597809  -0.00240323669277  0.0  -0.000664725026581  -0.0040986048989  -0.00589623907581  -0.0215955749154  
2.95558691025  -0.00750372279435  0.0  -0.000664725026581  0.041345577687  0.0471459440887  -0.0524669401348  
2.96368288994  -0.00579077750444  0.0  -0.00130388373509  -0.0371990352869  -0.0477930903435  0.0515081994236  
2.97178196907  -0.00342589057982  0.0  -0.00405226601288  0.0215955749154  0.0323813781142  -0.0375585630536  
2.97989988327  -0.00254385150038  0.0  -0.00375825306401  -0.0259098950773  -0.0131107429042  0.0215955749154  
2.98801589012  -0.00836019590497  0.0  -0.00208365730941  0.0215955749154  0.0151720289141  -0.0154117140919  
2.99614500999  -0.00396278360859  0.0  -0.00186634331476  0.00491353264078  0.0340112298727  -0.0332202725112  
3.00425291061  -0.00230097118765  0.0  -0.00371990352869  -0.0417770110071  -0.0478170588613  0.047217849642  
3.01248598099  -0.010584468022  0.0  -0.00377103616484  0.0357609279454  0.038900796324  -0.0323813781142  
3.02058696747  -0.00442297803238  0.0  -0.00371990352869  -0.0341310724616  -0.0259098950773  0.0217393841594  
3.02867698669  -0.0024799357634  0.0  -0.00371990352869  0.0185036435723  0.0215955749154  0.00429035257548  
3.03677892685  -0.00630210433155  0.0  -0.0023521038238  -0.0215955749154  -0.012439626269  -0.0527785271406  
3.04487490654  -0.00600809138268  0.0  -0.00201974133961  -0.00508131133392  -0.0442936979234  0.0463789515197  
3.05296397209  -0.00288899731822  0.0  -0.00502378726378  0.0443656034768  0.0352815613151  -0.0317821651697  
3.06106710434  -0.00176407792605  0.0  -0.00478090671822  -0.0480807125568  -0.0431911498308  0.0300564374775  
3.06922698021  -0.00699239596725  0.0  -0.00242880289443  0.0323813781142  0.0185036435723  -0.0161787047982  
3.07729506493  -0.00357928848825  0.0  -0.0017768611433  -0.0215955749154  -0.0215955749154  -0.0493750087917  
3.08545207977  -0.00203252467327  0.0  -0.00593139231205  0.0185036435723  -0.00385892065242  0.0477930903435  
3.09352707863  -0.00182799377944  0.0  -0.00451246043667  0.00381098361686  0.0421125665307  -0.0431911498308  
3.10161495209  -0.00538171594962  0.0  -0.00418009795249  -0.0440540127456  -0.0480327755213  0.04007524997  
3.10971593857  -0.00250550196506  0.0  -0.00221148901619  0.0422324091196  0.0323813781142  -0.0200136564672  
3.1178278923  -0.00200695823878  0.0  -0.000409061554819  -0.0441498868167  -0.0323813781142  -0.00512924836949  
3.12591600418  -0.00200695823878  0.0  -0.006046440918  0.0259098950773  -0.00397876277566  0.0490394495428  
3.13400006294  -0.001879126532  0.0  -0.00300404569134  -0.0184796750546  0.0043862266466  -0.0435986109078  
3.14208889008  -0.00180242746137  0.0  -0.00184077699669  -0.00419447897002  -0.053833141923  0.0259098950773  
3.15019702911  -0.00180242746137  0.0  -0.00184077699669  0.0049375006929  0.0222666915506  -0.0259098950773  
3.1583969593  -0.00159789668396  0.0  -0.00184077699669  -0.046235140413  -0.0259098950773  0.0162506103516  
3.16642594337  -0.00118883512914  0.0  -0.00189190963283  0.0423043146729  0.0129669317976  0.0473137199879  
3.17451000214  -0.00106100342236  0.0  -0.00329805887304  -0.0431911498308  -0.0399314388633  -0.0482724606991  
3.18261694908  -0.00106100342236  0.0  -0.00329805887304  0.0266529172659  -0.0101626226678  0.0486799217761  
3.19071698189  -0.00196860870346  0.0  -0.00221148901619  -0.0185036435723  0.00445813173428  -0.0215955749154  
3.19880199432  -0.00196860870346  0.0  -0.00149563129526  -0.00508131133392  -0.0228419341147  0.0154596511275  
3.20690894127  -0.00196860870346  0.0  -0.001137702493  0.00376304681413  0.00290018250234  0.0521793179214  
3.21504807472  -0.00149563129526  0.0  -0.000907605339307  -0.0473856255412  -0.0259098950773  -0.0439102016389  
3.22312688828  -0.001137702493  0.0  -0.000613592332229  0.0323574095964  -0.00994690693915  0.0259098950773  
3.23121905327  -0.000907605339307  0.0  -0.000613592332229  -0.0323813781142  -0.00479369005188  -0.0259098950773  
3.23946809769  -0.000766990415286  0.0  -0.0  0.0185036435723  -0.0264611691236  0.0161787047982  
3.24752998352  -0.000651941867545  0.0  -0.0  -0.0143571021035  -0.00680703995749  0.054336477071  
3.25561499596  -0.000575242796913  0.0  -0.0  -0.00441019516438  -0.00469781644642  -0.0491113550961  
3.26371192932  -0.000511326943524  0.0  -0.0  0.0250949673355  -0.0165382307023  0.0431911498308  
3.27181196213  -0.000460194249172  0.0  -0.0  -0.0420406609774  -0.00615989184007  -0.0259098950773  
3.27993297577  -0.000421844713856  0.0  -0.0  0.0343228206038  -0.010761834681  -0.00388288893737  
3.28799104691  -0.000383495207643  0.0  -0.0  -0.0323813781142  -0.0136859854683  0.0558944270015  
3.29611206055  -0.000357928860467  0.0  -0.0  0.0113131087273  0.00222906586714  -0.0406265258789  
3.30418205261  -0.000332362513291  0.0  -0.0  -0.0142132909968  -0.0112891402096  0.0431911498308  
3.31229305267  -0.000306796166115  0.0  -0.0  -0.0449168756604  0.0141413863748  -0.0169456955045  
3.32037711143  -0.000281229818938  0.0  -0.0  0.0464029200375  -0.0292175412178  0.0136380484328  
3.32846999168  -0.000268446630798  0.0  -0.0  -0.0465227626264  0.0143810706213  0.0352815613151  
3.33657002449  -0.000255663471762  0.0  -0.0  0.0180003065616  0.00397876277566  -0.036456014961  
3.34468388557  -0.000242880298174  0.0  -0.0  -0.0185036435723  -0.0368155390024  0.0431911498308  
3.35276889801  -0.000230097124586  0.0  -0.0  -0.00479369005188  0.0404108092189  -0.0215955749154  
3.36086606979  -0.000217313950998  0.0  -0.0  0.00498543772846  -0.0322375670075  0.0155075872317  
3.36896109581  -0.00020453077741  0.0  -0.0  -0.0448210015893  0.0323813781142  0.034850127995  
3.37705993652  -0.000191747603822  0.0  -0.0  0.0414174832404  0.00407463684678  -0.0431911498308  
3.38518595695  -0.000191747603822  0.0  -0.0  -0.0363601408899  -0.0438382960856  0.0323813781142  
3.39325904846  -0.000178964430233  0.0  -0.0  0.0161787047982  0.0430713072419  -0.0221228804439  
3.40134501457  -0.000178964430233  0.0  -0.0  -0.0167779158801  -0.0414414517581  -0.0338434539735  
3.40953803062  -0.000166181256645  0.0  -0.0  -0.00347542529926  0.0406025573611  0.0476492792368  
3.41757488251  -0.000166181256645  0.0  -0.0  0.0392603240907  -0.0176647473127  -0.0323813781142  
3.42563796043  -0.000153398083057  0.0  -0.0  -0.0405546203256  -0.00388288893737  0.0259098950773  
3.43375992775  -0.000153398083057  0.0  -0.0  0.0323813781142  0.0470261014998  0.00412257341668  
3.44184088707  -0.000140614909469  0.0  -0.0  -0.0215955749154  -0.0434068627656  -0.0537852048874  
3.44997811317  -0.000140614909469  0.0  -0.0  0.0161787047982  0.0323813781142  0.0431911498308  
3.45807504654  0.0  0.0  -0.0  -0.0143810706213  -0.0185036435723  -0.0185036435723  
3.46619606018  0.0  0.0  -0.0  0.0259098950773  -0.00431432109326  0.0161787047982  
3.47427606583  0.0  0.0  -0.0  0.00512924836949  0.0471219755709  -0.0259098950773  
3.48248696327  0.0  0.0  -0.0  -0.0435506738722  -0.0475294366479  0.0323813781142  
3.4904229641  0.0  0.0  -0.0  0.0467384792864  0.0391884185374  -0.0203492138535  
3.49850296974  0.0  0.0  -0.0  -0.0424481257796  -0.0323813781142  -0.0352815613151  
3.50659203529  0.0  0.0  -0.0  0.0311350170523  -0.0044341632165  0.0495188198984  
3.51470303535  0.0  0.0  -0.0  -0.0215955749154  0.0285943616182  -0.0488477014005  
3.52278709412  0.0  0.0  -0.0  0.0185036435723  -0.044749096036  0.0323813781142  
3.53085589409  0.0  0.0  -0.0  -0.0161787047982  0.0339872613549  -0.0113370772451  
3.53894305229  0.0  0.0  -0.0  -0.015986956656  -0.00587227055803  0.0509569272399  
3.54701590538  0.0  0.0  -0.0  0.0135182058439  0.0322615355253  -0.0401231870055  
3.55507588387  0.0  0.0  -0.0  -0.0143810706213  -0.0474814996123  0.0259098950773  
3.56313705444  0.0  0.0  0.000472977408208  -0.00512924836949  0.0419927239418  0.0044341632165  
3.57120394707  0.0  0.0  0.000472977408208  -0.0127512160689  -0.0185036435723  -0.0512205809355  
3.57934188843  0.0  0.0  0.000472977408208  -0.0440300442278  0.011241203174  0.0471699126065  
3.58733105659  0.0  0.0  0.00131666683592  -0.00901213753968  -0.0135901113972  -0.0215955749154  
3.59542703629  0.0  0.0  0.00131666683592  -0.0414174832404  -0.0355931483209  0.0142372595146  
3.60349011421  0.0  0.0  0.00131666683592  -0.0145488493145  0.0277794338763  0.033795516938  
3.61157393456  0.0  0.0  0.00131666683592  -0.0565176084638  -0.0431911498308  -0.0472657866776  
3.61966609955  0.0  0.0  0.00108656974044  0.0282827727497  0.0259098950773  0.0431911498308  
3.62777495384  0.0  0.0  0.000882038963027  -0.0528024956584  -0.0259098950773  -0.0185036435723  
3.63587188721  0.0  0.0  0.000805339950603  0.0234171766788  0.0166101362556  0.0185036435723  
3.64400196075  0.0  0.0  0.00433349562809  -0.0393322259188  0.004050668329  0.0331963039935  
3.65210103989  0.0  0.0  0.00327249243855  0.0215955749154  -0.0499023161829  -0.0374866575003  
3.66020703316  0.0  0.0  0.00193025916815  -0.0161787047982  0.029888657853  0.0431911498308  
3.66829705238  0.0  0.0  0.00136779958848  0.0161787047982  -0.0323813781142  -0.0336037687957  
3.67644309998  0.0  0.0  0.00106100342236  -0.0161787047982  0.0190549176186  -0.00484162708744  
3.68448400497  0.0  0.0  0.00106100342236  -0.00378701533191  -0.0185036435723  0.0521553494036  
3.69257187843  0.0  0.0  0.00239045335911  -0.0105700865388  -0.0365518890321  -0.0402430295944  
3.70066094398  0.0  0.0  0.00239045335911  -0.02940928936  0.0354493372142  0.0323813781142  
3.70874500275  0.0  0.0  0.0023521038238  0.00517718540505  -0.0431911498308  0.00671116635203  
3.71684908867  0.0  0.0  0.00155954714864  -0.0454681515694  0.0260297376662  -0.0300564374775  
3.72495889664  0.0  0.0  0.0011760519119  0.0341071039438  -0.0390446074307  0.0457078367472  
3.73309206963  0.0  0.0  0.00093317165738  -0.0323813781142  0.0259098950773  -0.0407223962247  
3.74123311043  0.0  0.0  0.000575242796913  0.0133504271507  -0.0154117140919  0.0185036435723  
3.74928593636  0.0  0.0  0.000575242796913  -0.0259098950773  -0.00381098361686  0.00388288893737  
3.75742101669  0.0  0.0  0.000575242796913  0.0178085584193  0.0317581966519  -0.0313747003675  
3.76543688774  -0.000894822122063  0.0  0.000575242796913  0.0042184474878  -0.0376544371247  0.0420646294951  
3.77351689339  -0.000894822122063  0.0  -0.0011760519119  -0.0466186366975  0.0404587462544  -0.0259098950773  
3.78160691261  -0.00286343088374  0.000805339950603  -0.0011760519119  0.0322855040431  -0.0259098950773  0.0185036435723  
3.78970789909  -0.00286343088374  0.000805339950603  -0.0011760519119  -0.0431911498308  0.016897758469  0.0557026788592  
3.79777002335  -0.00182799377944  0.000805339950603  -0.0011760519119  0.0231295544654  0.00359526765533  -0.0484402403235  
3.8058950901  -0.00154676404782  0.00166181253735  -0.00120161834639  -0.0215955749154  -0.0442457608879  0.0431911498308  
3.81403589249  -0.00154676404782  0.00166181253735  -0.00120161834639  0.0166580732912  0.0323813781142  -0.0215955749154  
3.82213401794  -0.00287621398456  0.00166181253735  -0.00331084197387  -0.0416092313826  -0.0259098950773  0.0167060103267  
3.83022999763  -0.00306796166115  0.00141893222462  -0.00414174841717  0.0185755491257  0.0143571021035  0.0446771904826  
3.83829307556  -0.00368155399337  0.00136779958848  -0.00300404569134  -0.0341550409794  -0.0105221495032  -0.0322135984898  
3.84640789032  -0.00368155399337  0.00267168320715  -0.00182799377944  0.0237047970295  -0.00364320445806  0.0388288907707  
3.85445404053  -0.00296569615602  0.00267168320715  -0.00168737885542  -0.0277554653585  0.0633725821972  0.00474575348198  
3.86254191399  -0.00296569615602  0.00370712042786  -0.00608479045331  0.00755006214604  -0.00359526765533  -0.0482964292169  
3.87060499191  -0.00203252467327  0.00250550196506  -0.00418009795249  -0.0280670560896  0.0432390868664  0.0524669401348  
3.87870788574  -0.00922945141792  0.00171294528991  -0.00221148901619  0.0108816763386  -0.0211401730776  -0.0192706342787  
3.88677310944  -0.00382216880098  0.00171294528991  -0.00170016207267  -0.0134702697396  0.0278034023941  0.00414654193446  
3.89486002922  -0.00122718466446  0.00232653762214  -0.00857750978321  0.0149802817032  -0.00457797432318  -0.0428555905819  
3.90295100212  -0.0113131087273  0.00232653762214  -0.00336197461002  -0.0259098950773  0.0215955749154  0.0323813781142  
3.91109991074  -0.00388608477078  0.00227540498599  -0.00336197461002  0.00910801161081  0.00994690693915  -0.0259098950773  
3.9191570282  -0.00388608477078  0.00219870591536  -0.000869255803991  -0.0185036435723  0.0396677851677  -0.00400273129344  
3.92723798752  -0.00755485566333  0.00274838227779  -0.00396278360859  0.0116966040805  0.0127512160689  0.0386611111462  
3.93541789055  -0.0062765381299  0.00274838227779  -0.00631488766521  -0.0191747602075  0.0421365350485  -0.049231197685  
3.94349694252  -0.00428236322477  0.00208365730941  -0.0027867318131  -0.025837989524  0.0107858031988  0.0323813781142  
3.95156288147  -0.00311909429729  0.00144449865911  -0.00175129482523  -0.0164183881134  0.0343467891216  -0.0134942373261  
3.95966100693  -0.00628932146356  0.00134223327041  -0.00163624621928  -0.0444375090301  0.0117685096338  -0.0280910246074  
3.96774601936  -0.00538171594962  0.00452524330467  -0.00329805887304  0.00347542529926  0.0429754331708  0.0455400571227  
3.97583389282  -0.00250550196506  0.0027867318131  -0.00589304277673  -0.0485121458769  0.0117685096338  -0.0472897551954  
3.98395895958  -0.00194304238539  0.0  -0.00288899731822  0.00359526765533  0.0431911498308  0.0259098950773  
3.99208903313  -0.00958738010377  0.0039883502759  -0.00178964424413  -0.0442936979234  0.0155075872317  -0.015771239996  
4.00017499924  -0.00327249243855  0.00357928848825  -0.0012783173006  -0.00994690693915  0.0323813781142  -0.0478170588613  
4.00834608078  0.0  0.00357928848825  -0.0012783173006  0.0  0.0156513992697  0.0432630553842  
4.01644992828  -0.00807896535844  0.00208365730941  -0.0043718451634  -0.0215236693621  0.0279711820185  -0.0215955749154  
4.02452898026  -0.00442297803238  0.0  -0.00250550196506  -0.00615989184007  0.0127991531044  0.0161787047982  
4.03261709213  0.000869255803991  0.0  -0.00163624621928  -0.0267248228192  0.029672941193  0.00431432109326  
4.04071807861  -0.00804061628878  0.000613592332229  -0.00121440144721  -0.00807736814022  0.012918994762  -0.0508131161332  
4.04878091812  -0.00357928848825  0.000613592332229  -0.00095873803366  -0.0331963039935  0.0218592267483  0.038133803755  
4.05687904358  -0.00203252467327  0.000613592332229  -0.000945954816416  -0.0107858031988  0.00848483201116  -0.0215955749154  
4.0649960041  -0.00141893222462  0.00134223327041  -0.000945954816416  -0.00544083816931  0.0258140210062  -0.0276595912874  
4.07308006287  -0.00108656974044  0.00134223327041  -0.000945954816416  -0.0161307677627  0.00680703995749  0.0375345945358  
4.08119010925  -0.00108656974044  0.00134223327041  -0.000945954816416  0.0  0.0350179076195  -0.0505015254021  
4.08942604065  -0.00258220103569  0.00134223327041  -0.000945954816416  -0.0221708174795  0.00680703995749  0.0259098950773  
4.09746789932  -0.00258220103569  0.00112491927575  -0.000792556733359  -0.00807736814022  0.0181680861861  -0.0205649305135  
4.10550808907  -0.00178964424413  0.0  -0.000677508185618  -0.0327169336379  0.0101626226678  -0.00611195480451  
4.11363005638  -0.00129110051785  0.0  -0.000588025955949  -0.0107858031988  0.00615989184007  0.047841027379  
4.12173104286  -0.0010098706698  0.0  -0.00052411010256  -0.00414654193446  0.0191028546542  -0.0431911498308  
4.12982606888  -0.000830906268675  0.0  -0.000472977408208  -0.0129429632798  -0.0141893224791  0.0259098950773  
4.13794589043  -0.000178964430233  0.0  -0.000421844713856  -0.00359526765533  0.0466426052153  -0.0199417509139  
4.14604592323  -0.00447411090136  0.0  -0.000383495207643  -0.0215955749154  -0.0271083172411  -0.0378941223025  
4.15420293808  -0.00682621449232  0.0  -0.000357928860467  0.00203731842339  0.0323813781142  0.0403628721833  
4.1622800827  0.000818123109639  0.0  -0.000332362513291  -0.0305358059704  -0.0185036435723  -0.0431911498308  
4.17040491104  -0.0106611670926  0.0  -0.000306796166115  -0.00647148163989  0.0122718466446  0.0259098950773  
4.17850089073  -0.00470420764759  0.0  -0.000294012977974  -0.0172333158553  0.0518437586725  -0.0135661428794  
4.18658590317  -0.00258220103569  0.0  -0.000268446630798  -0.00870054773986  -0.0339393280447  -0.0349939391017  
4.19468808174  -0.00706909503788  0.0  -0.000255663471762  -0.00807736814022  0.0454921200871  0.046019423753  
4.20278501511  -0.00363042135723  0.0  -0.000242880298174  -0.012152004987  -0.0189111083746  -0.0431911498308  
4.21084499359  -0.0084624607116  0.0  -0.000230097124586  -0.00925182178617  0.0171374417841  0.0215955749154  
4.21894693375  -0.00470420764759  0.0  -0.000217313950998  -0.0183598324656  0.0499023161829  -0.0259098950773  
4.22706794739  -0.0123357623816  0.0  -0.00020453077741  -0.00309193017893  0.0318780392408  0.0382296778262  
4.23509502411  -0.0033875410445  0.0  -0.000191747603822  -0.013901701197  -0.00333161465824  -0.0424241572618  
4.2431230545  -0.010584468022  0.0  -0.000178964430233  -0.0316862910986  0.0274199079722  0.0259098950773  
4.25121903419  -0.00685178115964  0.0  -0.000178964430233  0.0042184474878  0.0117685096338  -0.0131586799398  
4.25932788849  -0.00290178041905  0.0  -0.000166181256645  -0.0479369014502  -0.00783768296242  -0.0367436334491  
4.26744794846  -0.00988139305264  0.0  -0.000166181256645  0.0265810117126  0.0185036435723  0.0486319884658  
4.27553701401  -0.00389886787161  0.0  -0.000153398083057  -0.0455640256405  0.0261016432196  -0.0394280999899  
4.28363490105  -0.00125275098253  0.0  -0.000153398083057  0.0240643247962  -0.00335558317602  0.0431911498308  
4.29172492027  -0.00749093946069  0.0  -0.000140614909469  -0.0323813781142  -0.00728640891612  -0.0193665083498  
4.29985404015  -0.00502378726378  0.0  -0.000140614909469  0.0187912657857  0.0118404142559  -0.0329086817801  
4.30793809891  -0.00242880289443  0.0  -0.000140614909469  -0.0323813781142  0.0477691218257  0.049231197685  
4.31606006622  -0.006787864957  0.0  -0.000127831735881  0.0145009122789  -0.0368155390024  -0.0450367182493  
4.32414698601  -0.00375825306401  0.0  -0.000127831735881  -0.0395479425788  0.0269884746522  0.0259098950773  
4.33224701881  -0.00231375452131  0.0  -0.000127831735881  0.00270843482576  -0.0215955749154  -0.0185036435723  
4.34041190147  -0.0062765381299  0.0  -0.000115048562293  -0.0335078947246  0.0125834364444  -0.00402669981122  
4.34848189354  -0.00313187739812  0.0  -0.000115048562293  0.00292415102012  0.0370312556624  0.0505254939198  
4.35656905174  -0.001879126532  0.0  -0.000115048562293  -0.0360485501587  -0.0295051634312  -0.0421365350485  
4.3646569252  -0.00180242746137  0.0  -0.000115048562293  -0.00719053531066  0.0457797423005  0.0239444822073  
4.37274289131  -0.00397556694224  0.0  -0.000115048562293  -0.0391884185374  -0.0425439998507  -0.0124156577513  
4.38085889816  -0.0027867318131  0.0  -0.000102265388705  -0.0139736067504  0.0259098950773  -0.0327409021556  
4.38894891739  -0.00175129482523  0.0  -0.000102265388705  -0.0400033444166  0.0501659661531  0.0454202145338  
4.3970489502  -0.0015084145125  0.0  -0.000102265388705  -0.0242081359029  -0.0383734889328  -0.0323813781142  
4.40515398979  -0.00340032414533  0.0  -0.000102265388705  -0.0319020077586  0.0488716699183  0.0165621992201  
4.41324806213  -0.00340032414533  0.0  -0.000102265388705  -0.023608924821  -0.021787321195  0.049662631005  
4.42135500908  -0.00214757304639  0.0  -8.94822151167e-05  -0.0284265819937  -0.0324532836676  -0.0482245236635  
4.42945194244  0.0  0.0  -8.94822151167e-05  -0.0290018245578  0.0477930903435  0.0336996428668  
4.43750691414  -0.00322135980241  0.0  -8.94822151167e-05  -0.0261495802552  -0.0311350170523  -0.019342539832  
4.44557499886  -0.00322135980241  0.0  -8.94822151167e-05  -0.0312308911234  0.0197020657361  0.0128950262442  
4.4536318779  -0.00198139180429  0.0  -8.94822151167e-05  -0.0288580153137  -0.0144290076569  0.0501180291176  
4.46174907684  -0.00139336590655  0.0  -8.94822151167e-05  -0.0287621412426  -0.0348740965128  -0.0481286495924  
4.46983504295  -0.00107378652319  0.0  -7.66990415286e-05  -0.026533074677  0.0482724606991  0.0431911498308  
4.47792696953  -0.000869255803991  0.0  -7.66990415286e-05  -0.0247354414314  -0.0499023161829  -0.018647454679  
4.48599410057  -0.00072864087997  0.0  -7.66990415286e-05  -0.0285224560648  0.0185036435723  0.0145728178322  
4.49408602715  -0.000626375491265  0.0  -7.66990415286e-05  -0.0192226972431  -0.0215955749154  0.0339393280447  
4.50222301483  -0.000562459637877  0.0  -7.66990415286e-05  -0.0280430875719  0.0259098950773  0.0089881690219  
4.51027798653  -0.000498543784488  0.0  -7.66990415286e-05  -0.0208046156913  -0.0185036435723  -0.00870054773986  
4.51841402054  -0.000447411061032  0.0  -7.66990415286e-05  -0.02701244317  -0.00402669981122  0.00903610605747  
4.52652597427  -0.000409061554819  0.0  -7.66990415286e-05  -0.0186714231968  0.053713299334  0.0452284663916  
4.53462696075  -0.000370712019503  0.0  -7.66990415286e-05  -0.0228419341147  -0.0427597165108  -0.0458037108183  
4.5427570343  -0.000345145672327  0.0  -6.39158679405e-05  -0.0180482435971  0.0185036435723  0.0431911498308  
4.55084300041  -0.000319579325151  0.0  -6.39158679405e-05  -0.0169936306775  -0.0215955749154  0.00570449139923  
4.55897593498  -0.000294012977974  0.0  -6.39158679405e-05  -0.0167299788445  -0.0289538893849  -0.0506693050265  
4.56712007523  -0.000281229818938  0.0  -6.39158679405e-05  -0.011936288327  0.0523231290281  0.0485361143947  
4.57520890236  -0.000268446630798  0.0  -6.39158679405e-05  -0.0185755491257  -0.0302481856197  -0.0410579554737  
4.58342790604  -0.000255663471762  0.0  -6.39158679405e-05  -0.0115527929738  0.0323813781142  0.0215955749154  
4.59152603149  -0.000242880298174  0.0  -6.39158679405e-05  -0.00707069318742  -0.0112651716918  0.0359766446054  
4.5996260643  -0.000230097124586  0.0  -6.39158679405e-05  -0.0185036435723  0.0132785215974  -0.0505734309554  
4.60771989822  -0.000217313950998  0.0  -6.39158679405e-05  -0.00563258584589  0.0502618402243  0.0343707576394  
4.61581587791  -0.00020453077741  0.0  -6.39158679405e-05  -0.0126074049622  -0.0312308911234  -0.0259098950773  
4.62392497063  -0.000191747603822  0.0  -6.39158679405e-05  -0.0107858031988  0.0323813781142  0.017736652866  
4.63205504417  -0.000191747603822  0.0  -6.39158679405e-05  0.0  -0.0185036435723  0.0332921780646  
4.64018297195  -0.000178964430233  0.0  -5.11326943524e-05  -0.00997087545693  0.0259098950773  -0.0485121458769  
4.64828109741  -0.000166181256645  0.0  -5.11326943524e-05  -0.00635163951665  0.0299365948886  0.0259098950773  
4.65639996529  -0.000166181256645  0.0  -5.11326943524e-05  0.00520115392283  -0.0273719709367  -0.0153158400208  
4.66445398331  0.0  0.0  -5.11326943524e-05  -0.00980309676379  0.0444614775479  0.0123916892335  
4.67254090309  0.0  0.0  -5.11326943524e-05  -0.00580036500469  -0.0210682675242  0.0359526760876  
4.68060302734  0.0  0.0  -5.11326943524e-05  0.0107858031988  0.0425439998507  -0.0464987941086  
4.68869400024  0.0  0.0  -5.11326943524e-05  -0.0127032790333  -0.0221947859973  0.0323813781142  
4.69677710533  0.0  0.0  -5.11326943524e-05  -0.00354733061977  0.0259098950773  -0.0176407806575  
4.70490002632  0.0  0.0  -5.11326943524e-05  0.0347542539239  0.00601608119905  -0.0292415097356  
4.71296000481  0.0  0.0  -5.11326943524e-05  -0.0397876277566  0.0215955749154  0.0355212427676  
4.72106099129  0.0  0.0  -5.11326943524e-05  0.0423282831907  -0.00795752555132  -0.0448449701071  
4.72915506363  0.0  0.0  -5.11326943524e-05  -0.0397157222033  -0.00328367785551  0.0259098950773  
4.73725199699  0.0  0.0  -5.11326943524e-05  0.0394280999899  0.0434787683189  -0.0181920547038  
4.74545001984  0.000191747603822  0.0  -5.11326943524e-05  -0.0259098950773  -0.00383495213464  0.0161787047982  
4.75347805023  0.000191747603822  0.0  -5.11326943524e-05  0.0304878689349  0.047625310719  -0.0259098950773  
4.76160693169  0.0  0.0  -5.11326943524e-05  -0.0161787047982  -0.00306796166115  0.0185036435723  
4.7696928978  0.0  0.0  -5.11326943524e-05  -0.00357129913755  0.0429754331708  0.00431432109326  
4.77779507637  0.0  0.0  -5.11326943524e-05  0.0371750667691  -0.0183118972927  -0.0527305901051  
4.78585505486  0.0  0.0  -5.11326943524e-05  -0.0272760968655  0.034634411335  0.041896853596  
4.79397797585  0.0  0.0  -3.83495207643e-05  0.0419927239418  -0.0237287655473  -0.0259098950773  
4.80210995674  0.0  0.0  -3.83495207643e-05  -0.0239205136895  0.0185036435723  0.0200855620205  
4.81019091606  0.0  0.0  -3.83495207643e-05  0.0323813781142  0.0568291954696  0.0374147519469  
4.81825399399  0.0  0.0  -3.83495207643e-05  -0.031063111499  -0.0225063748658  -0.0423522517085  
4.82631993294  0.0  0.0  -3.83495207643e-05  0.0199177823961  0.0458995848894  0.0323813781142  
4.83439493179  0.0  0.0  -3.83495207643e-05  0.00436225812882  -0.0271562542766  -0.0179044324905  
4.84247303009  0.0  0.0  -3.83495207643e-05  -0.00385892065242  0.0347063168883  -0.0341550409794  
4.85055708885  0.0  0.0  -3.83495207643e-05  0.0467624478042  -0.00412257341668  0.0478649958968  
4.85862088203  0.0  0.0  -3.83495207643e-05  -0.0276835598052  0.0278992764652  -0.0431911498308  
4.86670899391  0.0  0.0  -3.83495207643e-05  0.0323813781142  -0.0109296133742  0.0170655362308  
4.87483096123  0.0  0.0  -3.83495207643e-05  -0.0161787047982  0.0215955749154  -0.022482406348  
4.88292598724  0.0  0.0  -3.83495207643e-05  0.0161787047982  -0.0135661428794  0.0392363555729  
4.89098596573  0.0  0.0  -3.83495207643e-05  0.0122958151624  -0.00397876277566  0.0232493970543  
4.89905905724  0.0  0.0  -3.83495207643e-05  -0.00961134862155  0.0215955749154  0.0321177244186  
4.90711402893  0.0  0.0  -3.83495207643e-05  -0.0244238507003  0.00925182178617  -0.0385892055929  
4.91517996788  0.0  0.0  -3.83495207643e-05  0.0410339869559  0.0341071039438  0.02744387649  
4.9232609272  0.0  0.0  -3.83495207643e-05  -0.0322615355253  -0.00429035257548  -0.0259098950773  
4.93134307861  0.0  0.0  -3.83495207643e-05  0.0392123870552  0.0404347777367  0.0215955749154  
4.93943691254  0.0  0.0  -3.83495207643e-05  -0.0323813781142  -0.0218592267483  -0.0335558317602  
4.94752407074  0.0  0.0  -3.83495207643e-05  0.0192706342787  0.0431911498308  0.0215236693621  
4.95561599731  0.0  0.0  -3.83495207643e-05  0.00357129913755  -0.0185036435723  0.00680703995749  
4.96371603012  0.0  0.0  -3.83495207643e-05  -0.0277075283229  0.0143810706213  -0.0485840514302  
4.97181200981  0.0  0.0  -3.83495207643e-05  0.0443895719945  -0.013901701197  0.0460673607886  
4.97990608215  0.0  0.0  -3.83495207643e-05  -0.00364320445806  -0.00553671224043  -0.0174490325153  
4.98801088333  0.0  0.0  -3.83495207643e-05  -0.00925182178617  0.0430233702064  -0.0322375670075  
4.99611902237  0.0  0.0  -3.83495207643e-05  0.0175209380686  -0.0259098950773  0.0436225794256  
5.00426292419  0.0  0.0  -3.83495207643e-05  -0.0185036435723  0.0323813781142  -0.0520834438503  
5.01243305206  0.0  0.0  -3.83495207643e-05  0.0215955749154  -0.0236568599939  0.0323813781142  
5.02046608925  0.0  0.0  -3.83495207643e-05  -0.012918994762  0.00975515972823  -0.0208765212446  
5.02850604057  0.0  0.0  -2.55663471762e-05  0.0161787047982  0.00448210025206  -0.0397636592388  
5.0365960598  0.0  0.0  -2.55663471762e-05  0.00613592332229  -0.0447251275182  0.0492551662028  
5.04468393326  0.0  0.0  -2.55663471762e-05  -0.0406504906714  0.0463070459664  -0.0401711240411  
5.05278801918  0.0  0.0  -2.55663471762e-05  0.0486319884658  -0.0431911498308  0.0323813781142  
5.06091403961  0.0  0.0  -2.55663471762e-05  -0.0406025573611  0.0259098950773  -0.0199177823961  
5.06900906563  0.0  0.0  -2.55663471762e-05  0.0323813781142  -0.021643511951  -0.0313986688852  
5.07713007927  0.0  0.0  -2.55663471762e-05  -0.0161787047982  -0.0502139031887  0.0407463647425  
5.08525705338  0.0  0.0  -2.55663471762e-05  0.0189830139279  0.0295291319489  -0.0431911498308  
5.09345006943  0.0  0.0  -2.55663471762e-05  0.00395479425788  -0.0404347777367  0.0191028546542  
5.10153198242  0.0  0.0  -2.55663471762e-05  -0.0368874445558  0.0259098950773  -0.0114329513162  
5.10963392258  0.0  0.0  -2.55663471762e-05  0.0414414517581  -0.0185036435723  -0.050285808742  
5.11772298813  0.0  0.0  -2.55663471762e-05  -0.0412736721337  0.0149323446676  0.0389966703951  
5.12582206726  0.0  0.0  -2.55663471762e-05  0.037079192698  -0.018863171339  -0.0423043146729  
5.1339058876  0.000102265388705  0.0  -2.55663471762e-05  -0.0215955749154  -0.0575961880386  0.0185036435723  
5.14200901985  0.000102265388705  0.0  -2.55663471762e-05  0.00997087545693  0.0203731823713  0.0295531004667  
5.15014195442  0.000102265388705  0.0  -2.55663471762e-05  -0.0152199659497  -0.0476492792368  -0.0444854460657  
5.15823698044  0.000102265388705  0.0  -2.55663471762e-05  -0.00364320445806  0.0217393841594  0.0431911498308  
5.16642904282  0.000102265388705  0.0  -2.55663471762e-05  0.041896853596  -0.0390446074307  -0.0176407806575  
5.17448997498  0.000102265388705  0.0  -2.55663471762e-05  -0.0384933315217  0.0145009122789  0.0139496382326  
5.18258094788  0.000102265388705  0.0  -2.55663471762e-05  0.0290976986289  -0.0380379296839  0.0325731262565  
5.19068908691  0.000102265388705  0.0  -2.55663471762e-05  -0.0302002485842  0.0022770029027  -0.0421605035663  
5.19877409935  0.000102265388705  0.0  -2.55663471762e-05  0.0259098950773  -0.0323813781142  0.0323813781142  
5.20686006546  0.000102265388705  0.0  -2.55663471762e-05  0.00436225812882  -0.00321177230217  -0.0215955749154  
5.21492290497  0.0  0.0  -2.55663471762e-05  -0.0453243404627  -0.0215955749154  -0.00431432109326  
5.22298502922  0.0  0.0  -2.55663471762e-05  0.0395958796144  -0.00860467366874  0.0457318052649  
5.2310628891  0.0  0.0  -2.55663471762e-05  -0.0355212427676  -0.0215955749154  -0.0431911498308  
5.23913598061  0.0  0.0  -2.55663471762e-05  0.0323813781142  -0.0107858031988  0.0259098950773  
5.24717998505  0.0  0.0  -2.55663471762e-05  -0.0297448467463  -0.0337715484202  -0.0134223327041  
5.25530004501  0.0  0.0  -2.55663471762e-05  0.0323813781142  -0.00994690693915  -0.00371510977857  
5.26343798637  0.0  0.0  -2.55663471762e-05  0.00524909049273  -0.0315904170275  0.0530182123184  
5.27156496048  0.0  0.0  -2.55663471762e-05  -0.00536893308163  -0.0161787047982  -0.0495907254517  
5.27959108353  0.0  0.0  -2.55663471762e-05  0.0406744591892  0.0  0.0323813781142  
5.28768706322  0.0  0.0  -2.55663471762e-05  -0.0369353815913  -0.0215955749154  -0.0183118972927  
5.29577803612  0.0  0.0  -2.55663471762e-05  0.037079192698  -0.00994690693915  0.010546118021  
5.3038380146  0.0  0.0  -2.55663471762e-05  -0.0343707576394  -0.0312788300216  0.0522991605103  
5.3119699955  0.0  0.0  -2.55663471762e-05  0.0215955749154  -0.00985103286803  -0.0431911498308  
5.32009291649  0.0  0.0  -2.55663471762e-05  0.0044341632165  -0.0360964871943  0.0215955749154  
5.32819509506  0.0  0.0  -2.55663471762e-05  -0.0448689386249  -0.00925182178617  -0.0185036435723  
5.3362929821  0.0  0.0  -2.55663471762e-05  0.048392303288  -0.0193185713142  -0.0040986048989  
5.34441399574  0.0  0.0  -2.55663471762e-05  -0.0373188778758  -0.00925182178617  0.050837084651  
5.35250711441  0.0  0.0  -2.55663471762e-05  0.0290737301111  -0.00436225812882  -0.0435027368367  
5.3605670929  0.0  0.0  -2.55663471762e-05  -0.0259098950773  -0.0153398085386  0.0236328933388  
5.36865711212  0.0  0.0  -2.55663471762e-05  0.010953581892  -0.00862864218652  -0.0115767614916  
5.37674307823  0.0  0.0  -2.55663471762e-05  0.00400273129344  0.0  -0.0327648706734  
5.38486599922  0.0  0.0  -2.55663471762e-05  0.0143810706213  -0.0194863509387  0.055942364037  
5.39293694496  0.0  0.0  -2.55663471762e-05  -0.0161787047982  0.00352336233482  -0.0259098950773  
5.40105509758  0.0  0.0  -2.55663471762e-05  0.0110254874453  -0.0215955749154  0.0153637770563  
5.40920901299  0.0  0.0  -2.55663471762e-05  -0.0143810706213  0.0174490325153  0.036024581641  
5.41731309891  0.0  0.0  -2.55663471762e-05  -0.00577639648691  -0.0185036435723  -0.0487038902938  
5.4254128933  0.0  0.0  -2.55663471762e-05  0.0396917536855  -0.00364320445806  0.0431911498308  
5.43350696564  0.0  0.0  -2.55663471762e-05  -0.0348980650306  0.0324532836676  -0.0259098950773  
5.44155406952  5.11326943524e-05  0.0  -2.55663471762e-05  0.0426878109574  -0.0510767698288  -0.00412257341668  
5.44965100288  5.11326943524e-05  0.0  -2.55663471762e-05  -0.0297927837819  0.0215955749154  0.0382776148617  
5.45774006844  0.00196860870346  0.0  -2.55663471762e-05  0.0263413265347  -0.0170655362308  -0.0527066215873  
5.46584391594  0.00196860870346  0.0  -2.55663471762e-05  -0.0259098950773  -0.00496146921068  0.0259098950773  
5.47395205498  0.00196860870346  0.0  -2.55663471762e-05  0.011241203174  0.0318061336875  -0.0154836196452  
5.48204493523  0.00155954714864  0.0  -2.55663471762e-05  0.00361923617311  -0.0578358732164  -0.0293134152889  
5.49014401436  0.00148284807801  0.0  -2.55663471762e-05  -0.0356410853565  0.0259098950773  0.0407943017781  
5.49824500084  0.00148284807801  0.0  -2.55663471762e-05  0.0374147519469  -0.0118404142559  -0.0431911498308  
5.50633502007  0.00249271886423  0.0  -2.55663471762e-05  -0.0375585630536  0.0107138976455  0.0259098950773  
5.51447892189  0.00242880289443  0.0  -2.55663471762e-05  0.0190309491009  -0.0104023078457  -0.0259098950773  
5.52256393433  0.00212200684473  0.0  -2.55663471762e-05  -0.0129429632798  -0.0359766446054  -0.00388288893737  
5.53064489365  0.00414174841717  0.0  -1.27831735881e-05  0.0215955749154  0.00453003728762  0.0556068047881  
5.5387430191  0.00288899731822  0.0  -1.27831735881e-05  0.00328367785551  -0.0474335625768  -0.0431911498308  
5.54683804512  0.00178964424413  0.0  -1.27831735881e-05  -0.0335078947246  0.0323813781142  0.0259098950773  
5.55492711067  0.00158511346672  0.0  -1.27831735881e-05  0.038469363004  -0.0215955749154  -0.0215955749154  
5.56306600571  0.00294012995437  0.0  -1.27831735881e-05  0.0259098950773  -0.0185036435723  0.0493989773095  
5.57116889954  0.000766990415286  0.0  -1.27831735881e-05  -0.0323813781142  0.0123916892335  -0.0424720942974  
5.57920193672  0.000766990415286  0.0  -1.27831735881e-05  0.0161787047982  -0.0143810706213  0.0215955749154  
5.58726906776  0.0036943370942  0.0  -0.0  -0.0185036435723  0.0174250639975  -0.0204930249602  
5.5953400135  0.00430792942643  0.0  -0.0  0.0111213615164  -0.0185036435723  0.0116486670449  
5.60343790054  0.0  0.0  -0.0  0.00371510977857  0.018287928775  0.0357848964632  
5.61153793335  0.00461472570896  0.0  0.00131666683592  -0.0402430295944  -0.0259098950773  -0.0424481257796  
5.61962103844  0.00447411090136  0.0  0.00131666683592  0.0343707576394  -0.00373907829635  0.0323813781142  
5.62770795822  0.00396278360859  0.0  0.00131666683592  -0.0215955749154  0.00424241600558  -0.0156513992697  
5.63580203056  0.00214757304639  0.0  0.00131666683592  0.0298646893352  -0.0590103268623  -0.00565655436367  
5.6438639164  0.00147006497718  0.0  0.0011760519119  -0.0100907180458  0.0287381727248  0.053497582674  
5.6519510746  0.00112491927575  0.0  0.000997087568976  0.0161787047982  -0.0323813781142  -0.0431911498308  
5.66003704071  0.000230097124586  0.0  0.000997087568976  0.00613592332229  0.0206368360668  0.0259098950773  
5.66813588142  0.000230097124586  0.0  0.003016829025  -0.0401231870055  -0.0323813781142  -0.0203492138535  
5.67619800568  0.00294012995437  0.0  0.0027867318131  0.0414414517581  0.0118164466694  -0.0390925444663  
5.6843380928  0.00294012995437  0.0  0.00175129482523  -0.0363841094077  -0.0102345282212  0.0499742180109  
5.69249010086  0.001879126532  0.0  0.00126553419977  0.0393801629543  -0.0321656614542  -0.0370072871447  
5.70056509972  0.00134223327041  0.0  0.0010098706698  -0.0322375670075  0.00565655436367  0.0173052214086  
5.70865297318  0.00103543710429  0.0  0.00570129556581  -0.00424241600558  -0.0501659661531  0.037846185267  
5.71675491333  0.000856472644955  0.0  0.00375825306401  0.0402669981122  0.0259098950773  -0.0360485501587  
5.72484087944  0.000715857720934  0.0  0.00208365730941  -0.0399793758988  -0.0323813781142  0.0431911498308  
5.73295807838  0.000639158650301  0.0  0.00144449865911  0.0399554073811  0.0176887158304  -0.0215955749154  
5.74109101295  0.000639158650301  0.0  0.00109935295768  -0.0352815613151  0.0040986048989  0.0128710577264  
5.74922609329  0.000639158650301  0.0  0.00103543710429  0.0359287075698  -0.0502378717065  0.0497345365584  
5.75734591484  0.000639158650301  0.0  0.00502378726378  -0.0215955749154  0.0323813781142  -0.0485121458769  
5.76542401314  0.000639158650301  0.0  0.00242880289443  0.0144050391391  -0.0353534631431  0.0431911498308  
5.77352404594  0.000639158650301  0.0  0.00159789668396  -0.00989896990359  0.0135421743616  -0.0215955749154  
5.78157806396  0.000639158650301  0.0  0.00118883512914  -0.00325970933773  0.00512924836949  0.0183598324656  
5.78963804245  0.000639158650301  0.0  0.000984304351732  0.0350898131728  -0.0491592921317  0.0352575927973  
5.79773592949  0.000575242796913  0.0  0.000984304351732  -0.0224584378302  0.0271083172411  -0.0456598997116  
5.80581593513  0.000511326943524  0.0  0.000984304351732  0.0376065000892  -0.0380858667195  0.0196061935276  
5.81391811371  0.000460194249172  0.0  0.00182799377944  -0.0309193022549  0.013901701197  -0.0166580732912  
5.82201194763  0.000409061554819  0.0  -0.0  0.0325012207031  -0.0215955749154  -0.0492072291672  
5.83010601997  0.000409061554819  0.0  0.00299126259051  -0.0241362303495  -0.0387569852173  0.0507412105799  
5.8382370472  0.000409061554819  0.0  0.00299126259051  0.010761834681  0.036647759378  -0.0259098950773  
5.84634709358  0.000409061554819  0.0  0.00214757304639  -0.0215955749154  -0.0403149351478  0.0215955749154  
5.85449790955  0.000409061554819  0.0  0.00147006497718  0.00951547455043  0.0191028546542  -0.0152199659497  
5.86254811287  0.000409061554819  0.0  0.00112491927575  0.00390685768798  -0.0259098950773  -0.0503097772598  
5.87060904503  0.000409061554819  0.0  0.000907605339307  -0.0386131741107  -0.0352336242795  0.0323813781142  
5.8786740303  0.000409061554819  0.0  0.00075420725625  0.0416092313826  0.00448210025206  -0.0431911498308  
5.88673591614  0.000409061554819  0.0  0.000651941867545  -0.0393801629543  -0.0531620234251  0.0217633526772  
5.89482188225  0.000409061554819  0.0  0.000575242796913  0.0347063168883  0.0255983062088  0.0363361723721  
5.90291404724  0.000409061554819  0.0  0.000511326943524  -0.0185036435723  -0.0283307079226  -0.0503337457776  
5.91100096703  0.000409061554819  0.0  0.000460194249172  0.0185036435723  0.019342539832  0.0377263426781  
5.91913294792  0.000396278366679  0.0  0.000409061554819  -0.0125594679266  0.00359526765533  -0.0259098950773  
5.92722702026  0.000370712019503  0.0  0.000383495207643  -0.00337955146097  -0.0518677271903  -0.00390685768798  
5.93527388573  0.00521553494036  0.0  0.000345145672327  0.0425439998507  0.0302242171019  0.0547918789089  
5.94346690178  0.00375825306401  0.0  0.000319579325151  -0.0393561944366  -0.0431911498308  -0.0487757958472  
5.95152306557  0.00208365730941  0.0  0.000306796166115  0.0345625057817  0.0215955749154  0.0259098950773  
5.95961594582  0.00148284807801  0.0  -0.0  -0.0270364116877  -0.0185036435723  -0.0182399917394  
5.9676990509  0.00487038912252  0.0  -0.0  0.00922785326838  0.0127512160689  0.0111453300342  
5.97575902939  0.00418009795249  0.0  -0.0  -0.0211881101131  0.0288100782782  0.0278513394296  
5.98386096954  0.0  0.0  -0.0  0.0185036435723  -0.044557351619  -0.0410819239914  
5.99194097519  0.00548398122191  0.0  -0.0  -0.0161787047982  0.0259098950773  0.0396198481321  
6.00003910065  0.00502378726378  0.0  -0.0  0.0259098950773  -0.0185036435723  -0.01634648256  
6.00815391541  0.00242880289443  0.0  -0.0  -0.0215955749154  0.0171614103019  0.013206616044  
6.01622104645  0.0  0.0  -0.0  -0.00584830204025  0.00520115392283  0.0368395075202  
6.02431797981  0.00396278360859  0.0  -0.0  0.0377263426781  -0.0465227626264  0.00678307143971  
6.03238987923  0.00547119835392  0.0  -0.0  -0.0393322259188  0.0278513394296  -0.0239684507251  
6.04048204422  0.00288899731822  0.0  -0.0  0.037846185267  -0.0259098950773  0.0130628058687  
6.04857897758  0.0  0.0  -0.0  -0.0323813781142  0.0259098950773  0.0296250060201  
6.05665898323  0.00461472570896  0.0  -0.0  0.0203012786806  0.00378701533191  -0.0437663905323  
6.06475090981  0.00461472570896  0.0  0.000345145672327  -0.0132305845618  -0.0505015254021  0.0197020657361  
6.07284808159  -0.0020453077741  0.0  0.000345145672327  -0.00436225812882  0.0347782224417  -0.0128470892087  
6.08096790314  0.00529223401099  0.0  0.000345145672327  0.0347302854061  -0.0259098950773  -0.00378701533191  
6.08909106255  0.00502378726378  0.0  0.000345145672327  -0.0315424799919  0.0259098950773  0.0465946681798  
6.09718394279  -0.000907605339307  0.0  -0.0  0.0358088649809  0.00366717297584  -0.0323813781142  
6.10524702072  0.00852637644857  0.0  -0.0  -0.0290976986289  -0.0415852628648  0.0143810706213  
6.11335897446  0.00375825306401  0.0  -0.0  0.0323813781142  0.037846185267  -0.0121280364692  
6.12144804001  -0.000869255803991  0.0  -0.0  -0.0215955749154  -0.0431911498308  -0.0335318632424  
6.12950205803  0.0012399678817  0.0  -0.0  -0.00429035257548  0.0161787047982  0.0421125665307  
6.13759708405  0.00359207182191  0.0  -0.0  0.0042663840577  -0.0185036435723  -0.0431911498308  
6.14565300941  0.00288899731822  0.0  -0.0  -0.0428316220641  0.0122958151624  0.0140455123037  
6.15374493599  0.00178964424413  0.0  -0.0  0.0424960628152  0.0292894467711  0.0373428463936  
6.16184210777  0.0  0.0  -0.0  -0.0316623225808  -0.0439581386745  -0.0480807125568  
6.16995000839  0.0  0.0  -0.0  0.0308713652194  0.00246875034645  0.0453243404627  
6.17804908752  0.0  0.0  -0.0  -0.0105940550566  -0.00330764614046  -0.0259098950773  
6.18613600731  0.00161067990121  0.0  -0.0  -0.00462591089308  0.0287621412426  -0.00481765856966  
6.19421291351  0.00161067990121  0.0  -0.0  0.0399074703455  -0.0390925444663  0.0337715484202  
6.2023460865  0.00161067990121  0.0  -0.0  -0.0471459440887  0.0354972742498  -0.0455640256405  
6.21046900749  0.00131666683592  0.0  -0.0  0.0344426631927  -0.0323813781142  0.0431911498308  
6.2185280323  0.00102265388705  0.0  -0.0  -0.0215955749154  0.0185036435723  -0.0374147519469  
6.22670888901  0.000843689427711  0.0  -0.0  0.0243759136647  0.0493989773095  0.0215955749154  
6.23475193977  0.000715857720934  0.0  -0.0  -0.0132545530796  -0.0466905422509  0.0494229458272  
6.24277091026  0.000613592332229  0.0  -0.0  0.0143810706213  0.0431911498308  -0.0486559532583  
6.25083494186  0.00054967647884  0.0  -0.0  0.00647148163989  -0.0323813781142  0.0480567440391  
6.25889897346  0.000485760596348  0.0  -0.0  -0.0398355647922  -0.00469781644642  -0.0171853788197  
6.26698708534  0.000434627901996  0.0  -0.0  0.0406744591892  0.0497345365584  -0.0333161465824  
6.2751660347  0.000370712019503  0.0  -0.0  0.0323813781142  0.0431911498308  -0.045180529356  
6.28316807747  0.000345145672327  0.0  -0.0  -0.0185036435723  -0.0259098950773  0.0162985473871  
6.29123401642  0.000319579325151  0.0  -0.0  -0.0042663840577  -0.004889564123  0.00383495213464  
6.29932188988  0.000294012977974  0.0  -0.0  0.0459954552352  0.0309432707727  -0.0311589855701  
6.30741906166  0.000281229818938  0.0  -0.0  -0.0435027368367  -0.0418249480426  0.0472897551954  
6.31553506851  0.000255663471762  0.0  -0.0  0.0363841094077  0.0323813781142  -0.0396198481321  
6.32371497154  0.000242880298174  0.0  -0.0  -0.0374387204647  -0.0269884746522  0.0215955749154  
6.33178591728  0.000230097124586  0.0  -0.0  0.0323813781142  0.0109775504097  0.0300085004419  
6.33987188339  0.000217313950998  0.0  -0.0  -0.0259098950773  0.00520115392283  -0.0591781064868  
6.3479719162  0.000217313950998  0.0  -0.0  0.0185036435723  -0.0334359891713  0.0323813781142  
6.35608291626  0.00020453077741  0.0  -0.0  -0.0215955749154  -0.0102105597034  -0.0157233029604  
6.36419606209  0.000191747603822  0.0  -0.0  0.0323813781142  0.0232973340899  0.0131826475263  
6.37232494354  0.000191747603822  0.0  -0.0  -0.0215955749154  -0.0185036435723  0.0490634180605  
6.38042402267  0.000178964430233  0.0  -0.0  0.00973119121045  0.0185036435723  -0.0417290739715  
6.38852596283  0.000166181256645  0.0  -0.0  0.00395479425788  -0.0107858031988  0.0431911498308  
6.39660310745  0.000166181256645  0.0  -0.0  -0.0420406609774  -0.0321656614542  -0.0312788300216  
6.40468406677  0.000153398083057  0.0  -0.0  0.0413935147226  0.0431911498308  0.031973913312  
6.41274094582  0.000153398083057  0.0  -0.0  -0.0408662073314  -0.032189629972  -0.0259098950773  
6.42079997063  0.000153398083057  0.0  -0.0  0.0323813781142  -0.00596814416349  -0.0042184474878  
6.42893505096  0.000140614909469  0.0  -0.0  -0.0215955749154  0.0454681515694  0.049782473594  
6.43703603745  0.000140614909469  0.0  -0.0  -0.00457797432318  -0.0463070459664  -0.0428555905819  
6.44516611099  0.000127831735881  0.0  -0.0  0.00383495213464  0.0428555905819  0.0259098950773  
6.45325088501  0.000127831735881  0.0  -0.0  -0.0441738553345  -0.0323813781142  -0.0127991531044  
6.46133804321  0.000127831735881  0.0  -0.0  0.0323813781142  0.0151959974319  -0.00783768296242  
6.46943998337  0.000127831735881  0.0  -0.0  -0.0215955749154  0.0504535883665  0.047217849642  
6.47752308846  0.000115048562293  0.0  -0.0  0.0323813781142  -0.0464987941086  -0.0440300442278  
6.48562002182  0.000115048562293  0.0  -0.0  -0.0215955749154  0.0368874445558  0.0173531584442  
6.49372005463  0.000115048562293  0.0  0.000102265388705  -0.00548877520487  -0.0259098950773  -0.0133983641863  
6.5018119812  0.000115048562293  0.0  0.000102265388705  0.0423762202263  -0.00414654193446  -0.0363601408899  
6.50990104675  0.000102265388705  0.0  0.00352815585211  -0.0426159054041  0.0481286495924  0.0431911498308  
6.5180079937  0.000102265388705  0.0  0.00268446654081  0.0322135984898  -0.048799764365  -0.0323813781142  
6.52621293068  0.000102265388705  0.0  0.00171294528991  -0.0215955749154  0.0259098950773  0.0214757323265  
6.53418397903  0.000102265388705  0.0  0.00125275098253  0.0296969097108  -0.021092236042  0.0343707576394  
6.54229688644  0.000102265388705  0.0  0.001137702493  -0.0259098950773  -0.00596814416349  -0.0426398739219  
6.55037689209  8.94822151167e-05  0.0  0.00428236322477  -0.0043862266466  0.0424001887441  0.0442217923701  
6.55843806267  8.94822151167e-05  0.0  0.00300404569134  0.0430713072419  -0.0403628721833  -0.0185036435723  
6.56652593613  8.94822151167e-05  0.0  0.00182799377944  -0.0403868407011  0.0431911498308  0.0123197836801  
6.57462191582  8.94822151167e-05  0.0  0.00144449865911  0.0323813781142  -0.0245197247714  0.0342988520861  
6.5826818943  8.94822151167e-05  0.0  0.00685178115964  -0.0215955749154  0.0106899291277  -0.0482964292169  
6.59078097343  8.94822151167e-05  0.0  0.00538171594962  0.0161787047982  0.0463070459664  0.0431911498308  
6.59886598587  8.94822151167e-05  0.0  0.00250550196506  0.00589623907581  -0.0486319884658  -0.0259098950773  
6.60696792603  7.66990415286e-05  0.0  0.00191747606732  -0.0437184534967  0.0323813781142  0.0234890822321  
6.61508202553  7.66990415286e-05  0.0  0.00961294677109  0.0447251275182  -0.0185036435723  0.0498783476651  
6.62321400642  7.66990415286e-05  0.0  0.00418009795249  -0.00309193017893  -0.0506693050265  -0.0598012842238  
6.63129210472  7.66990415286e-05  0.0  0.00287621398456  0.00306796166115  0.0458037108183  0.0323813781142  
6.63935399055  7.66990415286e-05  0.0  0.00524110114202  0.0164423566312  -0.0215955749154  -0.01481250301  
6.64745187759  7.66990415286e-05  0.0  0.00305517856032  0.0438143275678  0.0215955749154  0.0259098950773  
6.65555000305  7.66990415286e-05  0.0  0.00507491966709  -0.041129861027  0.00388288893737  -0.0323813781142  
6.66367006302  7.66990415286e-05  0.0  0.00666003348306  0.04050668329  -0.0475294366479  0.0185036435723  
6.67174100876  6.39158679405e-05  0.0  0.00383495213464  -0.0215955749154  0.030799459666  0.00388288893737  
6.67985296249  6.39158679405e-05  0.0  0.000920388498344  0.0259098950773  -0.0424960628152  -0.0536174252629  
6.68791699409  6.39158679405e-05  0.0  0.00488317245618  -0.0161787047982  0.0228179655969  0.0485600829124  
6.69615387917  6.39158679405e-05  0.0  0.00699239596725  0.0215955749154  -0.0215955749154  -0.0405785888433  
6.70420193672  6.39158679405e-05  0.0  0.00288899731822  0.00575242796913  0.01263137348  -0.00441019516438  
6.71228194237  6.39158679405e-05  0.0  0.00178964424413  -0.00385892065242  -0.0110015189275  0.0452044978738  
6.72037005424  6.39158679405e-05  0.0  0.00129110051785  0.0435506738722  -0.0347063168883  -0.0431911498308  
6.72845888138  6.39158679405e-05  0.0  0.0010098706698  -0.0371510982513  0.037294909358  0.0259098950773  
6.73654699326  6.39158679405e-05  0.0  0.000830906268675  0.0405306518078  -0.0476013422012  -0.0185036435723  
6.74463701248  6.39158679405e-05  0.0  0.000703074561898  -0.0259098950773  0.0323813781142  -0.0373428463936  
6.75270199776  6.39158679405e-05  0.0  0.000472977408208  0.0185036435723  -0.0184557065368  0.0419208221138  
6.76076507568  6.39158679405e-05  0.0  0.000472977408208  0.0455400571227  -0.00429035257548  -0.0431911498308  
6.76884889603  6.39158679405e-05  0.0  -0.0  -0.041129861027  0.031422637403  0.0183118972927  
6.77695202827  5.11326943524e-05  0.0  -0.0  0.0457078367472  -0.0458516478539  0.00620782887563  
6.78501796722  5.11326943524e-05  0.0  -0.0  -0.0258859265596  0.0323813781142  -0.0529702752829  
6.79319190979  5.11326943524e-05  0.0  -0.0  0.0375345945358  -0.0185036435723  0.0481286495924  
6.80121898651  5.11326943524e-05  0.0  -0.0  -0.0330764614046  0.0256941784173  -0.0259098950773  
6.80931210518  5.11326943524e-05  0.0  -0.0  0.0323813781142  0.00445813173428  -0.0345864742994  
6.81741905212  5.11326943524e-05  0.0  -0.0  -0.0145488493145  -0.0331483669579  0.0504775568843  
6.82554292679  5.11326943524e-05  0.0  -0.0  0.0128950262442  0.031638354063  -0.0431911498308  
6.83363699913  5.11326943524e-05  0.0  -0.000409061554819  0.0046019423753  -0.0360485501587  0.0348980650306  
6.84177207947  5.11326943524e-05  0.0  -0.000409061554819  -0.00479369005188  0.0292415097356  -0.0185036435723  
6.84989404678  5.11326943524e-05  0.0  -0.0  0.0343947261572  -0.0259098950773  -0.0531620234251  
6.85802102089  5.11326943524e-05  0.0  -0.0  -0.0264851376414  -0.00604004971683  0.0521074123681  
6.86613488197  5.11326943524e-05  0.0  -0.0  0.0380618982017  0.0413935147226  -0.0431911498308  
6.87421607971  5.11326943524e-05  0.0  -0.0  -0.0381817407906  -0.0431911498308  0.0195103194565  
6.88231396675  5.11326943524e-05  0.0  -0.0  0.0171134732664  0.0411538295448  -0.0108816763386  
6.89035987854  5.11326943524e-05  0.0  -0.0  -0.0161787047982  -0.0259098950773  -0.0508850216866  
6.89840197563  5.11326943524e-05  0.0  -0.0  -0.00412257341668  0.0219311323017  0.0431911498308  
6.90651488304  5.11326943524e-05  0.0  -0.0  0.0403868407011  -0.0140694808215  -0.0323813781142  
6.91457700729  0.00176407792605  0.0  -0.0  -0.0394760370255  -0.0421125665307  0.0185036435723  
6.92266607285  0.00176407792605  0.0  -0.0  0.0373668149114  0.0427836850286  0.0525867827237  
6.93075108528  0.00205809087493  0.0  -0.0  -0.0316143855453  -0.0428555905819  -0.0519636012614  
6.93885207176  0.00205809087493  0.0  -0.0  0.0259098950773  0.036863476038  0.0259098950773  
6.94693899155  0.00287621398456  0.0  -0.0  0.00541686965153  -0.0156513992697  -0.0140694808215  
6.95499992371  0.00219870591536  0.0  0.000268446630798  0.033028524369  0.0292654782534  0.0370552241802  
6.96316695213  0.00464029191062  0.0  0.000268446630798  -0.0398835018277  -0.0431911498308  -0.0431911498308  
6.97113800049  0.0062765381299  0.0  0.000268446630798  0.0427597165108  0.0371750667691  0.0185036435723  
6.97919988632  0.00265890010633  0.0  0.000268446630798  -0.0323813781142  -0.0177606213838  -0.0136859854683  
6.98729896545  0.0105716846883  0.0  0.000268446630798  0.0215955749154  -0.00359526765533  -0.050837084651  
6.99538302422  0.00470420764759  0.0  0.000178964430233  0.00467384792864  0.00400273129344  0.0501899346709  
7.00344610214  0.00429514609277  0.0  0.000178964430233  -0.00352336233482  -0.0469781644642  -0.0431911498308  
7.01154303551  0.00746537325904  0.0  0.000178964430233  0.0363361723721  0.0376784056425  0.0152439344674  
7.01962900162  0.00686456402764  0.0  0.000178964430233  -0.0325491577387  -0.0259098950773  -0.0145728178322  
7.02775597572  0.00495987152681  0.0  0.00131666683592  0.0376784056425  0.0215955749154  -0.0475294366479  
7.03585505486  0.00547119835392  0.0  0.00131666683592  -0.0342509150505  0.0042663840577  0.0431911498308  
7.04395103455  0.00621262239292  0.0  0.00131666683592  0.0323813781142  -0.0467624478042  -0.0390206389129  
7.05206894875  0.00622540572658  0.0  0.00131666683592  -0.0313507318497  0.0431911498308  0.0215955749154  
7.06021404266  0.00375825306401  0.0  0.00102265388705  -0.0046019423753  -0.04029096663  0.00397876277566  
7.06826496124  0.00255663460121  0.0  0.000843689427711  0.00481765856966  0.0259098950773  -0.050285808742  
7.0763258934  0.00938284955919  0.0  0.000715857720934  -0.0430473387241  -0.0133264586329  0.0420406609774  
7.08442401886  0.00319579336792  0.0  0.000613592332229  0.0452044978738  -0.0286422986537  -0.0431911498308  
7.09252405167  0.00131666683592  0.0  0.000588025955949  -0.0422563776374  0.0340351983905  0.0230336803943  
7.10058188438  0.00736310798675  0.0  0.000588025955949  0.0259098950773  -0.0416811369359  0.0468103848398  
7.10864090919  0.00493430485949  0.0  0.000588025955949  -0.0215955749154  0.038469363004  -0.0493031032383  
7.11672997475  0.0027867318131  0.0  0.00171294528991  0.0185036435723  -0.0388049222529  0.0309193022549  
7.12484192848  0.00175129482523  0.0  -0.0  0.00565655436367  0.0215955749154  -0.0259098950773  
7.13292694092  0.00149563129526  0.0  -0.0  -0.0295051634312  0.00453003728762  0.0185036435723  
7.14102888107  0.00502378726378  0.0  -0.0  0.0418728850782  -0.0477451533079  -0.0308473967016  
7.14908790588  0.00227540498599  0.0  -0.0  -0.0374626889825  0.0480327755213  0.0215955749154  
7.15718102455  0.00147006497718  0.0  0.00605922425166  0.0282588042319  -0.0354253686965  0.0040986048989  
7.16532707214  0.00502378726378  0.0  0.00470420764759  -0.0323813781142  0.0312069226056  -0.0448929071426  
7.17343592644  0.00327249243855  0.0  0.0023521038238  0.0215955749154  -0.00994690693915  0.0323813781142  
7.18149209023  0.00250550196506  0.0  0.00171294528991  0.004889564123  -0.00464987941086  -0.0215955749154  
7.18958091736  0.0  0.0  0.00662168394774  -0.0451565608382  0.0306796170771  0.0127032790333  
7.19764399529  0.0  0.0  0.00589304277673  0.0427117794752  -0.039739690721  0.0296969097108  
7.20574808121  0.0  0.0  0.00487038912252  -0.0320697873831  0.036863476038  -0.0503577142954  
7.21383500099  0.0  0.0  0.00485760578886  0.0318301022053  -0.0396438166499  0.0323813781142  
7.2219209671  0.0  0.0  0.00343867368065  -0.0323813781142  0.0200615935028  -0.0178085584193  
7.22998905182  0.0  0.0  0.00819401443005  0.0185036435723  -0.0194144453853  -0.0333880521357  
7.23811101913  0.0  0.0  0.00418009795249  -0.0103304022923  -0.0415373258293  0.0459235534072  
7.24621701241  0.0  0.0  0.00283786444925  -0.0238006711006  0.0488956384361  -0.0323813781142  
7.25427103043  0.0  0.0  0.00815566442907  0.0393322259188  -0.0323813781142  0.0185036435723  
7.26233792305  0.0  0.0  0.00442297803238  -0.0339632965624  0.0323813781142  0.00412257341668  
7.27044606209  0.0  0.0  0.00375825306401  0.0366717278957  0.00584830204025  -0.0506453365088  
7.27853989601  -0.00095873803366  0.0  0.00420566415414  -0.0259098950773  -0.036863476038  0.0447970330715  
7.28659391403  -0.00415453128517  0.0  0.00452524330467  0.0323813781142  0.0438382960856  -0.0323813781142  
7.29471206665  -0.00375825306401  0.0  0.00513883586973  -0.0161787047982  -0.032621063292  -0.00484162708744  
7.30279803276  -0.00208365730941  0.0  0.00322135980241  0.0144769446924  0.0323813781142  0.052850432694  
7.31088709831  0.0  0.0  0.00493430485949  0.00383495213464  -0.0215955749154  -0.0431911498308  
7.31897997856  -0.00428236322477  0.0  0.00685178115964  -0.0046019423753  -0.00407463684678  0.0259098950773  
7.32710909843  -0.00324692600407  0.0  0.00429514609277  0.0311829540879  0.0382296778262  -0.0128950262442  
7.33519291878  -0.00288899731822  0.0  0.00288899731822  -0.0367436334491  -0.0380139611661  -0.049446914345  
7.34329795837  -0.000447411061032  0.0  0.00658333441243  0.0384214259684  0.041345577687  0.0493750087917  
7.3513879776  -0.00562459649518  0.0  0.00694126309827  -0.0309912059456  -0.0354972742498  -0.0323813781142  
7.35945105553  -0.0029529130552  0.0  0.00314466073178  0.0215955749154  0.0215955749154  0.0155555242673  
7.36750793457  -0.0029529130552  0.0  0.00314466073178  -0.0215955749154  0.00424241600558  -0.0120081938803  
7.37560105324  -0.00586747657508  0.0  0.00582912703976  0.0123916892335  -0.00349939381704  -0.0472897551954  
7.38368201256  -0.00669838301837  0.0  0.00530501687899  -0.0161787047982  0.0354253686965  0.0429274961352  
7.39177393913  -0.00357928848825  0.0  0.00442297803238  0.0108577078208  -0.0303440578282  -0.0411058925092  
7.39988207817  0.0  0.0  0.00227540498599  0.00376304681413  0.0409860499203  0.0259098950773  
7.4079709053  -0.00510048633441  0.0  0.00575242796913  -0.0432390868664  -0.0259098950773  -0.0135901113972  
7.41606593132  -0.00375825306401  0.0  0.00470420764759  0.0377263426781  0.0185036435723  -0.0528983697295  
7.42415308952  -0.00208365730941  0.0  0.0024160197936  -0.0349460020661  -0.0108097717166  0.0431911498308  
7.43219995499  -0.00185356021393  0.0  0.0024160197936  0.0259098950773  0.0176647473127  -0.0323813781142  
7.44027400017  -0.00370712042786  0.0  0.00281229824759  0.00524909049273  0.0446532219648  0.0185036435723  
7.44850206375  -0.00327249243855  0.0  0.00281229824759  0.0137578910217  -0.0268206968904  0.0339393280447  
7.45643997192  -0.00193025916815  0.0  0.00198139180429  0.041896853596  0.047625310719  -0.0475054681301  
7.4645280838  -0.00136779958848  0.0  0.00139336590655  -0.0393561944366  -0.0215955749154  0.0431911498308  
7.47258901596  -0.0012783173006  0.0  0.00131666683592  0.0387330166996  0.0286902356893  -0.0162506103516  
7.48065304756  -0.00342589057982  0.0  0.00131666683592  -0.0323813781142  0.004050668329  0.0116007300094  
7.48876690865  -0.00342589057982  0.0  0.00245436932892  0.0323813781142  0.0114808883518  0.0483683347702  
7.49686098099  -0.00198139180429  0.0  0.00242880289443  -0.0259098950773  0.0509329587221  -0.0471459440887  
7.50492691994  -0.00139336590655  0.0  0.00159789668396  0.0161787047982  -0.0355452112854  0.051268517971  
7.51302194595  -0.00107378652319  0.0  0.00118883512914  -0.0116966040805  0.042184472084  -0.0197500027716  
7.52114009857  -0.000869255803991  0.0  0.000945954816416  -0.0230336803943  -0.0198938138783  -0.00702275615185  
7.52920889854  -0.000766990415286  0.0  0.000792556733359  0.0475773736835  -0.0226741544902  0.0341550409794  
7.53732299805  -0.000766990415286  0.0  0.000779773574322  -0.0240643247962  0.0501899346709  -0.0359287075698  
7.54545593262  -0.00245436932892  0.0  0.000779773574322  0.045611962676  -0.0302481856197  0.0431911498308  
