Ethan-CYM/ros_catkin_ws/test/伺服_gain100_looktime003/ur_joint_target_velocity.txt
time  shoulder_pan_joint  shoulder_lift_joint  elbow_joint  wrist_1_joint  wrist_2_joint  wrist_3_joint
0.163066148758  -2.10924289447e-13  -5.95798299955e-13  -3.62616426229e-13  0.00198988946358  0.00338030301705  -0.000418615509062  
0.171144008636  -2.10924289447e-13  -5.95798299955e-13  -3.62616426229e-13  0.00102608633304  0.00313425527965  -0.00266746186274  
0.179296016693  -2.10924289447e-13  -5.95798299955e-13  -3.62616426229e-13  7.76441203407e-05  0.00287419038787  -0.0080843203859  
0.18737912178  -2.10924289447e-13  -5.95798299955e-13  -3.62616426229e-13  0.000162553590008  0.0026020903937  -0.0197977599681  
0.195982217789  -2.10924289447e-13  -5.95798299955e-13  -3.62616426229e-13  0.000245471194912  0.00231996650204  -0.0383963287028  
0.203575134277  -2.10924289447e-13  -5.95798299955e-13  -3.62616426229e-13  0.000324860485768  0.00202984562746  -0.0619808494951  
0.211719036102  -2.10924289447e-13  -5.95798299955e-13  -3.62616426229e-13  0.00040030210125  0.00173375717109  -0.0894723480101  
0.219835996628  -2.10924289447e-13  -5.95798299955e-13  -3.62616426229e-13  0.000471411680354  0.00143372009627  -0.121411952149  
0.22794008255  -2.10924289447e-13  -5.95798299955e-13  -3.62616426229e-13  0.000537841466547  0.00113173037783  -0.153446488389  
0.236079216003  -2.10924289447e-13  -5.95798299955e-13  -3.62616426229e-13  0.000599281641712  0.000829748895459  -0.183748025928  
0.244151115417  -2.10924289447e-13  -5.95798299955e-13  -3.62616426229e-13  0.000655461387859  0.000529689837717  -0.212973173841  
0.252315044403  -2.10924289447e-13  -5.95798299955e-13  -3.62616426229e-13  0.00171762340686  -0.000272327187585  -0.246627213635  
0.260438203812  -2.10924289447e-13  -5.95798299955e-13  -3.62616426229e-13  0.00173321855773  -0.00105407145055  -0.280351492493  
0.268565177917  -2.10924289447e-13  -5.95798299955e-13  -3.62616426229e-13  0.0017363963986  -0.0028220135943  -0.313926463076  
0.27680015564  -2.10924289447e-13  -5.95798299955e-13  -3.62616426229e-13  0.00172849092672  -0.00301386430574  -0.344715295269  
0.28480219841  -2.10924289447e-13  -5.95798299955e-13  -3.62616426229e-13  0.00170981587153  -0.00318045743804  -0.375013917898  
0.292905092239  -2.10924289447e-13  -5.95798299955e-13  -3.62616426229e-13  0.00168074577333  -0.00332292597667  -0.402217070784  
0.300928115845  -2.10924289447e-13  -5.95798299955e-13  -3.62616426229e-13  0.00164171216251  -0.00344094055171  -0.427841746594  
0.308990001678  -2.10924289447e-13  -5.95798299955e-13  -3.62616426229e-13  0.00058191470839  -0.00302859795223  -0.450955554582  
0.317123174667  -2.10924289447e-13  -5.95798299955e-13  -3.62616426229e-13  0.000553861061977  -0.00311207041148  -0.470661662379  
0.32533121109  -2.10924289447e-13  -5.95798299955e-13  -3.62616426229e-13  0.000524022446312  -0.00317435837824  -0.487724526257  
0.333338022232  -2.10924289447e-13  -5.95798299955e-13  -3.62616426229e-13  0.00150304479504  -0.00321504128429  -0.502099693833  
0.341531038284  -2.10924289447e-13  -5.95798299955e-13  -3.62616426229e-13  0.00143883898093  -0.00374011169772  -0.512141606339  
0.349619150162  -2.10924289447e-13  -5.95798299955e-13  -3.62616426229e-13  0.00136597961854  -0.00372377641803  -0.519506329143  
0.357661008835  -2.10924289447e-13  -5.95798299955e-13  -3.62616426229e-13  0.0022976668022  -0.00267231466847  -0.524212545275  
0.365878105164  -2.10924289447e-13  -5.95798299955e-13  -3.62616426229e-13  0.00218221452674  -0.0026392402117  -0.52548447465  
0.373913049698  -2.10924289447e-13  -5.95798299955e-13  -3.62616426229e-13  0.00306608789743  -0.00208554400574  -0.523394890019  
0.381995201111  -2.10924289447e-13  -5.95798299955e-13  -3.62616426229e-13  0.00289908790052  -0.00153126645461  -0.518036990765  
0.389960050583  -2.10924289447e-13  -5.95798299955e-13  -3.62616426229e-13  0.00271662193184  -0.000474822768281  -0.509522478735  
0.398192167282  -2.10924289447e-13  -5.95798299955e-13  -3.62616426229e-13  0.00231458913814  0.00256349350684  -0.484365147143  
0.406136035919  -2.10924289447e-13  -5.95798299955e-13  -3.62616426229e-13  0.00209814700527  0.0045150795186  -0.467194794909  
0.414280176163  -2.10924289447e-13  -5.95798299955e-13  -3.62616426229e-13  0.00187355187245  0.00639215452689  -0.448279430371  
0.422566175461  -2.10924289447e-13  -5.95798299955e-13  -3.62616426229e-13  0.00265389414058  0.00818406135568  -0.426163800207  
0.430529117584  -2.10924289447e-13  -5.95798299955e-13  -3.62616426229e-13  0.00339991186504  0.00988146607371  -0.401871709079  
0.438657999039  -2.10924289447e-13  -5.95798299955e-13  -3.62616426229e-13  0.00309515974816  0.00995874127834  -0.376418951644  
0.44674706459  -2.10924289447e-13  -5.95798299955e-13  -3.62616426229e-13  0.00277697469502  0.00946371996184  -0.349186154612  
0.454891204834  -2.10924289447e-13  -5.95798299955e-13  -3.62616426229e-13  0.00244875320112  0.00891994821536  -0.320387447664  
0.462894201279  -2.10924289447e-13  -5.95798299955e-13  -3.62616426229e-13  0.00211281471094  0.00833256271539  -0.289433459656  
0.471087217331  -2.10924289447e-13  -5.95798299955e-13  -3.62616426229e-13  0.000760188662051  0.00770632448009  -0.258189200626  
0.479127168655  -2.10924289447e-13  -5.95798299955e-13  -3.62616426229e-13  0.000445139118327  0.00704612759153  -0.226052158222  
0.487213134766  -2.10924289447e-13  -5.95798299955e-13  -3.62616426229e-13  -0.000875462716401  0.00585122885393  -0.1924372663  
0.495346069336  -2.10924289447e-13  -5.95798299955e-13  -3.62616426229e-13  -0.00114888085808  0.00515286314147  -0.1592102906  
0.503485202789  -2.10924289447e-13  -5.95798299955e-13  -3.62616426229e-13  -0.00140745257516  0.00393323575335  -0.125765157876  
0.511639118195  -2.10924289447e-13  -5.95798299955e-13  -3.62616426229e-13  -0.00165095181918  0.0032228884038  -0.091509048712  
0.519816160202  -2.10924289447e-13  -5.95798299955e-13  -3.62616426229e-13  -0.00187819344305  0.00250953541068  -0.0574867496528  
0.527981996536  -2.10924289447e-13  -5.95798299955e-13  -3.62616426229e-13  -0.00309940697952  0.000785768275493  -0.0239092291533  
0.535960197449  -2.10924289447e-13  -5.95798299955e-13  -3.62616426229e-13  -0.00427298610591  0.000108430744462  0.00902123004944  
0.543944120407  -2.10924289447e-13  -5.95798299955e-13  -3.62616426229e-13  -0.00438028044592  -0.000552423433909  0.0411112584422  
0.552010059357  -2.10924289447e-13  -5.95798299955e-13  -3.62616426229e-13  -0.00445619411715  -0.00169979330745  0.0721774135858  
0.560124158859  -2.10924289447e-13  -5.95798299955e-13  -3.62616426229e-13  -0.00450205256215  -0.00280962790849  0.102047106919  
0.568234205246  -2.10924289447e-13  -5.95798299955e-13  -3.62616426229e-13  -0.00451827992037  -0.0033695181151  0.131368615995  
0.576317071915  -2.10924289447e-13  -5.95798299955e-13  -3.62616426229e-13  -0.00551676122907  -0.00439993630147  0.158351594146  
0.584431171417  -2.10924289447e-13  -5.95798299955e-13  -3.62616426229e-13  -0.00544629834026  -0.00487274776968  0.183688085668  
0.592512130737  -2.10924289447e-13  -5.95798299955e-13  -3.62616426229e-13  -0.00635320757299  -0.00530289283443  0.207257481924  
0.600633144379  -2.10924289447e-13  -5.95798299955e-13  -3.62616426229e-13  -0.00821080287348  -0.0061949256288  0.228952396705  
0.608823060989  -2.10924289447e-13  -5.95798299955e-13  -3.62616426229e-13  -0.00795047045605  -0.00652126413127  0.248679881058  
0.61691403389  -2.10924289447e-13  -5.95798299955e-13  -3.62616426229e-13  -0.00764380710224  -0.00679796935569  0.26636166914  
0.624982118607  -2.10924289447e-13  -5.95798299955e-13  -3.62616426229e-13  -0.0072959804217  -0.00651926236432  0.28193432515  
0.633043050766  -2.10924289447e-13  -5.95798299955e-13  -3.62616426229e-13  -0.00691017448828  -0.00620532557115  0.295349292739  
0.641110181808  -2.10924289447e-13  -5.95798299955e-13  -3.62616426229e-13  -0.00648973840959  -0.00636525327131  0.306572848929  
0.649202108383  -2.10924289447e-13  -5.95798299955e-13  -3.62616426229e-13  -0.00704944388435  -0.00648155572568  0.31558596509  
0.657290220261  -2.10924289447e-13  -5.95798299955e-13  -3.62616426229e-13  -0.00856367984021  -0.00705973837247  0.322384078066  
0.66542506218  -2.10924289447e-13  -5.95798299955e-13  -3.62616426229e-13  -0.00796591874835  -0.00707420949331  0.32697677505  
0.673501014709  -2.10924289447e-13  -5.95798299955e-13  -3.62616426229e-13  -0.00732975376755  -0.00704295949916  0.329387396238  
0.681580066681  -2.10924289447e-13  -5.95798299955e-13  -3.62616426229e-13  -0.00666225347466  -0.00696780456981  0.329652559765  
0.689738035202  -2.10924289447e-13  -5.95798299955e-13  -3.62616426229e-13  -0.00596839472907  -0.00685026540948  0.327821613745  
0.697952032089  -2.10924289447e-13  -5.95798299955e-13  -3.62616426229e-13  -0.00525320311404  -0.00669209524389  0.32395602066  
0.70597410202  -2.10924289447e-13  -5.95798299955e-13  -3.62616426229e-13  -0.00452171991859  -0.00649526317536  0.317319498058  
0.713932037354  -2.10924289447e-13  -5.95798299955e-13  -3.62616426229e-13  -0.0037789698051  -0.00626193656536  0.3088283557  
0.7219851017  -2.10924289447e-13  -5.95798299955e-13  -3.62616426229e-13  -0.00302992935143  -0.00599446257912  0.297772360896  
0.73010802269  -0.000406701083112  -0.00121057708757  -0.00161077019837  -0.00329077888414  -0.00569534902944  0.285090779623  
0.738171100616  -0.0020215863823  -0.00763194816791  -0.00381399826396  -0.00352562398998  -0.00536724465769  0.269285161949  
0.746241092682  -0.00358652696196  -0.0187002094849  -0.00658098323866  -0.00373253299665  -0.00551865438027  0.252146668698  
0.754336118698  -0.00509150941416  -0.0350413290473  -0.00923507176912  -0.00188810584765  -0.00613774406666  0.233817348503  
0.762386083603  -0.00612171811875  -0.0568306417152  -0.0111163079846  0.0019494862607  -0.00670373007735  0.214441721918  
0.770500183105  -0.00708818859107  -0.0846079385814  -0.0125519079709  0.00973144987382  -0.00771949189878  0.192549154417  
0.77859210968  -0.00798673690744  -0.118862635323  -0.0135429530816  0.0223280417183  -0.00866268801111  0.169954948405  
0.786644220352  -0.00881328231077  -0.155592442846  -0.0144198865275  0.0385344833786  -0.0100342694152  0.146820725019  
0.794821023941  -0.00956429755961  -0.196519680903  -0.014855750303  0.0591727735827  -0.0108044125203  0.123305985745  
0.802914142609  -0.0102368181236  -0.24128699015  -0.0148579313628  0.0829960705474  -0.0119929486272  0.0995688506136  
0.810890197754  -0.0108284475927  -0.289115837327  -0.0157268178183  0.109776720616  -0.0135834537387  0.0757650886762  
0.818979024887  -0.0113373593567  -0.337612021211  -0.0164723873274  0.138262951685  -0.0150505490979  0.051238011334  
0.827049016953  -0.0117622946324  -0.388064278252  -0.018057464504  0.170255678078  -0.0158816032629  0.0269686350404  
0.835081100464  -0.0121025569375  -0.438090282587  -0.0194879818157  0.202436208835  -0.0160859448381  0.00310553366883  
0.84326004982  -0.0123580031321  -0.487784412369  -0.0217242966526  0.236616013863  -0.0161829197022  -0.0202096779324  
0.851345062256  -0.0129357319609  -0.536840047737  -0.024089321348  0.270510045507  -0.0151635277247  -0.0428422264815  
0.859415054321  -0.0134181419112  -0.584557708828  -0.0268870820105  0.305930859712  -0.0135654565085  -0.0646648719216  
0.867645025253  -0.0138040147777  -0.630262893578  -0.0300902662415  0.342619908393  -0.011413131757  -0.0855585348719  
0.875762224197  -0.014093200461  -0.673713206246  -0.033346733762  0.378291311562  -0.00822774000964  -0.105412857421  
0.883859157562  -0.0142861653717  -0.715090417093  -0.0369560489512  0.415775611522  -0.00455915553618  -0.124126695295  
0.892026185989  -0.0143839748094  -0.752971280817  -0.0405662168915  0.450749368565  -0.000442658724861  -0.141608539905  
0.899974107742  -0.0143882719657  -0.787601131136  -0.0444758078841  0.486080553245  0.00408500079726  -0.157776869279  
0.908049106598  -0.014301253762  -0.819241677465  -0.0486530651662  0.521539872829  0.00847960603952  -0.172560427336  
0.916244029999  -0.014125643752  -0.846553285263  -0.0537110327577  0.556899677144  0.0132216660489  -0.185898431428  
0.924275159836  -0.0134579617067  -0.870271587714  -0.0592742426692  0.5919379844  0.0177676513059  -0.197740708569  
0.932382106781  -0.0127204174374  -0.889928950368  -0.0656178281894  0.62644050756  0.0220928751839  -0.208047761147  
0.940468072891  -0.0119197755071  -0.906304097552  -0.0726825982896  0.660201076023  0.0256694342432  -0.217599937937  
0.948583126068  -0.011062612273  -0.918564959053  -0.0807297470762  0.693023503327  0.0289976653909  -0.224737139521  
0.956648111343  -0.0101557059871  -0.927134405231  -0.0893624770703  0.723710370089  0.0315571726586  -0.231088208127  
0.964814186096  -0.00920598902425  -0.932046239891  -0.0991565547433  0.75211705894  0.033349482718  -0.235014931447  
0.973067045212  -0.00822050026926  -0.934163496053  -0.109699812167  0.779129191259  0.0353929503941  -0.237357552427  
0.980985164642  -0.00720633796108  -0.933136480103  -0.121229821268  0.803598100134  0.0366582411701  -0.238139748031  
0.989151000977  -0.00617061328247  -0.929853240103  -0.133972172005  0.827451221085  0.0371547795422  -0.237393673872  
0.997224092484  -0.00512040497146  -0.923985513905  -0.1478179657  0.849542454136  0.0379091716101  -0.235160409077  
1.00535106659  -0.00406271521802  -0.915631452181  -0.16233061499  0.868761315972  0.0394172997419  -0.23148948363  
1.01341605186  -0.00300442709495  -0.904499657839  -0.177724864002  0.886064506484  0.0411464728763  -0.226438363378  
1.0215010643  -0.00195226375645  -0.891533519107  -0.193559358749  0.901389148998  0.0430799399787  -0.22007189698  
1.02956914902  -0.000912749620906  -0.876859617195  -0.209722718444  0.914684965083  0.0446948503782  -0.211652555095  
1.03779602051  0.000107826263198  -0.861015182393  -0.225781897668  0.925916110607  0.0464937461561  -0.202900035942  
1.04570913315  0.00110344448794  -0.84412882983  -0.241637229292  0.936071774913  0.0484612846937  -0.192261103143  
1.05395412445  0.00206838703211  -0.826735978445  -0.256870291258  0.943091282355  0.0500753415716  -0.181464715618  
1.06199216843  0.00299726634173  -0.809766441185  -0.273009931831  0.950037194503  0.0518392949188  -0.169775588663  
1.07003617287  0.00593527492219  -0.772297014117  -0.303378156833  0.95855141489  0.0542564733009  -0.144886369289  
1.0781981945  0.00790920889649  -0.753292346976  -0.318082473968  0.962164727167  0.0554171941992  -0.131070232598  
1.0862390995  0.0105997875224  -0.732793676299  -0.332031507773  0.962633140793  0.0561995272209  -0.11675180083  
1.09433722496  0.0135667306443  -0.711771963915  -0.345476270166  0.962048421766  0.0566069808409  -0.102033791337  
1.10243821144  0.0171909289112  -0.689970082355  -0.358666430009  0.961452732986  0.0566458884427  -0.0870190114558  
1.1104991436  0.0214341078358  -0.66754446854  -0.371202573333  0.958828238081  0.0558190348411  -0.071809704627  
1.11865901947  0.0262547401097  -0.64384504205  -0.383343579321  0.955249358896  0.0551631903111  -0.0565069156478  
1.12683010101  0.0320151371141  -0.619454984939  -0.394699462347  0.950762358607  0.0541737747456  -0.0412098786151  
1.13483405113  0.0382501568823  -0.593335192463  -0.405217887698  0.944406001539  0.0528644623854  -0.0260154309074  
1.14294314384  0.0453152565801  -0.565287623272  -0.41549723135  0.936263792952  0.0512511621518  -0.0110174562979  
1.15097403526  0.0531464265797  -0.535535415243  -0.424833934272  0.926430014046  0.0498570658568  0.00369363996214  
1.15902209282  0.0620824069535  -0.503904230832  -0.433190926706  0.91601851856  0.0476748612727  0.0180314215238  
1.16711115837  0.0712272989697  -0.469831778758  -0.440539475962  0.903087366088  0.0457475313635  0.0319138744971  
1.17518901825  0.0817374047672  -0.433994767177  -0.447823744491  0.889799081487  0.044082296302  0.0452638221832  
1.18335318565  0.0922948090009  -0.396259282492  -0.453710770876  0.874225590816  0.0421777447638  0.0580092992782  
1.19135808945  0.103236875178  -0.356909275492  -0.458517679392  0.856518033913  0.0400511104281  0.0700838841392  
1.19952106476  0.114485610245  -0.316232602947  -0.462240026788  0.83683942459  0.0387326251442  0.0822361612786  
1.20752906799  0.126369015544  -0.274115192197  -0.465202768319  0.815361205897  0.0366952880574  0.0927697495479  
1.21562814713  0.137576989988  -0.231261378804  -0.466437918581  0.791251060721  0.035484623411  0.102463842431  
1.22389411926  0.14886666235  -0.187960770405  -0.466300098886  0.764723368526  0.0340788668983  0.111277803812  
1.23192214966  0.159758770092  -0.144498494192  -0.464823272225  0.737015079125  0.0324905059978  0.119176692052  
1.24000501633  0.170599897239  -0.100750333208  -0.462371311191  0.708331179863  0.0312396870876  0.126941370698  
1.24806904793  0.181729657801  -0.057403587218  -0.458983009713  0.677865246751  0.0308325774659  0.133717487029  
1.25618910789  0.19307105868  -0.0147239262699  -0.455024497318  0.645851547716  0.0302407551674  0.138675572424  
1.26425409317  0.204547168282  0.0270339522024  -0.449889917187  0.612530032322  0.0294713006527  0.143444931088  
1.27230405807  0.216488730621  0.0676272522268  -0.443961492525  0.578143045547  0.0300505181988  0.147192347545  
1.28043317795  0.229216006158  0.106826335404  -0.437296121099  0.542933922522  0.0309327877036  0.149917520169  
1.28860807419  0.243850150801  0.14441586373  -0.430598344279  0.507145233945  0.0331156164971  0.151627486749  
1.29681921005  0.259034223719  0.180195824581  -0.423267218601  0.471017832216  0.0360496586456  0.151526380674  
1.30481219292  0.277097706305  0.213982434167  -0.416008457106  0.433777332687  0.0412150211543  0.151275412366  
1.31295800209  0.295826765861  0.245608916612  -0.407899801649  0.395685227888  0.0470103779255  0.149263095705  
1.32100915909  0.31630470428  0.274926156688  -0.399979084531  0.358014721824  0.0538881418414  0.147160722146  
1.32917618752  0.338768091233  0.301399637912  -0.391970310307  0.319984004782  0.06228513906  0.144176292902  
1.33726119995  0.362621121738  0.32533233417  -0.384248760941  0.281841859906  0.0721126298199  0.140348854849  
1.34535622597  0.388899011393  0.346633383142  -0.37685680051  0.243832736361  0.0842856627437  0.135722722408  
1.35343313217  0.416972178757  0.365230341725  -0.370156018259  0.206194425681  0.0976608778813  0.130346219245  
1.36159014702  0.448246232093  0.381069632194  -0.364817457531  0.169156712863  0.113641026127  0.124271276569  
1.36988306046  0.480008390494  0.394116433139  -0.359553723814  0.1329401101  0.13054733685  0.117553018114  
1.37795901299  0.515703228262  0.404354454105  -0.356007038323  0.0987661464278  0.149766113804  0.110249334755  
1.38598203659  0.551761371314  0.411785598108  -0.352871132426  0.0647810124706  0.169604917473  0.101611279298  
1.39406013489  0.590382172513  0.416429516843  -0.351121988967  0.0332162769912  0.191438836621  0.0933428419439  
1.40213608742  0.630855811854  0.418323063961  -0.351061110757  0.00320532583388  0.215083696388  0.0838710085769  
1.41030812263  0.674914615754  0.417116159646  -0.353293449393  -0.0240881441049  0.24135780791  0.07409191489  
1.41835713387  0.71853594687  0.41329326585  -0.356461755073  -0.0485546772637  0.267504659894  0.0640757151282  
1.42639517784  0.763483317763  0.4065376762  -0.361166797848  -0.0711180635136  0.294875965472  0.0547007177947  
1.4344701767  0.809035692244  0.396961639575  -0.367342784372  -0.0906699406594  0.322764948518  0.0443936122227  
1.44260215759  0.855296081855  0.384692851698  -0.374593197407  -0.107156923296  0.35148769699  0.0340493762803  
1.45097899437  0.901954811531  0.369873229978  -0.383168558039  -0.120547391322  0.380842827629  0.0245444941637  
1.45892906189  0.94870671238  0.3526572987  -0.392661045044  -0.131841573327  0.410629205207  0.0143017659672  
1.4669611454  0.995253094678  0.333211286462  -0.402988234133  -0.138996051935  0.440647744587  0.00502031265098  
1.47504019737  1.04089716495  0.312115003926  -0.414387654358  -0.142061613366  0.470702718364  -0.00488052899637  
1.4831430912  1.086590603  0.289138278721  -0.427406258343  -0.141116265928  0.50211974023  -0.0137066231612  
1.49126911163  1.13001044897  0.264471164479  -0.44031159968  -0.135249746089  0.532646009311  -0.0222350464684  
1.49933004379  1.16890007267  0.238713734094  -0.452700953597  -0.126638159152  0.561601422533  -0.0312288384739  
1.50748300552  1.20433854709  0.21124855347  -0.464184484423  -0.114392242714  0.58985062101  -0.0390024244105  
1.51556015015  1.23577788458  0.182693089989  -0.474388595746  -0.0976633493386  0.61773811777  -0.0463430125328  
1.52389502525  1.26230006954  0.153254631606  -0.482956217503  -0.0776747450576  0.644084792454  -0.0532152195314  
1.53187608719  1.28547985925  0.122737310094  -0.490193715459  -0.0556430210356  0.668759204459  -0.0603957916946  
1.53992819786  1.30362472381  0.0917634090006  -0.495442709527  -0.0297345743727  0.691644801185  -0.0670235554146  
1.54800915718  1.31633106989  0.0609440619919  -0.498717012328  -0.00222684405743  0.711627487676  -0.0730687899  
1.55603122711  1.32405397077  0.030067808295  -0.500042457405  0.027677270268  0.729154296879  -0.0785070272231  
1.56416416168  1.32767673031  -0.0006685925603  -0.500424131321  0.059732074864  0.744173159042  -0.0833182294224  
1.57222914696  1.32646145674  -0.0306701239328  -0.499238701208  0.0926719301995  0.756648420027  -0.0866776386431  
1.58032822609  1.32093667257  -0.0597636470238  -0.497175127561  0.126265900026  0.766055854169  -0.0894068069545  
1.58841013908  1.31083363187  -0.0877863227863  -0.493945679818  0.160285460479  0.772408163762  -0.0915042764007  
1.59654521942  1.29754494263  -0.114585973793  -0.49056535709  0.195516102176  0.775232105524  -0.0929717750397  
1.60458302498  1.28123190373  -0.140021795369  -0.48673781832  0.229684002159  0.77560453668  -0.093814983471  
1.61292004585  1.26369656509  -0.163964977711  -0.483464760966  0.264618631156  0.774088204152  -0.0940434048143  
1.62090301514  1.24264077867  -0.186299237171  -0.479465251233  0.298059490162  0.76922107361  -0.0936702135474  
1.62899899483  1.2203125853  -0.206921255497  -0.476070171171  0.33083925604  0.763134934204  -0.0927120846657  
1.63706803322  1.19607263765  -0.22574102643  -0.47264317594  0.362767103633  0.754888030371  -0.0911890047139  
1.64506006241  1.16971242208  -0.242682109666  -0.469206069561  0.394672357514  0.744583063183  -0.0899332374996  
1.65321111679  1.14022913965  -0.257681792786  -0.46545850309  0.425342707513  0.731828483574  -0.0873288971685  
1.66121315956  1.11032269587  -0.270691162297  -0.462720886906  0.45663514569  0.717774343132  -0.0842320330243  
1.66931200027  1.07775531437  -0.281675085513  -0.459375927521  0.487327169268  0.701530342555  -0.0806748455356  
1.67740011215  1.0419807709  -0.290612105503  -0.455135101901  0.516225768628  0.682744650466  -0.0758816628015  
1.68555903435  1.00533467793  -0.297494251842  -0.451013586507  0.544200986291  0.662607836321  -0.0723389278171  
1.69366121292  0.966445429878  -0.302326770362  -0.446390746372  0.571098505653  0.640269199499  -0.0676144062976  
1.70190310478  0.925611292246  -0.305127775559  -0.440984846677  0.596773256428  0.616427483024  -0.0625727669104  
1.70995807648  0.88273068935  -0.305927829674  -0.43452596954  0.620080282419  0.59127001905  -0.057254367061  
1.71798110008  0.837310401184  -0.304769452882  -0.426757386371  0.640927079357  0.563976214921  -0.0516995049329  
1.72608113289  0.741048589966  -0.296803894023  -0.408252955149  0.676956394791  0.505380974168  -0.0400440175779  
1.7341132164  0.690090479543  -0.290539852144  -0.396715803592  0.690997741151  0.475019098247  -0.0348347799528  
1.74223017693  0.637598044081  -0.282986865365  -0.383583175667  0.702349476525  0.443887268215  -0.0295294646631  
1.75028300285  0.58353384948  -0.274223566566  -0.368653893967  0.709992332891  0.411694982675  -0.0241631353974  
1.75831007957  0.527870981084  -0.264334202595  -0.351742521177  0.714976470986  0.379176743001  -0.0195804333249  
1.76630616188  0.470593110506  -0.25300475743  -0.333003540083  0.717334598835  0.346546887877  -0.0141742847149  
1.77457118034  0.412508121473  -0.241147956907  -0.312275987122  0.71610276156  0.313003555643  -0.00961517952049  
1.78263521194  0.353597166486  -0.228852361138  -0.290060597536  0.711373086805  0.279285782646  -0.00591343414114  
1.79085111618  0.294252827913  -0.215802861831  -0.266534309157  0.703258564342  0.245106270319  -0.00145407707371  
1.79886507988  0.234861715951  -0.202503087892  -0.241877067243  0.691891331519  0.210692145002  0.00290928762685  
1.80687618256  0.17580144778  -0.189447410983  -0.216271705887  0.677420814862  0.176772790043  0.00715042778699  
1.81493520737  0.117438467295  -0.177116708512  -0.189580154068  0.659001095216  0.143046362152  0.0104363411859  
1.82307600975  0.0605329692292  -0.165975824244  -0.161996831245  0.637853269743  0.109721544357  0.0135770855558  
1.83116412163  0.0045980677134  -0.155664019753  -0.133718092573  0.614177358433  0.0770000441492  0.0173660804122  
1.83925008774  -0.0492222847677  -0.146630011903  -0.10526184447  0.587172118122  0.0450749467879  0.0201466959184  
1.84736919403  -0.101042938101  -0.138901199363  -0.0764905723061  0.558098329294  0.0141296963311  0.0227326027302  
1.8554661274  -0.150176673229  -0.133302517806  -0.0479153505658  0.52820184616  -0.0156628379783  0.0251128932111  
1.86359500885  -0.196782282011  -0.129012569857  -0.0193914764702  0.49567009076  -0.0441413004005  0.0264681981352  
1.87179613113  -0.240624778485  -0.1268337427  0.00922501343364  0.461781302112  -0.0716620469343  0.0276226201056  
1.87985920906  -0.281898645166  -0.124309162564  0.0371035430336  0.425772196085  -0.0980739253573  0.0285744733769  
1.88792800903  -0.319183753203  -0.127917118448  0.0653806453724  0.389943339862  -0.122224410088  0.0293225417996  
1.89601016045  -0.353150622051  -0.13386389705  0.0932203263777  0.353508252978  -0.145024583407  0.0298669300255  
1.90414714813  -0.383663704325  -0.142455826037  0.12077857311  0.316711262924  -0.16585735898  0.0293998615053  
1.91217517853  -0.410611806733  -0.152768872552  0.147242112172  0.280805712486  -0.185142660954  0.028756669455  
1.92028999329  -0.43431549025  -0.165502946212  0.173114140748  0.244987435174  -0.202289840506  0.0263281296437  
1.92841219902  -0.454295386455  -0.182134838343  0.198247188481  0.211503469245  -0.217746246827  0.0221703976665  
1.93651199341  -0.470919672305  -0.200450275396  0.222497335718  0.179501236191  -0.231454644315  0.0163511068055  
1.94462704659  -0.484163201588  -0.221501730703  0.24605554663  0.150158574981  -0.242863973888  0.0073281750514  
1.95290517807  -0.494429126625  -0.245091860082  0.269111653693  0.122588037215  -0.25246178722  -0.00395753444244  
1.96103215218  -0.501316920592  -0.270607242976  0.291208928194  0.0969211857715  -0.260736592408  -0.0181888305531  
1.96903610229  -0.505269440843  -0.299050477192  0.312875921718  0.0742869182025  -0.266150738622  -0.0343972621243  
1.97704005241  -0.505925271287  -0.331383458831  0.334309799461  0.0557689369841  -0.26974780342  -0.0540503943862  
1.98511815071  -0.503764933532  -0.366099410578  0.35537924943  0.0413877992479  -0.271549271243  -0.0777525806834  
1.99320220947  -0.498869534426  -0.401709728024  0.375313388022  0.0301250045646  -0.271586429606  -0.102830757502  
2.00124406815  -0.491741764281  -0.439983755887  0.394981468149  0.0229881779738  -0.269395274887  -0.131518006064  
2.00936317444  -0.482480429341  -0.479810559686  0.413942837293  0.020936771495  -0.265547894583  -0.16274002164  
2.01746511459  -0.47119489301  -0.520899875573  0.431771475085  0.0228524403067  -0.259602968944  -0.196237884337  
2.02558112144  -0.458004938192  -0.562154116376  0.448380016323  0.0286278039038  -0.252658814837  -0.231744965798  
2.03377914429  -0.443446081206  -0.60371056418  0.463370284967  0.0391457228421  -0.243773015015  -0.26979753488  
2.04191207886  -0.427236907454  -0.644088352325  0.476361608723  0.0522050509882  -0.233552649821  -0.30928566236  
2.04999017715  -0.410332391726  -0.685479493325  0.488288701197  0.0706946151983  -0.222600424351  -0.350733039052  
2.05797410011  -0.392450399242  -0.726389481707  0.498778591167  0.0933597909031  -0.210498073751  -0.393831168223  
2.06613111496  -0.373727204595  -0.766165551034  0.507475770665  0.119956697763  -0.197854872027  -0.438267570507  
2.07419013977  -0.354301415319  -0.804985673101  0.514367779717  0.149211560683  -0.184764368337  -0.483728714907  
2.08226013184  -0.33471958821  -0.84343389703  0.520099656089  0.182897558327  -0.171320187695  -0.53071134787  
2.09038901329  -0.314703304037  -0.880872691582  0.524662773474  0.219686613079  -0.157615970374  -0.579691316557  
2.0984351635  -0.29438935758  -0.915070655519  0.527086699665  0.257247515207  -0.143239046549  -0.626265615415  
2.10653805733  -0.274320304871  -0.947903586016  0.52805284827  0.297344767093  -0.12930748542  -0.674237781167  
2.11458921432  -0.254617977246  -0.977583789917  0.526621620418  0.338654337822  -0.114888619102  -0.720847216877  
2.12293815613  -0.234585157872  -1.00318931554  0.522857236632  0.378861707945  -0.100084375352  -0.76340093165  
2.13104820251  -0.215169238805  -1.02626814709  0.517163034579  0.420770261593  -0.0849977704274  -0.80415041605  
2.1389901638  -0.196072795348  -1.04431445976  0.508974147266  0.46104287161  -0.0702368916246  -0.841264638613  
2.14706420898  -0.177408953166  -1.0589451386  0.498725119295  0.499459934381  -0.0558880075297  -0.875402243741  
2.15511703491  -0.159285646484  -1.06974689022  0.486529888748  0.537844778239  -0.0420323766385  -0.905609145219  
2.16324710846  -0.142618305101  -1.07795244789  0.473158131481  0.575957160674  -0.0282403725068  -0.934213983845  
2.17131519318  -0.126665425631  -1.08155518077  0.457753981057  0.610527565377  -0.0151031110877  -0.958648747677  
2.17944717407  -0.111916983718  -1.08185015873  0.441108480861  0.643440606937  -0.00268883703925  -0.97966417199  
2.18759012222  -0.0988448621482  -1.07891556089  0.423357362236  0.67655230914  0.0089409465173  -0.997209356835  
2.19564700127  -0.0874925841832  -1.07284671117  0.404961831239  0.706615603691  0.0197311725011  -1.01044645224  
2.20395612717  -0.0782979082396  -1.06375662969  0.386054172947  0.733509390297  0.0291276748264  -1.02020217447  
2.21203899384  -0.0720814419876  -1.05258187711  0.367089658007  0.75916129977  0.0376093247465  -1.02568930463  
2.21999311447  -0.0675927148887  -1.03742608988  0.347220902549  0.782429118902  0.0451445540545  -1.02616441287  
2.22806119919  -0.0656310987811  -1.01928488074  0.326917570524  0.803220978189  0.0506966421122  -1.02255217968  
2.23617100716  -0.0665564807381  -0.998748795006  0.306319428683  0.821463770875  0.0542765843014  -1.01497355367  
2.2442522049  -0.069481363457  -0.975198238034  0.285563314911  0.836091203798  0.0564142295464  -1.00276160263  
2.25243806839  -0.0751521813686  -0.949660426105  0.26478541609  0.849118391312  0.0571308662136  -0.98610325392  
2.26053118706  -0.0830618370514  -0.92153839313  0.243794650199  0.858479839034  0.0564557495296  -0.964400693958  
2.26870799065  -0.0931065073666  -0.891070932659  0.223051278864  0.86318997496  0.054426356106  -0.938719773304  
2.27675700188  -0.105578431716  -0.858910560531  0.20235925974  0.865351422645  0.0515933988085  -0.908509624015  
2.28501915932  -0.120747941814  -0.824898262266  0.181847734167  0.865013052375  0.0474887538804  -0.87406848898  
2.29310822487  -0.137641746457  -0.788889785488  0.16164206235  0.861225193511  0.0426738844925  -0.835715455186  
2.30105900764  -0.156924270601  -0.751563944585  0.141863532863  0.855104294882  0.036185280411  -0.794595899267  
2.30916810036  -0.17679053132  -0.71197855779  0.122626050501  0.8447227979  0.0291143698228  -0.749418804737  
2.31725215912  -0.198319073751  -0.670840524532  0.103716699365  0.830245521808  0.0210150740692  -0.702992859702  
2.32530212402  -0.220928477318  -0.628044501641  0.0852467365467  0.812873310757  0.0124683928796  -0.653217153103  
2.33343911171  -0.24526266766  -0.583900798205  0.0673228937986  0.791774759333  0.00303395291636  -0.602102542407  
2.34154605865  -0.271940518282  -0.538721313431  0.0500458084919  0.768182640102  -0.00720776315538  -0.549197567167  
2.34961414337  -0.299924725201  -0.492413509601  0.0335091526189  0.741295431785  -0.0181727222908  -0.494879363827  
2.35767316818  -0.328192558084  -0.444893964114  0.0174772985015  0.711360885022  -0.029774211095  -0.438716717285  
2.36592912674  -0.358590505444  -0.397299202993  0.00236285063895  0.679652519763  -0.0414178127211  -0.381917851811  
2.37399721146  -0.389657448677  -0.349933686785  -0.0114374748184  0.644391875508  -0.0540395431569  -0.324858827945  
2.3820400238  -0.454153309782  -0.255860484622  -0.0352036278691  0.56647563642  -0.0822956785784  -0.210613331091  
2.39006710052  -0.454153309782  -0.255860484622  -0.0352036278691  0.56647563642  -0.0822956785784  -0.210613331091  
2.39813709259  -0.51953152909  -0.164590650228  -0.0534616727302  0.480029887194  -0.112172837338  -0.0972791036679  
2.4061961174  -0.553133568144  -0.120687639656  -0.0603377964374  0.434669012115  -0.128085715697  -0.0419292527661  
2.41424918175  -0.585281282119  -0.077468628224  -0.066343992737  0.387632559056  -0.143821191092  0.0123699245862  
2.42237210274  -0.621090424818  -0.0364009459903  -0.0704951088172  0.339257492936  -0.160294654485  0.0644900202899  
2.43044114113  -0.658625903045  0.00230485416848  -0.0728079255629  0.290893782376  -0.177385098301  0.11415173673  
2.43853712082  -0.695166892632  0.039266651623  -0.0739572019923  0.241837365617  -0.193958138042  0.161907751733  
2.44655919075  -0.735382988486  0.0726783168134  -0.0729949932185  0.193426096136  -0.211437041777  0.207501504136  
2.45483517647  -0.774870128834  0.103621427127  -0.0709451395141  0.144941139306  -0.228679699106  0.249886235653  
2.4628970623  -0.810951118425  0.132363308394  -0.0678480029705  0.0966905419605  -0.244569888573  0.289677869909  
2.47089910507  -0.852422325675  0.156353313579  -0.0624558838302  0.0509973425896  -0.262072259159  0.326686684963  
2.47902011871  -0.889142058841  0.177971039883  -0.0561483302133  0.00606979343155  -0.278512169661  0.360744255336  
2.48708319664  -0.928706974307  0.194717210218  -0.0473739448167  -0.0378276458249  -0.295830817811  0.391704870645  
2.49512910843  -0.974873456741  0.205388401704  -0.035599239262  -0.0794297318454  -0.31592248335  0.419445919056  
2.50322699547  -1.02028275716  0.212481397053  -0.0225841556033  -0.118526254254  -0.336067523388  0.443058942211  
2.51131606102  -1.06099760634  0.217249467944  -0.0090883953791  -0.155940418554  -0.354617090378  0.46410991956  
2.51935100555  -1.09890106243  0.21891189413  0.00543597164975  -0.190464667354  -0.371995566484  0.481718880384  
2.5275080204  -1.13748185154  0.216724073869  0.0211964089773  -0.221947800934  -0.390649822895  0.495855203898  
2.53571915627  -1.18176993885  0.209176449599  0.0396775304967  -0.249251106749  -0.411445399246  0.505702697024  
2.54366111755  -1.22525434839  0.198056787423  0.0590855941955  -0.2733114904  -0.43217768531  0.512109256019  
2.55182409286  -1.26767206283  0.18392583484  0.0792732407861  -0.294054439112  -0.452714611346  0.515116966568  
2.55994200706  -1.3026794767  0.168559372573  0.0988027443212  -0.311427358874  -0.470907806315  0.514787602194  
2.56800413132  -1.34201789711  0.148857521876  0.120147183391  -0.325400270801  -0.490741281749  0.511202622237  
2.57609009743  -1.37924736196  0.127062700348  0.14151666937  -0.335965463089  -0.51053739144  0.504462187234  
2.58416819572  -1.41458224773  0.102961316121  0.163096273504  -0.342125550455  -0.529158459884  0.494684079151  
2.59232401848  -1.4478440454  0.0771641747587  0.18442169014  -0.344956642966  -0.547524775752  0.482811708144  
2.60039401054  -1.47683781392  0.0502791601085  0.205040678016  -0.344521233586  -0.564009943974  0.467352662547  
2.60845708847  -1.50554588456  0.0216959361334  0.225484493068  -0.340899586927  -0.580575417067  0.449297707823  
2.61657619476  -1.53135728828  -0.00755778137073  0.244982876417  -0.334190445624  -0.596610685154  0.428823902837  
2.62487220764  -1.55051471849  -0.036876153666  0.263111079317  -0.326532696035  -0.610508979113  0.406118571079  
2.63296508789  -1.56142432322  -0.0652642799409  0.279140824044  -0.315976672629  -0.621220044866  0.381378727166  
2.64097213745  -1.574784932  -0.0949845927691  0.2949567138  -0.302656083293  -0.633807824015  0.354809597385  
2.64902210236  -1.58761807892  -0.125416170024  0.310142777944  -0.286721127102  -0.646636149753  0.326623123367  
2.65707921982  -1.59334516896  -0.154734600988  0.323326084524  -0.269346463635  -0.657087813242  0.297036458779  
2.66519808769  -1.59900537684  -0.183989256643  0.335437774974  -0.250677554003  -0.667678957063  0.266270468733  
2.67344713211  -1.6037584466  -0.212997575094  0.346427583811  -0.23086353134  -0.678847439925  0.234548241354  
2.68147420883  -1.60271488575  -0.240370956704  0.355284075217  -0.210057241033  -0.687475075685  0.20209362066  
2.68957805634  -1.5980473911  -0.266376962139  0.362323571072  -0.18740272426  -0.694070019666  0.169129769546  
2.69767212868  -1.59028050554  -0.290480095534  0.367222250348  -0.164097942813  -0.699650806458  0.13587777126  
2.70595216751  -1.58035100881  -0.312572482613  0.3696772579  -0.139295715697  -0.703701522263  0.103364449345  
2.71400117874  -1.56349407513  -0.33256180149  0.370053092707  -0.115210735581  -0.705220978846  0.0701608645266  
2.72203421593  -1.54526292528  -0.35037135246  0.368074884403  -0.0909693151021  -0.706787229052  0.0373013802551  
2.73008513451  -1.52296464987  -0.36553658913  0.363487973694  -0.0657163191029  -0.706874725643  0.00498698061657  
2.73822116852  -1.49602102282  -0.378427422713  0.356705897364  -0.04064628222  -0.705516475558  -0.0265904448588  
2.74632716179  -1.46552586855  -0.388613073491  0.347823826422  -0.016926314389  -0.703766934852  -0.0580574144806  
2.75437903404  -1.43135114741  -0.396092884107  0.336625638752  0.00734716897125  -0.700130386566  -0.0875995886445  
2.76254200935  -1.39461389087  -0.400883794608  0.323559446804  0.0309978114156  -0.695178979586  -0.115882922173  
2.7705681324  -1.35520210767  -0.403019388164  0.308752854645  0.0538894223324  -0.688470089657  -0.142758915479  
2.77885913849  -1.31383561687  -0.402145698608  0.292018274135  0.0758949357731  -0.680087511481  -0.168090663818  
2.7868540287  -1.27123018344  -0.398742994827  0.273507778153  0.0968959253507  -0.670124288164  -0.191754308285  
2.79493403435  -1.22727910403  -0.392893428263  0.253703328942  0.116783149504  -0.658681081631  -0.21363951072  
2.80302214622  -1.18188588047  -0.384692279638  0.23276159356  0.135457025566  -0.646371365202  -0.233649831595  
2.81107211113  -1.1365922365  -0.373843981773  0.21051953222  0.151816572823  -0.633800051066  -0.252512182326  
2.81912302971  -1.08883755002  -0.360883329063  0.187471579592  0.167834970076  -0.619030770308  -0.26851680704  
2.8272190094  -1.04101336194  -0.34553966527  0.163460508749  0.182409473753  -0.603724374982  -0.282437669204  
2.83536505699  -0.990986673733  -0.328370000228  0.138983948388  0.194469500366  -0.586980920535  -0.294236939649  
2.84348201752  -0.940344413759  -0.309123455273  0.113885631812  0.206020245177  -0.569445291532  -0.303890279416  
2.85164308548  -0.889016864737  -0.287971105875  0.0880168309198  0.215991286286  -0.551248032084  -0.311387532375  
2.8596072197  -0.837751976522  -0.265092280229  0.0618818041822  0.22435591186  -0.532520333076  -0.316732452272  
2.86793804169  -0.785246990195  -0.240673174535  0.0353305302486  0.231099303242  -0.512887710112  -0.319942348095  
2.87591314316  -0.731862618438  -0.214905132403  0.00886326279568  0.237228541388  -0.491484244771  -0.32104765193  
2.88393521309  -0.678771405907  -0.187983686283  -0.0173538670083  0.240697913189  -0.469498030956  -0.320900585092  
2.89201807976  -0.626710600796  -0.159703257961  -0.0434834553896  0.242557810206  -0.447083477307  -0.317914384354  
2.9001531601  -0.574766074317  -0.130678700618  -0.0690393390647  0.242835796838  -0.423887043591  -0.312982960564  
2.908244133  -0.522856366542  -0.101112140497  -0.0938729055022  0.241567736099  -0.399568206341  -0.306184702134  
2.91626906395  -0.472122685904  -0.0708003201204  -0.118166752613  0.238798439034  -0.375318749426  -0.297607108131  
2.92444205284  -0.422046154917  -0.040356278961  -0.141457109642  0.235592437026  -0.349774637635  -0.28734687642  
2.93250107765  -0.372927829292  -0.00997649353256  -0.163619948434  0.228947519386  -0.324644079091  -0.275509071862  
2.94057512283  -0.326682894237  0.0205514636874  -0.18486443528  0.222018565793  -0.300078162237  -0.262206261263  
2.94878220558  -0.281504610491  0.0506274789523  -0.204755230643  0.213848023461  -0.275207827265  -0.247557621331  
2.9568810463  -0.238871844269  0.0800711143672  -0.223197998442  0.204516144946  -0.251208360963  -0.231688025956  
2.96496605873  -0.197775526817  0.108710849862  -0.240110357556  0.194109710892  -0.227200715237  -0.215536289867  
2.9730629921  -0.159658431227  0.136384152738  -0.255421494046  0.18272024994  -0.203842027134  -0.197594034487  
2.98107719421  -0.124285938265  0.163342160058  -0.269395182378  0.169431888056  -0.18126547919  -0.178825041083  
2.98920321465  -0.0918165768686  0.189027832745  -0.281652238035  0.156395870446  -0.159595496088  -0.159368817621  
2.99722719193  -0.0615738364488  0.213308266326  -0.292155445131  0.142679528272  -0.138442255854  -0.139365050636  
3.00535011292  -0.0349156068404  0.236062866181  -0.300879934317  0.128384921394  -0.118432758252  -0.118953575362  
3.01348805428  -0.0115202299498  0.257183673002  -0.307812609461  0.113616423035  -0.100172819938  -0.0990826562855  
3.02157115936  0.00854201963358  0.276979330103  -0.313275081145  0.098478928126  -0.0832314884945  -0.07824792533  
3.02972102165  0.0252232365676  0.294952614656  -0.316945184521  0.0840884445026  -0.0676841674978  -0.0574118366678  
3.03806400299  0.0380913931033  0.311032596471  -0.318841941082  0.0684969697769  -0.0541020844459  -0.0367073712227  
3.04614806175  0.0536558707294  0.338093902573  -0.317447013524  0.0352289578407  -0.0329788381439  0.0029897198119  
3.05406713486  0.0564149815612  0.348988155838  -0.314568595834  0.0198113114533  -0.0249698630765  0.0225735369567  
3.06219100952  0.0559011235018  0.358218843476  -0.310088467027  0.00463585271918  -0.0185118834499  0.0415493160965  
3.07022404671  0.0521954008288  0.365363432796  -0.304072216051  -0.0112195076089  -0.0136089491619  0.0590011934226  
3.07834100723  0.0453972232142  0.370829402445  -0.296917459852  -0.0266277032111  -0.01076078974  0.0764722599874  
3.08640408516  0.0352165447997  0.374218967367  -0.28837413025  -0.0404891585823  -0.00943149215152  0.0930438537532  
3.09447312355  0.0234246117733  0.37555950304  -0.278528976108  -0.0537631702989  -0.00908699728622  0.108631453866  
3.1026391983  0.0101362310804  0.374891341046  -0.267475467626  -0.0663806367329  -0.009705622212  0.123159648152  
3.11062502861  -0.00371537345741  0.372266399215  -0.25531241798  -0.0782771863393  -0.0107548094399  0.136561534102  
3.11878919601  -0.0188415204135  0.367747953789  -0.242143323836  -0.0904060054639  -0.0132285857456  0.148778940595  
3.12684512138  -0.0355235647471  0.36181317414  -0.228398351074  -0.0996515746664  -0.0165726385236  0.15976258899  
3.13491201401  -0.0523990921695  0.354130216658  -0.213855921982  -0.109054625013  -0.0207446255072  0.169472194024  
3.14302420616  -0.0693553164492  0.345192520232  -0.198949698354  -0.117543760282  -0.0251926784359  0.17787650529  
3.15110516548  -0.0862827315709  0.334683434649  -0.183460231291  -0.125085825904  -0.029881495196  0.185762460334  
3.15922904015  -0.102668111889  0.322706621353  -0.167499337936  -0.132666991823  -0.0357869870503  0.190665747028  
3.16735100746  -0.118013348132  0.308969333066  -0.150856566402  -0.139227887544  -0.041326764048  0.194241980606  
3.17548108101  -0.132652162664  0.294003587575  -0.133976144199  -0.14475011168  -0.0469785199303  0.197310944834  
3.18365716934  -0.14650889444  0.277934000946  -0.116971079157  -0.147200637201  -0.052198572417  0.199056940676  
3.1917951107  -0.159107700606  0.260888605193  -0.0999520436196  -0.150680284267  -0.0574692874523  0.198690335387  
3.1999630928  -0.170398198958  0.242998761613  -0.0830273547226  -0.153124097136  -0.0627565849008  0.197881179008  
3.20797419548  -0.18033993213  0.223994383609  -0.0659792138027  -0.153527612166  -0.0675208239509  0.195837679388  
3.21595311165  -0.188901955396  0.204425609823  -0.0492411360167  -0.153958635099  -0.0717437048077  0.192601288599  
3.22408604622  -0.196062806587  0.18402676552  -0.0325893524179  -0.152393019785  -0.0759170609624  0.188220896017  
3.23212718964  -0.20181041661  0.163349969151  -0.0164498766779  -0.151920396006  -0.0800161519066  0.181942311  
3.24024820328  -0.206141962545  0.142129851501  -0.000590334794854  -0.148475168889  -0.0830053022701  0.176277131288  
3.24831700325  -0.209063665626  0.12051342891  0.0148957348394  -0.145179943534  -0.0859023416629  0.168012586892  
3.25637316704  -0.210590536686  0.0986471627285  0.0299190426199  -0.140032359772  -0.088186443971  0.160496128032  
3.2645380497  -0.210746071941  0.0766756146256  0.0443953563059  -0.135129866555  -0.0903628974921  0.151333548519  
3.27259802818  -0.209561902217  0.0547405753393  0.0582459147157  -0.128476955074  -0.0914095477433  0.14142867169  
3.28088402748  -0.207077398945  0.0329802317109  0.0713977968987  -0.122178192176  -0.0923570106861  0.130862805252  
3.28888511658  -0.203339240468  0.0115283763805  0.0837842455023  -0.114244327041  -0.0926969879634  0.119718652004  
3.29690599442  -0.198400942329  -0.009486335865  0.0953449433754  -0.106785303866  -0.0929469626266  0.107271444486  
3.30502319336  -0.192322355398  -0.0299410814845  0.106026242765  -0.0978163569206  -0.0920965735072  0.0952485603001  
3.31306910515  -0.185169135764  -0.0497195081173  0.11578134678  -0.0894510144942  -0.0911877620858  0.0820995097102  
3.32118821144  -0.177012190445  -0.0687123182726  0.124570443114  -0.0817301050958  -0.0897230283892  0.0687418815528  
3.32930207253  -0.16792710298  -0.0868177944137  0.1323607903  -0.0716528808541  -0.0877243419566  0.0560753468383  
3.33741807938  -0.157993543052  -0.103942263499  0.1391267571  -0.0623704048749  -0.085217073191  0.0433554590292  
3.34553313255  -0.147294664235  -0.12000049948  0.144849815872  -0.0519029401245  -0.0822292131795  0.0314724310408  
3.35375714302  -0.13591649399  -0.134916062672  0.14951849107  -0.0413543299096  -0.0787911339136  0.0188642135789  
3.36192321777  -0.123947319948  -0.148621575356  0.153128264261  -0.0318059085332  -0.0749353391203  0.00643542922682  
3.36990904808  -0.111477076455  -0.161058933381  0.155681437292  -0.0222840401281  -0.0706962075042  -0.00573853690079  
3.37796211243  -0.0985967352816  -0.172179453934  0.157186955485  -0.0118359238377  -0.0656040026505  -0.0175865698274  
3.38608503342  -0.0853977042385  -0.181943960083  0.157660192911  -0.00156020291236  -0.0607222126809  -0.0290413122497  
3.39420509338  -0.0719712373324  -0.190322803039  0.157122702026  0.00746954869813  -0.0560777635821  -0.0408486709054  
3.40231513977  -0.0584078599289  -0.197295823485  0.155601930084  0.0172475553378  -0.0506831868881  -0.0513079317207  
3.41043305397  -0.0447968122059  -0.202852253672  0.153130904937  0.0256732781087  -0.0456007117048  -0.0611922981039  
3.41856408119  -0.0312255139909  -0.206990562306  0.149747892924  0.0347462214784  -0.0398449456656  -0.0704536446644  
3.42661213875  -0.0177790538676  -0.209718244566  0.145496031687  0.0433841745251  -0.0344785798738  -0.0790480782821  
3.43485808372  -0.00453970521271  -0.2110515599  0.140422940842  0.0505301915258  -0.0290218164008  -0.0877461462034  
3.44291710854  0.00841352841023  -0.211015220489  0.134580313498  0.0571848333829  -0.0235108592969  -0.094872767955  
3.45095419884  0.0210053363148  -0.209642033547  0.128023491664  0.0643301331353  -0.0174763007247  -0.101227585614  
3.45914316177  0.033164490283  -0.206972500801  0.120811028628  0.06988729203  -0.0119795772057  -0.106789532674  
3.46716713905  0.0448241990101  -0.203054378722  0.113004241381  0.0748681535869  -0.00603255402601  -0.111542207872  
3.47529506683  0.0555157314717  -0.197942203226  0.104666756173  0.0792559269218  -0.000188197436289  -0.115474730355  
3.48339819908  0.065600598582  -0.191696782702  0.0958640502337  0.0830369025757  0.00501271294697  -0.118581677347  
3.49154615402  0.0750297309982  -0.184384663333  0.0866629926586  0.0872129983598  0.0100576046853  -0.120862988714  
3.49961209297  0.083758950051  -0.17607757076  0.0771313873968  0.0897265115717  0.0149187458592  -0.123133008038  
3.50789618492  0.0913428704425  -0.166851832193  0.0673375211765  0.0916103505093  0.0195696901592  -0.123760139279  
3.51594400406  0.0981669161641  -0.156787783096  0.0573497191254  0.0928686273747  0.0239859528177  -0.123586925758  
3.52392506599  0.10420633367  -0.145969162567  0.0472359107165  0.0935082442491  0.0286507519892  -0.122634363965  
3.53201007843  0.109034898708  -0.134482501535  0.0370632085456  0.0945513152064  0.0325178775997  -0.120927029153  
3.54007506371  0.113056967443  -0.122416507795  0.0268975023064  0.0939598015632  0.0360863416121  -0.118493696873  
3.54809617996  0.115859963698  -0.109861451881  0.0168030701753  0.0927856290178  0.0393411646504  -0.115367060656  
3.55628800392  0.117861374199  -0.0969085576343  0.00684220965499  0.0910511777486  0.0422691729192  -0.111583431561  
3.56433820724  0.119068010241  -0.0836494012223  -0.00292511024499  0.0887807692197  0.0448595777705  -0.107182421948  
3.57243800163  0.119084431653  -0.0701753222215  -0.012441573794  0.0870129980486  0.0471039873675  -0.102206615836  
3.58060407639  0.11834510391  -0.0565768502051  -0.0216528187805  0.0847367402304  0.0489964028765  -0.0967012282646  
3.58878421783  0.116873122813  -0.0429431501046  -0.0305077108878  0.0819774416688  0.0505331995787  -0.0907137560809  
3.59689617157  0.114695245801  -0.0293614894149  -0.0389585910812  0.0777526298343  0.0517130933814  -0.0851027903505  
3.60490608215  0.111435374647  -0.0159167300994  -0.046961495079  0.074145773398  0.0525370932872  -0.0782774735177  
3.6129360199  0.107546170435  -0.00228736040872  -0.054799190709  0.0691442894775  0.0530084404571  -0.0711173990266  
3.62103700638  0.102661090773  0.0110327694803  -0.0621034188188  0.0638223517847  0.0526268077247  -0.0644859502093  
3.62909221649  0.0964275686963  0.0243697243908  -0.0691629711661  0.0592338524792  0.0519200897843  -0.0567951210007  
3.63725209236  0.0893234536607  0.0376388918333  -0.0759393524348  0.0533686068363  0.0514067650269  -0.0489263054065  
3.64532709122  0.0810083223203  0.0507577653296  -0.0823963396137  0.0483149136622  0.0500745736588  -0.0409344834418  
3.65346121788  0.0719698574718  0.064050335313  -0.0888233480491  0.0430762119684  0.0484560854305  -0.0328732442078  
3.66152620316  0.0618763958565  0.0774286338995  -0.0951807859184  0.0366775800858  0.0460631827915  -0.024795342269  
3.66977405548  0.0508164888184  0.0908059058659  -0.101430005638  0.0301975446654  0.0434346418043  -0.0167523830692  
3.67792010307  0.0392900245168  0.103693695826  -0.107211024061  0.0236802004192  0.0405932699337  -0.00879452311568  
3.68600606918  0.026974816473  0.117232164743  -0.113144148835  0.0171677508392  0.0375621419202  -0.000970186478373  
3.69396018982  0.0135606622123  0.131321302071  -0.119188838997  0.0107013645905  0.0338592599865  0.0058650336554  
3.70202803612  -0.00043509645939  0.145455111984  -0.124981274873  0.0053323923571  0.0300292627499  0.0133088031757  
3.7101252079  -0.0305724162558  0.176700186556  -0.137929541735  -0.00708404937513  0.0201052050164  0.0273744752433  
3.71824216843  -0.0468908304659  0.193562372214  -0.144658044131  -0.0140357606761  0.0146072156191  0.0331105298584  
3.7262160778  -0.0637451450185  0.210816201922  -0.15127979228  -0.0207342284386  0.00864122132674  0.0393085565394  
3.73429703712  -0.0810158615983  0.229150144321  -0.158401039897  -0.0271419323235  0.00225608016368  0.045110835433  
3.74237418175  -0.0989901897156  0.24923011845  -0.166288674622  -0.0342366199412  -0.00449776066069  0.0504891327543  
3.75052404404  -0.117131187628  0.270081093007  -0.174229211972  -0.0439809606545  -0.0115687163706  0.0554194375548  
3.75859808922  -0.134506160544  0.289534061824  -0.181523447745  -0.053217960309  -0.0183986923793  0.0598811499872  
3.76665711403  -0.151835606359  0.309918007524  -0.189109492905  -0.062909154326  -0.0259610353341  0.0638571307646  
3.77474999428  -0.169418311333  0.333505259955  -0.198225584466  -0.0750064768688  -0.0346970969389  0.0673337275047  
3.78291201591  -0.185510541135  0.354423300475  -0.205871323016  -0.0863438103438  -0.0430070341489  0.0703007783432  
3.79092121124  -0.200450594107  0.373807626697  -0.212676176943  -0.0968641198734  -0.0508466827171  0.0727515933324  
3.79901814461  -0.216205066044  0.39762599514  -0.221525670746  -0.110565955988  -0.0596947084819  0.0746829142737  
3.80711603165  -0.231436801838  0.423610787294  -0.231671258647  -0.126279463313  -0.068461203318  0.0769040205067  
3.81518316269  -0.246060371872  0.451543593189  -0.242694731203  -0.1438562891  -0.0781029047119  0.079394779344  
3.82328510284  -0.259590937037  0.479990447349  -0.2538589122  -0.162129235911  -0.0870217746093  0.0829420359973  
3.8314511776  -0.271968189916  0.509968049541  -0.266057434811  -0.180964638485  -0.095682477014  0.0874991561584  
3.83949017525  -0.282734497815  0.540040688687  -0.278543330684  -0.201241354442  -0.10403688282  0.091394921561  
3.84759807587  -0.29226608971  0.570821237021  -0.291875613816  -0.222797451727  -0.112039315308  0.0954278040693  
3.85588407516  -0.299719049592  0.601695007288  -0.305627383439  -0.245466036137  -0.119647415366  0.0995698403425  
3.86395406723  -0.305501394857  0.632867210929  -0.320346454054  -0.270088394473  -0.127328057328  0.102983009636  
3.87193703651  -0.309209944686  0.66292282409  -0.334948659535  -0.293428500578  -0.134019912972  0.106471312698  
3.88003516197  -0.310870079358  0.693310901072  -0.350634559816  -0.316377289955  -0.139702997694  0.109202546454  
3.8880841732  -0.310519995562  0.724639589484  -0.367281168242  -0.339811120707  -0.14436527742  0.112794706676  
3.89615821838  -0.308209725088  0.755074638084  -0.384113565083  -0.363570791273  -0.148507201618  0.115588104968  
3.90423417091  -0.304000536159  0.784442637554  -0.401019933393  -0.387498117806  -0.151609703614  0.118391469094  
3.91246509552  -0.297964277773  0.814196927016  -0.418537783829  -0.41042597581  -0.153677297548  0.121996797337  
3.92052102089  -0.29018267256  0.842123796229  -0.435573012152  -0.433242971109  -0.155227122709  0.124744715014  
3.92862510681  -0.28074656387  0.869298069001  -0.452996417897  -0.455808363175  -0.155756577637  0.127445632656  
3.93682122231  -0.269755122944  0.896373737609  -0.471012666239  -0.477985085267  -0.155286034951  0.130084410346  
3.94493317604  -0.25731502215  0.922375298236  -0.48949294078  -0.499641605838  -0.153842262268  0.132645797772  
3.95298099518  -0.243539580335  0.945548466388  -0.506695292075  -0.518630293226  -0.150951928717  0.135115374377  
3.9609541893  -0.228547886362  0.968233182564  -0.524798787661  -0.537926417833  -0.147678486121  0.137479550278  
3.96906399727  -0.212463906917  0.987474966297  -0.54140981619  -0.55436904002  -0.143547247335  0.138916820274  
3.97716808319  -0.195415584624  1.00645907072  -0.559038734775  -0.569941642271  -0.138604264127  0.14024842061  
3.98525118828  -0.177533932388  1.0230570108  -0.575938201178  -0.583556906968  -0.132900179199  0.141469264119  
3.99337410927  -0.158952129833  1.0360075153  -0.59104826461  -0.593151092317  -0.126489255662  0.141765103366  
4.00151705742  -0.139804627479  1.0473316605  -0.606251170486  -0.601791020857  -0.119428946937  0.140346056898  
4.00961399078  -0.120226264187  1.05699859116  -0.621128122834  -0.607425145817  -0.111779456647  0.139688494214  
4.01785421371  -0.100351403115  1.06135459148  -0.633009075549  -0.610087080556  -0.103603291555  0.13735359283  
4.02588820457  -0.0799063980542  1.06009090343  -0.641564362786  -0.608819191397  -0.0949648105258  0.135011786624  
4.03389811516  -0.0594406774536  1.06222650797  -0.653598264163  -0.605744807082  -0.0859297724748  0.131870649556  
4.0420050621  -0.0390849093163  1.06202703506  -0.664439443943  -0.598905644288  -0.0765648861999  0.127968241518  
4.05003499985  -0.0185589231732  1.05873618235  -0.673719489878  -0.589443892187  -0.0669373648915  0.124156573696  
4.05817317963  0.00159694560949  1.05325454375  -0.681739580497  -0.577482991459  -0.0571144880449  0.119649350995  
4.06626200676  0.0216699823003  1.04486277262  -0.688155963447  -0.562146757645  -0.0471631733707  0.114490825089  
4.07433009148  0.0411286475492  1.03448948863  -0.693289078052  -0.54563432673  -0.0376552866717  0.10872918904  
4.08243608475  0.0602704558187  1.02184495853  -0.697136779649  -0.526057802592  -0.0276296452793  0.103224478482  
4.09057307243  0.078982030533  1.00706293071  -0.699382780408  -0.504623455641  -0.0181724899464  0.0963880134213  
4.09883117676  0.0971548900282  0.99028795425  -0.700373061545  -0.481512436221  -0.00882560822383  0.0899114088149  
4.10685610771  0.115500122528  0.972077260552  -0.700131934264  -0.45589968292  0.000354909765129  0.0830197284209  
4.11492919922  0.133491412822  0.952177293683  -0.698689838999  -0.430028888399  0.00931482187388  0.0757656686225  
4.12294220924  0.151429383137  0.929946982562  -0.695438790946  -0.403060908173  0.0180025746005  0.068203834962  
4.13107013702  0.169202020462  0.905985398307  -0.690764580276  -0.374180267241  0.0268752912823  0.0603894853093  
4.13913321495  0.185887297631  0.878064758373  -0.682794054674  -0.343614462178  0.0353671403765  0.052378164044  
4.14719319344  0.203031109899  0.849681904985  -0.674236742607  -0.312608793822  0.0434328065256  0.0442253431223  
4.15536403656  0.219702223538  0.819013595796  -0.663549478073  -0.282382625486  0.0515369257462  0.0351769070197  
4.16352915764  0.237838696589  0.789938202895  -0.653754272204  -0.251087402401  0.0596278432555  0.0269289841035  
4.17156815529  0.255666199269  0.759781264824  -0.642635381521  -0.220967682177  0.067654581517  0.0187073873567  
4.17960619926  0.273077324467  0.727949783507  -0.629646762881  -0.190165710212  0.076073507419  0.0105627451248  
4.18763613701  0.291191583487  0.696298461322  -0.616205824185  -0.159902266302  0.0848224628716  0.00254485928645  
4.19589805603  0.30825204705  0.662604285652  -0.600472934558  -0.129346025836  0.0928266847417  -0.0052984563637  
4.20392417908  0.325393964173  0.628740988856  -0.58389155966  -0.0986965793201  0.101063418083  -0.0129216319401  
4.21192407608  0.342914537348  0.595332479655  -0.566911223502  -0.0691618931878  0.109981818089  -0.0202815769819  
4.22002220154  0.361507604995  0.562580162967  -0.549649405983  -0.0409037678255  0.119003950258  -0.0273378946481  
4.22810912132  0.37981067564  0.529465509585  -0.531253790023  -0.01407079179  0.127563886212  -0.0340530737434  
4.23615908623  0.399339892885  0.497416321738  -0.512835365482  0.013223349465  0.136629168792  -0.0395834931427  
4.24424600601  0.420350722732  0.466611820243  -0.494512473084  0.0387743000733  0.145625761488  -0.0455397359609  
4.25235414505  0.44023519707  0.434796390354  -0.474462019382  0.0624591904207  0.153991998935  -0.0510664821902  
4.26041817665  0.461738004513  0.404210888923  -0.454464261233  0.084172255798  0.163712101198  -0.0561380450379  
4.26872706413  0.483060802944  0.373407889435  -0.433355159914  0.103822747487  0.172671606756  -0.0607331001974  
4.27685809135  0.506917618626  0.34460391669  -0.412907717633  0.121335150698  0.182346723657  -0.0648338513313  
4.28491616249  0.531066715073  0.316321957997  -0.391946262652  0.138672200449  0.193166539696  -0.0676168944675  
4.2929520607  0.554939086267  0.288727160519  -0.37061452172  0.153707426638  0.204024234686  -0.0707133909155  
4.30095410347  0.57879632875  0.261574629248  -0.348733687394  0.166398097716  0.215354812703  -0.073288823144  
4.30909109116  0.602081210132  0.235025544105  -0.326455185674  0.17773097649  0.226570013842  -0.0753383916293  
4.31720113754  0.624659390322  0.208830372059  -0.303606956627  0.187667596653  0.238612298423  -0.0768616108352  
4.32525110245  0.642744501999  0.181935679528  -0.27937851428  0.196178175512  0.248858206785  -0.0778613435171  
4.3333170414  0.657138134807  0.154930790474  -0.254277994558  0.203242679004  0.257282805201  -0.078343702936  
4.3414041996  0.676784475484  0.130007664333  -0.230099833305  0.206827818014  0.268933158764  -0.0783179367916  
4.34950613976  0.69534351928  0.105259233871  -0.205362964736  0.209014353404  0.28062975397  -0.0777962940453  
4.35763716698  0.714343711972  0.0812397482971  -0.180558517175  0.209823855188  0.293305541828  -0.0767938758855  
4.36584401131  0.731215792818  0.057680897188  -0.155522938321  0.209283943947  0.304835154333  -0.0753284721549  
4.37385606766  0.74712078926  0.0347206414187  -0.130420090733  0.207430137799  0.316181950848  -0.073420384625  
4.3819270134  0.762388967958  0.0128938779422  -0.10573346235  0.204305439388  0.328290974128  -0.0710922385494  
4.38994622231  0.776125640849  -0.0080910376244  -0.0812872470592  0.199959885262  0.341068319742  -0.0683687839693  
4.39833521843  0.796011280947  -0.0478888428905  -0.0330697240815  0.186827328146  0.363746509583  -0.0610586662267  
4.40643405914  0.801732060081  -0.0664879974072  -0.00958961572641  0.1782004414  0.373536942135  -0.0565355137888  
4.41442799568  0.802642699302  -0.0842232818087  0.0133928175536  0.169660317459  0.381233316479  -0.0517606747344  
4.422560215  0.79925712462  -0.101002811772  0.0357437177695  0.16024885499  0.386836012695  -0.0475804355769  
4.43065404892  0.798206116631  -0.116742947336  0.0573364142524  0.149034098172  0.394405105785  -0.0431988571621  
4.43892002106  0.797414508986  -0.131368627035  0.0780520557221  0.137140209625  0.402333097155  -0.0394568018419  
4.44697499275  0.793625623179  -0.144813639714  0.0977801777524  0.124659825878  0.408536574694  -0.0355544843023  
4.45493006706  0.786931188148  -0.15702083376  0.116419203571  0.111686014808  0.41352088044  -0.0315195878335  
4.46305012703  0.77866282664  -0.167942263934  0.133876876607  0.0983127587364  0.418295310746  -0.0257625173752  
4.47115516663  0.768911697797  -0.177539276343  0.150070623662  0.0846343368886  0.422330043987  -0.0207864876266  
4.47931313515  0.755334826872  -0.185782532494  0.164927848063  0.0717559805774  0.424099381214  -0.0157979042943  
4.48734712601  0.741360105183  -0.192651973713  0.178063779317  0.0577188654872  0.425667164671  -0.0108278235925  
4.49541711807  0.724649015169  -0.198136727593  0.189758111653  0.0436486319247  0.425513338642  -0.0059073128163  
4.50351810455  0.704963272131  -0.202234958423  0.199971343389  0.0296363482553  0.423172476342  -0.00106638608998  
4.51178002357  0.685344643056  -0.20495366389  0.208673956221  0.0157694657557  0.420733695921  0.00366616085518  
4.51979804039  0.663885681544  -0.20630842062  0.215846710358  0.00213243394207  0.416699876468  0.00826290424986  
4.52789521217  0.641983998988  -0.20632308138  0.221480522023  -0.0111937633945  0.411638531428  0.0126979335054  
4.53605413437  0.618976892742  -0.205029427026  0.225576279482  -0.0241320391458  0.405606822392  0.0169469794811  
4.54402899742  0.595442326573  -0.202466776456  0.228144600226  -0.0366095988917  0.398665972442  0.0209875292947  
4.55219221115  0.571949169074  -0.198681558069  0.229205532258  -0.0485583002737  0.390375976271  0.0247989272691  
4.56021714211  0.548239112123  -0.193726846334  0.228788202701  -0.0599149743287  0.380820934598  0.0283624617034  
4.5683221817  0.524873878288  -0.187661867256  0.226608044079  -0.070621707653  0.370597233499  0.0316614372577  
4.57644414902  0.501993823816  -0.180954961729  0.223365583569  -0.0806260845363  0.359786036908  0.0346812328328  
4.58451604843  0.479325763024  -0.173260863073  0.218784584271  -0.0898813884857  0.347964225081  0.0374093449242  
4.59260511398  0.457007919783  -0.164651394838  0.212603204661  -0.0983467628262  0.335735866033  0.0398354165205  
4.60089302063  0.435580138029  -0.155202907765  0.205220723034  -0.106998778174  0.323188786386  0.0419512517073  
4.60887908936  0.414750831648  -0.145398834864  0.196713325063  -0.113756335582  0.310410107989  0.0437508162228  
4.6168820858  0.395450759048  -0.1353101241  0.187161604624  -0.119630933904  0.297486254305  0.0452302242977  
4.62501311302  0.376140098376  -0.124604016857  0.176328202503  -0.124607417184  0.283996978246  0.0463877121875  
4.63306999207  0.358566353591  -0.113766214745  0.16463477897  -0.128675598864  0.271052147688  0.0472235988811  
4.64121818542  0.342801458497  -0.10286889384  0.152176170689  -0.131831292767  0.258721866106  0.0477402345422  
4.64926218987  0.32768225523  -0.0915790672977  0.138726807233  -0.135087644471  0.246058329989  0.0479419372993  
4.65738320351  0.310847962977  -0.0799772088385  0.124717541247  -0.137411253796  0.23213721284  0.047834919064  
4.66549921036  0.292443477096  -0.0681442889772  0.11025084608  -0.138808490602  0.217075592679  0.047427201108  
4.67350411415  0.279536198516  -0.0569678812705  0.0951077877729  -0.138281083324  0.20605312624  0.046728520178  
4.68175601959  0.27167783198  -0.0469076674799  0.0794004838481  -0.137899962312  0.19803769075  0.0457502259681  
4.68996906281  0.265137730074  -0.0375976344949  0.0638862986791  -0.135643339594  0.191490416438  0.0445051708064  
4.69792604446  0.26032876404  -0.0290786208668  0.0483373081216  -0.131568147671  0.185404720342  0.0430075924388  
4.70595216751  0.256427392785  -0.0209823332223  0.0325298154534  -0.127765992373  0.180312936428  0.0412729908183  
4.71416401863  0.253435794973  -0.0137530947521  0.0172149559396  -0.123245394315  0.175212799171  0.0393179998235  
4.72214603424  0.251351296768  -0.00782002971878  0.00247926332698  -0.118051014406  0.170641383188  0.0371602548394  
4.73027205467  0.250165631872  -0.00319044836754  -0.0115976216126  -0.11223180765  0.166615729895  0.0348182571389  
4.73835015297  0.249458246815  0.00013739768832  -0.0252645964178  -0.105839525704  0.163148284533  0.0323112360008  
4.74650812149  0.249628411023  0.00176979432752  -0.0377998046796  -0.0979170639347  0.160247846057  0.0296590094922  
4.75457811356  0.24984132121  0.0017362858225  -0.0491501011735  -0.0905724724024  0.157413592073  0.0268818448293  
4.76276612282  0.250093738195  -0.000326777019379  -0.0589487759559  -0.0818182208947  0.154661373194  0.0240003192127  
4.77092814445  0.249163142204  -0.00234086426899  -0.068139651344  -0.0727524222542  0.151500867943  0.0210351820069  
4.77894711494  0.249115529353  -0.00752046180351  -0.0753869786946  -0.0624295968491  0.149478544685  0.0180072191068  
4.78698301315  0.249119093766  -0.0141467809001  -0.0813360963724  -0.0519554445072  0.147064610727  0.0149371202987  
4.79517102242  0.2491717227  -0.0221415779852  -0.0863033288757  -0.0403896033285  0.144787683974  0.011845350385  
4.80319714546  0.248865224192  -0.0314218104492  -0.0902808868621  -0.0288417204213  0.142659577154  0.00956118683708  
4.81133699417  0.248616337782  -0.0418978849652  -0.0932669997701  -0.0153627678898  0.140184518367  0.00646244577905  
4.81935620308  0.24842570754  -0.0538786196402  -0.0949435686237  -0.0010933993391  0.138397353863  0.00339557065812  
4.82744812965  0.247886465058  -0.0672526148173  -0.0956531382594  0.0128445937589  0.135776967865  0.000380114360844  
4.83558011055  0.247009883854  -0.0819019488728  -0.0950921836799  0.0283925415228  0.13387523663  -0.00256602988378  
4.84381318092  0.245809544439  -0.0981069989352  -0.0932937566949  0.044404123562  0.131677399636  -0.00542583382949  
4.85187911987  0.243894159839  -0.115728465608  -0.0902985964699  0.0607659110053  0.129709070017  -0.0081832215884  
4.85984301567  0.24129234873  -0.135024434608  -0.0858313102447  0.0783772967764  0.127472086882  -0.0108231488911  
4.86787819862  0.238037025727  -0.155026217696  -0.0802782011389  0.096086553516  0.125492201352  -0.0133316739215  
4.87594914436  0.234164277031  -0.175992845722  -0.0733778016071  0.114789447323  0.123270575346  -0.0156960194784  
4.88410115242  0.229306741934  -0.197365308651  -0.0655283984497  0.133333230845  0.120826593545  -0.0179046262754  
4.89217209816  0.223518200564  -0.219401610342  -0.0564798266165  0.151603234112  0.118181038118  -0.0199471972519  
4.90029001236  0.21685739825  -0.241543119184  -0.0463180954563  0.170501594166  0.115355474693  -0.021814732829  
4.90841603279  0.209794092324  -0.263646535346  -0.0357788459886  0.188883201518  0.11237209711  -0.023499557101  
4.91648817062  0.20238297598  -0.285976220898  -0.023970973462  0.206642732147  0.108747848792  -0.0249953350132  
4.92455601692  0.194272707046  -0.307982186241  -0.0119660563391  0.224693842978  0.105531851015  -0.0254879191653  
4.93284010887  0.185937583281  -0.329935582739  0.000476919378658  0.240893360107  0.101218698752  -0.0274246626931  
4.94102215767  0.177029444068  -0.351295532517  0.0132685286865  0.256191712103  0.0968716465087  -0.0283340622  
4.94889521599  0.168024739096  -0.372343792005  0.0263198592666  0.271526071126  0.0930257734053  -0.0282321801044  
4.95702004433  0.158983192332  -0.392954680268  0.0395419021921  0.285788010987  0.0891884542173  -0.0287620379439  
4.96509313583  0.149556401365  -0.413411611946  0.0528472486611  0.299922985703  0.0853832686339  -0.0290978282629  
4.97315120697  0.139812852578  -0.433185324855  0.0661491925325  0.312834048704  0.0816335749943  -0.029241168873  
4.98125910759  0.130228444908  -0.452569954606  0.0793638651327  0.324467375182  0.0774561014783  -0.0291957284401  
4.98933005333  0.120453992987  -0.471452207739  0.0924096636913  0.335790864238  0.0733926848309  -0.0289662851319  
4.99743509293  0.110962140896  -0.48972433071  0.105207807961  0.347752821758  0.0689611925385  -0.0285586699384  
5.00556921959  0.101400180164  -0.50688151671  0.117360211672  0.359251871784  0.0652093742625  -0.0279797046657  
5.01362919807  0.0922366494104  -0.523244568297  0.129127691467  0.370224851747  0.0611344899262  -0.0272371351234  
5.02162218094  0.0831138153608  -0.538729169564  0.140445245035  0.381626345659  0.0572745973642  -0.0263395600436  
5.02972412109  0.0740882005878  -0.552854378382  0.151251261345  0.391352079245  0.0531439675381  -0.0252963562835  
5.03791117668  0.0656214007111  -0.565966220874  0.161167502135  0.401400782449  0.0492804048345  -0.0249267618065  
5.04593610764  0.0573474509999  -0.578006017869  0.170474293613  0.410691988031  0.0451968707645  -0.0235996458909  
5.05419111252  0.0419724760295  -0.599873506004  0.187724526733  0.429845941615  0.0374899622047  -0.0206015416379  
5.06218910217  0.0349471757157  -0.60959841576  0.195260800165  0.438568354585  0.0339120238918  -0.0189557798498  
5.07027816772  0.0286812442674  -0.619266309023  0.202674511514  0.447339553046  0.0302047472662  -0.0172289935876  
5.07832622528  0.0227899948217  -0.628414542634  0.209277149781  0.455092226121  0.0263941668936  -0.0154340567991  
5.08632707596  0.0173015197189  -0.637400626513  0.215368110828  0.463823442729  0.0225068966509  -0.0135839692631  
5.09443616867  0.0122410328776  -0.646171884769  0.220599020735  0.472445307852  0.0190751260251  -0.0116917711857  
5.10244321823  0.00803703151615  -0.655081306244  0.225279671886  0.480904488778  0.0150988753674  -0.00977045957122  
5.11054515839  0.00428963614652  -0.664069558123  0.229393732264  0.489151417126  0.011626659359  -0.00783290685681  
5.11883020401  0.00141799619055  -0.673077785242  0.23292869157  0.498150116929  0.00866958901875  -0.00589178227129  
5.12685918808  -0.000580170449606  -0.682451889477  0.235876291369  0.5068154924  0.00572843548482  -0.00395947635313  
5.13488507271  -0.00171297198921  -0.692124270459  0.238231816201  0.516110706791  0.00332664386437  -0.00204802903028  
5.14291405678  -0.00158702475807  -0.702026516686  0.239994415761  0.524951684909  0.000961433068831  -0.000169061633336  
5.15102314949  -0.000639413512811  -0.712090292176  0.241167018768  0.53531479701  -0.00135361679226  0.00166628682061  
5.15908408165  0.00151056440859  -0.723055112623  0.24175707335  0.547100507559  -0.00309939479581  0.00344741877109  
5.16712403297  0.00441452273  -0.734023842807  0.241451474741  0.559188633134  -0.00427773558052  0.0051643324181  
5.17520904541  0.00844227767495  -0.744522408409  0.240272738198  0.572505705651  -0.00489466539039  0.00761683120462  
5.18334722519  0.0135420038199  -0.754898487048  0.238249386088  0.58592790478  -0.00495962625214  0.00915442198136  
5.19139409065  0.0196558753915  -0.764686258497  0.235414051562  0.598355109224  -0.0049910569329  0.0105965375676  
5.19954705238  0.0271277032892  -0.774240622189  0.231804398689  0.612765259681  -0.00397865542203  0.0127463372015  
5.20762300491  0.0362849498073  -0.783103605278  0.227138884389  0.627000216053  -0.00195257893121  0.0139559106291  
5.21581602097  0.0466232233919  -0.791638421303  0.221794694783  0.642994616207  0.000544402043128  0.01504737195  
5.2238471508  0.0584551479063  -0.799395814646  0.215499354839  0.658584693927  0.00399052999179  0.0168266417549  
5.23189806938  0.072077223437  -0.806344570475  0.208315048782  0.674690313273  0.00783620547812  0.017648631807  
5.24000120163  0.0869543573525  -0.812056293027  0.199663249391  0.692209832844  0.0130584459783  0.0191474784694  
5.24810504913  0.103368544682  -0.816523855909  0.189955385453  0.70998801592  0.0190866763647  0.0204901624854  
5.25619506836  0.121179608322  -0.819748435174  0.179278464159  0.727904918543  0.025863061026  0.0208618557672  
5.26429700851  0.140241506675  -0.821739247116  0.167400847825  0.744832403479  0.0338325691037  0.0210915858406  
5.2723801136  0.160403553618  -0.822109532591  0.15474803931  0.761696860467  0.0424110285161  0.0211821436639  
5.28046607971  0.181511861191  -0.820894959426  0.141096662413  0.778393966204  0.051529123141  0.0219454250774  
5.28853607178  0.203003324278  -0.817333861414  0.126555719351  0.793810596195  0.0616219365569  0.0217431421986  
5.2965400219  0.225545528967  -0.812714395489  0.11156224033  0.810912527951  0.0726027528645  0.0214069609809  
5.30462503433  0.248564859052  -0.805881683515  0.0962211608695  0.825508940633  0.0833694898505  0.0209430682568  
5.31286215782  0.272310195458  -0.796930379177  0.0799931628597  0.839585238725  0.0943636178074  0.0203574424132  
5.32096600533  0.296207486502  -0.785967712875  0.0633239892211  0.852055291283  0.106016298176  0.0196566913585  
5.32899904251  0.320914565664  -0.77311092688  0.0463300586993  0.86186590598  0.117732724688  0.0188479956601  
5.337059021  0.345849729635  -0.757679515644  0.0288036064057  0.870028309487  0.129436655746  0.0171298899171  
5.34516000748  0.370849135781  -0.739428189764  0.0111900519892  0.8755197931  0.141054192648  0.0153431843066  
5.3533141613  0.395752680447  -0.718539288321  -0.00671889830707  0.8783679824  0.153019369306  0.0126925488416  
5.36143016815  0.420811365504  -0.695207968573  -0.024803033498  0.878617502907  0.164237260436  0.00921446412986  
5.36949014664  0.445863175827  -0.669236651945  -0.0426216441079  0.876328769821  0.17617060121  0.00495068339155  
5.37756204605  0.470749461362  -0.640448855019  -0.0607129542632  0.87056522096  0.187716914901  -5.30995256554e-05  
5.38570404053  0.495316394728  -0.609093630113  -0.0786340185366  0.862456206742  0.199822469788  -0.00493840362738  
5.39387822151  0.519415831789  -0.575027238845  -0.096597867438  0.851098754189  0.211386962657  -0.0104852233762  
5.40197920799  0.543312805531  -0.538529786014  -0.114489856612  0.837652480084  0.22285448859  -0.0166436503634  
5.4098880291  0.566454292569  -0.499486888627  -0.132198647749  0.821241765452  0.234155295419  -0.0233601206075  
5.41801214218  0.589117904677  -0.458206163593  -0.149616429614  0.801028809028  0.245221708175  -0.0305787827863  
5.4260931015  0.611578367715  -0.415002532386  -0.166639705441  0.779253980964  0.256494774494  -0.0374327712927  
5.43423199654  0.633698659713  -0.370195616254  -0.18349231242  0.754071762457  0.267898753511  -0.0446955970609  
5.44230508804  0.655346547751  -0.323704020837  -0.200394664571  0.726731913019  0.278852421386  -0.0531215009591  
5.45041418076  0.676396032906  -0.276265687626  -0.216593561065  0.696448904874  0.289802319728  -0.0618211404554  
5.45851421356  0.696728001039  -0.228204300233  -0.232647089813  0.664495069989  0.301185294239  -0.0715409765134  
5.46666121483  0.71541724602  -0.179435875587  -0.248458010275  0.631113806496  0.311908079301  -0.0813870037061  
5.47484707832  0.733603459413  -0.130689441674  -0.263931484074  0.596550682846  0.323434381349  -0.0921020899321  
5.48301506042  0.750371250739  -0.0818704507372  -0.279300381486  0.560041287777  0.334662210827  -0.103598485727  
5.4909992218  0.765647276858  -0.0332895830429  -0.294469919403  0.522873902036  0.345526493612  -0.115784609597  
5.49904513359  0.779370083783  0.0143472739632  -0.309026019118  0.485300884967  0.355966909213  -0.127757762782  
5.50721120834  0.791489714112  0.0611636318611  -0.323213394968  0.446558632647  0.366433168569  -0.139446259863  
5.51523518562  0.802374063069  0.106882747032  -0.336951225139  0.406919468112  0.3758473154  -0.152401090462  
5.52339315414  0.811577353959  0.150837307815  -0.349840269326  0.367667266765  0.385185140443  -0.165702429442  
5.53155016899  0.819487383964  0.19359726283  -0.362464344596  0.328031496618  0.393884537282  -0.179256981899  
5.53957009315  0.826085300498  0.23451724518  -0.374427576956  0.288271458293  0.401905090924  -0.192972821107  
5.54781007767  0.831360390695  0.273381268952  -0.385669496606  0.249653604836  0.408706286564  -0.205950002125  
5.55584621429  0.835310676539  0.310395342498  -0.396458835472  0.211385231997  0.41477928097  -0.21893208886  
5.56396603584  0.837536030434  0.344965676778  -0.406092999612  0.173699536195  0.419597624798  -0.231837420079  
5.57200312614  0.839282907902  0.377737864792  -0.415505845218  0.137832817109  0.424171605294  -0.244586126987  
5.5801460743  0.83933286176  0.408144305815  -0.423998793985  0.102959021339  0.427973313248  -0.256291980946  
5.58819317818  0.838537999919  0.436048074653  -0.431861466488  0.0692745216554  0.430490844434  -0.268522998534  
5.59631299973  0.836924331854  0.462138862983  -0.439382670723  0.0369645708106  0.432243864551  -0.280381619832  
5.60434412956  0.834521562337  0.4858917792  -0.446200448546  0.00620130154791  0.433240083567  -0.291800770981  
5.61250519753  0.831770381464  0.508018379825  -0.452933553258  -0.0218456107198  0.434502533967  -0.302718537691  
5.62054300308  0.828290266038  0.528418041073  -0.45921954547  -0.0490847660239  0.435006528908  -0.313886626184  
5.62876820564  0.824526866313  0.547002327375  -0.465351327905  -0.0743536244246  0.434260195917  -0.324420139158  
5.63663911819  0.82010452701  0.564503851488  -0.471294893059  -0.0975375802344  0.432803086341  -0.33426654483  
5.6447160244  0.815066517306  0.580838193407  -0.477017039851  -0.119550691132  0.430661982532  -0.343379765481  
5.65292406082  0.809052729431  0.595526081469  -0.481841545896  -0.140282345883  0.427866632212  -0.352528460222  
5.66111922264  0.802124151597  0.609320187905  -0.486726537356  -0.158620155556  0.424450411529  -0.360036485944  
5.66910219193  0.794753059967  0.622155100609  -0.49131818626  -0.175515156936  0.420955371064  -0.366702705461  
5.6773121357  0.786590457211  0.633972456497  -0.495594107883  -0.189884211825  0.416394740169  -0.37250575368  
5.68532299995  0.778113165884  0.644721354384  -0.499534610677  -0.20270665837  0.411327310943  -0.377429207931  
5.69342017174  0.769789539636  0.655166218974  -0.503768377078  -0.213939086377  0.406809248662  -0.381462918608  
5.70149517059  0.760855750722  0.664845361169  -0.507939446201  -0.222536665702  0.401845872586  -0.384602500393  
5.7097492218  0.751382163579  0.673715198093  -0.511700147967  -0.230529353428  0.396478054028  -0.386849151764  
5.71796011925  0.741441579881  0.682142326059  -0.515358897004  -0.235860167459  0.39125525616  -0.389019190939  
5.725949049  0.730294840358  0.689277133671  -0.518249587159  -0.240579325641  0.385701869902  -0.390292375176  
5.73400306702  0.718040419445  0.695507928196  -0.520694307157  -0.244673641644  0.379860512031  -0.391490107875  
5.74211621284  0.688200320412  0.702379926855  -0.521979856375  -0.24993622599  0.366478278856  -0.388831819669  
5.75030207634  0.671708597486  0.703480300307  -0.52120096031  -0.252135763321  0.359055762306  -0.385879841939  
5.75831317902  0.651761528229  0.701309312504  -0.518108146455  -0.252686776179  0.350041490024  -0.381362729737  
5.76646113396  0.634257508441  0.701201757801  -0.516970541607  -0.253645680369  0.343574498897  -0.376963621876  
5.7744910717  0.613155581689  0.696658523933  -0.512588280575  -0.252975996596  0.335088175612  -0.370282038394  
5.78258514404  0.589075203228  0.688210522961  -0.505383586089  -0.250718522801  0.324679436131  -0.361412005221  
5.79065704346  0.569966927765  0.684882171902  -0.502571671602  -0.251982538902  0.317011378875  -0.355316725077  
5.79884505272  0.550555295783  0.680529488511  -0.499231194177  -0.254658661989  0.309038112639  -0.347928153423  
5.80683612823  0.53096487505  0.675197802648  -0.495390675975  -0.25768290501  0.300814073458  -0.340128845641  
5.81492304802  0.508477475935  0.66571605884  -0.488503806889  -0.259003843443  0.290880294743  -0.330360573083  
5.82297611237  0.48370817538  0.65304664796  -0.47932950498  -0.25966287306  0.279338778969  -0.318730345327  
5.83106422424  0.464188543292  0.646627702238  -0.475406028414  -0.264729664996  0.271358040322  -0.30940193925  
5.83916902542  0.444232189826  0.639501316445  -0.471153339365  -0.270027147052  0.262863771316  -0.299956497768  
5.84725117683  0.423969867945  0.631318512138  -0.46627755527  -0.273489001377  0.254423293337  -0.289645070432  
5.85538005829  0.403537211846  0.622559430786  -0.460824434691  -0.277157450036  0.245583754604  -0.27936190648  
5.86340117455  0.383067898052  0.612890165686  -0.454519437133  -0.281006695773  0.235904418076  -0.268363215868  
5.8715801239  0.362692561905  0.603603861775  -0.448713248664  -0.283996596371  0.226983139467  -0.255925735401  
5.87961912155  0.342538135759  0.59434801088  -0.44246471756  -0.286127544857  0.217343016163  -0.24377997273  
5.8877081871  0.322320349424  0.585583705874  -0.436468144986  -0.288417902383  0.207566340412  -0.231188411831  
5.89583921432  0.302575222513  0.577758733763  -0.430756626862  -0.289839009948  0.197718884488  -0.217431613275  
5.90395617485  0.282603747246  0.569690253943  -0.424391064804  -0.290401252609  0.187359038883  -0.202623628293  
5.91198611259  0.262943724928  0.561837382283  -0.417749259531  -0.291133122395  0.177069745518  -0.187692489664  
5.92008018494  0.243306131192  0.554245208898  -0.410880140959  -0.291015597651  0.166409474726  -0.172736654981  
5.92811703682  0.224221172745  0.546955663048  -0.403832756034  -0.291079973627  0.155959803819  -0.157042366117  
5.93623304367  0.204983848968  0.539200794443  -0.396010336911  -0.290311168246  0.145782514663  -0.140725805593  
5.94439911842  0.186125452973  0.531443347917  -0.387802957459  -0.289744031045  0.135429926811  -0.124714367899  
5.9525141716  0.167756962324  0.52373309243  -0.378949876202  -0.28937864162  0.125476918326  -0.108294016254  
5.96066713333  0.149576575882  0.516117784122  -0.369199761361  -0.290223957765  0.11597772199  -0.0923868543748  
5.96891117096  0.131694539023  0.509046923074  -0.359280622767  -0.292246728332  0.105970323701  -0.0762732357728  
5.97698307037  0.114623805556  0.502552820709  -0.348615318164  -0.295406313166  0.096034879098  -0.0600593476801  
5.9850461483  0.0980471423767  0.496663022074  -0.337610880542  -0.29864420417  0.0862332079574  -0.0438503614413  
5.99295210838  0.0820573508299  0.49140039761  -0.326023115558  -0.3019367312  0.0771298907807  -0.0277489158565  
6.00108599663  0.066741932383  0.486379815926  -0.31361616679  -0.306273350017  0.0677552281502  -0.0118545267473  
6.00910711288  0.0517751552989  0.481223524174  -0.299842609831  -0.311602828612  0.0586797307876  0.00373696963494  
6.01723599434  0.0372432625523  0.47556342614  -0.284821096543  -0.315844887527  0.0494486431383  0.0181248039669  
6.02541804314  0.0232280342555  0.469446950307  -0.268676630522  -0.320007563519  0.0411350784298  0.0328637856038  
6.03352808952  0.0102126240357  0.465748380957  -0.251541191124  -0.327101955121  0.0327595703549  0.0470447422586  
6.04158115387  -0.00215039316635  0.462822592812  -0.233545282398  -0.336005009361  0.0243755949944  0.0597810405822  
6.04985404015  -0.0142052878645  0.460668008923  -0.214178616993  -0.344593484558  0.0160365031868  0.0718345588579  
6.05782818794  -0.0254767189382  0.45927994521  -0.193918338894  -0.353829481606  0.0082998118907  0.0831459990815  
6.0660161972  -0.035911427096  0.46026308472  -0.172916186792  -0.364651769318  0.000189346670113  0.0936613035208  
6.07394099236  -0.0458698519687  0.46234600208  -0.151321628589  -0.376954916084  -0.00722424091622  0.103332747221  
6.08204221725  -0.0553006308659  0.466295083925  -0.129286498634  -0.39163733289  -0.0139094349079  0.112928222295  
6.09015107155  -0.0641565281316  0.470427572501  -0.106636898491  -0.407538817511  -0.0208526187459  0.120771315944  
6.09827804565  -0.0723950760058  0.473904200069  -0.0838522936269  -0.422505785985  -0.0269932949209  0.127661370483  
6.10630512238  -0.0795721365339  0.479945883242  -0.0607616145098  -0.440508964177  -0.0333219681089  0.133578249475  
6.11438512802  -0.0860736129023  0.484017939948  -0.0375134615765  -0.456309375097  -0.0392894208067  0.138507590105  
6.12247610092  -0.0918747977368  0.492189580316  -0.0145878326867  -0.476933661484  -0.0448658676833  0.142441631579  
6.13057017326  -0.096955571186  0.498265061596  0.00820613073305  -0.495064114859  -0.0500252573224  0.145379107301  
6.13874411583  -0.101300858926  0.513951462574  0.0303925958515  -0.521762907701  -0.0547448018295  0.148134230539  
6.14690113068  -0.104900607714  0.531669981032  0.0524974748821  -0.551612014642  -0.059510762999  0.149076483385  
6.1550052166  -0.1077497297  0.550848529164  0.0743837535535  -0.582319124025  -0.0642923702771  0.149859525345  
6.163022995  -0.109848016575  0.571330363534  0.0965626258646  -0.61467822632  -0.0685532196827  0.149674797081  
6.17105102539  -0.111200024835  0.592551067477  0.118887700413  -0.648445985328  -0.0722781391486  0.147736480865  
6.17920303345  -0.111814933566  0.613551141389  0.141537097156  -0.683374828937  -0.0764677002905  0.144906829947  
6.18727421761  -0.112112970027  0.635008889059  0.16435911333  -0.719215901502  -0.0800739478305  0.141225857832  
6.1954100132  -0.111693627598  0.657181749561  0.186882122708  -0.75673154466  -0.0830868003416  0.136737148135  
6.20356607437  -0.110982875547  0.679509106441  0.20897057692  -0.796656634302  -0.0860068966941  0.132297500219  
6.21159005165  -0.109992590594  0.702248787647  0.230171942914  -0.835647540151  -0.0888185725901  0.126316503563  
6.21961116791  -0.108329011213  0.725247266465  0.250050196499  -0.876510334782  -0.091506582518  0.119676115983  
6.22790813446  -0.106424945645  0.748352590713  0.268510348116  -0.916921855801  -0.0940568274434  0.112434992277  
6.23586511612  -0.104298530054  0.77141574501  0.285469194676  -0.958657339476  -0.0959506979561  0.104653325221  
6.24394917488  -0.101968627403  0.793887950105  0.300532942636  -1.00041146773  -0.097696971664  0.0963933026492  
6.2520031929  -0.0990481600003  0.815640458769  0.313328358507  -1.04090656835  -0.0992886358846  0.0877186657676  
6.26013112068  -0.0959759361577  0.836148915378  0.323828401241  -1.0809264043  -0.100213558755  0.078694268125  
6.26819801331  -0.0923687936141  0.85531255553  0.332021196384  -1.11921804548  -0.10098690687  0.0693856380241  
6.2762901783  -0.0886685701941  0.872234728418  0.337588068403  -1.15557875556  -0.10110221106  0.0598585470618  
6.28444218636  -0.0844946892777  0.887667653228  0.340877356477  -1.19083539362  -0.101079469146  0.0501785873892  
6.29252815247  -0.0798844365361  0.900742732541  0.342245946749  -1.22378037011  -0.100417031231  0.0396016052097  
6.30058717728  -0.0748774172223  0.911432285412  0.341086456478  -1.25324747194  -0.0991337646096  0.0298334219746  
6.30870604515  -0.0699214032852  0.919725379764  0.337788037912  -1.27913133236  -0.097758289515  0.0201093215668  
6.31697010994  -0.0646404463904  0.925222771818  0.332423295315  -1.30135308914  -0.0957963472727  0.0104890248461  
6.32494020462  -0.05907531331  0.928359244746  0.324752544032  -1.31884772259  -0.0932737770602  0.00103104986441  
6.33304810524  -0.0536747304323  0.92876802477  0.314557012208  -1.33262691475  -0.0907256236342  -0.00820850618495  
6.34118103981  -0.0484694606664  0.926914536394  0.30196047035  -1.34168153005  -0.0871577591311  -0.017176265011  
6.34926104546  -0.0434877625639  0.922864679558  0.286777604359  -1.34606525705  -0.0841331166358  -0.0258218409434  
6.3573679924  -0.0387559937712  0.91629288693  0.269488577742  -1.34687283843  -0.0801424363532  -0.0340980891697  
6.36545801163  -0.0338915188996  0.907703847418  0.249930595198  -1.34216262098  -0.0762437887991  -0.041961327522  
6.37358903885  -0.0293345795485  0.896796851687  0.228604195334  -1.33411620028  -0.0724607950596  -0.0493715310385  
6.38187718391  -0.0247005020844  0.883695832958  0.2056868915  -1.32084344033  -0.068308967648  -0.0562924987127  
6.38982820511  -0.0204267457789  0.868939509077  0.181039057997  -1.30356184828  -0.0638228517804  -0.0626919920341  
6.39803600311  -0.0161255863709  0.852661328526  0.154857663904  -1.28247761163  -0.059544556322  -0.0685418451151  
6.4060280323  -0.0118245021039  0.835404068843  0.127022412058  -1.25680339982  -0.0549910891857  -0.0738180463794  
6.41409301758  -0.00413217376559  0.798486850894  0.0672562774138  -1.19279005466  -0.0451993359772  -0.0825745112268  
6.42225217819  -0.000778469466939  0.77950143575  0.0354447286455  -1.15606666256  -0.0405394148857  -0.0860278646853  
6.43029618263  0.00249996255491  0.760873052321  0.0022238596802  -1.11592663872  -0.0357338804238  -0.0888537153491  
6.4383661747  0.00568456974256  0.742308352223  -0.0318397170283  -1.07270442695  -0.0308161125278  -0.0918582281986  
6.44652605057  0.00875739516603  0.724326459476  -0.0665100426051  -1.02775896473  -0.0263256748009  -0.093400674919  
6.45459318161  0.011701617626  0.707028037956  -0.101875360611  -0.981417073749  -0.0217756993692  -0.0943134535376  
6.46266102791  0.0145016312771  0.690102918404  -0.137372453813  -0.932994499529  -0.0171958987199  -0.0946066304605  
6.47096204758  0.0171431156533  0.674052654994  -0.172773279283  -0.882846605646  -0.0131216395019  -0.0934839536651  
6.47885608673  0.0200197832022  0.658958625863  -0.208178076431  -0.831332147687  -0.009061649639  -0.090176161846  
6.48690915108  0.0227015570328  0.644490199575  -0.242717443985  -0.779821825216  -0.00453515596218  -0.0855644742245  
6.49501419067  0.0251756312081  0.631127260988  -0.276837424004  -0.728642992124  -0.000592649606598  -0.079710015517  
6.50312709808  0.027837854588  0.61852518609  -0.310009643181  -0.678112395998  0.0032592946394  -0.0718704696026  
6.51121020317  0.0302607227476  0.606341850004  -0.341723255115  -0.627523327913  0.00750458343185  -0.0629508616649  
6.51931214333  0.0328408158359  0.595047571654  -0.372134303813  -0.578208412391  0.011601872488  -0.05303432578  
6.52747511864  0.0355584786829  0.583886185978  -0.400758019436  -0.530450878945  0.0155281597082  -0.0422074150085  
6.53555321693  0.0379865236666  0.573327989058  -0.427778040708  -0.483505192318  0.0187569981356  -0.0305604185377  
6.54373311996  0.0409292862393  0.56302242949  -0.453061098431  -0.437648366455  0.0222952072174  -0.0173775232006  
6.55187511444  0.0439501570814  0.552624911758  -0.476487754055  -0.394156832931  0.025102846736  -0.00439626223313  
6.5600631237  0.0470276872582  0.542203099931  -0.497953744225  -0.35223970466  0.02818964598  0.0099222551991  
6.5678961277  0.0501409251074  0.531420065247  -0.517046780312  -0.313135416055  0.0310248689025  0.0238390633438  
6.57599020004  0.0536760665532  0.519948839588  -0.53402381163  -0.276014811119  0.0330903538259  0.0372737387016  
6.58409905434  0.0571944198391  0.507878074861  -0.548827891279  -0.240053310518  0.0348963904882  0.0509617343096  
6.59220600128  0.0606735448765  0.494894977784  -0.560771737341  -0.205450412097  0.0374495902917  0.0648111046611  
6.60033106804  0.0636857262786  0.48069963531  -0.569846491889  -0.174416035904  0.039200033014  0.0779210847705  
6.60842013359  0.0666292210009  0.465410433062  -0.576062772025  -0.144029741673  0.0406597887361  0.0910344276625  
6.61649513245  0.0694874435735  0.448746738078  -0.579448875144  -0.11547708115  0.0418270655794  0.103259646253  
6.62461614609  0.0718376157495  0.430846537055  -0.579728186443  -0.0888965455324  0.0427014202239  0.115348639851  
6.6326611042  0.0740831687267  0.41144914216  -0.576649639023  -0.0633982975285  0.0432842768475  0.126419735347  
6.64085102081  0.0758061093338  0.391116174415  -0.570635105507  -0.0401285782101  0.0435788736792  0.136426081708  
6.64892911911  0.0770075043996  0.369999222591  -0.561792896076  -0.0181713712411  0.0440959171532  0.146138722605  
6.65701699257  0.0780987351864  0.347847322319  -0.549923574134  0.000343382395725  0.0433103279144  0.153076489049  
6.66502714157  0.0786693524585  0.324421601834  -0.53485109816  0.0194237365194  0.0432791064307  0.160495379868  
6.67310500145  0.0787276805961  0.300303906432  -0.517392158809  0.034893925228  0.0419640190872  0.165912970485  
6.68122315407  0.0782855344811  0.275260449543  -0.497069592398  0.0507830981246  0.0414244280687  0.170958190794  
6.68932199478  0.0773576206925  0.249068093078  -0.473756896363  0.0649620783331  0.0401304437601  0.174800515698  
6.69742703438  0.0759613754975  0.222323344171  -0.448317838509  0.0763680268039  0.0386122847463  0.177443320134  
6.70556020737  0.0741167893911  0.194805750503  -0.420319658027  0.0870163660391  0.0368854556521  0.17889838053  
6.71389913559  0.071846219616  0.166707701526  -0.390322478299  0.0968598053341  0.0349658667099  0.179184722809  
6.72190999985  0.0691741921391  0.138221128212  -0.358241990028  0.104843840817  0.0328702717152  0.17832832935  
6.730022192  0.066127194589  0.109535859527  -0.324653134786  0.110960798306  0.0306161417533  0.177170961679  
6.73812103271  0.0627334616817  0.0808384690212  -0.289805071799  0.115216307608  0.0282215373832  0.174918840284  
6.74620318413  0.0590227546764  0.0523111694918  -0.253948667063  0.1186391004  0.0251993568954  0.171611402943  
6.75426101685  0.0550261363972  0.0241307615818  -0.217335212095  0.120216946296  0.0225943837451  0.167294717234  
6.76237106323  0.0507757433568  -0.0035323583051  -0.180214820763  0.120994061938  0.0194030594629  0.16202015307  
6.77046704292  0.0463045564919  -0.0305151258944  -0.142834871728  0.120985663317  0.0166697105568  0.155843930928  
6.77856612206  0.0416461719996  -0.0566626683791  -0.105438505263  0.120210486905  0.0138962460503  0.148826650076  
6.78673601151  0.0368345737235  -0.0818290913899  -0.0682631826994  0.118691684446  0.0116063710306  0.14103280026  
6.79481911659  0.0319039084961  -0.10587819033  -0.0315393161299  0.115445136378  0.00828659075592  0.132530260346  
6.802932024  0.0268882657915  -0.128684083362  0.00451102460037  0.111542855077  0.00549776401975  0.122580634877  
6.81102800369  0.0218214629825  -0.150131763903  0.0396753212682  0.107026272667  0.00223534179815  0.11289884402  
6.8190882206  0.0167368374305  -0.170117571032  0.0737517273299  0.100927197924  -0.000964204125889  0.102732497952  
6.82713699341  0.0120737330641  -0.188549576784  0.106550093686  0.0943322714635  -0.00357591430998  0.0921566921809  
6.83523821831  0.00744544033465  -0.205347889858  0.137892895894  0.0872961925951  -0.00610228778231  0.081248209941  
6.84332609177  0.00288003050886  -0.220444875787  0.167616059294  0.0798740585788  -0.00852988730349  0.0700841171702  
6.85138607025  -0.00159505006664  -0.23378529418  0.195569679247  0.0721221035636  -0.010845672638  0.0587412672358  
6.85948705673  -0.00595358048268  -0.245326354121  0.22161863441  0.0630858806361  -0.0135432454391  0.0472958187846  
6.86764216423  -0.0101707023458  -0.255037689332  0.24564309171  0.0548749909092  -0.0155857270817  0.0358227694663  
6.87579512596  -0.0142230449588  -0.262901255161  0.267216533635  0.0455011834595  -0.017480275719  0.0243955081064  
6.88376808167  -0.0180888380928  -0.268911149907  0.286582512797  0.0370722149495  -0.0197245712841  0.0122762355928  
6.89188909531  -0.0217480119305  -0.273073363419  0.303671114167  0.0286098091465  -0.0212853709501  0.0011756660058  
6.90000319481  -0.0251822838539  -0.275405456284  0.318428172884  0.0191558757453  -0.02317918461  -0.00966745430371  
6.90813112259  -0.0283752318366  -0.275936173298  0.330815592987  0.00980426630566  -0.0243759383705  -0.0201913882192  
6.91619420052  -0.0313123542965  -0.274704995229  0.340811206723  0.000612928917313  -0.025894772386  -0.0303370119796  
6.92439818382  -0.0339811163498  -0.271761633178  0.348408536229  -0.00836368080105  -0.0267082501583  -0.0400490063274  
6.93245506287  -0.0363709824975  -0.267165470116  0.353616461422  -0.0170737636881  -0.0278381387209  -0.0492761167121  
6.94065213203  -0.0384734358596  -0.26098495439  0.35645879842  -0.0254684422331  -0.0282596022963  -0.0579713815349  
6.94871711731  -0.0402819841547  -0.253296950178  0.356973793313  -0.0335020009394  -0.0289969658555  -0.0660923277514  
6.95674920082  -0.0417921527024  -0.244186050054  0.355213536491  -0.0411321009265  -0.0295335169459  -0.0736011333663  
6.96484422684  -0.0430014648027  -0.233743854902  0.351243303141  -0.0483199680214  -0.0293644587104  -0.080464756579  
6.97291707993  -0.0439094099149  -0.222068226525  0.34514082584  -0.0550305537784  -0.0290127190073  -0.0866550315532  
6.98103022575  -0.0445174001301  -0.209262518351  0.336995505485  -0.0612326690505  -0.0284854218521  -0.0921487309984  
6.98909521103  -0.0448287154896  -0.195434789615  0.326907567016  -0.0668990899173  -0.0277900855795  -0.0969275959552  
6.99719309807  -0.0448484387631  -0.181100582103  0.315632375229  -0.0720066359573  -0.0274407374621  -0.100978333376  
7.00527715683  -0.0445833803494  -0.165959677366  0.302625138915  -0.0765362210244  -0.0269262897061  -0.104292582283  
7.0132791996  -0.0440419940113  -0.150126808433  0.288008811535  -0.0804728768614  -0.0257477587466  -0.106866849463  
7.02138018608  -0.0432342841972  -0.133718804498  0.27191432372  -0.0848169948856  -0.0249391063489  -0.108702415834  
7.02948904037  -0.0421717057358  -0.117256841331  0.254801608345  -0.0875099536298  -0.0234865152685  -0.108996228372  
