Ethan-CYM/ros_catkin_ws/test/伺服_gain100_looktime003/ur_joint_target_degree.txt
time  shoulder_pan_joint  shoulder_lift_joint  elbow_joint  wrist_1_joint  wrist_2_joint  wrist_3_joint
0.163051128387  1.57000005245  -1.22109806538  2.09333586693  -3.1523180091  -1.57054404371  -0.000898930284592  
0.171125173569  1.57000005245  -1.22109806538  2.09333586693  -3.15230691219  -1.57051822163  -0.00091355357025  
0.179255008698  1.57000005245  -1.22109806538  2.09333586693  -3.15230345577  -1.57049443922  -0.000962058910142  
0.187343120575  1.57000005245  -1.22109806538  2.09333586693  -3.15230241173  -1.57047279873  -0.00108548756923  
0.195943117142  1.57000005245  -1.22109806538  2.09333586693  -3.15230069482  -1.5704533864  -0.00133719679264  
0.203552007675  1.57000005245  -1.22109806538  2.09333586693  -3.15229833193  -1.5704362723  -0.00176277874366  
0.211705207825  1.57000005245  -1.22109806538  2.09333586693  -3.15229535341  -1.57042151025  -0.00239672745449  
0.219820022583  1.57000005245  -1.22109806538  2.09333586693  -3.15229179277  -1.57040913791  -0.00327302297808  
0.22792506218  1.57000005245  -1.22109806538  2.09333586693  -3.15228768644  -1.57039917686  -0.00440545260434  
0.236042022705  1.57000005245  -1.22109806538  2.09333586693  -3.15228307343  -1.57039163289  -0.0057856014025  
0.244132995605  1.57000005245  -1.22109806538  2.09333586693  -3.15227799503  -1.57038649635  -0.00740288351125  
0.252279043198  1.57000005245  -1.22109806538  2.09333586693  -3.15226742526  -1.57038627717  -0.00927627667019  
0.260412216187  1.57000005245  -1.22109806538  2.09333586693  -3.15225359593  -1.57039237729  -0.011419402468  
0.268501996994  1.57000005245  -1.22109806538  2.09333586693  -3.15223970728  -1.570409677  -0.0138317091117  
0.276617050171  1.57000005245  -1.22109806538  2.09333586693  -3.15222584878  -1.57043323142  -0.0164987857343  
0.284770011902  1.57000005245  -1.22109806538  2.09333586693  -3.15221210757  -1.5704581899  -0.0194098304599  
0.292880058289  1.57000005245  -1.22109806538  2.09333586693  -3.15219856797  -1.5704843608  -0.0225478699455  
0.300913095474  1.57000005245  -1.22109806538  2.09333586693  -3.152185311  -1.57051154938  -0.0258957226859  
0.308969020844  1.57000005245  -1.22109806538  2.09333586693  -3.15217748231  -1.57053702446  -0.0294360864129  
0.317083120346  1.57000005245  -1.22109806538  2.09333586693  -3.15217296859  -1.5705616824  -0.0331443665311  
0.325294017792  1.57000005245  -1.22109806538  2.09333586693  -3.15216868511  -1.57058690382  -0.0369971162831  
0.333317041397  1.57000005245  -1.22109806538  2.09333586693  -3.15215958432  -1.57061251546  -0.0409729587738  
0.341492176056  1.57000005245  -1.22109806538  2.09333586693  -3.15214787267  -1.57064088028  -0.0450421344312  
0.349593162537  1.57000005245  -1.22109806538  2.09333586693  -3.15213672157  -1.57067073589  -0.0491782545312  
0.357647180557  1.57000005245  -1.22109806538  2.09333586693  -3.15212111913  -1.57069527126  -0.0533599896923  
0.365826129913  1.57000005245  -1.22109806538  2.09333586693  -3.15210330431  -1.5707164914  -0.0575621732827  
0.373896121979  1.57000005245  -1.22109806538  2.09333586693  -3.15208140849  -1.57073484077  -0.0617576795781  
0.381947040558  1.57000005245  -1.22109806538  2.09333586693  -3.15205770174  -1.57074875382  -0.0659200703624  
0.389943122864  1.57000005245  -1.22109806538  2.09333586693  -3.15203541245  -1.57075571371  -0.0700237461772  
0.398143053055  1.57000005245  -1.22109806538  2.09333586693  -3.15199550443  -1.57073574837  -0.0779616486861  
0.406125068665  1.57000005245  -1.22109806538  2.09333586693  -3.15197806387  -1.57070544464  -0.0817524085361  
0.414252996445  1.57000005245  -1.22109806538  2.09333586693  -3.15196239661  -1.57065989243  -0.0853969802897  
0.422514200211  1.57000005245  -1.22109806538  2.09333586693  -3.15194349053  -1.57059974321  -0.0888741092  
0.430502176285  1.57000005245  -1.22109806538  2.09333586693  -3.15191850748  -1.57052572545  -0.0921633068385  
0.438601016998  1.57000005245  -1.22109806538  2.09333586693  -3.15189281961  -1.57044624166  -0.0952522469419  
0.446717023849  1.57000005245  -1.22109806538  2.09333586693  -3.15186964159  -1.57036901263  -0.0981285385849  
0.454866170883  1.57000005245  -1.22109806538  2.09333586693  -3.15184906066  -1.57029599186  -0.100779005559  
0.462882041931  1.57000005245  -1.22109806538  2.09333586693  -3.15183114552  -1.57022754218  -0.103188161226  
0.471065998077  1.57000005245  -1.22109806538  2.09333586693  -3.15182101463  -1.57016398878  -0.105348099833  
0.479115009308  1.57000005245  -1.22109806538  2.09333586693  -3.15181651327  -1.5701056181  -0.107253484264  
0.487195014954  1.57000005245  -1.22109806538  2.09333586693  -3.15181956988  -1.57005521153  -0.108894234591  
0.495319128036  1.57000005245  -1.22109806538  2.09333586693  -3.15182795152  -1.5700118821  -0.110267871018  
0.503462076187  1.57000005245  -1.22109806538  2.09333586693  -3.1518384439  -1.56997675326  -0.111374466797  
0.511590003967  1.57000005245  -1.22109806538  2.09333586693  -3.15185093031  -1.56994883556  -0.112209302834  
0.519767999649  1.57000005245  -1.22109806538  2.09333586693  -3.15186528416  -1.56992661695  -0.112771122422  
0.527956008911  1.57000005245  -1.22109806538  2.09333586693  -3.15188643833  -1.56991517195  -0.113062857573  
0.535926103592  1.57000005245  -1.22109806538  2.09333586693  -3.15191713147  -1.56991228271  -0.113089082741  
0.543907165527  1.57000005245  -1.22109806538  2.09333586693  -3.15195187384  -1.56991472898  -0.112855946752  
0.551976203918  1.57000005245  -1.22109806538  2.09333586693  -3.15198731437  -1.56992490297  -0.112371096381  
0.560084104538  1.57000005245  -1.22109806538  2.09333586693  -3.15202321179  -1.5699440739  -0.111643592247  
0.568211078644  1.57000005245  -1.22109806538  2.09333586693  -3.15205932766  -1.56996937165  -0.110679762367  
0.576289176941  1.57000005245  -1.22109806538  2.09333586693  -3.15210049613  -1.5700015072  -0.109492965121  
0.584394216537  1.57000005245  -1.22109806538  2.09333586693  -3.15214430225  -1.5700390971  -0.108098455372  
0.592493057251  1.57000005245  -1.22109806538  2.09333586693  -3.15219243936  -1.5700802558  -0.10651001387  
0.600607156754  1.57000005245  -1.22109806538  2.09333586693  -3.15225260303  -1.57012717211  -0.104742323008  
0.608794212341  1.57000005245  -1.22109806538  2.09333586693  -3.15231702335  -1.57017839458  -0.102810852297  
0.61688709259  1.57000005245  -1.22109806538  2.09333586693  -3.15237912114  -1.57023197854  -0.100731741579  
0.624946117401  1.57000005245  -1.22109806538  2.09333586693  -3.15243855795  -1.57028499351  -0.0985216827629  
0.632979154587  1.57000005245  -1.22109806538  2.09333586693  -3.15249502028  -1.5703355994  -0.0961978008811  
0.641076087952  1.57000005245  -1.22109806538  2.09333586693  -3.15254822096  -1.57038606733  -0.0937775352218  
0.649168014526  1.57000005245  -1.22109806538  2.09333586693  -3.15260296856  -1.57043759816  -0.0912785213012  
0.657266139984  1.57000005245  -1.22109806538  2.09333586693  -3.15266698298  -1.57049237456  -0.0887184743973  
0.665387153625  1.57000005245  -1.22109806538  2.09333586693  -3.15273253556  -1.570548955  -0.0861150753487  
0.67346405983  1.57000005245  -1.22109806538  2.09333586693  -3.15279310456  -1.57060542036  -0.083485859287  
0.681558132172  1.57000005245  -1.22109806538  2.09333586693  -3.15284842453  -1.57066141542  -0.0808481079404  
0.689699172974  1.57000005245  -1.22109806538  2.09333586693  -3.15289826964  -1.57071659637  -0.0782187461049  
0.697900056839  1.57000005245  -1.22109806538  2.09333586693  -3.15294245411  -1.57077063278  -0.0756142428406  
0.705884218216  1.57000005245  -1.22109806538  2.09333586693  -3.15298083247  -1.57082320931  -0.0730545733112  
0.713888168335  1.57000005245  -1.22109806538  2.09333586693  -3.15301329953  -1.57087402737  -0.07055732603  
0.721962213516  1.57000005245  -1.22109806538  2.09333586693  -3.15303979006  -1.57092280663  -0.0681409019815  
0.730069160461  1.56999801417  -1.22110413247  2.09332779417  -3.15306534656  -1.57096928636  -0.0658211251104  
0.738133192062  1.56998666429  -1.22114600793  2.09330385452  -3.15309286374  -1.57101322659  -0.0636185134836  
0.746215105057  1.56996263538  -1.22126258536  2.09325945299  -3.15312212052  -1.57105694378  -0.0615490997558  
0.754309177399  1.56992638136  -1.22149419384  2.09319346857  -3.15314275256  -1.57110421825  -0.0596228347147  
0.762364149094  1.56988046109  -1.22188391798  2.09311011452  -3.15313862617  -1.57115618324  -0.0578485249934  
0.77046918869  1.56982661597  -1.22247807094  2.09301393891  -3.1530840093  -1.57121493236  -0.0562419151981  
0.778568029404  1.56976537583  -1.22332703503  2.09290850215  -3.15294296363  -1.57128144937  -0.0548140577161  
0.786622047424  1.56969730479  -1.22446259843  2.09279570636  -3.15268298819  -1.57135766243  -0.0535697527486  
0.794792175293  1.56962299684  -1.22591319116  2.09267810249  -3.15227107392  -1.57144184073  -0.0525125227108  
0.802892208099  1.56954307141  -1.22771062386  2.09255918485  -3.15167799457  -1.57153427823  -0.0516446202936  
0.810845136642  1.56945816877  -1.22988172951  2.09243590742  -3.15087940223  -1.57163824464  -0.0509670443829  
0.818957090378  1.56936894555  -1.23243901109  2.09230629073  -3.14985790053  -1.57175432421  -0.0504836189182  
0.827028036118  1.56927607013  -1.23539426126  2.09216649951  -3.14859081623  -1.57187895834  -0.0501952187834  
0.835064172745  1.56918021816  -1.23875120088  2.09201479332  -3.1470667101  -1.57200710132  -0.0500990336435  
0.843209028244  1.56908206806  -1.24250688374  2.09184759932  -3.14527501077  -1.57213633978  -0.0501911014772  
0.851318120956  1.56898025845  -1.24665711712  2.09166185828  -3.14321116242  -1.57226075916  -0.0504663610858  
0.859397172928  1.5688743014  -1.25119328395  2.09145501844  -3.14086837552  -1.57237411565  -0.050918710322  
0.867598056793  1.56876496727  -1.25610129247  2.0912237521  -3.13823571978  -1.57247190159  -0.0515410695328  
0.87562417984  1.56865302948  -1.26136381789  2.09096657918  -3.13531450128  -1.57254728115  -0.0523254496896  
0.883828163147  1.56853925959  -1.26696372246  2.09068157297  -3.13209868653  -1.57259473997  -0.0532630246637  
0.891987085342  1.5684244224  -1.27287728072  2.09036767244  -3.12859542413  -1.57261058913  -0.0543442070884  
0.899954080582  1.5683092713  -1.27907773301  2.09002337552  -3.12481044854  -1.57259142783  -0.0555587272432  
0.908038139343  1.56819454375  -1.28554037063  2.08964644384  -3.12074203904  -1.57253669271  -0.0568957143878  
0.916199207306  1.56808095698  -1.29223455415  2.08923166269  -3.1163903117  -1.57244504226  -0.0583437799705  
0.924235105515  1.5679712422  -1.29912931733  2.0887738627  -3.11175717625  -1.57231641798  -0.0598911021417  
0.932361125946  1.56786722323  -1.30619355806  2.08826762218  -3.10684628061  -1.57215251467  -0.0615255110026  
0.940419197083  1.56776942399  -1.31339867387  2.08770699082  -3.10166294714  -1.57195774509  -0.0632386293977  
0.948535203934  1.56767831656  -1.32071422627  2.08708488739  -3.09621409831  -1.57173559566  -0.0650160977906  
0.956637144089  1.56759431934  -1.32810940124  2.08639543677  -3.09051324476  -1.5714906605  -0.0668467448272  
0.964796066284  1.5675177957  -1.33555482346  2.08563106763  -3.08457820806  -1.57122908646  -0.0687160731554  
0.973043203354  1.567449053  -1.34302554281  2.08478454841  -3.07842280068  -1.57095191045  -0.0706088842424  
0.980970144272  1.56738834196  -1.35049744165  2.08384869334  -3.07206393867  -1.57066227777  -0.0725126202525  
0.989127159119  1.56733585643  -1.35794980281  2.08281447311  -3.06551232181  -1.57036637292  -0.074414952777  
0.997213125229  1.56729173349  -1.3653629251  2.08167272922  -3.05877861675  -1.57006520391  -0.0763038555322  
1.00532412529  1.56725605395  -1.37271661318  2.08041681811  -3.05188249466  -1.56975421842  -0.0781676734129  
1.01337599754  1.56722884318  -1.37998950636  2.07904032741  -3.04484215476  -1.56943005169  -0.0799951875503  
1.02148318291  1.56721007224  -1.38716409875  2.07753841207  -3.03767324219  -1.56909102011  -0.0817756760577  
1.02955818176  1.5671996594  -1.39422634564  2.07590810795  -3.03039184541  -1.56873810895  -0.0834949148207  
1.03766417503  1.56719747187  -1.40116527095  2.0741489535  -3.02301438293  -1.56837135098  -0.0851450889727  
1.04569816589  1.56720332789  -1.407972152  2.07226228342  -3.01555242294  -1.56798934888  -0.0867157527816  
1.05392217636  1.56721699901  -1.41464133308  2.07025182664  -3.00802489801  -1.56759336963  -0.08820046758  
1.06197214127  1.56723821268  -1.42117342183  2.06811490296  -3.00044156768  -1.56718372136  -0.0895942935005  
1.07002019882  1.56726869331  -1.42756219036  2.06585293072  -2.99281334664  -1.56676180855  -0.090894611633  
1.07818222046  1.56736868932  -1.43988661303  2.06096771228  -2.97746181453  -1.56589050866  -0.0931841609676  
1.08622002602  1.56744548522  -1.44581316725  2.05835182702  -2.9697582946  -1.56544302527  -0.0941614428901  
1.09430909157  1.56754520383  -1.45157302419  2.05562682342  -2.9620563134  -1.56499116007  -0.0950221160153  
1.10240721703  1.56767196467  -1.45716071183  2.05279548561  -2.95435907057  -1.56453788184  -0.0957634976902  
1.11047315598  1.56783083781  -1.46257076891  2.04986185238  -2.94667676348  -1.56408863231  -0.0963837253057  
1.1185760498  1.56802656931  -1.46779494555  2.04682986231  -2.93902025233  -1.56364514659  -0.0968817485992  
1.12677407265  1.56826559678  -1.47282596686  2.04370463176  -2.93139694075  -1.56320858147  -0.0972573169917  
1.13479709625  1.56855311206  -1.47765309916  2.04049270836  -2.92381891466  -1.5627815399  -0.097510962156  
1.14291000366  1.56889469403  -1.48226150187  2.0371977964  -2.91630072089  -1.56236650258  -0.0976439760404  
1.1509411335  1.56929666696  -1.48663686276  2.03382533363  -2.9088561806  -1.56196328047  -0.0976583845957  
1.15900015831  1.56976685994  -1.49076466488  2.03038305295  -2.9014932505  -1.56157516579  -0.0975569174739  
1.16709518433  1.57030962694  -1.49462705032  2.02687894007  -2.89422628358  -1.56120324258  -0.0973429739863  
1.17515420914  1.57093243233  -1.49820786888  2.02331633477  -2.88706461531  -1.56084543135  -0.0970205856264  
1.18331718445  1.57163960189  -1.50149232805  2.01970242902  -2.88002076033  -1.56050214722  -0.0965943754761  
1.19133520126  1.57243320082  -1.5044666551  2.01604682119  -2.87311225802  -1.56017522088  -0.0960695148276  
1.19948220253  1.57331591812  -1.50711937097  2.01235817781  -2.86635537197  -1.5598612666  -0.0954476220103  
1.20750713348  1.574291852  -1.50943928624  2.00864355113  -2.85976501874  -1.5595614656  -0.0947365746078  
1.2155790329  1.57535951751  -1.51141839882  2.00491387128  -2.85335977319  -1.55927383064  -0.0939454288402  
1.22384810448  1.57651729889  -1.5130522682  2.00118119167  -2.84715962945  -1.55899686099  -0.093081105221  
1.23190307617  1.57776345053  -1.51433874812  1.99745633021  -2.84117773764  -1.55873205877  -0.092150823566  
1.23997211456  1.57909652578  -1.51527592296  1.99374818059  -2.83542251601  -1.5584782787  -0.0911579947554  
1.24804711342  1.58051781974  -1.51586494864  1.99006435218  -2.82990581426  -1.55823028068  -0.0901079723194  
1.2561480999  1.58202925783  -1.51611037173  1.98641050441  -2.82464072425  -1.55798646423  -0.0890128284626  
1.26421999931  1.58363214821  -1.51601880888  1.98279423646  -2.81963843098  -1.55774827555  -0.0878789516878  
1.27228403091  1.58532922646  -1.51559885565  1.97922304789  -2.81490818689  -1.55750948697  -0.0867120232702  
1.28039312363  1.58712582413  -1.51486098497  1.97570300627  -2.8104572997  -1.55726453928  -0.0855202269706  
1.28857803345  1.58903385001  -1.51381743608  1.97223647896  -2.80629113334  -1.55700601093  -0.0843117095497  
1.29677510262  1.59106176959  -1.51248209494  1.96882673489  -2.80241311879  -1.55672624225  -0.0830985853478  
1.30478405952  1.59322565492  -1.51087036701  1.96547530843  -2.79882984735  -1.55641180441  -0.0818870271683  
1.31292819977  1.59553746502  -1.50899904347  1.96218624026  -2.79554892017  -1.55605285866  -0.0806863055855  
1.32099103928  1.59800794937  -1.50688616183  1.9589611345  -2.79257077172  -1.5556421002  -0.0795021474628  
1.32915711403  1.60065229503  -1.50455288455  1.95579986684  -2.78989594173  -1.55516867479  -0.078339237618  
1.33721899986  1.60348340827  -1.50202045632  1.95270126215  -2.78752606895  -1.55462086585  -0.0772044428287  
1.34533405304  1.60651759811  -1.49930966801  1.94966280798  -2.78546081937  -1.55398263803  -0.0761042883156  
1.35339522362  1.60977112108  -1.49644194665  1.946680054  -2.78369793576  -1.55324094494  -0.0750449244997  
1.36156105995  1.6132653891  -1.4934392045  1.94374410379  -2.78223329778  -1.55237913774  -0.0740320969272  
1.36978912354  1.6170124308  -1.49032368861  1.94085050409  -2.78106099238  -1.55138477566  -0.0730711194758  
1.37793803215  1.62103340762  -1.48711783181  1.9379904297  -2.78016832473  -1.55024350323  -0.0721668509349  
1.38594412804  1.62534191889  -1.48384410606  1.93515667883  -2.7795482325  -1.54894528914  -0.0713277303704  
1.3940281868  1.62995188378  -1.48052487909  1.93234107639  -2.77918802615  -1.54747828448  -0.0705559005349  
1.40208816528  1.63488026331  -1.47718227509  1.9295310086  -2.779072669  -1.54582743905  -0.069856281133  
1.41025114059  1.64015056727  -1.47384006238  1.92670992982  -2.7791838952  -1.54397415754  -0.0692340179264  
1.41833305359  1.64577133644  -1.47052063009  1.92386628539  -2.77949940181  -1.54191120769  -0.0686912158016  
1.42635607719  1.65174789484  -1.46724650229  1.92098957722  -2.78000119147  -1.5396328424  -0.0682253705042  
1.43445801735  1.65808724802  -1.46404059071  1.91806783313  -2.78066847953  -1.53713279902  -0.0678392320691  
1.44255900383  1.66479475241  -1.46092482985  1.91509126713  -2.78147689084  -1.53440535216  -0.0675357806749  
1.45095610619  1.67187452329  -1.45792006083  1.91205002523  -2.78240173536  -1.53144483665  -0.0673109179976  
1.45887422562  1.67932821857  -1.45504592563  1.90893554564  -2.78342324137  -1.52824719956  -0.0671658275681  
1.46694111824  1.68715508608  -1.45232077071  1.90574090206  -2.78451439234  -1.5248099876  -0.0670979045705  
1.47499203682  1.69534998779  -1.44975953928  1.90245822338  -2.78564230218  -1.52113232409  -0.0671073714342  
1.48309922218  1.70391046894  -1.4473765918  1.89907618554  -2.78677463436  -1.51720727443  -0.0671907002071  
1.49122214317  1.71282528567  -1.44518602756  1.89559050941  -2.78787472384  -1.51303522302  -0.0673431777539  
1.49928998947  1.72206492325  -1.44319836844  1.89200412534  -2.78891408473  -1.50862671503  -0.0675662481101  
1.50744199753  1.7315985227  -1.44142543383  1.88832311831  -2.78986629567  -1.50398999237  -0.0678551908718  
1.51554012299  1.74139571809  -1.43987779994  1.88455661211  -2.79069801153  -1.49912897826  -0.0682041794594  
1.52377820015  1.75141989781  -1.43856315255  1.8807166379  -2.79137947856  -1.49405247608  -0.0686095733183  
1.53184819221  1.76163959432  -1.43748954015  1.87681475986  -2.79189070712  -1.48877348103  -0.0690715162432  
1.53986811638  1.77201957761  -1.43666247986  1.87286492292  -2.79220615845  -1.48330596243  -0.0695881628837  
1.5479631424  1.78251752013  -1.43608256135  1.86888297592  -2.79230621134  -1.47766982183  -0.070154936893  
1.5559720993  1.79309217144  -1.43574960542  1.86488459475  -2.7921740775  -1.47188605723  -0.0707670529933  
1.56412601471  1.80370807238  -1.43566308213  1.86088034078  -2.79179180512  -1.46597458499  -0.0714195522816  
1.57218313217  1.81432871011  -1.43581888941  1.85688088874  -2.79114852387  -1.45995565757  -0.0721032824615  
1.58031010628  1.82491800754  -1.43621027578  1.85289533081  -2.79023831119  -1.4538522613  -0.0728107381694  
1.58839011192  1.83544012614  -1.43682915691  1.84893213551  -2.78905707758  -1.44768888906  -0.073536870249  
1.59651708603  1.84586540009  -1.43766619854  1.8449955485  -2.78759748067  -1.44149236576  -0.0742766312396  
1.60456705093  1.85616914425  -1.43871090545  1.84108825937  -2.78586122025  -1.43528553703  -0.0750250073334  
1.61268615723  1.86633618359  -1.43995171556  1.83720882835  -2.78384764089  -1.42908520102  -0.0757770493602  
1.6208460331  1.87634522287  -1.4413760986  1.83335923387  -2.78156192888  -1.42291380091  -0.0765279026244  
1.62896513939  1.88617934372  -1.44297065859  1.82953862452  -2.77901187435  -1.41678747717  -0.0772728354339  
1.63702607155  1.89582516468  -1.44472123936  1.82574534741  -2.77620372242  -1.41072069982  -0.078007266171  
1.64501905441  1.90526633704  -1.44661303234  1.82197955073  -2.7731401361  -1.40473025186  -0.0787308440972  
1.6531560421  1.91448086381  -1.448630686  1.81824282059  -2.76982736937  -1.39883456804  -0.0794376130605  
1.66119122505  1.92345727594  -1.45075841605  1.81453102536  -2.7662660035  -1.39304749254  -0.0801210642555  
1.66929316521  1.9321809799  -1.45298011579  1.81084418263  -2.76245718028  -1.38738388533  -0.0807774196115  
1.67738199234  1.94062793297  -1.45527946592  1.80718860468  -2.7584116883  -1.38186304013  -0.0813991073614  
1.68552899361  1.94878416874  -1.45764004302  1.80356637514  -2.75413952547  -1.37649933495  -0.0819886934819  
1.69364619255  1.95663584462  -1.46004542617  1.79997964631  -2.74964885319  -1.37130784386  -0.0825440047566  
1.7018661499  1.96416649688  -1.46247930096  1.79643384471  -2.74494902487  -1.36630269103  -0.0830599079512  
1.70992422104  1.97136005053  -1.46492556038  1.79293659159  -2.7400555662  -1.36149496604  -0.083534069854  
1.71792912483  1.97819765347  -1.46736840204  1.78949760246  -2.73498789565  -1.3568993121  -0.0839644773631  
1.7259991169  1.990740745  -1.47218269827  1.78282830725  -2.72439257648  -1.34839475389  -0.0846876060468  
1.73410105705  1.99641655182  -1.47452690592  1.77961850477  -2.7189037976  -1.34450194658  -0.0849819923372  
1.74220705032  2.00167679465  -1.47681451211  1.77650904703  -2.71331611981  -1.34085601581  -0.0852342046051  
1.75023913383  2.00650900629  -1.47903559445  1.7735137121  -2.7076561791  -1.33746458114  -0.0854436470707  
1.75826501846  2.01090047139  -1.48118088806  1.77064781038  -2.70194840142  -1.33433245027  -0.085614064584  
1.76628804207  2.01483831227  -1.48323980646  1.76792643287  -2.6962138999  -1.33146115561  -0.0857436777813  
1.77451705933  2.01831365126  -1.48520539654  1.76536501396  -2.69047852408  -1.32885560855  -0.0858342627244  
1.78256821632  2.02131993631  -1.48707388409  1.76297696114  -2.68477054933  -1.32651941926  -0.0858926561284  
1.79081511497  2.02385252381  -1.48884017804  1.7607732947  -2.67911740576  -1.32445542147  -0.0859176265643  
1.7987511158  2.0259098838  -1.49050076719  1.75876360467  -2.67354552309  -1.32266617357  -0.0859073830213  
1.80686402321  2.02749353562  -1.49205612758  1.75695602632  -2.66808018669  -1.32114989722  -0.0858628279918  
1.81491518021  2.02860796504  -1.49351062454  1.75535883979  -2.66275047425  -1.31990414274  -0.0857891146001  
1.82303404808  2.02926256419  -1.49487239193  1.75397976501  -2.65758187805  -1.31892632102  -0.0856898313388  
1.83111214638  2.029466561  -1.4961491466  1.75282495501  -2.65259522756  -1.31821220604  -0.0855621611948  
1.83922815323  2.02923345574  -1.49734977221  1.75189737969  -2.6478147725  -1.31775600051  -0.0854092156065  
1.84733319283  2.02857960127  -1.49848463496  1.75119914738  -2.64326084469  -1.31755041006  -0.0852349929988  
1.85541319847  2.02752444695  -1.49956831604  1.75073021861  -2.63894375294  -1.31758672505  -0.0850411039079  
1.86354017258  2.02608870519  -1.50061375101  1.75048974778  -2.63487916226  -1.31785490993  -0.0848333005571  
1.87165117264  2.0242937883  -1.5016354337  1.75047804588  -2.63108176493  -1.31834623233  -0.0846156593578  
1.87981820107  2.02216083824  -1.50263795093  1.75069169206  -2.62756624395  -1.31905227028  -0.0843897940173  
1.88788700104  2.01971753098  -1.50365099478  1.75113047301  -2.62433804297  -1.31995837181  -0.0841573319971  
1.8959569931  2.01699243655  -1.50470465754  1.75179339277  -2.62139965363  -1.32105099919  -0.0839199038694  
1.90406012535  2.01401279133  -1.50581918237  1.75267772932  -2.61875470617  -1.32231625475  -0.0836831882231  
1.91214704514  2.01080679709  -1.50701111102  1.75377715467  -2.61639981512  -1.32374049403  -0.0834510968656  
1.92022514343  2.00740138171  -1.50829772412  1.75508542611  -2.61433187167  -1.32530837224  -0.0832331017946  
1.92838406563  2.00382491494  -1.50970580303  1.7565970717  -2.61253891837  -1.32700501597  -0.0830432165779  
1.9364759922  2.00010535828  -1.51125545323  1.75830545488  -2.61100653715  -1.32881660686  -0.0828949425188  
1.94459319115  1.99626969485  -1.5129654175  1.76020446553  -2.60971696797  -1.33072639192  -0.0828093069624  
1.95282411575  1.99234296384  -1.51485660921  1.76228951739  -2.60865336752  -1.33271841114  -0.0828072413842  
1.9609940052  1.988351004  -1.51694627299  1.76455430323  -2.6078008952  -1.33478061497  -0.0829102760962  
1.96899318695  1.98431863568  -1.51925484132  1.76699379605  -2.60713865579  -1.33689470936  -0.0831371361327  
1.97701621056  1.98027116269  -1.52181057263  1.7696055417  -2.60663694176  -1.33904302283  -0.0835109984039  
1.9850962162  1.97623256465  -1.52463705196  1.77238701684  -2.60626269993  -1.34121112246  -0.0840624677542  
1.99318099022  1.97222497413  -1.52774588737  1.77533144075  -2.60598792337  -1.34338479317  -0.0848105581073  
2.0012152195  1.96826776297  -1.53115310008  1.77843408038  -2.6057826062  -1.34554758808  -0.0857774659551  
2.00933814049  1.96437830227  -1.53487444836  1.78169060056  -2.60560891252  -1.34768453747  -0.0869867012676  
2.01743912697  1.96057312067  -1.53892090236  1.78509320828  -2.60543174044  -1.34978017495  -0.0884572512713  
2.02554702759  1.9568678192  -1.54329706555  1.78863239798  -2.6052198792  -1.35182321482  -0.0902059947569  
2.0336561203  1.95327495659  -1.54800494253  1.7922964082  -2.60493801154  -1.35380093963  -0.0922517002737  
2.04187822342  1.9498068982  -1.55303953095  1.79607037722  -2.60455920675  -1.35570084797  -0.0946091809581  
2.04996418953  1.946472068  -1.55840237782  1.79994298879  -2.60404865246  -1.3575152805  -0.0972925480771  
2.05795407295  1.94327744246  -1.56409411097  1.80390385856  -2.60336916375  -1.35923628508  -0.100315939018  
2.06609106064  1.94023016321  -1.57010760303  1.80793970028  -2.60248854526  -1.36085770831  -0.103690999365  
2.07417106628  1.93733626816  -1.57643466802  1.81203610155  -2.601381712  -1.36237569197  -0.107426868338  
2.08222222328  1.93459864124  -1.58307058218  1.81618184647  -2.60001850709  -1.36378712539  -0.111534236518  
2.09036707878  1.93201992501  -1.59000917556  1.82036760817  -2.59837011407  -1.36508964732  -0.116027668264  
2.09841704369  1.92960291217  -1.59723118359  1.82457916837  -2.5964233836  -1.36627910855  -0.120901085222  
2.10651302338  1.92734726565  -1.60472006054  1.82880281696  -2.59416330205  -1.36735572687  -0.126154280655  
2.11457705498  1.92525041301  -1.61245592725  1.83302217907  -2.59157619853  -1.36831839624  -0.131784619865  
2.1227440834  1.92331291285  -1.62040892313  1.83721838499  -2.58866397352  -1.36916372415  -0.137767690372  
2.1310172081  1.9215326646  -1.62855418958  1.84137478177  -2.58542140664  -1.36988914265  -0.144082305478  
2.13897109032  1.91990621817  -1.63685894943  1.84547309349  -2.5818515974  -1.3704954396  -0.150704854701  
2.14704608917  1.9184304505  -1.64529101783  1.84949552872  -2.57796875105  -1.37098565639  -0.157609536546  
2.15509915352  1.91710135773  -1.6538209899  1.85342617051  -2.5737785821  -1.37136349814  -0.16476774669  
2.16320514679  1.91591002525  -1.66242439568  1.85725329921  -2.56928254667  -1.37163075993  -0.172159691214  
2.17130422592  1.9148485128  -1.67107040255  1.86096321098  -2.56449921212  -1.37179091217  -0.179759684504  
2.17939901352  1.91390864858  -1.67972865365  1.86454360033  -2.55944749366  -1.37184953931  -0.187538103624  
2.18756508827  1.91307842579  -1.68837306966  1.86798521426  -2.55413134903  -1.37181273659  -0.195467327491  
2.19563412666  1.91234420754  -1.69697827905  1.87128151524  -2.54856545557  -1.37168705924  -0.20351538112  
2.20393514633  1.91169003419  -1.705519762  1.87442800984  -2.54277482993  -1.37148200455  -0.211651923184  
2.21197009087  1.91109452228  -1.71397803071  1.87742288109  -2.53677518051  -1.37120632967  -0.219845146113  
2.2199652195  1.91054009861  -1.72232689845  1.88026142852  -2.53058216561  -1.37086751379  -0.228057155787  
2.22802019119  1.91000893212  -1.73053948475  1.88293876572  -2.52421533152  -1.37047832785  -0.236252467873  
2.23613405228  1.90947898965  -1.7385948571  1.8854521163  -2.51769486247  -1.3700545931  -0.244398976404  
2.24423408508  1.90893161042  -1.74647074356  1.88779980684  -2.51104650534  -1.3696094391  -0.252461592317  
2.25239801407  1.90834705235  -1.75414816246  1.88998125588  -2.50428910171  -1.36915430162  -0.260404165215  
2.26050615311  1.90770587603  -1.76160821926  1.89199533186  -2.49744580516  -1.36870040771  -0.268188110697  
2.26864600182  1.90699068376  -1.76883142474  1.89384263705  -2.49055090217  -1.36825870905  -0.275778394744  
2.27673602104  1.90618292261  -1.77580227708  1.89552417058  -2.48363108724  -1.36783728514  -0.283140417179  
2.28497314453  1.90526180911  -1.78250643136  1.89704099004  -2.47670650846  -1.36744491205  -0.290239419038  
2.29305815697  1.90421062878  -1.78892834132  1.89839516879  -2.46980193367  -1.36708895596  -0.297043135646  
2.30104017258  1.90301225355  -1.7950554311  1.89958976313  -2.46293938027  -1.36677992855  -0.30352599747  
2.30913305283  1.90165660806  -1.80087243676  1.90062876315  -2.45614717869  -1.36652575952  -0.30965939474  
2.31721615791  1.90013362045  -1.80636481269  1.90151543269  -2.4494586108  -1.3663333418  -0.315424923116  
2.3252761364  1.8984328963  -1.81151960581  1.902252955  -2.44290044042  -1.36620799621  -0.320802066598  
2.33340620995  1.89654255912  -1.8163251004  1.90284538221  -2.43650000153  -1.36615550879  -0.325774084839  
2.3415081501  1.89444570006  -1.82077207378  1.90329759017  -2.4302809441  -1.3661825832  -0.330328005059  
2.34959101677  1.89212875718  -1.82485177277  1.90361522529  -2.4242672397  -1.36629525946  -0.334451385844  
2.3576540947  1.88958640329  -1.82855474793  1.90380303336  -2.4184840231  -1.36649889158  -0.338130755805  
2.3658850193  1.88680711748  -1.83187699613  1.90386712192  -2.4129493019  -1.36679559501  -0.341357405905  
2.37396717072  1.88378116712  -1.83481944482  1.9038168234  -2.4076861828  -1.36719039596  -0.344128132379  
2.3820040226  1.88050223772  -1.83738338518  1.90366293845  -2.40272157087  -1.36769314915  -0.346442697951  
2.39002609253  1.87696454807  -1.83957126598  1.90341505042  -2.39806970067  -1.36830923928  -0.348299707452  
2.39805102348  1.86910910663  -1.84284018638  1.90268090802  -2.38977171692  -1.36989174593  -0.350644482865  
2.40617799759  1.86478227129  -1.84393739794  1.90221851359  -2.38615703551  -1.37086937601  -0.351145530645  
2.41423416138  1.86019377279  -1.84468664199  1.90170544729  -2.38291382283  -1.37197348498  -0.351208826463  
2.4223241806  1.85532961887  -1.84510074527  1.90115360725  -2.38005380366  -1.3732072386  -0.350848436188  
2.43041300774  1.85017018532  -1.84519798689  1.90057776056  -2.37758092556  -1.37457594017  -0.350083204502  
2.43852305412  1.84471529663  -1.8449941754  1.89998923922  -2.3754986219  -1.37607884244  -0.348930039295  
2.44654107094  1.83894951876  -1.84451231956  1.89940210486  -2.37380573443  -1.37771893349  -0.347405477838  
2.4547522068  1.83286549313  -1.84377541981  1.89882812963  -2.37250069772  -1.37949774446  -0.345532073708  
2.46285510063  1.82648248555  -1.84280189128  1.89827581351  -2.37158256002  -1.38140778666  -0.34333242839  
2.47086119652  1.81978368267  -1.84162213477  1.89775979191  -2.3710378022  -1.3834530893  -0.34082824589  
2.47897601128  1.81277674028  -1.84026226658  1.89729152393  -2.37085492717  -1.38563316122  -0.338042644574  
2.48704814911  1.80546164929  -1.83875379243  1.89688610745  -2.37102648697  -1.38794921865  -0.334999976976  
2.49508619308  1.79779678696  -1.83714174335  1.89656596557  -2.37153789477  -1.39041779472  -0.331725646058  
2.50319910049  1.7897661822  -1.83546223415  1.89634629425  -2.37236972105  -1.39304746065  -0.328249974507  
2.51128602028  1.7813956512  -1.83373761577  1.89623320851  -2.37350603628  -1.39583037152  -0.324598157702  
2.51933217049  1.77271334348  -1.83199040565  1.89623329933  -2.3749273256  -1.39875587881  -0.320795107406  
2.5274682045  1.76372427105  -1.83024919553  1.89635584114  -2.37660969653  -1.40182687341  -0.316868529757  
2.53565716743  1.7543977929  -1.82855237054  1.89661816853  -2.37852310067  -1.40505791224  -0.312850310316  
2.54361009598  1.74472084283  -1.82693387561  1.89703307286  -2.38063877456  -1.40845508834  -0.308770530059  
2.55166602135  1.73470119232  -1.82541948532  1.89760722918  -2.38293039143  -1.41201722624  -0.304656516589  
2.55989599228  1.72437917211  -1.82402440062  1.89833967136  -2.3853711347  -1.41573199492  -0.30053516455  
2.56796121597  1.71375527066  -1.82277404049  1.89923752136  -2.38793388029  -1.41960059495  -0.296432775424  
2.57604503632  1.70282706037  -1.8216918769  1.90030634341  -2.3905913758  -1.42362775995  -0.292374904909  
2.58411002159  1.6916103674  -1.82079572532  1.90154725982  -2.39331134727  -1.42780748384  -0.288386218644  
2.59227800369  1.68012124988  -1.82010098698  1.90295962602  -2.39606392621  -1.43213497018  -0.284486301702  
2.60037016869  1.66838730169  -1.81961818625  1.90453913951  -2.39882278399  -1.43660003189  -0.280699393048  
2.60844421387  1.65642273292  -1.81935908734  1.90628280712  -2.40156217801  -1.44119743728  -0.277049239744  
2.61655807495  1.64424290298  -1.81933213407  1.90818536814  -2.40425710075  -1.44592477566  -0.273555728919  
2.6248190403  1.63188983549  -1.81953965354  1.9102371242  -2.40689355965  -1.45076974872  -0.270237281672  
2.63293600082  1.61942478861  -1.81997717519  1.91242345715  -2.40945419775  -1.45570998349  -0.267110771161  
2.64092707634  1.60686016383  -1.82064858878  1.91473701365  -2.41191648119  -1.46074534495  -0.264191452457  
2.64899921417  1.59419123648  -1.82156145243  1.91717400328  -2.41425903559  -1.46588267042  -0.26149290432  
2.65706014633  1.58145520766  -1.82271231376  1.9197225029  -2.41646682304  -1.47111076343  -0.259026982985  
2.66515922546  1.56867369699  -1.82409751649  1.92237114468  -2.41852905289  -1.47642320297  -0.256803787976  
2.67340111732  1.55585142852  -1.82571563854  1.92511110245  -2.42043611386  -1.48182330786  -0.254831639861  
2.68142914772  1.54302017024  -1.82755774844  1.92792832753  -2.42217960695  -1.48730007314  -0.253117069816  
2.68953514099  1.530215445  -1.82961209669  1.93080732695  -2.42374730075  -1.4928356987  -0.251664820782  
2.69766116142  1.51746362299  -1.83186505594  1.93373193561  -2.42513040316  -1.49841902108  -0.250477859931  
2.70592999458  1.50478481523  -1.83430085327  1.93668349958  -2.42631946746  -1.50403934061  -0.249553346783  
2.7139081955  1.49222020803  -1.83690293166  1.93964428552  -2.42731360474  -1.50967939133  -0.248892527097  
2.7219991684  1.47979743275  -1.83965407347  1.94259627535  -2.42811418424  -1.51533183026  -0.248495746379  
2.73005700111  1.46754096693  -1.84253450347  1.94551935017  -2.42871566537  -1.52098939456  -0.248359239896  
2.73817300797  1.4554862703  -1.84552490896  1.94839470165  -2.42911593538  -1.52664040888  -0.248477682468  
2.74626803398  1.44366504413  -1.8486049279  1.95120523798  -2.42932231166  -1.53227858617  -0.248848314658  
2.75434112549  1.43210635306  -1.85175290335  1.95393306797  -2.42933606371  -1.53789330183  -0.249461161487  
2.76250219345  1.42083405052  -1.85494726268  1.95656189856  -2.42915865066  -1.54347231494  -0.250304148688  
2.7705450058  1.40986920475  -1.85816665231  1.95907741918  -2.428795744  -1.54900288492  -0.251366458398  
2.77875900269  1.39922961551  -1.86138804524  1.96146475995  -2.42825405627  -1.55447136343  -0.252636139678  
2.7868142128  1.38892733879  -1.86458976103  1.96370925081  -2.4275412737  -1.55986482084  -0.254100211227  
2.79486608505  1.37897282357  -1.86775197069  1.96579909326  -2.42666598435  -1.56517111045  -0.255744768178  
2.80298304558  1.36937732436  -1.87085556732  1.96772471721  -2.42563760222  -1.57038146135  -0.25755509222  
2.81105017662  1.36014465776  -1.8738802479  1.96947620322  -2.42447135701  -1.57549197157  -0.259519819547  
2.81910610199  1.35128685483  -1.87680750393  1.9710456209  -2.42317588716  -1.58049084473  -0.261621195387  
2.82719016075  1.34281163627  -1.8796190734  1.97242573353  -2.42175944356  -1.58536880584  -0.263840219933  
2.83533620834  1.33473024065  -1.88229867339  1.97361132574  -2.42023895203  -1.59011705088  -0.266160027642  
2.84345221519  1.32705235038  -1.88483043305  1.9745978902  -2.41862449247  -1.59472730673  -0.268563515204  
2.85156202316  1.31978323686  -1.88719858562  1.97537970449  -2.41692549938  -1.59919388912  -0.271033455627  
2.85959005356  1.31292463687  -1.88938877632  1.97595312837  -2.41515475398  -1.60351216027  -0.273552610384  
2.86785817146  1.3064825755  -1.89138812018  1.97631528072  -2.41332518837  -1.60767599815  -0.276103838975  
2.87588500977  1.30046517487  -1.89318524835  1.97646533652  -2.41144473177  -1.61167381889  -0.27867020525  
2.88392400742  1.294873596  -1.8947703445  1.97640480234  -2.40952854911  -1.61549740025  -0.281239135218  
2.89200210571  1.28970179388  -1.89613314712  1.97613486594  -2.40759267223  -1.61914285553  -0.283792655284  
2.90010404587  1.2849461001  -1.89726585972  1.97565866397  -2.40564984187  -1.62260498498  -0.286312515979  
2.90820813179  1.28060599515  -1.89816354124  1.9749815347  -2.40371253981  -1.62587582271  -0.288783543453  
2.9162530899  1.27667548121  -1.89882083546  1.9741083449  -2.40179291591  -1.62895235676  -0.291191234335  
2.92440009117  1.27314774219  -1.89923484904  1.97304573816  -2.39989765083  -1.63182831014  -0.29352183173  
2.93247413635  1.27001601113  -1.89940551031  1.97180236949  -2.39804528268  -1.63450187708  -0.295762394673  
2.94055199623  1.26726301933  -1.89933226958  1.97038621564  -2.39624753482  -1.6369771303  -0.297900860763  
2.94866204262  1.26487481688  -1.89901694777  1.96880680823  -2.3945114696  -1.63925423422  -0.299926101732  
2.95686101913  1.26283546046  -1.89846406843  1.96707545634  -2.39284662553  -1.64133663966  -0.301827971775  
2.96494603157  1.26112962819  -1.8976795533  1.96520416315  -2.39126186276  -1.64322691529  -0.303601403798  
2.97300100327  1.25973779484  -1.89667065189  1.96320553319  -2.38976532305  -1.6449282862  -0.305236583039  
2.98104214668  1.25863728599  -1.89544384143  1.96109106093  -2.38836946429  -1.6464466162  -0.306724003545  
2.98914003372  1.25780534011  -1.89400763802  1.95887335079  -2.38707870688  -1.64778878954  -0.308057750349  
2.99721503258  1.2572221105  -1.89237289329  1.95656633042  -2.38589569843  -1.64896010908  -0.309233023367  
3.00532507896  1.25686297215  -1.89055145955  1.95418416235  -2.38482537573  -1.64996785192  -0.310246141316  
3.01344704628  1.25670084238  -1.888556091  1.95174114915  -2.3838718438  -1.6508242107  -0.311098593732  
3.0215511322  1.25670925418  -1.88639831804  1.94925002073  -2.38303836964  -1.65154103103  -0.311787170848  
3.02966809273  1.2568612889  -1.8840912381  1.94672415814  -2.3823223133  -1.65212924354  -0.312308977029  
3.03802919388  1.25712771945  -1.88164979449  1.94417781319  -2.38172745489  -1.65260286894  -0.312664670933  
3.04606199265  1.25789136259  -1.8764187447  1.93907954742  -2.38093119268  -1.65327032928  -0.312889563334  
3.05403900146  1.25789136259  -1.8764187447  1.93907954742  -2.38093119268  -1.65327032928  -0.312889563334  
3.06211400032  1.25878364962  -1.87081841004  1.93405779088  -2.38064407488  -1.65366159102  -0.312491583926  
3.07020521164  1.25921250839  -1.86791539291  1.9316060103  -2.38068647954  -1.65378516763  -0.312071500157  
3.07829809189  1.25959619809  -1.86496360984  1.92920809446  -2.38085355154  -1.65387980398  -0.311511640344  
3.08637905121  1.25990851342  -1.86197848876  1.92687440792  -2.38113619747  -1.65395926224  -0.310816450009  
3.09444403648  1.26013125684  -1.85897651327  1.92461563086  -2.38152684141  -1.65403302113  -0.309993555046  
3.10259509087  1.2602521129  -1.85597388158  1.92244171437  -2.38202043822  -1.65410885265  -0.309051209541  
3.11061406136  1.26026378138  -1.85298641096  1.92036183458  -2.38261141007  -1.65419179654  -0.307998228504  
3.1187620163  1.26015819234  -1.85002944619  1.91838435325  -2.3832987636  -1.65429027904  -0.306843918647  
3.12683415413  1.25992373202  -1.84711575123  1.91651516657  -2.38406874698  -1.6544129277  -0.30559800769  
3.13489508629  1.2595547741  -1.844258324  1.914759993  -2.38491351191  -1.65456649424  -0.304270572676  
3.14301013947  1.25905033953  -1.84146868501  1.91312304268  -2.38582895908  -1.65475483951  -0.302871967787  
3.15109014511  1.25841033156  -1.83875846255  1.91160832587  -2.38680760392  -1.65497999448  -0.301408696819  
3.15918517113  1.25763755325  -1.83613971549  1.91021995115  -2.38784680836  -1.65524877704  -0.299897256489  
3.16729903221  1.25673884103  -1.83362565836  1.90896274616  -2.38894157929  -1.65556299815  -0.298353230518  
3.17543721199  1.25572084929  -1.83122771661  1.90783994301  -2.39008365486  -1.65592211963  -0.296783126872  
3.18359017372  1.25458961035  -1.82895509658  1.90685287608  -2.39125453267  -1.65632431454  -0.295195091138  
3.19165802002  1.253353769  -1.82681599136  1.90600198799  -2.39245017229  -1.65676854325  -0.293603672316  
3.19988417625  1.25202364767  -1.82481755258  1.90528684738  -2.39366847503  -1.657255042  -0.29201741244  
3.20794200897  1.25060992098  -1.82296789235  1.90470779028  -2.39489610945  -1.65778123891  -0.29044381656  
3.21592020988  1.24912353965  -1.82127317516  1.90426363285  -2.39612710496  -1.65834285399  -0.288892559134  
3.22405719757  1.24757565453  -1.81973924814  1.90395301343  -2.39735154401  -1.65893801905  -0.287372942905  
3.23208904266  1.24597754114  -1.81836998899  1.90377310701  -2.39856892322  -1.65956621529  -0.285897904047  
3.24021720886  1.24434052524  -1.81716895062  1.90372097628  -2.39976762535  -1.66022165775  -0.284470050809  
3.24828219414  1.24267590983  -1.81613974582  1.90379391262  -2.4009394942  -1.66090056018  -0.283100566808  
3.25635910034  1.24099490404  -1.81528481213  1.90398847898  -2.40207570519  -1.66159957837  -0.281793491301  
3.26449203491  1.23930855429  -1.81460542433  1.90430054899  -2.40317193735  -1.66231633706  -0.280554824892  
3.27258610725  1.23762767815  -1.81410171403  1.9047253495  -2.40422015827  -1.66304485353  -0.279393221101  
3.28079414368  1.23596280118  -1.81377269603  1.90525750629  -2.40521689863  -1.6637812467  -0.278314210899  
3.28884100914  1.2343240972  -1.81361630109  1.90589109234  -2.40615503028  -1.66452217853  -0.277322670108  
3.29688715935  1.23272133209  -1.81362941487  1.90661967864  -2.40703203386  -1.66526537854  -0.276426859356  
3.30499315262  1.23116381165  -1.81380792253  1.90743638682  -2.40784176976  -1.66600506441  -0.275628553563  
3.31305217743  1.22966033351  -1.81414675859  1.90833394348  -2.40858273851  -1.66673764748  -0.274932121469  
3.32117009163  1.22821914344  -1.81463996167  1.90930473569  -2.40925998271  -1.66746017015  -0.274341983205  
3.32926416397  1.22684789624  -1.81528073356  1.9103408673  -2.40986362181  -1.66816829133  -0.273855296453  
3.33737921715  1.22555362123  -1.81606150228  1.91143421579  -2.41039057836  -1.66885786451  -0.273470257753  
3.34550309181  1.22434269259  -1.81697398843  1.91257648907  -2.41083730182  -1.66952495934  -0.273182835076  
3.35362815857  1.22322080452  -1.81800927453  1.91375928215  -2.4111998333  -1.67016588149  -0.272994155817  
3.36174416542  1.22219295134  -1.8191578767  1.91497413307  -2.41148294611  -1.67077719039  -0.272905495712  
3.36987900734  1.22126341241  -1.82040981831  1.91621257791  -2.41168976968  -1.67135571505  -0.272915037885  
3.37795114517  1.22043574211  -1.82175470488  1.91746620447  -2.41181573832  -1.67189603319  -0.273020386133  
3.38606214523  1.21971276445  -1.82318179996  1.91872670442  -2.41185894133  -1.67239664517  -0.27321859389  
3.3941822052  1.2190965726  -1.8246801013  1.91998592345  -2.41182614245  -1.67285937347  -0.273510251276  
3.40229415894  1.21858853298  -1.82623841694  1.92123590932  -2.41171732347  -1.673281169  -0.273889659611  
3.41040611267  1.21818929389  -1.82784544066  1.92246895747  -2.41153701618  -1.67366134813  -0.274349898335  
3.41851902008  1.21789879849  -1.82948982636  1.92367765396  -2.41128603012  -1.67399747386  -0.274886127278  
3.42657017708  1.2177163019  -1.83116026096  1.92485491557  -2.41096460223  -1.67428947986  -0.275493139662  
3.43483710289  1.21764039234  -1.83284553534  1.92599402681  -2.41058151468  -1.6745380817  -0.276169459096  
3.44289517403  1.21766901586  -1.83453461289  1.9270886738  -2.4101436978  -1.67474273575  -0.2769075226  
3.45092105865  1.21779950474  -1.8362166954  1.92813297469  -2.40965015977  -1.67490065585  -0.277698754514  
3.45911502838  1.21802860891  -1.83788128584  1.9291215067  -2.40910738844  -1.67501296916  -0.278536874302  
3.46714711189  1.21835253045  -1.83951824772  1.93004932956  -2.40852303092  -1.67507903169  -0.279415453564  
3.47525906563  1.21876492248  -1.84111786082  1.93091200538  -2.4079017808  -1.67509800738  -0.28032796031  
3.48337006569  1.21925984598  -1.84267087286  1.93170561479  -2.40724845392  -1.67507342993  -0.281267802832  
3.49152207375  1.21983220045  -1.84416854706  1.93242676952  -2.40656288586  -1.67500800839  -0.282228372908  
3.4995701313  1.22047651582  -1.84560270524  1.93307262119  -2.40585222338  -1.67490312896  -0.283207143364  
3.50782608986  1.22118495775  -1.8469657664  1.93364086652  -2.40512460376  -1.674760395  -0.284195849424  
3.51589417458  1.22195028944  -1.84825078055  1.93412974904  -2.40438504302  -1.67458161172  -0.285185558748  
3.52389407158  1.22276630606  -1.8494514578  1.93453805713  -2.40363851353  -1.67436623588  -0.286169973302  
3.53198313713  1.22362459126  -1.85056219248  1.93486511881  -2.40288484456  -1.67411751988  -0.287142978414  
3.5400531292  1.22451747853  -1.85157808245  1.93511079311  -2.40213101753  -1.67383935076  -0.288098677176  
3.54807806015  1.22543644628  -1.85249494343  1.93527545838  -2.40138485027  -1.67353419248  -0.289031422651  
3.55625414848  1.22637382804  -1.85330931843  1.93535999753  -2.40065089086  -1.67320462151  -0.289935847719  
3.56431221962  1.22732324339  -1.8540184824  1.93536578038  -2.3999335018  -1.67285330776  -0.290806892454  
3.57240414619  1.22827634918  -1.85462044206  1.9352946435  -2.39923176774  -1.67248299552  -0.291639828887  
3.5805811882  1.22922579505  -1.85511393118  1.93514886734  -2.39854672967  -1.67209648421  -0.292430283089  
3.58863806725  1.23016564915  -1.85549840127  1.93493115132  -2.3978823332  -1.67169660937  -0.293174254475  
3.59685301781  1.23109018147  -1.85577400799  1.9346445867  -2.39724736833  -1.67128622383  -0.293872187552  
3.60485720634  1.23199185726  -1.85594159346  1.93429262768  -2.39664312652  -1.67086817918  -0.294519125793  
3.61291503906  1.2328642836  -1.85600064238  1.93387744286  -2.39607474137  -1.67044530775  -0.295109752675  
3.62101316452  1.2337005878  -1.85595215113  1.93340219925  -2.39554799853  -1.67002293961  -0.295645718587  
3.62907505035  1.23449103075  -1.8557969623  1.93286972057  -2.39506017772  -1.669605258  -0.296123298868  
3.63722205162  1.23522721323  -1.85553536423  1.93228215721  -2.3946154795  -1.66919226477  -0.29653842641  
3.64530706406  1.23590046244  -1.85516831327  1.93164195732  -2.39421366353  -1.66878748344  -0.29688995497  
3.65342521667  1.23650352844  -1.8546953889  1.93095022702  -2.39385322189  -1.6683948024  -0.29717716875  
3.66150522232  1.23702896105  -1.85411564069  1.93020740373  -2.39354052455  -1.66801895773  -0.29739977669  
3.66975021362  1.2374687588  -1.85342881752  1.92941423813  -2.39327945348  -1.66766344925  -0.29755790422  
3.6778781414  1.23781769182  -1.85263737587  1.92857340061  -2.39307043582  -1.66733004697  -0.297652082553  
3.68596816063  1.23807041269  -1.85173952101  1.92768553105  -2.39291355852  -1.66702033869  -0.297683235666  
3.69393420219  1.23821905267  -1.85073054249  1.92674961318  -2.39280857597  -1.66673825874  -0.297656720366  
3.70199608803  1.23825740754  -1.84960856897  1.9257665775  -2.39274985033  -1.66648645583  -0.297572449327  
3.71007704735  1.23818134042  -1.84836965628  1.92473536392  -2.39273868747  -1.66627087516  -0.297429902264  
3.71821022034  1.23765692855  -1.84550536154  1.92251395567  -2.39286862192  -1.66596170505  -0.296983494751  
3.72618818283  1.2371970947  -1.84386956559  1.92132290623  -2.3930145566  -1.66587470598  -0.296687397656  
3.73427200317  1.23660027045  -1.84209025569  1.92007635338  -2.39321264775  -1.6658375608  -0.296343673463  
3.74234104156  1.23586168392  -1.8401554471  1.91876895965  -2.39346546812  -1.66585337138  -0.295955633976  
3.75049614906  1.23497839343  -1.83805604896  1.91739816577  -2.39378835564  -1.6659248301  -0.295526793162  
3.75856113434  1.23395374103  -1.8357967636  1.91596705474  -2.39418670265  -1.66605167801  -0.295060840066  
3.76664304733  1.23279025005  -1.83337711554  1.91447610032  -2.39466125718  -1.66623686261  -0.294561611261  
3.77473020554  1.2314867852  -1.83077825768  1.91291675825  -2.39522544008  -1.66648846075  -0.294033063016  
3.78288817406  1.23005005741  -1.82800397452  1.91129181504  -2.39588264877  -1.66680785044  -0.293479243368  
3.7909040451  1.22849030657  -1.82506995845  1.9096098943  -2.39662650434  -1.66719139453  -0.292904264279  
3.7990000248  1.22680689773  -1.8219585734  1.90786326323  -2.39747050647  -1.66764273925  -0.29231227405  
3.80709600449  1.22500000736  -1.81864567477  1.90603929876  -2.39843426996  -1.66816449813  -0.291703374896  
3.81515812874  1.22307425186  -1.81511502436  1.90412972529  -2.39953314897  -1.66876080994  -0.291075345691  
3.82326102257  1.22103692908  -1.81135821749  1.90213121204  -2.40077620745  -1.66943067409  -0.290422084817  
3.83139705658  1.21889709121  -1.80736604899  1.90003815655  -2.40216834352  -1.67017062867  -0.289735367272  
3.83947110176  1.21666626306  -1.80313345875  1.89784602065  -2.40371846319  -1.67097836758  -0.289015485816  
3.84757304192  1.21435545454  -1.79865661921  1.895549705  -2.40543729397  -1.67185121017  -0.288263737612  
3.85579013824  1.21197877652  -1.7939329429  1.89314457282  -2.4073342391  -1.6727861268  -0.287479162762  
3.86393213272  1.20955082421  -1.78896065717  1.89062452246  -2.4094224186  -1.67378230091  -0.28666508755  
3.87191104889  1.2070869885  -1.78374446432  1.88798724334  -2.41170125536  -1.67483499562  -0.285823319138  
3.88001012802  1.20460374212  -1.77828604391  1.88522765755  -2.41416494094  -1.67593619315  -0.284957424288  
3.88806319237  1.20211728908  -1.77257968244  1.88233770372  -2.4168147381  -1.67707775892  -0.284065356425  
3.89613819122  1.19964346827  -1.76662704193  1.87931357636  -2.41965373404  -1.67825403045  -0.283148537287  
3.90421414375  1.1971976618  -1.76043615001  1.8761543513  -2.42268374351  -1.67945824305  -0.282209312417  
3.91242599487  1.19479470834  -1.75400826426  1.872856743  -2.42590025871  -1.68068209815  -0.281243630247  
3.92048215866  1.19244882194  -1.7473513825  1.8694213387  -2.42929972955  -1.68191990408  -0.280253385522  
3.92858719826  1.19017351682  -1.74047475183  1.86584764069  -2.43288056618  -1.68316499943  -0.279241384772  
3.93672013283  1.18798153829  -1.73338111502  1.86213151348  -2.4366400674  -1.68440931764  -0.278208077464  
3.94490098953  1.18588480032  -1.72607614808  1.85826885691  -2.44057446266  -1.68564498895  -0.277154037446  
3.95296216011  1.18389432972  -1.71857724312  1.85426468734  -2.4446688247  -1.68686185157  -0.276079956469  
3.96092104912  1.18202021735  -1.71089531726  1.85011831813  -2.44891670431  -1.68805365535  -0.27498663754  
3.96902012825  1.18027157643  -1.70304907935  1.84583452548  -2.45330473025  -1.68921495833  -0.273879041416  
3.97711420059  1.17865650802  -1.69505013272  1.84141268174  -2.45781999348  -1.69033912399  -0.272760473934  
3.98520803452  1.17718207369  -1.68691119685  1.83685338873  -2.46245008749  -1.69141990908  -0.271631803738  
3.99332809448  1.17585427557  -1.67865769843  1.83216780267  -2.46716899954  -1.69245149386  -0.27049799806  
4.00146412849  1.1746780434  -1.67030870662  1.82736081618  -2.47195990815  -1.6934285089  -0.269370421831  
4.00959300995  1.17365722885  -1.66187738698  1.82243377899  -2.47680490366  -1.69434605844  -0.268250392841  
4.01782512665  1.17279460671  -1.65339531504  1.81740268267  -2.48168008952  -1.69519974012  -0.267144030752  
4.02585911751  1.17209392114  -1.64490655852  1.81229316789  -2.48655687713  -1.69598566118  -0.266056397171  
4.03388118744  1.17155698291  -1.63641089849  1.80709775371  -2.49141445051  -1.69670045102  -0.264991513366  
4.04195404053  1.1711833012  -1.62790983677  1.80181198662  -2.49622854307  -1.69734127011  -0.263955588973  
4.05002307892  1.17097339966  -1.61942587197  1.79644727445  -2.50097473951  -1.69790581544  -0.262950447106  
4.05813217163  1.17092593364  -1.61097923645  1.79101460428  -2.50563267094  -1.69839232225  -0.26197929938  
4.06622314453  1.17103937875  -1.60259106746  1.78552578257  -2.51017794347  -1.6987995625  -0.261047493758  
4.07430911064  1.17131040906  -1.59428000607  1.77999204058  -2.51459455941  -1.69912937438  -0.260160001595  
4.08241415024  1.17173559647  -1.58606336138  1.7744236593  -2.51886365008  -1.69938049182  -0.259317339843  
4.09053111076  1.17231183761  -1.57795864304  1.76883251228  -2.52296672985  -1.69955421147  -0.258525411204  
4.0987970829  1.17303514486  -1.56998223473  1.76322968662  -2.52688984043  -1.69965279058  -0.257786402363  
4.10682916641  1.17390476972  -1.5621472949  1.75762511013  -2.53061542741  -1.69967739141  -0.257101311278  
4.11486101151  1.17491945643  -1.55446658395  1.75202848638  -2.53413470886  -1.69962961756  -0.256473198603  
4.12292313576  1.17607787696  -1.54695683645  1.7464524748  -2.53744142112  -1.6995114933  -0.255904690987  
4.13100814819  1.17737904414  -1.53963370418  1.74090962274  -2.54052269277  -1.69932290621  -0.255397974743  
4.13911509514  1.17881701341  -1.53252220717  1.73542070752  -2.5433643524  -1.69906521014  -0.254954792462  
4.14717721939  1.18039082608  -1.52563651589  1.72999853963  -2.54595915369  -1.69874168244  -0.254576442522  
4.15531611443  1.18209949019  -1.51898945613  1.72465554083  -2.54830969097  -1.69835340586  -0.254267836658  
4.16348099709  1.18394893212  -1.51257988953  1.71939361897  -2.55041294296  -1.69790032999  -0.254027645409  
4.17153501511  1.18594199452  -1.5064084574  1.71421672884  -2.55227159595  -1.69738281615  -0.253853335981  
4.17958521843  1.18807566041  -1.50048679689  1.70913820887  -2.55388575545  -1.69679909105  -0.253744446414  
4.18761920929  1.19035220736  -1.49481901782  1.70416592258  -2.55525607288  -1.69614632568  -0.253700111011  
4.19583106041  1.19276846174  -1.48941481318  1.69931270533  -2.55638269622  -1.695427265  -0.25371907543  
4.20389413834  1.19532167281  -1.48428115064  1.69458967366  -2.55726427955  -1.6946429757  -0.25379971388  
4.21187114716  1.19801398563  -1.47941625103  1.69000136138  -2.55790613137  -1.69378934263  -0.253940048261  
4.21997499466  1.20085190917  -1.47481546286  1.68555037155  -2.55831798896  -1.69286380469  -0.254137769087  
4.22807908058  1.20383720158  -1.47047863784  1.68124322829  -2.55851081509  -1.69186836969  -0.254390258004  
4.23613214493  1.20697513572  -1.46640152374  1.67708344137  -2.55848656363  -1.69080188988  -0.254690556503  
4.24421215057  1.21027681081  -1.46257468982  1.6730705967  -2.55825258476  -1.68966319423  -0.255037250722  
4.25233411789  1.21374101632  -1.45899947736  1.66921306594  -2.55782345384  -1.68845564924  -0.255429467561  
4.2604072094  1.21737248392  -1.45567275471  1.66551576033  -2.55721463723  -1.68717435789  -0.255863637856  
4.26862215996  1.2211751629  -1.45259192429  1.66198408612  -2.55644237254  -1.68581907438  -0.256336011371  
4.27669715881  1.2251612084  -1.44974762321  1.6586180566  -2.55552354734  -1.68438849512  -0.256842684886  
4.28489208221  1.22933967664  -1.44713124641  1.6554182622  -2.55446543863  -1.68287473717  -0.257375575341  
4.29290509224  1.23371004817  -1.44473779277  1.65238810055  -2.55328010071  -1.68127418398  -0.25793230795  
4.30093002319  1.23827141731  -1.44256298905  1.64953143105  -2.55198617836  -1.67958435584  -0.258511214525  
4.30905199051  1.24302087116  -1.44060248836  1.64685189034  -2.5505974922  -1.67780441453  -0.259108097739  
4.31716918945  1.2479531535  -1.43885271077  1.64435352315  -2.54912509962  -1.67593056216  -0.259718746137  
4.3252081871  1.2530436316  -1.43731610378  1.64204495199  -2.54758032566  -1.67396932354  -0.260338961167  
4.33328509331  1.25826034811  -1.43599531625  1.63993468008  -2.54597468483  -1.67193521021  -0.260964583493  
4.34138417244  1.26361858397  -1.43488024302  1.63802069284  -2.54432994167  -1.669817506  -0.261591518429  
4.34947109222  1.26912863674  -1.43396377215  1.63630302454  -2.5426635235  -1.66760631034  -0.262215760357  
4.35759019852  1.27478944336  -1.43324173382  1.63478369045  -2.54098650996  -1.66529658772  -0.262833416006  
4.36582517624  1.28059166351  -1.43270963644  1.63346404957  -2.53930978434  -1.66289114923  -0.263440726455  
4.37381315231  1.2865240742  -1.43236310254  1.63234513117  -2.53764396924  -1.66039434768  -0.264034087774  
4.38191103935  1.29258059381  -1.43219465984  1.63142505009  -2.53599936544  -1.65780290703  -0.264610070178  
4.38992500305  1.29875164245  -1.43219669576  1.63070135444  -2.53438589424  -1.65511119401  -0.265165435632  
4.39829516411  1.31135984789  -1.43268935551  1.62983704898  -2.53129488645  -1.64944699172  -0.266191999843  
4.40640807152  1.31775981772  -1.43316593152  1.62969010895  -2.52984278079  -1.64648646452  -0.266658033776  
4.41441607475  1.32418145836  -1.43378704321  1.62972860827  -2.52845929307  -1.64345807441  -0.267086599492  
4.42254114151  1.33058884133  -1.43454531536  1.62994789223  -2.52714852699  -1.640378582  -0.267479926534  
4.4306371212  1.33698081239  -1.43543267864  1.63034227081  -2.52592213043  -1.63724439751  -0.267838787838  
4.43881320953  1.34336567871  -1.43644043731  1.6309050793  -2.52478890605  -1.63404782507  -0.268165783418  
4.44691514969  1.3497291886  -1.4375593392  1.63162874377  -2.52375382174  -1.6307964385  -0.268462026487  
4.45491909981  1.35604780113  -1.43877964763  1.6325048507  -2.52282110509  -1.62750151491  -0.268726370478  
4.46302318573  1.36230493421  -1.44009121463  1.63352422029  -2.5219942342  -1.62416775268  -0.268949787869  
4.47113204002  1.36848845127  -1.44148355509  1.63467698289  -2.52127593342  -1.62079948369  -0.269131034465  
4.4792611599  1.37457474242  -1.44294592122  1.63595265794  -2.52066310599  -1.6174102764  -0.269272392546  
4.48732113838  1.38055035824  -1.44446737693  1.63733861937  -2.52015916155  -1.61400792473  -0.269373914722  
4.49538421631  1.38640040556  -1.44603687168  1.63882249044  -2.51976773978  -1.61060165323  -0.269435904888  
4.50349903107  1.39210178081  -1.4476433132  1.64039253554  -2.51948864576  -1.60720757906  -0.26945891032  
4.51164221764  1.39764591831  -1.44927563883  1.64203675189  -2.51932097709  -1.60383273889  -0.269443712418  
4.51974821091  1.40302380559  -1.45092288495  1.64374295198  -2.51926314647  -1.60048541274  -0.269391316183  
4.52784609795  1.40822771083  -1.45257425411  1.64549884525  -2.51931290804  -1.59717552794  -0.269302938527  
4.53599309921  1.41325077375  -1.45421917953  1.64729211844  -2.5194673873  -1.5939110205  -0.269179995521  
4.54401421547  1.41808704097  -1.45584738663  1.64911051418  -2.51972311427  -1.59069935021  -0.269024088677  
4.55213618279  1.42273514349  -1.45744895118  1.65094190739  -2.52007605963  -1.58754999875  -0.268836990388  
4.56019902229  1.42719412005  -1.45901435389  1.65277437898  -2.52052167361  -1.58447334464  -0.268620628626  
4.56827807426  1.43146504888  -1.46053453113  1.65459467089  -2.52105492719  -1.58147652413  -0.26837707102  
4.57641005516  1.43555139517  -1.46200294367  1.65639218332  -2.52167035536  -1.57856448052  -0.268108508425  
4.58449721336  1.43945567363  -1.46341272468  1.65815703146  -2.52236210219  -1.57574403636  -0.267817238108  
4.59253501892  1.4431802729  -1.46475633152  1.65987718853  -2.52312396718  -1.57302025461  -0.267505646645  
4.60074305534  1.44673070207  -1.46602682045  1.66154184527  -2.52395452182  -1.57039594717  -0.267176192676  
4.60886311531  1.4501126256  -1.467219899  1.66314177118  -2.52484483344  -1.56787322819  -0.266831389597  
4.61686515808  1.45333549733  -1.46833307818  1.66466836657  -2.52578480136  -1.56545351798  -0.266473788332  
4.62498807907  1.45640384325  -1.46936241231  1.6661120834  -2.5267672857  -1.56314008437  -0.266105960261  
4.63303017616  1.45932633148  -1.47030539284  1.66746477553  -2.52778504684  -1.56093189209  -0.26573048044  
4.64119410515  1.46211723041  -1.47116132896  1.66872003601  -2.52883079372  -1.55882422853  -0.265349911182  
4.64923906326  1.46478518897  -1.47192807572  1.66987061012  -2.5299023003  -1.55681692463  -0.264966786123  
4.65734314919  1.46732354022  -1.47260289372  1.67091072642  -2.53099519647  -1.55491728319  -0.264583594837  
4.66543722153  1.46971927518  -1.47318369153  1.67183641838  -2.53210204517  -1.55313478609  -0.264202768107  
4.67349100113  1.47199524562  -1.47367306818  1.67264292787  -2.5332104288  -1.55145260306  -0.263826663909  
4.68163514137  1.47419322715  -1.47407858497  1.67332540245  -2.53431531801  -1.54984356072  -0.263457554197  
4.68993711472  1.47633493318  -1.47440734307  1.6738831219  -2.53540775792  -1.54829130638  -0.263097612545  
4.69786214828  1.47843297229  -1.47466555041  1.6743164921  -2.53647301584  -1.54678913843  -0.262748902713  
4.70593309402  1.48049707454  -1.4748576927  1.67462411265  -2.53750701847  -1.54533069777  -0.262413368169  
4.71411514282  1.48253451257  -1.47498937903  1.67480767818  -2.53850698899  -1.54391305038  -0.262092822632  
4.72210216522  1.48455255483  -1.47506970128  1.67487156782  -2.53946739763  -1.54253357475  -0.261788941663  
4.73023319244  1.4865584203  -1.47510907204  1.67482081662  -2.54038309693  -1.54118795185  -0.261503255326  
4.73833012581  1.48855719555  -1.47511791564  1.67465945054  -2.54124934531  -1.53987175098  -0.261237141949  
4.74647116661  1.49055470837  -1.47510862429  1.67439436738  -2.54205675938  -1.53858046011  -0.260991822997  
4.75456118584  1.49255380022  -1.47509462157  1.67403489443  -2.54280365327  -1.53731205082  -0.260768359057  
4.76263213158  1.49455479433  -1.47509106374  1.67359235372  -2.54348469828  -1.53606591555  -0.260567646944  
4.77088618279  1.4965518801  -1.47510377972  1.67307443552  -2.54409410844  -1.53484385493  -0.260390417907  
4.77890920639  1.49854593877  -1.47514848059  1.67249269586  -2.54462465527  -1.53364138815  -0.260237236937  
4.78694200516  1.50053987566  -1.47524189951  1.67185946101  -2.54507181584  -1.53245706699  -0.260108503134  
4.79511713982  1.50253408713  -1.47539521837  1.67118353446  -2.54542966975  -1.53129138157  -0.260004451124  
4.80317306519  1.5045269202  -1.47561897403  1.67047281322  -2.54569503724  -1.53014317438  -0.25992109828  
4.81130504608  1.50651758762  -1.47592300583  1.66973522754  -2.54585829782  -1.52901373887  -0.25986010762  
4.81933712959  1.50850655511  -1.47631843269  1.66898030715  -2.5459097055  -1.52790066736  -0.259823762185  
4.82740521431  1.51049224987  -1.47681674058  1.66821681794  -2.54584855942  -1.52680607388  -0.259811706202  
4.83556509018  1.5124719368  -1.47742848983  1.66745401982  -2.54566778634  -1.52572885501  -0.259823438383  
4.84371805191  1.51444298395  -1.47816529299  1.66670191739  -2.54536023885  -1.52466833925  -0.259858318557  
4.85181808472  1.51640083902  -1.4790389048  1.66597021109  -2.54492277817  -1.52362426571  -0.259915575037  
4.85980916023  1.51833992097  -1.48006195522  1.6652698596  -2.54434809423  -1.52259729231  -0.259994312636  
4.86786222458  1.52025490068  -1.4812429931  1.6646107107  -2.54363195436  -1.52158693611  -0.260093521282  
4.87593221664  1.52214072841  -1.48258896282  1.66400276442  -2.54276908967  -1.52059363758  -0.260212085154  
4.88404417038  1.52399062134  -1.48410478628  1.66345480927  -2.54175732134  -1.51961923607  -0.260348792268  
4.89213609695  1.52579696558  -1.48579500301  1.6629756935  -2.54059850128  -1.5186654071  -0.26050234445  
4.90024518967  1.52755260395  -1.48766212755  1.66257458502  -2.53929030003  -1.51773365591  -0.260671367615  
4.90840101242  1.52925290931  -1.48970628202  1.66225670651  -2.53783342417  -1.516825312  -0.260854422283  
4.9164481163  1.53089493562  -1.49192848594  1.66202954315  -2.5362325413  -1.51594405932  -0.26105001426  
4.92453813553  1.53247413842  -1.4943277949  1.66189788152  -2.53448805197  -1.51508977118  -0.261252550211  
4.93275713921  1.53398729754  -1.49690297497  1.66186450318  -2.53260836019  -1.51426672105  -0.261466263142  
4.94094419479  1.53543086993  -1.49965089559  1.66193246696  -2.53060352982  -1.51347836679  -0.261690333755  
4.94886422157  1.53680265583  -1.50256821715  1.66210411744  -2.52847607397  -1.5127222947  -0.261916611739  
4.9569811821  1.53810218319  -1.50565181591  1.66238108707  -2.52623125643  -1.51199696048  -0.262145237046  
4.96505212784  1.53932741125  -1.50889961111  1.66276430388  -2.52387292617  -1.51130217907  -0.262377132775  
4.97313308716  1.54047559864  -1.51230771895  1.66325399981  -2.52140759382  -1.51063757613  -0.262610751059  
4.98123621941  1.54154659525  -1.51587214333  1.66384972704  -2.51884532886  -1.5100051294  -0.262844569926  
4.98928308487  1.54253992641  -1.51958920321  1.66455037782  -2.51619150772  -1.50940554891  -0.263077102331  
4.99741601944  1.54345643859  -1.52345433717  1.6653542054  -2.51344385468  -1.50884033627  -0.263306904754  
5.00552201271  1.54429662759  -1.52746013151  1.66625723225  -2.51060277606  -1.50830718819  -0.263532585316  
5.01357913017  1.54506227927  -1.53159926838  1.6672555957  -2.50767229706  -1.50780568653  -0.263752811372  
5.02161002159  1.54575479134  -1.53586497001  1.66834588989  -2.50465184455  -1.50733572381  -0.263966316554  
5.0297100544  1.54637477166  -1.54024779473  1.66952420465  -2.50154853143  -1.50689801178  -0.264171907219  
5.03788614273  1.54692531188  -1.54473859457  1.67078454984  -2.49836576039  -1.50649202372  -0.264372523485  
5.04589319229  1.54740905218  -1.54932896559  1.67212120738  -2.49510635482  -1.50611806115  -0.264565384965  
5.05409121513  1.54818566304  -1.55878195438  1.67500851199  -2.48835988663  -1.50546335212  -0.26491655957  
5.06212306023  1.54848637885  -1.56363210955  1.67654885337  -2.48487565803  -1.50518122657  -0.265073201284  
5.07025814056  1.54873467088  -1.56855981446  1.67814889844  -2.48132137379  -1.50492838585  -0.265216263968  
5.07827615738  1.54893469062  -1.57356229661  1.67980421763  -2.47770198923  -1.50470573628  -0.265345163661  
5.0863070488  1.5490895766  -1.57863718686  1.68150981737  -2.47401565151  -1.50451397124  -0.265459420079  
5.0944070816  1.54920267905  -1.58378292453  1.68325985724  -2.47025997407  -1.50435103735  -0.265558657188  
5.10242915154  1.54927957114  -1.58899955902  1.68504900483  -2.46643610294  -1.50421829859  -0.265642603116  
5.11052012444  1.54932510552  -1.59428789998  1.68687277503  -2.46254558883  -1.50411486144  -0.265711089389  
5.11880302429  1.54934503617  -1.59964828322  1.6887265701  -2.45858529945  -1.50403663256  -0.26576404955  
5.12681221962  1.54934636256  -1.60508260194  1.69060571348  -2.45455465261  -1.50398199062  -0.265801517146  
5.13480401039  1.5493360353  -1.61059344695  1.6925054803  -2.45045149273  -1.50394818655  -0.265823623141  
5.14288806915  1.54932295224  -1.61618286259  1.69442112731  -2.44627620843  -1.50393342133  -0.265830592767  
5.1509680748  1.54931499917  -1.62185234601  1.69634792343  -2.44202253414  -1.50393733574  -0.265822741855  
5.15903806686  1.54932065919  -1.62760689603  1.69828118365  -2.43767877916  -1.50395692667  -0.265800472677  
5.16709899902  1.54934731015  -1.63344923089  1.70021467614  -2.43323917127  -1.5039876452  -0.265764269341  
5.17518019676  1.54940283881  -1.63937700313  1.70214134391  -2.42869665013  -1.50402497976  -0.265710637585  
5.18329119682  1.54949598151  -1.64538819045  1.7040543414  -2.42404700843  -1.50406448417  -0.265641958832  
5.19136214256  1.54963502832  -1.65147947909  1.70594707194  -2.41929492171  -1.50410433872  -0.265561454643  
5.19952011108  1.54982981932  -1.65764793734  1.7078132253  -2.41443343318  -1.50413921345  -0.265465861443  
5.20759606361  1.5500928658  -1.66388940299  1.70964519296  -2.40945747753  -1.50416090144  -0.265357771022  
5.21577000618  1.55043513109  -1.67020016103  1.71143641324  -2.40435876831  -1.50416400947  -0.265240594142  
5.22382116318  1.55086763323  -1.6765753345  1.71318008968  -2.39913406064  -1.50414237343  -0.265111234568  
5.23187208176  1.55140381435  -1.68300854303  1.71486892006  -2.39378198772  -1.50409114917  -0.264972429019  
5.23996305466  1.55205532209  -1.68949116723  1.71649288995  -2.38829391795  -1.50400224407  -0.264823655216  
5.24806809425  1.55283361345  -1.69601326881  1.71804231359  -2.38266432119  -1.50386749646  -0.264663665096  
5.25615620613  1.55375028939  -1.7025648954  1.71950917563  -2.37689173192  -1.50368074689  -0.264497794865  
5.26427006721  1.55481579815  -1.70913614435  1.72088455913  -2.37098069401  -1.50343377732  -0.264329664192  
5.2723531723  1.55603939576  -1.71571520235  1.72216098545  -2.36493448766  -1.50311996419  -0.26416039269  
5.28042912483  1.55742911608  -1.72228927621  1.72333113185  -2.35875413721  -1.50273478273  -0.263987025391  
5.28851318359  1.55898971043  -1.7288418637  1.72438755135  -2.352446561  -1.50227173347  -0.263812385647  
5.29652714729  1.56072758944  -1.73536063651  1.72532531445  -2.34600714824  -1.50172344793  -0.26364003913  
5.30461215973  1.56264829066  -1.74183133984  1.72614132634  -2.33944340296  -1.50108834204  -0.263471023873  
5.31283307076  1.56475687845  -1.74823672953  1.72683010233  -2.33276544276  -1.50036592035  -0.263306332099  
5.32093906403  1.56705628762  -1.75456038607  1.72738677568  -2.32598286749  -1.49955220059  -0.263146905024  
5.32896709442  1.56955102939  -1.76078679846  1.7278084001  -2.3191138152  -1.49864489127  -0.262993628101  
5.33701109886  1.57224467214  -1.76689739613  1.72809133537  -2.31217450755  -1.49764386616  -0.262851381919  
5.34513807297  1.57513821847  -1.77287034032  1.72823355079  -2.30518325896  -1.49654959587  -0.262723234169  
5.35329222679  1.57823137968  -1.77868397346  1.72823330675  -2.29816131229  -1.49536059693  -0.262613717087  
5.3613960743  1.5815246459  -1.78431816306  1.72808884067  -2.29112960072  -1.49407957277  -0.2625295653  
5.36945104599  1.58501844772  -1.78975237046  1.72780095943  -2.28410862106  -1.49270517755  -0.262477192337  
5.37753915787  1.58871193451  -1.79496458004  1.72736909234  -2.27712338296  -1.49123720525  -0.26246265777  
5.38557720184  1.59260300998  -1.79993349629  1.72679327484  -2.27019604198  -1.4896740149  -0.262487582064  
5.39369702339  1.59668837509  -1.80463784998  1.72607380338  -2.26334989291  -1.48801664153  -0.262554923167  
5.4019382  1.60096561577  -1.80905734426  1.72521090938  -2.25660512761  -1.48626719375  -0.262669728241  
5.40986800194  1.60543034084  -1.81317194859  1.72420572636  -2.24998284951  -1.4844267958  -0.262836623982  
5.417979002  1.61007789287  -1.81696283053  1.7230602613  -2.24351098751  -1.48249712148  -0.263059796889  
5.42607021332  1.61490582468  -1.82041365777  1.72177736246  -2.2372087496  -1.48047783676  -0.263338921942  
5.43420410156  1.61991182443  -1.82351064222  1.72035906602  -2.23109787876  -1.47836766574  -0.263674954025  
5.44228005409  1.62509250627  -1.82624054429  1.71880563267  -2.2251993904  -1.4761684737  -0.264074947917  
5.45037508011  1.6304434572  -1.82859357784  1.71712043828  -2.21953448688  -1.47388162891  -0.264543758291  
5.45847606659  1.63595929024  -1.83056378972  1.71530631881  -2.21412035135  -1.47150497082  -0.265087314214  
5.46662402153  1.64162962525  -1.83214577317  1.71336492331  -2.20896913319  -1.46904051067  -0.265709303351  
5.4747941494  1.64744702257  -1.83333752239  1.71129866924  -2.20409102606  -1.46648620065  -0.266414455803  
5.48297905922  1.65340287206  -1.8341387419  1.70910909076  -2.19949931968  -1.46384112741  -0.267209290145  
5.49095702171  1.65948545016  -1.83455040766  1.70679749917  -2.19520313812  -1.46110800961  -0.26809960072  
5.4990170002  1.66568250856  -1.83457796423  1.70436756564  -2.19120647905  -1.45829005958  -0.269086383853  
5.50716018677  1.67198136475  -1.83422835074  1.70182297505  -2.18751641522  -1.45538841637  -0.270167572758  
5.51521205902  1.67837103049  -1.83350952099  1.69916708292  -2.18414094286  -1.45240827397  -0.271348661752  
5.52336907387  1.68483938573  -1.8324336025  1.6964054885  -2.18108080571  -1.44935316668  -0.272635181772  
5.53151917458  1.69137491734  -1.83101186454  1.6935420609  -2.17833676397  -1.44622651928  -0.274029435741  
5.53954815865  1.69796718084  -1.82925710122  1.69058090302  -2.17591059071  -1.44303364611  -0.275532989382  
5.54764103889  1.70460562033  -1.82718512416  1.68752760855  -2.17379693278  -1.43978268959  -0.277142623179  
5.5558321476  1.71127963796  -1.82481135753  1.6843866043  -2.17199061677  -1.43648094973  -0.278856148454  
5.56392908096  1.71797662473  -1.82215358347  1.68116503297  -2.17048767931  -1.43313689179  -0.28067319762  
5.57198119164  1.72468901974  -1.81922812812  1.67786746274  -2.16927726008  -1.42975549656  -0.282592755791  
5.5801050663  1.73140689091  -1.81605222633  1.67449916301  -2.16834893585  -1.42634136231  -0.284609127674  
5.58816218376  1.73812092257  -1.81264550158  1.67106604743  -2.16769377779  -1.42290323748  -0.28672182168  
5.5962831974  1.74482448592  -1.80902452922  1.66757171239  -2.16730133776  -1.4194487979  -0.288930548074  
5.60430502892  1.75151117618  -1.80520644865  1.66402070406  -2.1671597506  -1.41598412239  -0.291231987149  
5.61245799065  1.75817688606  -1.80120640786  1.6604155529  -2.1672507742  -1.41251014136  -0.293622310889  
5.62049102783  1.76481692126  -1.79703792584  1.65675875103  -2.1675622282  -1.40902985588  -0.296101273258  
5.62870311737  1.77142767957  -1.79271526855  1.6530524104  -2.16808182732  -1.40555180501  -0.298666445514  
5.63662719727  1.77800501242  -1.78824929495  1.64929793478  -2.16879322318  -1.40208329394  -0.301312482393  
5.64470219612  1.78454386127  -1.7836490922  1.64549699717  -2.16968430877  -1.39862987576  -0.304033653204  
5.65290403366  1.79103749375  -1.77892640459  1.64165475885  -2.17074516126  -1.39519687597  -0.306827941593  
5.66107916832  1.7974784042  -1.77409063979  1.63777360499  -2.17195994868  -1.39178936381  -0.309687233834  
5.66908621788  1.80386163771  -1.76914927701  1.6338548216  -2.17331427333  -1.38840959207  -0.312602396185  
5.67727899551  1.8101819049  -1.76411028634  1.62990086992  -2.17479116182  -1.38506313516  -0.315566586344  
5.68530607224  1.81643525903  -1.75898206759  1.62591437579  -2.17637530101  -1.38175572482  -0.318572813117  
5.69337701797  1.82262153006  -1.75376934185  1.62189487327  -2.17805409749  -1.37848612259  -0.321613985323  
5.7014632225  1.82873812145  -1.74847685395  1.61784179698  -2.17980958834  -1.37525491285  -0.32468295945  
5.70970606804  1.83478049963  -1.74311095264  1.61375739227  -2.1816308542  -1.37206545828  -0.327772584886  
5.71792507172  1.84074470915  -1.73767627849  1.60964339919  -2.18350275133  -1.36891824221  -0.330879805678  
5.72592401505  1.84662330804  -1.73218063166  1.60550397104  -2.1854142423  -1.36581448569  -0.333999900538  
5.73398303986  1.85240713335  -1.72663241259  1.60134364331  -2.18736037197  -1.36275662271  -0.33712980493  
5.74207806587  1.85808580276  -1.72104096631  1.59716762524  -2.18933608345  -1.3597467386  -0.340260783409  
5.75026512146  1.86906816219  -1.70979762454  1.58881452304  -2.19334270067  -1.35389556594  -0.346476851771  
5.75827813148  1.87434449398  -1.70417784913  1.5846583362  -2.1953635623  -1.3510668856  -0.349542784207  
5.76639199257  1.87947340195  -1.69856511979  1.58051711301  -2.19739087309  -1.34829759465  -0.352573148043  
5.77446508408  1.88444418454  -1.69297547442  1.57640124975  -2.19941769845  -1.34559017728  -0.355556863013  
5.78255200386  1.88923112905  -1.68744177647  1.57233461742  -2.20143120107  -1.34296032528  -0.358476123656  
5.7906332016  1.89385024287  -1.68195005131  1.56830364575  -2.203444278  -1.3404000558  -0.361338287461  
5.79880309105  1.89831490995  -1.67649008323  1.56429781535  -2.20547456038  -1.33790268212  -0.36414519221  
5.80681800842  1.90262330943  -1.67106986368  1.56032122984  -2.20752801162  -1.33547038418  -0.366890896253  
5.81488204002  1.90676038828  -1.66571312043  1.55639065247  -2.20959713374  -1.33311248071  -0.369564305731  
5.82295012474  1.91070603283  -1.66044825766  1.55252667106  -2.21167350593  -1.33084214998  -0.372150192313  
5.83104205132  1.91447972585  -1.65525348633  1.54870981312  -2.21377724073  -1.32864635752  -0.374654520389  
5.83914804459  1.91809501216  -1.6501136174  1.54492599158  -2.21592270046  -1.32651700493  -0.377083604872  
5.84721207619  1.92154903313  -1.64503608465  1.54117933231  -2.21810136253  -1.32445537252  -0.379432747754  
5.85534501076  1.92484001996  -1.64002693848  1.53747459416  -2.2203087627  -1.32246329738  -0.381699496883  
5.86337804794  1.92796727969  -1.63509246327  1.53381777388  -2.22254643186  -1.32054618387  -0.383880353807  
5.87152099609  1.93093117401  -1.63023346449  1.53020892168  -2.22481060426  -1.31870274734  -0.385965964353  
5.87960004807  1.93373309169  -1.62544863937  1.5266487574  -2.22709440032  -1.31693431677  -0.387953482707  
5.8876760006  1.93637337664  -1.6207354345  1.52313734504  -2.22939604859  -1.31524373236  -0.389841553245  
5.8958170414  1.93885420713  -1.61608766994  1.51967249982  -2.23171167308  -1.31363175555  -0.391622999884  
5.90391302109  1.94117586491  -1.61150375374  1.51625664644  -2.23403436502  -1.31210116583  -0.393289065324  
5.91194415092  1.94333923126  -1.60698333785  1.5128931295  -2.23636240447  -1.31065314433  -0.394835987158  
5.92005109787  1.94534535234  -1.60252446909  1.50958391362  -2.23869204555  -1.30928933722  -0.396263276092  
5.92809915543  1.94719706388  -1.59812485055  1.50633057225  -2.24102165482  -1.30800980061  -0.397567157717  
5.93621206284  1.94889525773  -1.59378590852  1.50313752282  -2.24334760439  -1.30681253736  -0.398742301402  
5.94437718391  1.9504413747  -1.58950905083  1.50000901576  -2.24566840843  -1.30569761071  -0.39978837458  
5.95247411728  1.9518390056  -1.5852940472  1.49694943773  -2.24798568484  -1.30466354415  -0.400704243994  
5.96062016487  1.95309055951  -1.58114028042  1.49396521736  -2.25030610488  -1.30370686579  -0.401491255586  
5.96873116493  1.95419809353  -1.57704473767  1.49105988681  -2.25263919563  -1.30282876438  -0.402149913342  
5.97694206238  1.95516656672  -1.57300289781  1.48823768901  -2.25499417767  -1.30203040316  -0.402679094618  
5.98497915268  1.95600088455  -1.56901000634  1.48550255823  -2.25737484511  -1.30131089452  -0.40307852428  
5.99293208122  1.95670546563  -1.56506111169  1.48285843139  -2.25978170268  -1.30066633812  -0.403348756282  
6.00103807449  1.95728544608  -1.56115312401  1.48031116024  -2.26222014633  -1.30009600221  -0.403491150444  
6.00908708572  1.95774459145  -1.55728600037  1.47787004574  -2.26469827942  -1.29959920264  -0.403507844657  
6.01721811295  1.95808612341  -1.55346267297  1.47554543335  -2.26721362315  -1.29917582207  -0.403405777856  
6.02537703514  1.9583139329  -1.54968693776  1.47334668485  -2.26976251893  -1.29882172934  -0.403186795009  
6.0335021019  1.95843457693  -1.54594804273  1.47128212652  -2.27235942501  -1.29853448579  -0.402852636893  
6.04154014587  1.95845431844  -1.54223487035  1.46935903565  -2.27502218829  -1.29831432239  -0.402412216313  
6.04983115196  1.95837665273  -1.53854124852  1.46758685635  -2.27775464087  -1.29816103937  -0.401873280957  
6.05780220032  1.95820642711  -1.534861028  1.46597417056  -2.28055907962  -1.29807148327  -0.401241590501  
6.06597018242  1.95795018085  -1.53118003159  1.46452736875  -2.28344539515  -1.29804572284  -0.400523355644  
6.07392501831  1.95761280489  -1.52748564685  1.46325163932  -2.28642575877  -1.29808138728  -0.399725188002  
6.08202505112  1.95719836764  -1.52376523448  1.46215096246  -2.28951652537  -1.29817273737  -0.398849993635  
6.09013009071  1.95671132926  -1.5200122885  1.46122973554  -2.29273092709  -1.2983188863  -0.397906779582  
6.09824919701  1.95615650408  -1.51622955241  1.46049047444  -2.29606792473  -1.29851658743  -0.396905571354  
6.10629010201  1.95554105934  -1.51240613657  1.45993511552  -2.29953993105  -1.29876437806  -0.395854095393  
6.11436915398  1.95487155863  -1.50854422577  1.45956536444  -2.30314500519  -1.29906101368  -0.394760213039  
6.12245702744  1.95415353189  -1.50462918326  1.45938007558  -2.30690071379  -1.29940345202  -0.393631867482  
6.13055515289  1.95339268516  -1.50065922679  1.45937762241  -2.31080901664  -1.29978843284  -0.392477031462  
6.13862800598  1.95259486022  -1.49659248315  1.45955456703  -2.31490536831  -1.30021250371  -0.391299601  
6.14686322212  1.95176599432  -1.49238997045  1.45990868113  -2.31923123271  -1.30067458098  -0.390109204471  
6.15497517586  1.9509120803  -1.48803831525  1.46043862676  -2.32380031928  -1.30117488354  -0.388912069918  
6.16299319267  1.95003912721  -1.48352661884  1.46114521567  -2.3286234672  -1.30171084829  -0.387713518464  
6.17102909088  1.9491531219  -1.47884727884  1.46203005778  -2.33371268211  -1.30227822931  -0.386525236941  
6.17917919159  1.94825999157  -1.47399919179  1.46309521548  -2.33907799736  -1.30287775142  -0.385356942349  
6.18723011017  1.94736352992  -1.46898072732  1.46434252495  -2.3447274583  -1.30350788494  -0.384215565603  
6.19538521767  1.94646827902  -1.46378692986  1.46577100376  -2.35067218614  -1.3041639071  -0.383107702122  
6.20353412628  1.94557784727  -1.45841488439  1.46737757782  -2.35692926949  -1.30484357734  -0.38203552298  
6.21156716347  1.94469450621  -1.452862064  1.46915650062  -2.36350123906  -1.30554607637  -0.381006603171  
6.21959400177  1.94382246655  -1.44712593703  1.47109848526  -2.37039466966  -1.30627045991  -0.380028864797  
6.22785305977  1.94296494957  -1.44120519408  1.47319246413  -2.37761291029  -1.30701566745  -0.379107288804  
6.23582220078  1.94212378782  -1.43509972726  1.47542666944  -2.38516123813  -1.30777799723  -0.378246381633  
6.24389910698  1.94130066639  -1.42881262482  1.47778711098  -2.39304371425  -1.30855474371  -0.377450157937  
6.25198411942  1.9404991538  -1.42234926372  1.48025674862  -2.4012540805  -1.30934469204  -0.376722126825  
6.26008319855  1.93972177906  -1.41571803266  1.48281728993  -2.40978618337  -1.31014403813  -0.376065281643  
6.2681620121  1.93897167566  -1.40892939571  1.48545030315  -2.41862994224  -1.3109500255  -0.375482093264  
6.27627706528  1.93825091202  -1.40199861074  1.48813572398  -2.42777050458  -1.31175890443  -0.374974506853  
6.2844171524  1.93756213901  -1.39493985152  1.49085427926  -2.43719655843  -1.31256801229  -0.374543942036  
6.29247713089  1.93690896215  -1.3877693886  1.4935895289  -2.44689321755  -1.3133737318  -0.37419535154  
6.30057501793  1.93629467557  -1.38050623569  1.49632305687  -2.45683613097  -1.31417103576  -0.373927368694  
6.30866312981  1.9357202108  -1.3731695414  1.49903657671  -2.46699692996  -1.31495760435  -0.373737346778  
6.31693911552  1.93518704224  -1.36578048785  1.50171333359  -2.47734653872  -1.31573022422  -0.37362463614  
6.32491517067  1.93469756765  -1.35835927417  1.50433558769  -2.48785030813  -1.3164843292  -0.373588112473  
6.33301520348  1.93425181262  -1.35092663383  1.50688378457  -2.49847546898  -1.31721811351  -0.373626195231  
6.34112215042  1.93384830445  -1.34350206796  1.50933833549  -2.50918722884  -1.31792639199  -0.373736868499  
6.34922719002  1.93348533816  -1.33610335198  1.51167909445  -2.51994803801  -1.3186088324  -0.37391770413  
6.35734200478  1.93316099208  -1.32874969698  1.51388776632  -2.53072599729  -1.31926222398  -0.374165886942  
6.36542201042  1.93287518331  -1.3214587603  1.51594667909  -2.54148275605  -1.31988413228  -0.374478241769  
6.37355303764  1.93262676896  -1.31424819336  1.51784018  -2.55218507679  -1.32047541574  -0.374851262155  
6.38175415993  1.93241521391  -1.30713592894  1.5195550059  -2.56279679109  -1.32103457208  -0.375281140457  
6.38978219032  1.93223894446  -1.30013682777  1.52107772403  -2.57328216284  -1.32155882072  -0.375763799153  
6.39799404144  1.9320970183  -1.29326346837  1.52239546991  -2.58361014267  -1.32204820294  -0.376294923106  
6.40599322319  1.9319895183  -1.28652531106  1.5234953667  -2.59374634912  -1.32250196334  -0.376869992572  
6.41404104233  1.93191426947  -1.279929523  1.52436525579  -2.60365539788  -1.32291807261  -0.377484316719  
6.4222111702  1.93185350733  -1.26718632189  1.52537352049  -2.6226671189  -1.32363319389  -0.378811313199  
6.43028402328  1.9318637174  -1.26104061614  1.52549062831  -2.63171898592  -1.32393357278  -0.379514052801  
6.43834614754  1.93189969756  -1.25504369154  1.52533760866  -2.6404341148  -1.32419492526  -0.38024030384  
6.44647622108  1.9319606068  -1.2491924377  1.52490890087  -2.64879464721  -1.32441905718  -0.380983276322  
6.4545750618  1.93204546605  -1.24348168366  1.52419920705  -2.65678843255  -1.32460695068  -0.381735434174  
6.46264600754  1.93215316771  -1.23790751304  1.5232057868  -2.6644008657  -1.32475827654  -0.382491790691  
6.47081017494  1.93228248571  -1.23246442536  1.52192873007  -2.67161707158  -1.32487547916  -0.383243396146  
6.47880315781  1.93243412426  -1.22714500883  1.52036830577  -2.67842503983  -1.32496014459  -0.38397506027  
6.48686599731  1.93260781167  -1.22194326646  1.51852883885  -2.68482070298  -1.32500997601  -0.384673707213  
6.49498414993  1.93280192246  -1.21685178704  1.51641502364  -2.69080573914  -1.32502650259  -0.385329209791  
6.50309419632  1.93301677797  -1.21186344779  1.51403286344  -2.69638439001  -1.32501192912  -0.385927900904  
6.51117920876  1.93325174296  -1.20697387448  1.511392506  -2.70155830337  -1.32496455374  -0.38645842511  
6.51926612854  1.93350688774  -1.20217735958  1.50850484561  -2.70633368745  -1.32488393953  -0.386912557169  
6.52743601799  1.93378337352  -1.19747057514  1.50538273693  -2.71072216432  -1.3247713881  -0.387282751708  
6.53552818298  1.93408016046  -1.192850103  1.50203956702  -2.71473246386  -1.32463090657  -0.387562174863  
6.54361605644  1.93439896006  -1.18831287055  1.49848883913  -2.71837246995  -1.32446303326  -0.387740675624  
6.55184912682  1.93474170663  -1.18385858377  1.49474505491  -2.72165729563  -1.32427050044  -0.3878146661  
6.56001019478  1.93510891643  -1.1794876407  1.4908235959  -2.72460191326  -1.32405409863  -0.387778053561  
6.56786203384  1.9355009379  -1.17520192412  1.4867422218  -2.72722512827  -1.32381424999  -0.387628844555  
6.57596302032  1.93591999221  -1.17100596496  1.48251863934  -2.72954530329  -1.32355556664  -0.38737066305  
6.58405518532  1.93636725901  -1.16690482827  1.47817006957  -2.73157418056  -1.32328165391  -0.387003682523  
6.59217309952  1.93684249003  -1.16290488007  1.47371734931  -2.73332203468  -1.32298954205  -0.386526333803  
6.60029506683  1.93734322771  -1.15901492668  1.46918341849  -2.73481081569  -1.32268101504  -0.385941839789  
6.60838007927  1.93786772912  -1.1552440786  1.4645911881  -2.73605445723  -1.3223599369  -0.385252399124  
6.6164522171  1.93841536268  -1.1516024971  1.45996339552  -2.73706407852  -1.3220286416  -0.384462450222  
6.62458610535  1.93898332703  -1.14810049299  1.45532407963  -2.73785505387  -1.32168947236  -0.38357533633  
6.63263201714  1.93956957619  -1.14474926925  1.45069936632  -2.73843870912  -1.32134476661  -0.382596563907  
6.64083003998  1.9401711793  -1.14155799567  1.44611401843  -2.73882944847  -1.32099684126  -0.381534517863  
6.64889407158  1.94078395737  -1.13853339905  1.44159099141  -2.73904052209  -1.32064544408  -0.38039385646  
6.65698003769  1.94140579761  -1.13568301162  1.4371539171  -2.73909310668  -1.32029643599  -0.379189362539  
6.66500401497  1.94203376261  -1.13301631503  1.43282790738  -2.73899467593  -1.31994993942  -0.377926936599  
6.67308211327  1.94266372577  -1.13054058977  1.42863450794  -2.73876161685  -1.31961012446  -0.376615157968  
6.68118214607  1.94329164597  -1.12826254414  1.4245952087  -2.73840264644  -1.31927695317  -0.375261889628  
6.68927907944  1.94391359117  -1.12619070695  1.42073356566  -2.73792506854  -1.31895187894  -0.373874268959  
6.69740700722  1.9445257607  -1.12433128529  1.41706918336  -2.73734790494  -1.31863828766  -0.372461909716  
6.70554113388  1.94512450629  -1.12268980338  1.4136212472  -2.736683254  -1.3183378942  -0.37103435382  
6.71386218071  1.94570635153  -1.1212714836  1.4104074347  -2.73593741007  -1.31805228898  -0.369601012579  
6.72188019753  1.94626800984  -1.12008000941  1.40744416653  -2.73512210044  -1.31778293082  -0.368171110131  
6.73000121117  1.94680640077  -1.11911753861  1.4047452364  -2.73425224963  -1.31753114087  -0.366749574306  
6.73807501793  1.94731866465  -1.11838472591  1.40232146674  -2.73334277355  -1.31729809747  -0.365342789438  
6.74616408348  1.94780217545  -1.11788075455  1.4001816782  -2.73240341564  -1.31708736606  -0.363959322864  
6.75424003601  1.94825455189  -1.1176033765  1.39833268135  -2.73144591047  -1.31689873534  -0.362607390324  
6.76233816147  1.94867366669  -1.11754896071  1.39677928136  -2.73047979512  -1.31673389198  -0.361294812244  
6.77042508125  1.94905765403  -1.11771254905  1.39552429518  -2.72951139899  -1.3165922987  -0.360028973557  
6.77854418755  1.94940491515  -1.11808791931  1.39456858098  -2.72854691537  -1.31647278268  -0.35881678725  
6.7866461277  1.94971412215  -1.11866765468  1.39391107934  -2.72759236548  -1.31637304205  -0.357664661759  
6.79478502274  1.94998421994  -1.11944321922  1.39354886553  -2.72665863317  -1.31629678941  -0.356578472351  
6.80291199684  1.95021442645  -1.12040503858  1.39347721243  -2.72575417807  -1.31624445073  -0.355567591665  
6.81100106239  1.95040423113  -1.12154258537  1.39368966339  -2.72488403752  -1.31621680551  -0.354635010146  
6.8190600872  1.95055339167  -1.1228444686  1.39417811425  -2.72405798041  -1.31621495913  -0.35378234912  
6.82710313797  1.95066396731  -1.12429852639  1.39493290395  -2.72328323038  -1.31623577572  -0.353013113066  
6.83521199226  1.95073739533  -1.12589192146  1.39594291278  -2.72256347857  -1.31627706685  -0.352330194247  
6.8432841301  1.95077409377  -1.12761123852  1.39719566757  -2.72190197965  -1.31633808376  -0.351735868936  
6.85136604309  1.9507747036  -1.12944258311  1.39867745294  -2.72130154161  -1.31641797049  -0.351231797631  
6.85947012901  1.9507400793  -1.13137168104  1.40037342784  -2.72076958742  -1.31651830572  -0.350819029182  
6.86759519577  1.95067127841  -1.13338397794  1.40226774635  -2.72030582707  -1.31663695054  -0.350498008684  
6.87573099136  1.95056954996  -1.13546473817  1.4043420665  -2.71991361196  -1.31677119985  -0.35026858902  
6.88375115395  1.95043632202  -1.13759914257  1.40657798957  -2.71959169342  -1.31692236542  -0.350134100984  
6.89187121391  1.95027318839  -1.13977238436  1.40895749744  -2.71933740479  -1.31708807008  -0.350091512493  
6.89998316765  1.95008189453  -1.14196976273  1.41146209034  -2.71915581841  -1.31726793406  -0.350136479356  
6.90810108185  1.94986432292  -1.14417677353  1.4140729155  -2.71904939166  -1.31745946385  -0.350266634032  
6.91617321968  1.94962247784  -1.14637919652  1.41677089514  -2.71901701159  -1.3176621843  -0.35047912525  
6.92435717583  1.94935846978  -1.14856317874  1.41953685272  -2.71905712229  -1.31787352761  -0.350770647592  
6.93241500854  1.94907449954  -1.15071531366  1.42235163687  -2.7191677453  -1.31809296541  -0.351137473245  
6.94058918953  1.94877284212  -1.1528227155  1.4251962422  -2.71934650223  -1.31831789755  -0.351575485684  
6.94868206978  1.94845583053  -1.15487308852  1.4280519263  -2.71959063932  -1.31854778393  -0.352080215014  
6.95671415329  1.94812583963  -1.156854791  1.43090032232  -2.71989705383  -1.31878256681  -0.352646874707  
6.96480607986  1.94778527007  -1.15875689342  1.43372354646  -2.72026232204  -1.31901810739  -0.35327039948  
6.97288203239  1.94743653248  -1.16056923085  1.43650429986  -2.72068272853  -1.31925137702  -0.353945484036  
6.98099207878  1.94708203193  -1.16228244917  1.43922596434  -2.72115429672  -1.31948095092  -0.354666622403  
6.98907518387  1.94672415279  -1.1638880451  1.44187269157  -2.7216728203  -1.31970546163  -0.355428147615  
6.99715518951  1.94636524418  -1.16538042242  1.44443271871  -2.72223389531  -1.31992614026  -0.356224271462  
7.00524806976  1.94600760586  -1.1667540244  1.44689381522  -2.72283295279  -1.32014319644  -0.357049124074  
7.01326012611  1.94565347481  -1.16800296823  1.44924273222  -2.72346529167  -1.32035280635  -0.357896793065  
7.02136015892  1.9453050126  -1.16912230132  1.45146724713  -2.7241311796  -1.32055483482  -0.358761362037  
7.02944922447  1.94496429346  -1.17011003256  1.45355783418  -2.72482356429  -1.32074716491  -0.359632893897  
7.03760004044  1.94463329316  -1.17096424134  1.4555053943  -2.72553439132  -1.3209272906  -0.36050732443  
7.04569005966  1.94431387889  -1.17168268827  1.45730098298  -2.72626378373  -1.32109689422  -0.361385524303  
7.05389404297  1.94400779998  -1.1722660704  1.45893844977  -2.7270097109  -1.32125413435  -0.362260209876  
7.06186103821  1.94371667961  -1.1727151131  1.46041214388  -2.72776198294  -1.3213967908  -0.363123491366  
7.06995820999  1.94344200754  -1.17303218698  1.46171823616  -2.72851771298  -1.32152430607  -0.363970167321  
7.07805514336  1.94318309566  -1.17322165424  1.46285501994  -2.72927506277  -1.32163623192  -0.364795265276  
7.08614301682  1.94271385564  -1.17323147764  1.46461360772  -2.73077539848  -1.32180555917  -0.366362136458  
7.09422302246  1.9425057226  -1.17306284354  1.4652366364  -2.73150913821  -1.32186527926  -0.367099388172  
7.10227108002  1.94231444446  -1.17278563874  1.46569044025  -2.73222605686  -1.32191139481  -0.367800255482  
7.11032605171  1.9421396127  -1.17240420289  1.46597616737  -2.73292200969  -1.32194292055  -0.368458732314  
7.11836099625  1.94198194446  -1.17192545523  1.46609762202  -2.73359308343  -1.32195848618  -0.36907165256  
7.12644505501  1.94184203104  -1.17135595616  1.46605891029  -2.73423054771  -1.32195837264  -0.369636214219  
7.13453602791  1.94172033711  -1.17070147447  1.46586408712  -2.73482812589  -1.32194295357  -0.370149988498  
7.14269518852  1.94161516268  -1.16996818047  1.46551810063  -2.73538804625  -1.32191269076  -0.370610926335  
7.15087509155  1.94152352293  -1.16916259734  1.46502673954  -2.7359106898  -1.3218681291  -0.371017362357  
7.15889501572  1.94144445636  -1.16829155137  1.46439657649  -2.7363936299  -1.32181242514  -0.371372071404  
7.16697120667  1.94137612702  -1.1673621215  1.4636349077  -2.73683474934  -1.32174518053  -0.371672408431  
7.17508411407  1.94131545453  -1.16638158841  1.46275130509  -2.73723224638  -1.32166557858  -0.371915334319  
7.18315815926  1.94125938303  -1.16535738357  1.46175685385  -2.73758463866  -1.32157441786  -0.372100674566  
7.19123220444  1.94120489991  -1.16429703855  1.46066307803  -2.73789076503  -1.32147255119  -0.372228623883  
7.19930505753  1.94114905412  -1.16320813489  1.45948185697  -2.73814978525  -1.32136087898  -0.372299736174  
7.20742511749  1.94108693581  -1.1621002774  1.45822695974  -2.73836117769  -1.32123780797  -0.372314912481  
7.21554303169  1.94101257142  -1.16098215121  1.45691326196  -2.7385298039  -1.32110540615  -0.372275387017  
7.22361302376  1.94092020662  -1.15986108883  1.45555404107  -2.7386535787  -1.3209687865  -0.372182711414  
7.2318341732  1.94080230015  -1.15874628903  1.454164813  -2.73872974873  -1.32082789891  -0.372038737342  
7.23990607262  1.94065246943  -1.15764992549  1.45276285359  -2.73876403224  -1.32068475454  -0.37184559763  
7.24793815613  1.94046386864  -1.15658497667  1.45136510993  -2.7387602436  -1.32053929803  -0.37160568606  
7.25597715378  1.94022884036  -1.1555639132  1.44998809881  -2.73871931238  -1.32039098902  -0.371321635986  
7.26413106918  1.9399402036  -1.15460065292  1.44864943086  -2.7386474503  -1.3202433695  -0.370996297936  
7.27218699455  1.9395892499  -1.15371164965  1.44737025745  -2.73854381525  -1.32009887634  -0.370632716385  
7.28024601936  1.93916461432  -1.15291572834  1.44617440349  -2.73841185329  -1.31996342001  -0.370234105835  
7.28834319115  1.93865852506  -1.15222986497  1.44508233421  -2.7382561102  -1.31983814534  -0.369803826396  
7.29644703865  1.93806227634  -1.15167074566  1.44411466768  -2.73807813892  -1.31972462101  -0.369345359019  
7.30449914932  1.93736753808  -1.15125506689  1.44329429471  -2.7378846652  -1.31962480495  -0.368862280559  
7.31258916855  1.93656394745  -1.15100226298  1.44264521537  -2.73768031975  -1.31954660715  -0.368362293902  
7.32066202164  1.93564167502  -1.15093067353  1.44218912539  -2.73746665658  -1.31949709676  -0.36784734413  
7.32889103889  1.93459106013  -1.15105584223  1.44194501213  -2.73724525181  -1.31947995748  -0.367318623219  
7.33692407608  1.9334022648  -1.1513937178  1.44193168548  -2.73702276197  -1.31950111411  -0.36677981049  
7.34501218796  1.93206452307  -1.15195973207  1.44216539819  -2.73680365879  -1.31956762571  -0.366234561728  
7.35309815407  1.93056908718  -1.15276952612  1.44266271641  -2.73658418189  -1.31968356176  -0.365686486566  
7.36128211021  1.92890759952  -1.15383803475  1.44343846146  -2.73636269603  -1.31985613272  -0.365139126703  
7.36935114861  1.92708396115  -1.15516606375  1.44449466276  -2.73614065308  -1.3200899847  -0.364595935062  
7.37745904922  1.92508791305  -1.15676975567  1.44584835595  -2.73591440508  -1.32038876396  -0.364060256017  
7.38570904732  1.9229072983  -1.15866754247  1.44751814154  -2.73568245087  -1.32075713644  -0.363535306771  
7.39379811287  1.92053752153  -1.16086747592  1.44951274437  -2.7354463966  -1.32119921591  -0.36302010573  
7.4019510746  1.91797937162  -1.16337024489  1.45183280263  -2.73520783624  -1.32171601617  -0.362511204122  
7.41006016731  1.91522706401  -1.1661802693  1.45448205759  -2.73496834173  -1.32230907008  -0.362005194773  
7.41807603836  1.91228842209  -1.16928858232  1.45745074344  -2.73472945355  -1.32297583985  -0.361502788294  
7.42616319656  1.90917713449  -1.17267889562  1.46072246763  -2.73449267167  -1.32371541405  -0.361003028987  
7.43427610397  1.90587954192  -1.17635818753  1.46430485439  -2.73425944707  -1.32453454525  -0.360498483579  
7.44237518311  1.90239737703  -1.18031644789  1.46818782493  -2.73403117363  -1.32543475347  -0.359987607629  
7.45049619675  1.89871797989  -1.18455349339  1.47237292875  -2.73380411189  -1.32642005894  -0.359457570861  
7.45862817764  1.89482905655  -1.18906613216  1.4768603731  -2.73357663699  -1.32749333116  -0.358894365988  
7.4667069912  1.89074314589  -1.19383051269  1.48162808592  -2.73335020082  -1.32865124337  -0.358293440482  
