Ethan-CYM/ros_catkin_ws/test/伺服_gain100_looktime003/ur_joint_actual_velocity.txt
time  shoulder_pan_joint  shoulder_lift_joint  elbow_joint  wrist_1_joint  wrist_2_joint  wrist_3_joint
0.16301202774  0.0  0.0  -0.0  0.00335558317602  -0.0178804639727  -0.0483683347702  
0.171099185944  0.0  0.0  -0.0  0.00287621398456  0.010953581892  0.0360006131232  
0.179228067398  0.0  0.0  -0.0  0.0021092237439  0.0390446074307  -0.0196780972183  
0.187315225601  0.0  0.0  -0.0  0.00167779158801  -0.0363601408899  -0.0444375090301  
0.195870161057  0.0  0.0  -0.0  0.00139017018955  0.0431911498308  -0.0185036435723  
0.203515052795  0.0  0.0  -0.0  0.00117445411161  -0.0259098950773  -0.070035815239  
0.211652994156  0.0  0.0  -0.0  0.00103064335417  -0.00417051045224  -0.0727442502975  
0.219788074493  0.0  0.0  -0.0  0.000910801114514  0.0467624478042  -0.106779448688  
0.227895021439  0.0  0.0  -0.0  0.000814927334432  -0.0446532219648  -0.12959741056  
0.23598408699  0.0  0.0  -0.0  0.000743021955714  0.0442697294056  -0.17386713624  
0.244099140167  0.0  0.0  -0.0  0.000671116635203  -0.0259098950773  -0.204546764493  
0.252214193344  0.0  0.0  -0.0  0.000623179716058  -0.0047697215341  -0.231607139111  
0.260335206985  0.0  0.0  -0.0  0.000623179716058  0.047002132982  -0.268159031868  
0.268420219421  0.0  0.0  -0.0  0.00975515972823  -0.0438622646034  -0.303656309843  
0.276563167572  0.0  0.0  -0.0  -0.00182160222903  0.0329326502979  -0.340855330229  
0.284642219543  0.0  0.0  -0.0  0.00206128670834  -0.0169456955045  -0.372733384371  
0.292806148529  0.0  0.0  -0.0  0.0151240928099  -0.0281629301608  -0.402933627367  
0.300878047943  0.0  0.0  -0.0  -0.00215716054663  0.0328367762268  -0.429994016886  
0.308933019638  0.0  0.0  -0.0  0.0188871398568  -0.0425679683685  -0.450271308422  
0.317038059235  0.0  0.0  -0.0  -0.0219551008195  0.0259098950773  -0.473328977823  
0.325161218643  0.0  0.0  -0.0  0.0309912059456  -0.0259098950773  -0.490777999163  
0.333263158798  0.0  0.0  -0.0  -0.0328607447445  0.0116486670449  -0.498975217342  
0.341398000717  0.0  0.0  -0.0  0.0422563776374  0.028138961643  -0.516040742397  
0.349501132965  0.0  0.0  -0.0  -0.0325251892209  -0.0454921200871  -0.526754617691  
0.357612133026  0.0  0.0  -0.0  0.0431911498308  0.0323813781142  -0.528768002987  
0.365649223328  0.0  0.0  -0.0  -0.0215955749154  -0.0259098950773  -0.533561706543  
0.373805046082  0.0  0.0  -0.0  0.0154596511275  -0.0465467311442  -0.52785718441  
0.381834030151  0.0  0.0  -0.0  0.00522512244061  0.0479608699679  -0.531380534172  
0.389916181564  0.0  0.0  -0.0  -0.00335558317602  -0.0431911498308  -0.518677294254  
0.398111104965  0.0  0.0  -0.0  -0.0277554653585  0.0452764034271  -0.491473078728  
0.406099081039  0.0  0.0  -0.0  0.0402430295944  -0.0410339869559  -0.475078672171  
0.414167165756  0.0  0.0  -0.0  -0.0323813781142  0.0323813781142  -0.461752206087  
0.422354221344  0.0  0.0  -0.0  0.0323813781142  -0.0151480613276  -0.43962931633  
0.430417060852  0.0  0.0  -0.0  -0.0241362303495  0.0259098950773  -0.413743406534  
0.438519001007  0.0  0.0  -0.0  0.0185036435723  0.00587227055803  -0.387569844723  
0.44665813446  0.0  0.0  -0.0  -0.0168018843979  -0.00433828961104  -0.360054075718  
0.454768180847  0.0  0.0  -0.0  0.011528824456  0.0510767698288  -0.32911080122  
0.462854146957  0.0  0.0  -0.0  0.00589623907581  -0.0275157820433  -0.301666915417  
0.470988035202  0.0  0.0  -0.0  -0.00349939381704  0.0431911498308  -0.264755517244  
0.479087114334  0.0  0.0  -0.0  0.0325491577387  -0.0185036435723  -0.231247618794  
0.487168073654  0.0  0.0  -0.0  -0.0404827147722  0.0161787047982  -0.197859555483  
0.49528503418  0.0  0.0  -0.0  0.0289059523493  -0.0118404142559  -0.167659312487  
0.503391027451  0.0  0.0  -0.0  -0.0323813781142  -0.00304399314336  -0.134702697396  
0.511502027512  0.0  0.0  -0.0  0.0215955749154  0.0264611691236  -0.100667491555  
0.519601106644  0.0  0.0  -0.0  -0.0319020077586  -0.0254544951022  -0.0581953972578  
0.527841091156  0.0  0.0  -0.0  0.0185036435723  0.036240298301  -0.0185036435723  
0.535785198212  0.0  0.0  -0.0  -0.0215955749154  -0.0297688152641  -0.00496146921068  
0.543839216232  0.0  0.0  -0.0  0.0185036435723  0.0143810706213  0.0696043819189  
0.551925182343  0.0  0.0  -0.0  -0.0161787047982  -0.0185036435723  0.0742302909493  
0.560010194778  0.0  0.0  -0.0  0.0137339225039  -0.00467384792864  0.0969044491649  
0.568138122559  0.0  0.0  -0.0  -0.0103304022923  0.0259578321129  0.125858336687  
0.576200008392  0.0  0.0  -0.0  -0.0301283430308  -0.0411538295448  0.149898692966  
0.584310054779  0.0  0.0  -0.0  -0.0110494559631  0.0323813781142  0.178421154618  
0.592425107956  0.0  0.0  -0.0  -0.0322135984898  -0.0309672392905  0.209340453148  
0.600524187088  0.0  0.0  -0.0  0.019342539832  0.0161787047982  0.231703013182  
0.608618021011  0.0  0.0  -0.0  -0.0431911498308  -0.0183598324656  0.250326514244  
0.616824150085  0.0  0.0  -0.0  0.00397876277566  -0.0469302274287  0.267463952303  
0.624870061874  0.0  0.0  -0.0  -0.0373668149114  0.0304399318993  0.286279171705  
0.632918119431  0.0  0.0  -0.0  0.0188871398568  -0.0468343533576  0.300300717354  
0.641007184982  0.0  0.0  -0.0  -0.0346823483706  0.0215955749154  0.307083785534  
0.649101018906  0.0  0.0  -0.0  0.0262933913618  -0.0174250639975  0.317845612764  
0.657195091248  0.0  0.0  -0.0  -0.0259098950773  -0.00512924836949  0.326234579086  
0.665305137634  0.0  0.0  -0.0  0.0180961806327  0.00347542529926  0.327888399363  
0.673396110535  0.0  0.0  -0.0  -0.0314705744386  -0.0501659661531  0.330860495567  
0.681512117386  0.0  0.0  -0.0  0.0185036435723  0.0334839262068  0.338122934103  
0.689604997635  0.0  0.0  -0.0  -0.0116966040805  -0.0312788300216  0.33503100276  
0.697671175003  0.0  0.0  -0.0  -0.025837989524  -0.0278753079474  0.333377182484  
0.705750226974  0.0  0.0  -0.0  0.004889564123  0.00484162708744  0.32599490881  
0.713819026947  0.0  0.0  -0.0  -0.0406025573611  -0.0431911498308  0.317294359207  
0.721899032593  0.0  0.0  -0.0  0.0263413265347  0.0259098950773  0.308018565178  
0.729991197586  0.0  0.0  -0.0  -0.0392363555729  -0.0143810706213  0.294811934233  
0.738054037094  0.0  0.0  -0.0  0.0263652950525  0.0152679029852  0.27621242404  
0.746155023575  0.0  -0.0236872211099  -0.0109168300405  -0.0197979398072  0.00601608119905  0.258739411831  
0.754242181778  0.0  -0.0258859265596  -0.0143043715507  0.0215955749154  -0.0486799217761  0.240355625749  
0.762304067612  -0.0103543708101  -0.0470292940736  -0.0143938530236  0.00395479425788  0.0323813781142  0.224344700575  
0.770397186279  -0.00628932146356  -0.0693103671074  -0.017257284373  -0.024783378467  -0.0259098950773  0.203012779355  
0.778491020203  -0.00377103616484  -0.101293869317  -0.012131231837  0.0537612363696  -0.00453003728762  0.17602430284  
0.786550045013  -0.010482202284  -0.141139015555  -0.0169249214232  0.0129429632798  0.00414654193446  0.150402024388  
0.79465007782  -0.00443576136604  -0.182888865471  -0.0125914262608  0.0511966124177  -0.0620543174446  0.130699962378  
0.802716016769  -0.0155699057505  -0.234098255634  -0.017257284373  0.0685257986188  0.0290018245578  0.102177508175  
0.81081700325  -0.00930615048856  -0.280680149794  -0.0125786429271  0.0893543809652  -0.0323813781142  0.0761237964034  
0.818877220154  -0.0117221698165  -0.332247465849  -0.0191875435412  0.122766405344  0.00968325417489  0.0497345365584  
0.826971054077  -0.0144449863583  -0.388212203979  -0.0145728178322  0.147453904152  -0.0185036435723  0.0161787047982  
0.835036039352  -0.00899935420603  -0.436634868383  -0.0224472526461  0.190740928054  -0.00637560803443  0.0142372595146  
0.84316110611  -0.0141893224791  -0.490413665771  -0.0200184490532  0.222283408046  -0.0259098950773  -0.0431911498308  
0.8512840271  -0.010673949495  -0.538094878197  -0.0250933691859  0.261328011751  -0.00965928565711  -0.0593698509037  
0.859371185303  -0.0144961187616  -0.582925498486  -0.0267423987389  0.288412362337  -0.0309193022549  -0.0588425472379  
0.867525100708  -0.0162218473852  -0.633419036865  -0.030193855986  0.326977610588  -0.0129429632798  -0.0862624570727  
0.875596046448  -0.0118627846241  -0.678505301476  -0.0346168354154  0.372062265873  -0.0226501859725  -0.100331932306  
0.883688211441  -0.0149179631844  -0.718606114388  -0.0365215279162  0.407943040133  -0.00925182178617  -0.12022574991  
0.891849040985  -0.0161834973842  -0.755063712597  -0.0403309129179  0.448929071426  -0.00431432109326  -0.137842565775  
0.899896144867  -0.0149690965191  -0.788389444351  -0.043744020164  0.474647223949  -0.00218112906441  -0.162578001618  
0.908012151718  -0.0147517826408  -0.820155620575  -0.0480519495904  0.511390864849  0.00882039032876  -0.171398386359  
0.916103124619  -0.0155954714864  -0.855155944824  -0.0534080974758  0.539649665356  0.011528824456  -0.186067089438  
0.924173116684  -0.0119139179587  -0.876056432724  -0.0600042156875  0.584063231945  0.0175449065864  -0.198794335127  
0.932296037674  -0.013614079915  -0.896420061588  -0.0648746043444  0.622077167034  0.0163225159049  -0.206104710698  
0.940393209457  -0.0150841446593  -0.910532653332  -0.0714451596141  0.655537128448  0.0259098950773  -0.216722726822  
0.948506116867  -0.0116966040805  -0.925297260284  -0.0788466110826  0.68535387516  0.0278992764652  -0.230097129941  
0.956611156464  -0.0106995161623  -0.936635911465  -0.0889069736004  0.720275938511  0.0425679683685  -0.231918722391  
0.964720010757  -0.00752928899601  -0.937735259533  -0.097331084311  0.743405461311  0.0192226972431  -0.236976072192  
0.972869157791  -0.0124635938555  -0.937569081783  -0.108235128224  0.780987977982  0.033459957689  -0.235010653734  
0.980945110321  -0.00705631170422  -0.938182651997  -0.117784157395  0.797909736633  0.0300564374775  -0.238342270255  
0.989051103592  -0.00470420764759  -0.936329126358  -0.130976393819  0.82667183876  0.0288100782782  -0.239301010966  
0.99714422226  -0.00388608477078  -0.931394815445  -0.142212808132  0.847284734249  0.0381817407906  -0.2407630831  
1.00526404381  -0.00502378726378  -0.919877171516  -0.157463133335  0.862936139107  0.0382296778262  -0.234075888991  
1.01335120201  -0.00227540498599  -0.9109801054  -0.175103917718  0.895868778229  0.0406265258789  -0.234770968556  
1.02145218849  -0.00227540498599  -0.899679780006  -0.191964909434  0.902196466923  0.0426638424397  -0.220437839627  
1.02953219414  0.0  -0.885196387768  -0.207624301314  0.914971649647  0.0430952757597  -0.220509752631  
1.03762102127  0.0  -0.863273262978  -0.223858937621  0.932228922844  0.0475534051657  -0.212024912238  
1.04567122459  0.0  -0.846335589886  -0.240719944239  0.942631244659  0.0531620234251  -0.203084677458  
1.05381202698  0.0  -0.831941723824  -0.256839513779  0.938844203949  0.0520594753325  -0.189470604062  
1.06190419197  0.0  -0.815157413483  -0.271233379841  0.956700742245  0.0525867827237  -0.181800693274  
1.06999206543  0.00181521067861  -0.797938466072  -0.289641141891  0.962237417698  0.0558464899659  -0.165166601539  
1.07815217972  0.00438462849706  -0.755063712597  -0.320320755243  0.960176110268  0.0610476434231  -0.139424473047  
1.08619022369  0.00998365879059  -0.739749491215  -0.331838399172  0.97460514307  0.057332534343  -0.122334972024  
1.09422922134  0.0150713613257  -0.717008173466  -0.346692442894  0.970242857933  0.0644751340151  -0.103759422898  
1.1023170948  0.0158000029624  -0.694522619247  -0.359871894121  0.964945852757  0.0660810172558  -0.0951547473669  
1.11041116714  0.0179731417447  -0.668713390827  -0.371875286102  0.96192586422  0.0569490380585  -0.0738228261471  
1.11853408813  0.0237639192492  -0.645588636398  -0.385834515095  0.968948602676  0.0513404197991  -0.0475054681301  
1.12662315369  0.027841752395  -0.62294960022  -0.39487221837  0.956700742245  0.0596814416349  -0.0410819239914  
1.13468408585  0.0346040502191  -0.600783586502  -0.407386958599  0.943398237228  0.059561599046  -0.0215955749154  
1.14282417297  0.0413407832384  -0.571829676628  -0.415836632252  0.940498054028  0.0513883568347  -0.0187193602324  
1.15087413788  0.0484737940133  -0.542134404182  -0.426306039095  0.939755022526  0.0507651790977  -0.00709466123953  
1.15897321701  0.0557474195957  -0.510713338852  -0.434474498034  0.924103617668  0.0535215511918  0.0273240339011  
1.16706800461  0.0661273598671  -0.474281311035  -0.440175801516  0.907565414906  0.0490873865783  0.0566614158452  
1.17512822151  0.0763666778803  -0.43853956461  -0.448267549276  0.898361504078  0.0431911498308  0.0501659661531  
1.18324708939  0.0907988846302  -0.401660084724  -0.456870615482  0.889469206333  0.0411538295448  0.0591781064868  
1.19130921364  0.101805195212  -0.363144397736  -0.459222733974  0.86463791132  0.0401711240411  0.0668000727892  
1.19938015938  0.113489016891  -0.32232773304  -0.461971104145  0.843641519547  0.0404827147722  0.0834341794252  
1.20748019218  0.126157134771  -0.276154905558  -0.466867059469  0.837337851524  0.0408182702959  0.0875327810645  
1.21554303169  0.139004230499  -0.234136611223  -0.46971771121  0.803973734379  0.0338434539735  0.100931145251  
1.22363519669  0.151161029935  -0.190584331751  -0.469321429729  0.778231620789  0.0329805873334  0.109631694853  
1.23182320595  0.16053108871  -0.147837400436  -0.469001859426  0.750476181507  0.0328847132623  0.119195103645  
1.23992013931  0.173621058464  -0.105346135795  -0.462341815233  0.718190670013  0.0296969097108  0.123916894197  
1.24800419807  0.184435620904  -0.0617938600481  -0.461357504129  0.692065060139  0.0334120206535  0.136883825064  
1.25606703758  0.198497116566  -0.0161323640496  -0.456819474697  0.662583827972  0.0357609279454  0.137195408344  
1.26416611671  0.20584744215  0.0296953115612  -0.451194882393  0.629243731499  0.0280910246074  0.139879882336  
1.27225613594  0.219474300742  0.070831567049  -0.446503460407  0.592859625816  0.0277554653585  0.149371385574  
1.28036618233  0.231848418713  0.108976557851  -0.439421594143  0.553383588791  0.0279711820185  0.151121079922  
1.28850913048  0.246881425381  0.146047756076  -0.43276154995  0.517359018326  0.0267727598548  0.151696324348  
1.29662919044  0.260968476534  0.182403102517  -0.425091654062  0.483994930983  0.0347302854061  0.15771239996  
1.3047311306  0.276794046164  0.217850849032  -0.418175965548  0.449024945498  0.0383495204151  0.154548570514  
1.31287312508  0.297464460135  0.249271884561  -0.409330010414  0.411322593689  0.0501419976354  0.148244872689  
1.32096409798  0.315412014723  0.280309438705  -0.400918662548  0.371654808521  0.0517718531191  0.149251550436  
1.32908320427  0.335136473179  0.308023363352  -0.391267389059  0.329302549362  0.061598919332  0.150138378143  
1.33716702461  0.359245538712  0.32932010293  -0.38299664855  0.298407226801  0.0726483762264  0.142923876643  
1.34525299072  0.385105878115  0.355180472136  -0.376835167408  0.255383849144  0.0786884203553  0.14544056356  
1.3533680439  0.413778543472  0.374086797237  -0.370047301054  0.214949071407  0.0877484977245  0.137938439846  
1.36150407791  0.444189727306  0.388314455748  -0.363591790199  0.176359862089  0.110374718904  0.125954210758  
1.36963605881  0.478704273701  0.399947136641  -0.361418664455  0.144385948777  0.120705120265  0.12549880147  
1.37780308723  0.515455901623  0.410825639963  -0.355065435171  0.100499711931  0.141365915537  0.11504856497  
1.38586211205  0.550136625767  0.419530957937  -0.352905064821  0.0629171803594  0.160876244307  0.106779448688  
1.39395618439  0.584842979908  0.422100394964  -0.348290354013  0.0162506103516  0.181800693274  0.0956820547581  
1.40204310417  0.629775822163  0.423493742943  -0.34770232439  0.0128710577264  0.198842272162  0.092805840075  
1.41014313698  0.668713390827  0.421883076429  -0.350501835346  -0.0323813781142  0.233764305711  0.0749493464828  
1.41824007034  0.721124410629  0.417140513659  -0.35612642765  -0.0681183338165  0.255479723215  0.0663207024336  
1.42632818222  0.760649979115  0.412576913834  -0.360447138548  -0.0769866630435  0.287118077278  0.0609278008342  
1.43443012238  0.80179899931  0.403232425451  -0.366570293903  -0.0929256826639  0.313651144505  0.0349220335484  
1.44253110886  0.846898019314  0.393223196268  -0.374623686075  -0.111956633627  0.340184211731  0.0278034023941  
1.45066714287  0.905342698097  0.37702691555  -0.379711389542  -0.120417498052  0.369857162237  0.0236328933388  
1.45880007744  0.955887377262  0.360153138638  -0.390078544617  -0.137770652771  0.399050742388  0.0154596511275  
1.46688318253  0.997586071491  0.338792443275  -0.402631610632  -0.145919933915  0.428939402103  0.00615989184007  
1.47496199608  1.03303384781  0.317853599787  -0.411656528711  -0.147765502334  0.46539542079  0.00285224569961  
1.48305106163  1.08444774151  0.291712015867  -0.426497787237  -0.156609863043  0.496985822916  -0.0367196649313  
1.49114108086  1.13600230217  0.26231071353  -0.438130497932  -0.150402024388  0.525340497494  -0.0191507916898  
1.4992480278  1.17632043362  0.238853603601  -0.452971756458  -0.141198143363  0.559974908829  -0.0323813781142  
1.50737118721  1.2092114687  0.213670745492  -0.462789237499  -0.128422960639  0.5802282691  -0.0490394495428  
1.51549720764  1.24441635609  0.184192746878  -0.472990214825  -0.111836791039  0.615773439407  -0.0389487333596  
1.52355909348  1.26236391068  0.159725755453  -0.485517710447  -0.0934290215373  0.644631505013  -0.0552472807467  
1.53165721893  1.28615343571  0.128854393959  -0.494210273027  -0.0675910338759  0.667137861252  -0.0618625730276  
1.53972911835  1.32424724102  0.0957843214273  -0.497175961733  -0.0344426631927  0.689452469349  -0.0600409694016  
1.54785299301  1.3213583231  0.0655776783824  -0.499962687492  -0.0107858031988  0.714092075825  -0.0674472227693  
1.55594420433  1.32589626312  0.0328016243875  -0.50203359127  0.0319259762764  0.727562308311  -0.0784247741103  
1.5640540123  1.34567189217  0.0062765381299  -0.499809294939  0.0641875118017  0.752082049847  -0.0813968554139  
1.57215619087  1.32890033722  -0.0276500042528  -0.500768065453  0.0806298702955  0.763467073441  -0.0853995904326  
1.58024001122  1.32259821892  -0.058125089854  -0.501586139202  0.111045829952  0.771089017391  -0.0905528068542  
1.58834314346  1.33247971535  -0.0858262255788  -0.495360761881  0.142013072968  0.780005276203  -0.088683269918  
1.59646821022  1.30052173138  -0.113310046494  -0.493660598993  0.184628978372  0.774156987667  -0.0979111194611  
1.60453915596  1.28323888779  -0.138761341572  -0.491206228733  0.219598948956  0.785230398178  -0.0908883661032  
1.61260509491  1.28173041344  -0.167740806937  -0.481887280941  0.256774008274  0.785781681538  -0.101218767464  
1.62067317963  1.24646162987  -0.186953917146  -0.48394536972  0.28805282712  0.773006498814  -0.0919429808855  
1.62875199318  1.21601212025  -0.206371545792  -0.477400392294  0.324556797743  0.772479176521  -0.0961134880781  
1.63690400124  1.21601212025  -0.229521885514  -0.47277289629  0.355787694454  0.763227403164  -0.0941960141063  
1.64499020576  1.17698514462  -0.245104566216  -0.470804274082  0.388648420572  0.75483840704  -0.092038847506  
1.65308403969  1.1402078867  -0.25852689147  -0.468810111284  0.42079013586  0.744651854038  -0.0957060232759  
1.66113805771  1.123960495  -0.273112505674  -0.46374797821  0.450654804707  0.727562308311  -0.0888750180602  
1.66926121712  1.08792471886  -0.286291956902  -0.459913015366  0.484426349401  0.709753751755  -0.0864062681794  
1.67735314369  1.03890132904  -0.292939215899  -0.455157667398  0.515992820263  0.687247395515  -0.0770346000791  
1.68547511101  1.01318156719  -0.304789215326  -0.449405252934  0.544611155987  0.677995562553  -0.0717615410686  
1.69359111786  0.979791879654  -0.305696815252  -0.447590023279  0.566158771515  0.6566157341  -0.0784966796637  
1.70169520378  0.92620486021  -0.309570103884  -0.442655742168  0.595328390598  0.624282240868  -0.0633486136794  
1.70983099937  0.892303884029  -0.310963481665  -0.435893446207  0.618218243122  0.59851616621  -0.0599690638483  
1.71785712242  0.847128152847  -0.308317363262  -0.427916735411  0.64031714201  0.582529246807  -0.0597533471882  
1.72591209412  0.792620658875  -0.308023363352  -0.421013832092  0.663830220699  0.543820202351  -0.0494708828628  
1.73400402069  0.704966425896  -0.294971734285  -0.400918662548  0.69280809164  0.485960334539  -0.0347782224417  
1.74216103554  0.643210947514  -0.289347141981  -0.387483566999  0.712941586971  0.450151473284  -0.028138961643  
1.75014019012  0.586134076118  -0.27753546834  -0.371568500996  0.716081440449  0.424481272697  -0.0266529172659  
1.75819301605  0.531230330467  -0.266388565302  -0.353684842587  0.722576856613  0.392531305552  -0.0175209380686  
1.76625919342  0.478653162718  -0.256967365742  -0.331979006529  0.728209495544  0.356147199869  -0.0177126843482  
1.7743999958  0.419530957937  -0.242036610842  -0.314223200083  0.727658212185  0.31607195735  -0.0102824652568  
1.78249907494  0.357034027576  -0.232372522354  -0.293501675129  0.720683395863  0.289155393839  -0.00719053531066  
1.79062104225  0.29581540823  -0.222082078457  -0.268357157707  0.710640609264  0.253178745508  -0.00381098361686  
1.79865908623  0.234315574169  -0.206627219915  -0.244235306978  0.70486420393  0.21135379374  0.000695085094776  
1.80676913261  0.178350836039  -0.188321709633  -0.217275604606  0.690099656582  0.182759433985  0.0175209380686  
1.81486201286  0.124150179327  -0.178286924958  -0.192731902003  0.675095379353  0.150018528104  0.0  
1.82295799255  0.064900174737  -0.164187073708  -0.168009251356  0.653332054615  0.115479998291  0.0323813781142  
1.83107018471  0.0107634318992  -0.15266944468  -0.138953089714  0.629243731499  0.0839854478836  0.00807736814022  
1.83915710449  -0.0447411090136  -0.142762482166  -0.108235128224  0.601392388344  0.0307035855949  0.0300085004419  
1.84728503227  -0.104285128415  -0.134581252933  -0.0816972628236  0.575674235821  0.0143810706213  0.00762196723372  
1.85534715652  -0.155085459352  -0.129634156823  -0.0498799420893  0.544227659702  -0.0215955749154  0.0323813781142  
1.86347913742  -0.201322197914  -0.126284971833  -0.0192898083478  0.514482796192  -0.0725764706731  0.00862864218652  
1.87156009674  -0.244235306978  -0.122922994196  0.0140870567411  0.48155015707  -0.0653140246868  0.0466186366975  
1.87963414192  -0.28314730525  -0.124226883054  0.0444726608694  0.440348386765  -0.0983904898167  0.0117685096338  
1.88777112961  -0.325012177229  -0.120519757271  0.0672522783279  0.401519477367  -0.119434788823  0.0397636592388  
1.89587402344  -0.358158946037  -0.127179786563  0.0923839956522  0.367148727179  -0.146039769053  0.0158910825849  
1.90396809578  -0.391714781523  -0.139004230499  0.11873011291  0.327600777149  -0.163872301579  0.0371031612158  
1.91207504272  -0.417984217405  -0.14978043735  0.147198244929  0.291024923325  -0.178061619401  0.0365998260677  
1.92016506195  -0.443090349436  -0.161234170198  0.174656495452  0.256414473057  -0.200711801648  0.0278034023941  
1.9282951355  -0.461983889341  -0.174209088087  0.201718479395  0.218784019351  -0.22106102109  0.0256222747266  
1.93642711639  -0.480327755213  -0.194010227919  0.225980937481  0.19251459837  -0.233836203814  0.0161787047982  
1.94452500343  -0.493775635958  -0.215562656522  0.24887560308  0.159917503595  -0.243591368198  0.00958738010377  
1.95265722275  -0.500384569168  -0.242228358984  0.269980639219  0.12777581811  -0.255287975073  0.00910801161081  
1.96090602875  -0.510099768639  -0.265877217054  0.290165245533  0.100955113769  -0.268686324358  -0.0431911498308  
1.96886301041  -0.512643635273  -0.293092608452  0.313136607409  0.0694605708122  -0.276787668467  -0.0290737301111  
1.97691202164  -0.512643635273  -0.326571732759  0.335289865732  0.0373668149114  -0.275709092617  -0.0415852628648  
1.98501300812  -0.512643635273  -0.362057834864  0.357034027576  0.0242800414562  -0.279615938663  -0.0708507373929  
1.99309921265  -0.505919635296  -0.403091818094  0.374074012041  0.019342539832  -0.28299549222  -0.087700560689  
2.00116920471  -0.499809294939  -0.43349018693  0.391574174166  0.0156513992697  -0.278753072023  -0.116223014891  
2.00926113129  -0.492203325033  -0.478295207024  0.413164943457  0.00867657922208  -0.272713035345  -0.145680248737  
2.01737213135  -0.479432910681  -0.519175827503  0.431905090809  0.0191987287253  -0.267368078232  -0.183430552483  
2.02548408508  -0.462571918964  -0.562561929226  0.447705090046  0.0107858031988  -0.262694209814  -0.220677524805  
2.03357219696  -0.448535978794  -0.600080490112  0.466764807701  0.0454681515694  -0.251932382584  -0.25392177701  
2.04167914391  -0.43242919445  -0.645588636398  0.480698466301  0.0361923612654  -0.237431466579  -0.291480332613  
2.04983401299  -0.416296839714  -0.6824041605  0.491986006498  0.0561580806971  -0.224776133895  -0.338722139597  
2.05790901184  -0.398886144161  -0.723885536194  0.501215457916  0.0777776241302  -0.215404465795  -0.37803041935  
2.06600022316  -0.381858944893  -0.770020008087  0.509716272354  0.0943158566952  -0.200831651688  -0.415732771158  
2.07408714294  -0.361457020044  -0.807909369469  0.514829516411  0.133839830756  -0.189878061414  -0.466042548418  
2.0821762085  -0.33728402853  -0.845773100853  0.52067142725  0.163321018219  -0.174682065845  -0.516376316547  
2.09027218819  -0.314708948135  -0.878165662289  0.527305901051  0.199225768447  -0.165909618139  -0.56093364954  
2.09838819504  -0.295470267534  -0.909752905369  0.533019959927  0.243759140372  -0.145392626524  -0.615270137787  
2.10645008087  -0.275170594454  -0.950173258781  0.53417044878  0.279400229454  -0.129453599453  -0.660714328289  
2.11455011368  -0.256110876799  -0.980290472507  0.532099604607  0.320937544107  -0.118571929634  -0.709562003613  
2.12268710136  -0.237651973963  -1.01291310787  0.524864315987  0.367148727179  -0.102009728551  -0.749709188938  
2.13084220886  -0.218924626708  -1.0310652256  0.520032286644  0.408470332623  -0.0941960141063  -0.79469794035  
2.13892006874  -0.199532553554  -1.05248975754  0.522192656994  0.451421797276  -0.0679745227098  -0.838895797729  
2.1470181942  -0.179910376668  -1.06974709034  0.497482776642  0.490921795368  -0.0530421808362  -0.873769879341  
2.15507221222  -0.160786762834  -1.07391440868  0.494350880384  0.52819275856  -0.0406025573611  -0.905599951744  
2.16317820549  -0.144462645054  -1.07859301567  0.479190051556  0.563066840172  -0.028498487547  -0.931414008141  
2.17127513885  -0.127972349524  -1.09274399281  0.463632911444  0.600385725498  -0.0215955749154  -0.958210706711  
2.17937111855  -0.112159565091  -1.09048140049  0.447705090046  0.634636640549  -0.00587227055803  -0.982418835163  
2.18751120567  -0.101549528539  -1.08341228962  0.429156690836  0.669199168682  -0.00297208782285  -1.00039517879  
2.19560599327  -0.0878459662199  -1.07688009739  0.410646677017  0.700669705868  0.0215955749154  -1.01103723049  
2.20381522179  -0.0773126333952  -1.07177960873  0.392788559198  0.728856623173  0.0495427884161  -1.02968466282  
2.21183800697  -0.0673801079392  -1.05572390556  0.370418012142  0.759847819805  0.0418489165604  -1.0350536108  
2.21991610527  -0.0655904635787  -1.04086995125  0.353518664837  0.781994700432  0.0463070459664  -1.03586852551  
2.22797703743  -0.0610268712044  -1.02887928486  0.332132428885  0.805172145367  0.0514123253524  -1.03467011452  
2.23608613014  -0.061269748956  -1.00792765617  0.311116874218  0.823963403702  0.052442971617  -1.02664065361  
2.24418401718  -0.0645038932562  -0.981223642826  0.288976430893  0.84318614006  0.0591781064868  -1.02199077606  
2.25231313705  -0.0693998485804  -0.955887377262  0.267666876316  0.852198243141  0.0595136620104  -0.998789310455  
2.26041412354  -0.0761621445417  -0.927112460136  0.246293410659  0.861450076103  0.0582673028111  -0.978416144848  
2.26854801178  -0.0864398181438  -0.899398505688  0.225584656  0.868137300014  0.0591781064868  -0.961829960346  
2.27666521072  -0.0980213731527  -0.863158226013  0.204735308886  0.874896407127  0.0579317472875  -0.931054472923  
2.28476405144  -0.114959076047  -0.828017294407  0.184934169054  0.872403681278  0.0505494624376  -0.895533204079  
2.29288101196  -0.132331416011  -0.79628944397  0.159981414676  0.872403681278  0.0418009795249  -0.858166396618  
2.30096817017  -0.150930926204  -0.758349001408  0.139656171203  0.866075992584  0.0361204557121  -0.816365420818  
2.3090569973  -0.171089991927  -0.720664203167  0.120724290609  0.857902765274  0.0298407208174  -0.770058393478  
2.31714916229  -0.193818479776  -0.675897538662  0.10323690623  0.845606923103  0.0291935727  -0.726459801197  
2.32523417473  -0.216010063887  -0.63309943676  0.0850464552641  0.827103316784  0.0143810706213  -0.675886332989  
2.33332109451  -0.241563633084  -0.588844120502  0.0656799450517  0.805987119675  0.00925182178617  -0.619800150394  
2.34142899513  -0.264445513487  -0.542671263218  0.047502271831  0.781994700432  0.00419447897002  -0.569490373135  
2.34951901436  -0.296863645315  -0.498198628426  0.032405346632  0.757834494114  -0.0266529172659  -0.520403027534  
2.35760903358  -0.326942443848  -0.447884052992  0.0126809077337  0.726675510406  -0.0363601408899  -0.46484413743  
2.36567807198  -0.357801020145  -0.400573521852  0.00820679776371  0.699399411678  -0.0431911498308  -0.403269171715  
2.3737552166  -0.39066657424  -0.351268827915  -0.0199289675802  0.666322946548  -0.0556307733059  -0.34612840414  
2.38188004494  -0.420029520988  -0.304904252291  -0.033977676183  0.628117203712  -0.0586747676134  -0.285895675421  
2.38992118835  -0.454978704453  -0.259114921093  -0.0421589054167  0.58389544487  -0.0743980705738  -0.227939963341  
2.39801621437  -0.485990703106  -0.211037412286  -0.0500972568989  0.542406022549  -0.090361058712  -0.160876244307  
2.40615010262  -0.549420773983  -0.12005956471  -0.0623307526112  0.454321980476  -0.11936288327  -0.031422637403  
2.41420602798  -0.583807528019  -0.0758809149265  -0.0668687820435  0.412760704756  -0.135925084352  0.0376065000892  
2.42227220535  -0.613950252533  -0.033197902143  -0.0711767077446  0.360317707062  -0.153925389051  0.0684299245477  
2.43034100533  -0.656505465508  0.00213478994556  -0.0751778408885  0.309648424387  -0.177342563868  0.112915374339  
2.4384291172  -0.693704485893  0.0412896499038  -0.0768140926957  0.251476973295  -0.193137779832  0.12959741056  
2.4464840889  -0.733281195164  0.0782841518521  -0.0765584260225  0.210874423385  -0.21351096034  0.198794335127  
2.45458602905  -0.779453992844  0.109155520797  -0.0751011446118  0.156537950039  -0.230792209506  0.242009446025  
2.46264004707  -0.813022613525  0.137930437922  -0.068658426404  0.115192376077  -0.246060118079  0.284984886646  
2.47070407867  -0.845606923103  0.162499696016  -0.0630210489035  0.0537372678518  -0.260033726692  0.320865660906  
2.47888922691  -0.889210343361  0.18143157661  -0.0572430491447  -0.00366717297584  -0.271874129772  0.360030084848  
2.48697710037  -0.922983467579  0.198752775788  -0.0513755753636  -0.0426638424397  -0.293829232454  0.386635065079  
2.49505901337  -0.970204532146  0.216137900949  -0.0409189388156  -0.0806059017777  -0.312548607588  0.416955173016  
2.50312614441  -1.01685035229  0.220266863704  -0.0240195821971  -0.115479998291  -0.328823179007  0.44449493289  
2.51121711731  -1.06105458736  0.224996641278  -0.00942119862884  -0.145033091307  -0.35346275568  0.469014644623  
2.51930403709  -1.10523319244  0.224012330174  -0.00341310724616  -0.182040378451  -0.373883873224  0.48833322525  
2.52740716934  -1.13878905773  0.224753752351  0.0283147301525  -0.210778549314  -0.388217002153  0.502378702164  
2.53547310829  -1.16292369366  0.219320908189  0.0396789722145  -0.241506114602  -0.406193345785  0.512157857418  
2.54356002808  -1.22129166126  0.205591782928  0.0573708824813  -0.269309520721  -0.431719750166  0.522488236427  
2.55162119865  -1.28376293182  0.192731902003  0.0724294632673  -0.296274006367  -0.454130232334  0.522751927376  
2.55984115601  -1.30791044235  0.175244525075  0.0934705659747  -0.317845612764  -0.469278305769  0.52162539959  
2.56789302826  -1.32011830807  0.159112155437  0.113310046494  -0.336157530546  -0.487038910389  0.521793186665  
2.57595920563  -1.39381337166  0.135028660297  0.136703252792  -0.344714254141  -0.510671794415  0.520067453384  
2.58408308029  -1.42137384415  0.110919594765  0.159239992499  -0.356147199869  -0.523662686348  0.512253701687  
2.59220814705  -1.43266141415  0.0857878774405  0.18143157661  -0.357992768288  -0.544227659702  0.495619624853  
2.60031819344  -1.49526059628  0.0567445084453  0.202408775687  -0.350490659475  -0.563426375389  0.478578060865  
2.60840201378  -1.50787758827  0.024927187711  0.225239515305  -0.348261594772  -0.575482487679  0.45858836174  
2.61652612686  -1.52027726173  0.00828349683434  0.244733855128  -0.345840781927  -0.593698501587  0.437975496054  
2.62461709976  -1.56900668144  -0.035562787205  0.262528032064  -0.332370519638  -0.612178206444  0.418920576572  
2.63279604912  -1.56707644463  -0.0668559968472  0.280565083027  -0.326689988375  -0.617307424545  0.390350192785  
2.64083600044  -1.58204555511  -0.0902747735381  0.294217526913  -0.312236994505  -0.635715246201  0.368778586388  
2.64893221855  -1.5923615694  -0.120264098048  0.31001752615  -0.298910558224  -0.645997703075  0.345936655998  
2.65702819824  -1.5923615694  -0.149294689298  0.326571732759  -0.281868994236  -0.657214939594  0.313986718655  
2.66513299942  -1.61340272427  -0.178977206349  0.337424635887  -0.260081648827  -0.664405465126  0.284601390362  
2.67326307297  -1.60058116913  -0.213990330696  0.352138072252  -0.241913571954  -0.676126003265  0.252891123295  
2.68138217926  -1.61728870869  -0.237830936909  0.357647627592  -0.217897191644  -0.691993117332  0.220509752631  
2.6895070076  -1.6066532135  -0.265468150377  0.366276264191  -0.197020664811  -0.697457969189  0.182615622878  
2.69763302803  -1.59357595444  -0.297183215618  0.37138953805  -0.177797973156  -0.698368728161  0.150665685534  
2.7057261467  -1.59757709503  -0.314120918512  0.37138953805  -0.150665685534  -0.711479485035  0.110925987363  
2.71384215355  -1.56611776352  -0.338383376598  0.372731775045  -0.127032786608  -0.708123922348  0.0806059017777  
2.72189712524  -1.56131124496  -0.354899257421  0.370724827051  -0.105101659894  -0.710976183414  0.0345385372639  
2.7299861908  -1.5303248167  -0.370021730661  0.370903789997  -0.0786165222526  -0.710376918316  0.0129429632798  
2.7380900383  -1.4984691143  -0.384786307812  0.363042116165  -0.0381817407906  -0.710712492466  -0.0215955749154  
2.74617815018  -1.48642742634  -0.391586959362  0.353237420321  -0.0145488493145  -0.70958596468  -0.0819481313229  
2.75429415703  -1.43409311771  -0.404178380966  0.343458294868  -0.00606401823461  -0.699710965157  -0.0870534107089  
2.76238512993  -1.40769588947  -0.404024988413  0.325817525387  0.0448449701071  -0.703929424286  -0.111117735505  
2.77047300339  -1.37100815773  -0.407565921545  0.312535822392  0.0532339289784  -0.696043789387  -0.142971813679  
2.77858614922  -1.30993008614  -0.408038884401  0.297720104456  0.0687894523144  -0.685713410378  -0.16751550138  
2.78664517403  -1.28726553917  -0.402657181025  0.276410549879  0.0875327810645  -0.674544095993  -0.190237596631  
2.79481506348  -1.25915539265  -0.399333566427  0.257235795259  0.111573137343  -0.665388166904  -0.210347130895  
2.80288004875  -1.16439366341  -0.390628218651  0.236015737057  0.124060697854  -0.65366756916  -0.22827552259  
2.81099200249  -1.15199398994  -0.377205878496  0.213108286262  0.149371385574  -0.644056260586  -0.24896030128  
2.81907916069  -1.09862422943  -0.367107182741  0.189663946629  0.165861681104  -0.622892081738  -0.26770362258  
2.82714414597  -1.03674089909  -0.350335657597  0.167191132903  0.178061619401  -0.610452473164  -0.278681188822  
2.83526015282  -0.997586071491  -0.336223036051  0.141484171152  0.195918112993  -0.599355101585  -0.296705454588  
2.84337210655  -0.973106324673  -0.316025614738  0.11750292778  0.199801012874  -0.580060482025  -0.305142343044  
2.85149002075  -0.893147528172  -0.290382564068  0.0907988846302  0.215404465795  -0.555756449699  -0.316647201777  
2.85955500603  -0.829960346222  -0.268357157707  0.0663574561477  0.220509752631  -0.540464580059  -0.327480942011  
2.86763119698  -0.807909369469  -0.24452932179  0.037723146379  0.231774926186  -0.522344470024  -0.327744603157  
2.87578606606  -0.74217826128  -0.221021071076  0.00942119862884  0.237695127726  -0.50122821331  -0.328295856714  
2.88389706612  -0.682813227177  -0.192655205727  -0.0174490325153  0.249439671636  -0.475318342447  -0.328415721655  
2.89197516441  -0.629175007343  -0.163599058986  -0.0497265458107  0.246827110648  -0.448281943798  -0.330189377069  
2.90007519722  -0.582593142986  -0.1370100528  -0.0680192634463  0.253178745508  -0.430689096451  -0.323238521814  
2.9081401825  -0.532022893429  -0.109794676304  -0.0966791436076  0.245628684759  -0.407511591911  -0.308186352253  
2.91622614861  -0.474971592426  -0.0771336704493  -0.121964260936  0.240595310926  -0.382800132036  -0.301571041346  
2.92434501648  -0.422292143106  -0.0424273535609  -0.141624778509  0.239876255393  -0.357944846153  -0.293086230755  
2.93240308762  -0.375953137875  -0.00829627923667  -0.163023814559  0.238102585077  -0.333449095488  -0.281868994236  
2.94049715996  -0.323848903179  0.0238278359175  -0.186608761549  0.229521885514  -0.304063767195  -0.263389319181  
2.94858622551  -0.278545349836  0.054366838187  -0.207023501396  0.216650828719  -0.279184520245  -0.255839258432  
2.95668816566  -0.237102299929  0.0819657072425  -0.225328996778  0.21178522706  -0.260752767324  -0.239133238792  
2.96487116814  -0.197359412909  0.105780757964  -0.2418448627  0.200376242399  -0.234243676066  -0.228035837412  
2.97291707993  -0.158984333277  0.135463282466  -0.257389187813  0.191531896591  -0.20694360137  -0.210946336389  
2.98100805283  -0.123958431184  0.164979636669  -0.272025942802  0.173172056675  -0.191364109516  -0.190549179912  
2.98910808563  -0.0912718623877  0.186442583799  -0.284757971764  0.160013377666  -0.169265195727  -0.167755186558  
2.99718809128  -0.0606561601162  0.213555693626  -0.293540000916  0.149898692966  -0.14026337862  -0.12959741056  
3.00525021553  -0.0300276745111  0.239492759109  -0.301836282015  0.132018223405  -0.120753057301  -0.134942382574  
3.01337814331  -0.00837297830731  0.259651809931  -0.308777570724  0.119650505483  -0.104286730289  -0.101314641535  
3.02150416374  0.0160684492439  0.281843423843  -0.315539866686  0.106875322759  -0.0843449756503  -0.0902172476053  
3.02962303162  0.0368411056697  0.298589378595  -0.320320755243  0.0882278680801  -0.065625615418  -0.0652181580663  
3.03775715828  0.0482309125364  0.314619451761  -0.320653110743  0.073127746582  -0.0547679103911  -0.0290018245578  
3.04593610764  0.0564504936337  0.329179495573  -0.32335036993  0.0603765286505  -0.0348740965128  -0.0128950262442  
3.05395412445  0.0630721747875  0.342742443085  -0.322851836681  0.0315185114741  -0.0240163877606  -0.00807736814022  
3.06201815605  0.064900174737  0.354899257421  -0.319183051586  0.0118883512914  -0.0163225159049  0.0348980650306  
3.07008314133  0.0615509822965  0.369574338198  -0.307716548443  -0.00304399314336  -0.00762196723372  0.0526586845517  
3.07825708389  0.0540728233755  0.376272708178  -0.299893260002  -0.0340351983905  -0.0045540058054  0.075908087194  
3.08631706238  0.044523794204  0.379609107971  -0.29074048996  -0.0447011590004  -0.00906007457525  0.0894262865186  
3.09438705444  0.0297720115632  0.381143093109  -0.280053764582  -0.0543125085533  -0.00563258584589  0.103591643274  
3.10252404213  0.0172189343721  0.380005389452  -0.272396653891  -0.0652660951018  -0.004050668329  0.12549880147  
3.11058712006  0.00837297830731  0.37702691555  -0.258999884129  -0.0716656669974  -0.00822117831558  0.136260643601  
3.11870312691  -0.0189318805933  0.372246026993  -0.246485158801  -0.0900015309453  -0.00994690693915  0.145152941346  
3.1268081665  -0.0337731428444  0.364333242178  -0.23404712975  -0.0985822379589  -0.00862864218652  0.16030099988  
3.13486814499  -0.0463517867029  0.357532590628  -0.216137900949  -0.108193583786  -0.0296250060201  0.172884434462  
3.14297103882  -0.061167486012  0.349466383457  -0.201526731253  -0.110135033727  -0.0140455123037  0.178972423077  
3.15106320381  -0.0813393294811  0.338536769152  -0.187120094895  -0.128710582852  -0.0354014001787  0.182759433985  
3.15915799141  -0.097420565784  0.327888399363  -0.170169606805  -0.127032786608  -0.0389247648418  0.19208316505  
3.16727113724  -0.115534320474  0.314120918512  -0.153871059418  -0.139975756407  -0.0366717278957  0.196637168527  
3.17539715767  -0.131321534514  0.298333704472  -0.136370897293  -0.146591037512  -0.0474575310946  0.203012779355  
3.18349099159  -0.143503904343  0.283927053213  -0.119420409203  -0.146471202374  -0.048608019948  0.203372299671  
3.19158911705  -0.158127859235  0.262425780296  -0.101498395205  -0.155411437154  -0.061598919332  0.210011571646  
3.1997179985  -0.169607147574  0.245858773589  -0.086081892252  -0.158431455493  -0.0612873286009  0.206104710698  
3.20780801773  -0.179066687822  0.229649707675  -0.0684538930655  -0.155099838972  -0.0640197321773  0.206655979156  
3.21585702896  -0.187388539314  0.204824790359  -0.0500205568969  -0.152415379882  -0.0721210688353  0.20586502552  
3.22396016121  -0.194368153811  0.189881265163  -0.0318556688726  -0.157304942608  -0.0772982537746  0.194408103824  
3.23206114769  -0.19948142767  0.163995325565  -0.0146111669019  -0.153541892767  -0.0773222222924  0.190812841058  
3.24015712738  -0.205144375563  0.149230763316  -0.00685178115964  -0.148412644863  -0.0858549922705  0.177702099085  
3.24821805954  -0.210053101182  0.123728334904  0.018037058413  -0.146471202374  -0.08058193326  0.170583456755  
3.25632214546  -0.20969517529  0.100514091551  0.0371606871486  -0.143451184034  -0.0861665830016  0.162170544267  
3.26442909241  -0.211472034454  0.0808024406433  0.0472849570215  -0.129741221666  -0.0950588732958  0.155699059367  
3.27255702019  -0.211139678955  0.0570513047278  0.0599403008819  -0.136308580637  -0.0895700976253  0.144649595022  
3.280616045  -0.207522034645  0.0340415909886  0.0726851224899  -0.123533397913  -0.0973358750343  0.12959741056  
3.28868222237  -0.205029323697  0.0148029150441  0.0835891738534  -0.116031266749  -0.0909602716565  0.123006090522  
3.29683899879  -0.201219931245  -0.0129110049456  0.0947233140469  -0.110662333667  -0.0937406122684  0.105604991317  
3.30492115021  -0.198024138808  -0.0358951501548  0.106113120914  -0.100811302662  -0.0918231382966  0.104094982147  
3.31302309036  -0.191082879901  -0.0535614974797  0.116314098239  -0.0923264697194  -0.0935248956084  0.0846805348992  
3.321144104  -0.184525102377  -0.0693998485804  0.125211179256  -0.0828589349985  -0.093021556735  0.0711143910885  
3.32923722267  -0.174349710345  -0.0859412774444  0.133801475167  -0.0734872668982  -0.0830027461052  0.0574763454497  
3.33732914925  -0.165248081088  -0.10323690623  0.141381904483  -0.0666322931647  -0.0903370901942  0.0407703332603  
3.34544706345  -0.153014585376  -0.118180438876  0.146047756076  -0.0565655454993  -0.0811332091689  0.0219551008195  
3.35355710983  -0.139042571187  -0.134683519602  0.152388215065  -0.0364799834788  -0.0806059017777  0.0211881101131  
3.36169219017  -0.127141445875  -0.150547429919  0.155852451921  -0.0270843487233  -0.0784247741103  0.00862864218652  
3.36979103088  -0.116045646369  -0.161234170198  0.157463133335  -0.0176887158304  -0.0685977041721  -0.00115048559383  
3.37792301178  -0.101651795208  -0.173761680722  0.158920407295  -0.013614079915  -0.0663446709514  -0.0323813781142  
3.38601112366  -0.0878459662199  -0.184767991304  0.157578185201  -0.0109056448564  -0.0633486136794  -0.0395719110966  
3.39410018921  -0.0747815668583  -0.195122361183  0.159163296223  0.0240403562784  -0.0548158474267  -0.0355452112854  
3.40223121643  -0.0604132786393  -0.202715560794  0.157706007361  0.0117685096338  -0.0500221550465  -0.0566614158452  
3.41034603119  -0.0459043756127  -0.205719605088  0.155264422297  0.0349220335484  -0.0437663905323  -0.0631089285016  
3.418446064  -0.0304623022676  -0.209746316075  0.152222037315  0.0333161465824  -0.0430952757597  -0.0663686394691  
3.42652916908  -0.0162729807198  -0.216316863894  0.147837400436  0.0423522517085  -0.0290497615933  -0.0737748891115  
3.43466520309  -0.00607200758532  -0.215332552791  0.142711356282  0.05467203632  -0.0267008543015  -0.0898577198386  
3.44276618958  0.0110063124448  -0.215230286121  0.138019919395  0.0577160306275  -0.0197739712894  -0.0880600884557  
3.4508562088  0.0264995191246  -0.215792745352  0.130413934588  0.0615270137787  -0.0150282187387  -0.103208146989  
3.45895218849  0.0363936945796  -0.212443560362  0.123549371958  0.0657454580069  -0.0124635947868  -0.106228172779  
3.46706700325  0.0439613349736  -0.20724080503  0.113846942782  0.0763155445457  -0.00608798628673  -0.112963311374  
3.4751830101  0.0555940233171  -0.20044015348  0.107059076428  0.0790239796042  -0.00556068075821  -0.115024596453  
3.48330616951  0.0639797821641  -0.197078183293  0.0973694324493  0.0828589349985  0.0267008543015  -0.121999412775  
3.49144411087  0.0742702409625  -0.187465235591  0.0890603661537  0.0894502550364  0.0112172346562  -0.119602568448  
3.49954199791  0.0834613367915  -0.178044036031  0.0793707221746  0.0891626402736  0.0471219755709  -0.128662645817  
3.50763511658  0.0928825363517  -0.168776243925  0.0695021152496  0.092038847506  0.0129429632798  -0.123916894197  
3.51578307152  0.0985838323832  -0.161157473922  0.058994345367  0.0935968011618  0.0489675439894  -0.126217857003  
3.52383613586  0.104131728411  -0.149077370763  0.0481414310634  0.0966407954693  0.0143810706213  -0.12777581811  
3.53190302849  0.108925424516  -0.136370897293  0.0355372205377  0.0958258658648  0.0566614158452  -0.120681151748  
3.5399889946  0.113744676113  -0.124559246004  0.0258092265576  0.0922066271305  0.017592843622  -0.120417498052  
3.5480492115  0.118116520345  -0.111226394773  0.0152886752039  0.0970482602715  0.0460673607886  -0.11106979847  
3.55616307259  0.118295490742  -0.0966407880187  0.0107634318992  0.0908404290676  0.0426159054041  -0.1178528741  
3.56424999237  0.121861994267  -0.0841388478875  0.00305517856032  0.0932372733951  0.0468822903931  -0.103208146989  
3.5723760128  0.119356490672  -0.0717775225639  -0.018957445398  0.0837457701564  0.0501659661531  -0.105604991317  
3.58049321175  0.11956102401  -0.0580867417157  -0.0289538875222  0.0851599052548  0.0505494624376  -0.0952266529202  
3.58858919144  0.118295490742  -0.0452524349093  -0.0342589057982  0.0854235589504  0.0551514066756  -0.0926620289683  
3.5967130661  0.118461668491  -0.0307051818818  -0.0391165092587  0.0795512869954  0.0553671196103  -0.0831944942474  
3.60480499268  0.116556979716  -0.0140359243378  -0.0462367385626  0.0782090574503  0.0524190030992  -0.0788561999798  
3.61285805702  0.113552927971  -0.0062765381299  -0.0539066419005  0.0722888484597  0.053833141923  -0.0731037780643  
3.62094902992  0.108516357839  0.0199034009129  -0.0598380342126  0.0615270137787  0.0580036491156  -0.0614311397076  
3.62904214859  0.101830758154  0.0292734671384  -0.0678403005004  0.0647148191929  0.0572845973074  -0.05488775298  
3.6371691227  0.0959632843733  0.0407271906734  -0.0728640854359  0.0599211268127  0.0492791347206  -0.050285808742  
3.64525604248  0.086081892252  0.0527050234377  -0.0812498480082  0.0474814996123  0.0570688806474  -0.0435027368367  
3.65336704254  0.0773126333952  0.0637624710798  -0.0873985588551  0.0376304686069  0.05467203632  -0.0259338635951  
3.66147708893  0.0665747672319  0.0772487148643  -0.0946721807122  0.0337715484202  0.0500221550465  -0.0241841673851  
3.6695971489  0.0560030825436  0.0896100476384  -0.101702928543  0.0280191190541  0.0401950925589  -0.00994690693915  
3.67769002914  0.0434116572142  0.102367654443  -0.106496617198  0.0240643247962  0.037294909358  -0.0118883512914  
3.68577408791  0.0303728207946  0.113361179829  -0.113936424255  0.015291871503  0.0383015833795  -0.00807736814022  
3.69385504723  0.0156210381538  0.130119919777  -0.119982868433  0.0164423566312  0.0358328334987  0.0207806471735  
3.70191502571  0.00837297830731  0.144309252501  -0.12563303113  0.00647148163989  0.0335558317602  0.00683100847527  
3.7099840641  -0.0212839841843  0.157948896289  -0.130477845669  0.00306796166115  0.0263652950525  0.0426878109574  
3.71814608574  -0.0447027571499  0.193588376045  -0.145740956068  -0.0117685096338  0.0124875633046  0.0323813781142  
3.72612905502  -0.0588025972247  0.210385471582  -0.151314422488  -0.0462830774486  0.0130867743865  0.0433349572122  
3.73420405388  -0.0783097222447  0.227617189288  -0.157821059227  -0.0206368360668  0.0108097717166  0.0390685759485  
3.74229121208  -0.0931765511632  0.248671069741  -0.16543982923  -0.0400512814522  -0.0139736067504  0.0550315640867  
3.75040912628  -0.111162476242  0.268229335546  -0.175615236163  -0.0406504906714  -0.00762196723372  0.052227254957  
3.75849914551  -0.133533030748  0.290190815926  -0.182070747018  -0.0486559532583  -0.0499023161829  0.0590103268623  
3.76659703255  -0.15087980032  0.308470755816  -0.187899872661  -0.0549836270511  -0.0129429632798  0.0644751340151  
3.7746860981  -0.172662317753  0.330624014139  -0.195582553744  -0.0698200985789  -0.0484162718058  0.0692927911878  
3.78281021118  -0.191121220589  0.359667360783  -0.207726567984  -0.0772263482213  -0.0381577722728  0.0705151855946  
3.79087615013  -0.204735308886  0.375275611877  -0.214118152857  -0.0889948606491  -0.0529223382473  0.0768907889724  
3.79897212982  -0.2199472785  0.393824011087  -0.221851974726  -0.103807359934  -0.0572845973074  0.0759320557117  
3.80706715584  -0.234366700053  0.422675639391  -0.229777544737  -0.115120470524  -0.0607360526919  0.0779933407903  
3.81512904167  -0.248364284635  0.449839890003  -0.240055218339  -0.135373815894  -0.0736310780048  0.0829787775874  
3.82319021225  -0.260431587696  0.478998303413  -0.252327054739  -0.154069200158  -0.0888750180602  0.0809414610267  
3.83132314682  -0.276154905558  0.506980657578  -0.266503602266  -0.172500938177  -0.0887072384357  0.0865980163217  
3.83943510056  -0.286151349545  0.538606226444  -0.275170594454  -0.186330735683  -0.108361363411  0.0961374565959  
3.84752821922  -0.29462659359  0.570180654526  -0.288835793734  -0.213894456625  -0.106707543135  0.0903850272298  
3.85562801361  -0.300570756197  0.601090371609  -0.300340652466  -0.231559202075  -0.121591947973  0.0999244749546  
3.86384820938  -0.304584681988  0.634211599827  -0.31509244442  -0.255935102701  -0.124156571925  0.100260026753  
3.87184000015  -0.309570103884  0.662411272526  -0.330457806587  -0.286087423563  -0.134486973286  0.108145646751  
3.87994122505  -0.313174962997  0.693487167358  -0.348776102066  -0.308018565178  -0.138226062059  0.107234850526  
3.88800120354  -0.313136607409  0.720613062382  -0.36415424943  -0.331747323275  -0.139640197158  0.114281572402  
3.89609003067  -0.311244696379  0.753644764423  -0.384786307812  -0.352168440819  -0.153877452016  0.112412035465  
3.90415620804  -0.308636933565  0.783723592758  -0.401302158833  -0.378437876701  -0.152295529842  0.122095286846  
3.91225814819  -0.307192444801  0.814045250416  -0.4186617136  -0.408638119698  -0.15222363174  0.113658390939  
3.92038011551  -0.299484193325  0.844597041607  -0.432531446218  -0.429994016886  -0.153877452016  0.125834360719  
3.92848110199  -0.287480801344  0.865944981575  -0.450619637966  -0.45007956028  -0.165310397744  0.123964823782  
3.93657302856  -0.277650535107  0.897110342979  -0.468937933445  -0.473688483238  -0.157017320395  0.126817077398  
3.94467306137  -0.261198580265  0.924632489681  -0.487115621567  -0.490777999163  -0.157856211066  0.131538853049  
3.95288109779  -0.247571721673  0.950339496136  -0.505037605762  -0.512661218643  -0.156058579683  0.130052819848  
3.96089315414  -0.232628196478  0.970498561859  -0.521706879139  -0.531236767769  -0.159054636955  0.138489708304  
3.96899199486  -0.21354290843  0.992754042149  -0.544051885605  -0.554006755352  -0.145033091307  0.135829210281  
3.97708511353  -0.195211842656  1.00958943367  -0.558369040489  -0.566686093807  -0.142276719213  0.136740013957  
3.98517918587  -0.178977206349  1.02762651443  -0.573376476765  -0.581858098507  -0.143091648817  0.146279454231  
3.99330019951  -0.159482866526  1.04205870628  -0.590953350067  -0.59990632534  -0.127727881074  0.139328598976  
4.0014359951  -0.139515548944  1.04784953594  -0.60755866766  -0.604004979134  -0.125115320086  0.146351367235  
4.00952005386  -0.121107786894  1.06151473522  -0.621377289295  -0.611818671227  -0.116151109338  0.145392626524  
4.01763319969  -0.0999772027135  1.06736946106  -0.635847806931  -0.615653634071  -0.10471816361  0.137962400913  
4.02578210831  -0.0812754184008  1.06471049786  -0.648234724998  -0.615773439407  -0.0963771417737  0.137195408344  
4.0338242054  -0.0615381971002  1.06396913528  -0.652619361877  -0.612393915653  -0.0929017141461  0.138178125024  
4.04190707207  -0.0414174832404  1.0695425272  -0.662551879883  -0.603453695774  -0.0742782279849  0.130963608623  
4.04999613762  -0.0201079323888  1.06396913528  -0.673711597919  -0.599762558937  -0.0703953430057  0.130652025342  
4.05810308456  -0.00447411090136  1.05477797985  -0.684193789959  -0.588641166687  -0.0598012842238  0.125954210758  
4.06619501114  0.0251956358552  1.0502910614  -0.702307581902  -0.577543795109  -0.0449168756604  0.117733031511  
4.07428002357  0.0422483868897  1.04182863235  -0.701540589333  -0.558416962624  -0.0349460020661  0.115360155702  
4.0823571682  0.0597613379359  1.02797162533  -0.708187818527  -0.54530620575  -0.0284265819937  0.103759422898  
4.09045314789  0.0790639296174  1.01200544834  -0.704723596573  -0.514746427536  -0.0161787047982  0.10212957114  
4.0987071991  0.0945954844356  0.997125864029  -0.703279078007  -0.490706086159  -0.0110254874453  0.0905048698187  
4.10676312447  0.112312965095  0.977209687233  -0.702307581902  -0.468367487192  -0.00680703995749  0.0851119682193  
4.11481308937  0.13259986043  0.956181406975  -0.705375492573  -0.439821064472  0.0320697873831  0.082044005394  
4.12287521362  0.152554392815  0.934079289436  -0.703189611435  -0.417290717363  0.0129429632798  0.0661529228091  
4.13097310066  0.16849501431  0.912693023682  -0.693487167358  -0.386874765158  0.0428316220641  0.0614071711898  
4.13905715942  0.187120094895  0.886142373085  -0.691122293472  -0.357944846153  0.0367436334491  0.0560382381082  
4.147149086  0.204326242208  0.852113544941  -0.680320501328  -0.32683378458  0.033459957689  0.0395719110966  
4.15523719788  0.221366211772  0.823338627815  -0.669953346252  -0.294787973166  0.0517239160836  0.0290257930756  
4.16336107254  0.236552625895  0.791086673737  -0.657924354076  -0.268374741077  0.056901101023  0.022698123008  
4.17146611214  0.25388661027  0.766057252884  -0.64643228054  -0.232470005751  0.0687415152788  0.0213319212198  
4.17952418327  0.270952135324  0.73256534338  -0.63472288847  -0.205721214414  0.0710424855351  0.0123437521979  
4.18759202957  0.288707971573  0.693908989429  -0.622451066971  -0.173939049244  0.0825713127851  0.00647148163989  
4.19576120377  0.30450797081  0.65971404314  -0.606702208519  -0.140862584114  0.0938844233751  0.00357129913755  
4.20378303528  0.324500858784  0.62802451849  -0.588997483253  -0.112412035465  0.0929975882173  -0.0223865322769  
4.21184420586  0.339559435844  0.59637337923  -0.574245691299  -0.0722648799419  0.109463915229  -0.0235849563032  
4.21993017197  0.3586191535  0.563942492008  -0.555083751678  -0.0260057691485  0.113179028034  -0.0316862910986  
4.22799110413  0.379302322865  0.531716108322  -0.533940374851  -0.0117685096338  0.130076780915  -0.0441019497812  
4.23605418205  0.401519477367  0.496779680252  -0.514356553555  0.0195342879742  0.12959741056  -0.0299365948886  
4.24415707588  0.42489990592  0.464693933725  -0.497482776642  0.0570209436119  0.144266098738  -0.0516520105302  
4.25228214264  0.443205416203  0.438053786755  -0.477400392294  0.0607120841742  0.159917503595  -0.0555828362703  
4.26038002968  0.459708482027  0.406274825335  -0.453585356474  0.0793355703354  0.159725755453  -0.0559663325548  
4.26850509644  0.484111577272  0.374777078629  -0.435893446207  0.102033697069  0.172884434462  -0.0566614158452  
4.27662706375  0.502877235413  0.343892931938  -0.412116736174  0.118020653725  0.182351976633  -0.0626535266638  
4.28474020958  0.529236137867  0.316511362791  -0.395127892494  0.138393834233  0.194959372282  -0.06905310601  
4.29280018806  0.55636203289  0.283402949572  -0.372424989939  0.149946630001  0.206895664334  -0.0693407282233  
4.30086016655  0.580726802349  0.259984195232  -0.352470457554  0.167108044028  0.21514081955  -0.0725045651197  
4.30895113945  0.598457038403  0.23115812242  -0.329703599215  0.177246689796  0.225207567215  -0.0756684020162  
4.31703805923  0.623870015144  0.205374464393  -0.303907155991  0.188919335604  0.237383529544  -0.0765552297235  
4.32513213158  0.64411854744  0.184026569128  -0.279670268297  0.201958164573  0.243759140372  -0.0765072926879  
4.3332130909  0.664673864841  0.155852451921  -0.255637913942  0.209771886468  0.259051024914  -0.0809414610267  
4.34131622314  0.681023597717  0.12954467535  -0.228933855891  0.215931773186  0.261831343174  -0.0772982537746  
4.34940218925  0.702908337116  0.105243869126  -0.206882879138  0.215787962079  0.285440266132  -0.0821638479829  
4.35754203796  0.714515507221  0.0816972628236  -0.18143157661  0.216051608324  0.29258286953  -0.0814208239317  
4.36562800407  0.724115669727  0.0584830194712  -0.156325429678  0.217849254608  0.299413889647  -0.0740625113249  
4.3737051487  0.738547861576  0.0323669947684  -0.130976393819  0.214613512158  0.314561933279  -0.0780173093081  
4.38181900978  0.758860290051  0.00942119862884  -0.110037557781  0.213702708483  0.327792525291  -0.0714020133018  
4.38986420631  0.79034525156  -0.0166181251407  -0.0857495293021  0.208525523543  0.337691515684  -0.0696762874722  
4.39820313454  0.803320169449  -0.052027516067  -0.0325715243816  0.198027342558  0.357153892517  -0.0629171803594  
4.40629410744  0.799536347389  -0.0661529228091  -0.0111469272524  0.184461191297  0.379660248756  -0.0576441250741  
4.41438913345  0.806886672974  -0.0839726701379  0.0181521065533  0.177342563868  0.384190291166  -0.0528264641762  
4.42251300812  0.807052850723  -0.0998749360442  0.0427724979818  0.167036131024  0.389990657568  -0.0500940605998  
4.43060922623  0.805327177048  -0.115994513035  0.0595312379301  0.159486070275  0.39492815733  -0.0424481257796  
4.43869614601  0.798500955105  -0.128291934729  0.0834229886532  0.149011865258  0.401207894087  -0.0375345945358  
4.44679903984  0.795535266399  -0.139988526702  0.102201469243  0.129357725382  0.404659360647  -0.0363601408899  
4.45488810539  0.790102362633  -0.15462526679  0.122258268297  0.119554631412  0.415684849024  -0.0358807705343  
4.4629471302  0.785717785358  -0.172023162246  0.136703252792  0.103591643274  0.421437263489  -0.0329086817801  
4.47105717659  0.772589445114  -0.181278184056  0.153065726161  0.0954903066158  0.427309542894  -0.0264372006059  
4.47914910316  0.760649979115  -0.187120094895  0.167050510645  0.073942668736  0.426350802183  -0.0214517638087  
4.48726820946  0.739404320717  -0.195850998163  0.182236924767  0.0577879361808  0.427669078112  -0.0107858031988  
4.49533510208  0.733038306236  -0.204415723681  0.192284494638  0.0413216091692  0.423426657915  -0.0079814940691  
4.50346803665  0.716330707073  -0.206473812461  0.201807960868  0.0243759136647  0.427525252104  -0.00687894551083  
4.51157021523  0.696043789387  -0.208148419857  0.210065886378  0.0180961806327  0.422060459852  0.00182160222903  
4.51970005035  0.667128264904  -0.21092236042  0.220739841461  0.00680703995749  0.417578339577  0.00994690693915  
4.52779006958  0.642661273479  -0.208774790168  0.227987900376  -0.0239924192429  0.40827858448  0.00484162708744  
4.53588819504  0.61695432663  -0.206473812461  0.231503278017  -0.0283546764404  0.404419660568  0.0215955749154  
4.5439851284  0.59610491991  -0.205642908812  0.230378359556  -0.0492072291672  0.397732466459  0.00620782887563  
4.55210900307  0.577505409718  -0.205962494016  0.230544537306  -0.0559663325548  0.390685737133  0.0215955749154  
4.56017112732  0.563750743866  -0.195774301887  0.230812981725  -0.0559183955193  0.389703035355  0.0382536463439  
4.56825017929  0.523969471455  -0.189715072513  0.231848418713  -0.0642354488373  0.378437876701  0.0298407208174  
4.57638120651  0.51208114624  -0.182799383998  0.227489352226  -0.0788801684976  0.366022199392  0.0464029200375  
4.584441185  0.477170288563  -0.178593710065  0.222005367279  -0.0842970386147  0.352647811174  0.0335798002779  
4.59250307083  0.460309296846  -0.167868629098  0.215907797217  -0.0962572991848  0.340543746948  0.0371271297336  
4.60062909126  0.437184542418  -0.158792585135  0.20963126421  -0.1030883044  0.32124915719  0.0400033444166  
4.60882711411  0.418444395065  -0.147517815232  0.201296627522  -0.108792796731  0.316551327705  0.044125918299  
4.6168320179  0.396866410971  -0.13856959343  0.190009087324  -0.120537340641  0.302745491266  0.0457557737827  
4.62491703033  0.375454574823  -0.12825357914  0.179910376668  -0.124060697854  0.287765234709  0.0491353236139  
4.63300299644  0.354784190655  -0.116556979716  0.168290480971  -0.126625329256  0.275709092617  0.0482005551457  
4.64111709595  0.339661717415  -0.101549528539  0.155507311225  -0.137147471309  0.265067100525  0.0512924864888  
4.64921212196  0.326712340117  -0.0909906253219  0.142762482166  -0.134031578898  0.246922984719  0.0528983697295  
4.65731501579  0.316025614738  -0.0790894925594  0.129007786512  -0.135253965855  0.238821640611  0.0513643883169  
4.66540408134  0.299062341452  -0.0678403005004  0.11309273541  -0.142396569252  0.219479098916  0.0499262847006  
4.6734650135  0.277036935091  -0.0564504936337  0.0980725064874  -0.139544323087  0.206416293979  0.0493270717561  
4.6815700531  0.265365898609  -0.0484737940133  0.0826815664768  -0.140934497118  0.189518541098  0.051460262388  
4.6896841526  0.258565247059  -0.0409700721502  0.0640053525567  -0.140527024865  0.189925998449  0.0502378717065  
4.69781899452  0.252224802971  -0.0306668337435  0.0488189384341  -0.134750634432  0.18033862114  0.0447251275182  
4.70589709282  0.249770432711  -0.0205809101462  0.0326482243836  -0.135517627001  0.180050998926  0.0406504906714  
4.71397805214  0.250384032726  -0.0131794521585  0.0134223317727  -0.128207236528  0.179955124855  0.0422803461552  
4.72207403183  0.252224802971  -0.0062765381299  0.0062765381299  -0.124060697854  0.168713927269  0.0436225794256  
4.73019504547  0.252020269632  -0.00524110114202  -0.0206192582846  -0.119890190661  0.165478184819  0.0365998260677  
4.73830413818  0.248530462384  0.00075420725625  -0.0321752466261  -0.109799474478  0.160444810987  0.0322615355253  
4.74642705917  0.24943806231  0.00414174841717  -0.0435650534928  -0.106851354241  0.162314355373  0.0294811949134  
4.75451517105  0.248159751296  0.00396278360859  -0.0497904606164  -0.0947472825646  0.160684496164  0.0245436932892  
4.76260209084  0.248364284635  0.00265890010633  -0.0607584230602  -0.0891866087914  0.145512461662  0.0286422986537  
4.77076101303  0.25109988451  0.00265890010633  -0.0660634413362  -0.0812051147223  0.152295529842  0.0201334990561  
4.77884221077  0.250690817833  -0.000766990415286  -0.0758809149265  -0.0658173635602  0.150018528104  0.0241601988673  
4.78691506386  0.249974951148  -0.0153398085386  -0.0821191072464  -0.0575722195208  0.143666893244  0.01263137348  
4.79500508308  0.2474822402  -0.0214885137975  -0.0865932181478  -0.0476732477546  0.142468467355  0.0113370772451  
4.8031001091  0.24442705512  -0.02954191342  -0.091310210526  -0.0255983062088  0.150402024388  0.0161787047982  
4.81119704247  0.244235306978  -0.0417626276612  -0.0943781733513  -0.0184796750546  0.134582847357  0.00663926079869  
4.81928920746  0.243762329221  -0.0504296198487  -0.0979191064835  -0.00762196723372  0.137363195419  0.00517718540505  
4.82737708092  0.243660077453  -0.0644655451179  -0.0980213731527  0.0229378081858  0.137267321348  0.0  
4.83551120758  0.245986610651  -0.0769547075033  -0.0980213731527  0.0265570431948  0.129022166133  0.0  
4.84366106987  0.244682729244  -0.0928825363517  -0.0963595584035  0.0404108092189  0.137914463878  -0.00407463684678  
4.8517241478  0.245564758778  -0.110625579953  -0.0925885289907  0.059993032366  0.131970286369  -0.0182639602572  
4.85977721214  0.243532240391  -0.128892734647  -0.0891754180193  0.0675910338759  0.121711790562  -0.00342748849653  
4.86783218384  0.239965736866  -0.153116852045  -0.0837936997414  0.0825473442674  0.130987584591  -0.0143810706213  
4.87589716911  0.23872576654  -0.174656495452  -0.0750500112772  0.106204204261  0.123365618289  -0.00795752555132  
4.88401508331  0.233037248254  -0.195582553744  -0.0690291374922  0.122718468308  0.124036729336  -0.0315664485097  
4.89210510254  0.226402789354  -0.216930449009  -0.0606433749199  0.149251550436  0.119890190661  0.0  
4.90021705627  0.221021071076  -0.239965736866  -0.0500461235642  0.165166601539  0.116270951927  -0.0323813781142  
4.90834522247  0.210270419717  -0.265135794878  -0.0372118167579  0.180003061891  0.117589220405  -0.00925182178617  
4.91638803482  0.205438375473  -0.283786445856  -0.0262694209814  0.199129894376  0.108984544873  -0.0506453365088  
4.92450499535  0.194943398237  -0.308227866888  -0.0102776717395  0.220222130418  0.105125628412  -0.00915594864637  
4.93263316154  0.183118954301  -0.329038888216  -0.00442297803238  0.235633835196  0.102009728551  -0.032405346632  
4.94082117081  0.176816850901  -0.349172383547  0.0186762157828  0.256318598986  0.1001881212  -0.0201095305383  
4.94881820679  0.16610455513  -0.373089700937  0.0305517856032  0.271250963211  0.0917272642255  -0.030799459666  
4.95691108704  0.155507311225  -0.391919314861  0.0390525944531  0.283450901508  0.0885154902935  -0.028834046796  
4.96497607231  0.146674126387  -0.415286958218  0.0516312383115  0.298023730516  0.0901693105698  -0.0323813781142  
4.97306799889  0.137879312038  -0.430984705687  0.0632383599877  0.314178466797  0.0796231925488  -0.0385892055929  
4.98118305206  0.126911342144  -0.453368037939  0.0761365815997  0.321321040392  0.0819720998406  -0.0286662671715  
4.98925018311  0.119075261056  -0.470817059278  0.0911184623837  0.330644786358  0.0751890316606  -0.0315904170275  
4.99735021591  0.110740631819  -0.485440999269  0.103288039565  0.349963337183  0.0633246451616  -0.0243759136647  
5.00544500351  0.101958595216  -0.50684005022  0.117451801896  0.357034057379  0.061598919332  -0.0313747003675  
5.01351618767  0.0932660326362  -0.519789397717  0.130081579089  0.369593501091  0.063396550715  -0.0318540707231  
5.02158308029  0.0851870700717  -0.540229678154  0.141241282225  0.379468500614  0.0553910881281  -0.0309672392905  
5.02964806557  0.0775171667337  -0.559110462666  0.150764748454  0.387138426304  0.0501180291176  -0.0300324689597  
5.03778910637  0.0673161894083  -0.570589721203  0.161745488644  0.392962753773  0.0496865995228  -0.0257900524884  
5.0458650589  0.0596335045993  -0.580138742924  0.171089991927  0.405642062426  0.0448929071426  -0.0286183301359  
5.0539700985  0.0495220124722  -0.591208994389  0.181112006307  0.417650252581  0.0382057093084  -0.0210682675242  
5.06205701828  0.0410339869559  -0.598981142044  0.19068659842  0.429826229811  0.0333401151001  -0.0231055859476  
5.07012009621  0.0358440168202  -0.608210623264  0.196042746305  0.441642671824  0.0286902356893  -0.0199177823961  
5.07820701599  0.0232142433524  -0.629545748234  0.210385471582  0.452188789845  0.0287861097604  -0.0185995176435  
5.08625006676  0.0155187724158  -0.639388799667  0.21609954536  0.460218220949  0.0230336803943  -0.0126553419977  
5.09431505203  0.0130004873499  -0.64643228054  0.223526567221  0.473808348179  0.0221468489617  -0.0166580732912  
5.10239505768  0.00942119862884  -0.652619361877  0.226978033781  0.47980043292  0.0177606213838  -0.0122478781268  
5.11046409607  0.00313187739812  -0.660340368748  0.230122685432  0.487302571535  0.00994690693915  -0.00587227055803  
5.11858510971  0.00145728175994  -0.671768546104  0.232206344604  0.493654221296  0.00925182178617  -0.0152679029852  
5.12671899796  0.00145728175994  -0.682902693748  0.235389351845  0.505207002163  0.00762196723372  -0.00807736814022  
5.13474917412  -0.00343867368065  -0.69454818964  0.237754240632  0.515249788761  0.00390685768798  -0.00498543772846  
5.14283013344  -0.00268446654081  -0.704940915108  0.241090655327  0.520067453384  0.00222906586714  -0.00445813173428  
5.15089702606  -0.00171294528991  -0.71069329977  0.245206832886  0.529415130615  -0.00594417564571  0.00316383549944  
5.1589910984  -0.00125275098253  -0.722965180874  0.244823336601  0.543388724327  -0.00594417564571  0.00316383549944  
5.16704511642  -0.000805339950603  -0.735901713371  0.243187099695  0.555348992348  -0.00402669981122  0.00316383549944  
5.17512011528  0.0062765381299  -0.745105624199  0.240246966481  0.563162744045  -0.00340351997875  0.00287621398456  
5.18320417404  0.00703074550256  -0.756572127342  0.240157485008  0.580420017242  -0.0081972097978  0.0185036435723  
5.19129920006  0.0188423972577  -0.763462245464  0.238303914666  0.593866288662  -0.00496146921068  0.00925182178617  
5.19944620132  0.0243391618133  -0.772857904434  0.236642107368  0.608391165733  -0.00352336233482  0.0196061935276  
5.20752906799  0.0341949909925  -0.784375548363  0.230544537306  0.625384807587  -0.00352336233482  0.0129429632798  
5.21570205688  0.0452652163804  -0.796813547611  0.221851974726  0.63664996624  -0.00349939381704  0.0341550409794  
5.223747015  0.0564888454974  -0.804751932621  0.215115249157  0.658533155918  0.000599211256485  0.0111692976207  
5.23179006577  0.0681343153119  -0.807334125042  0.210781753063  0.668863594532  0.00872451625764  0.0452764034271  
5.23988509178  0.0823236405849  -0.812268435955  0.202204242349  0.687654852867  0.0132545530796  0.00934769585729  
5.2479801178  0.099619269371  -0.819887161255  0.193013131618  0.70486420393  0.00774180982262  0.0329086817801  
5.25607705116  0.118321053684  -0.823862731457  0.181112006307  0.721354484558  0.0323813781142  0.0111692976207  
5.26419019699  0.139605045319  -0.823862731457  0.171026080847  0.741991341114  0.0278034023941  0.0292175412178  
5.27228021622  0.158984333277  -0.82226485014  0.156389340758  0.756540179253  0.0413695462048  0.0231055859476  
5.28036499023  0.181342095137  -0.821203827858  0.145536437631  0.775882720947  0.0590103268623  0.0204930249602  
5.28843212128  0.201296627522  -0.820948183537  0.128777682781  0.79115062952  0.0585788935423  0.0143810706213  
5.29649806023  0.221366211772  -0.814901769161  0.114959076047  0.807449162006  0.0651702210307  0.033795516938  
5.30458402634  0.24452932179  -0.81151419878  0.0971776843071  0.82583296299  0.0770825371146  0.0215955749154  
5.3126502037  0.267078846693  -0.800290584564  0.0835891738534  0.839974343777  0.0965688899159  0.0330524928868  
5.3208091259  0.289756208658  -0.791521310806  0.0647723376751  0.857279598713  0.0996847897768  0.023872576654  
5.32886815071  0.316051185131  -0.778022289276  0.0479880347848  0.863846957684  0.116726353765  0.0308473967016  
5.33696222305  0.343317687511  -0.763206601143  0.0281229820102  0.87281113863  0.125426903367  0.0143810706213  
5.34509420395  0.365943908691  -0.755562245846  0.0125658595935  0.878851175308  0.142588317394  0.0179044324905  
5.35321807861  0.390078544617  -0.725278913975  -0.00144449865911  0.88259023428  0.153925389051  0.0117685096338  
5.36131310463  0.419722706079  -0.704723596573  -0.032405346632  0.884867250919  0.155842870474  0.00601608119905  
5.36937618256  0.444189727306  -0.681573271751  -0.0476173199713  0.881104230881  0.173243954778  0.0161787047982  
5.37746810913  0.47190362215  -0.651967406273  -0.0628293007612  0.878995001316  0.183047056198  -0.00179763382766  
5.38552999496  0.496153324842  -0.6216968894  -0.0783352851868  0.872859060764  0.198914170265  -0.0101626226678  
5.39362812042  0.520428538322  -0.582324683666  -0.0928441882133  0.863511383533  0.21135379374  0.00357129913755  
5.40171909332  0.543872892857  -0.544627130032  -0.110676713288  0.848027765751  0.220078319311  -0.0323813781142  
5.40982413292  0.564977943897  -0.50554895401  -0.130158275366  0.83206474781  0.232541903853  -0.00366717297584  
5.4179110527  0.589534401894  -0.464847326279  -0.148220896721  0.814903378487  0.246731236577  -0.0328367762268  
5.42600107193  0.610537171364  -0.419914454222  -0.166321873665  0.794386386871  0.245964244008  -0.0326450318098  
5.4341301918  0.635617733002  -0.376515597105  -0.183451324701  0.773533821106  0.26803919673  -0.0311350170523  
5.44221711159  0.654664635658  -0.326955229044  -0.198982879519  0.742902159691  0.276140511036  -0.0604004971683  
5.45031619072  0.674862086773  -0.275554090738  -0.214220419526  0.714068114758  0.290665388107  -0.0581953972578  
5.45844721794  0.699495255947  -0.230812981725  -0.231068640947  0.681638777256  0.301451206207  -0.0646668821573  
5.4665350914  0.715870499611  -0.182888865471  -0.248364284635  0.64616549015  0.311134457588  -0.0772742852569  
5.47463512421  0.735735535622  -0.133980438113  -0.262655854225  0.614503145218  0.313914805651  -0.0886113643646  
5.482858181  0.751599490643  -0.0854682996869  -0.279913157225  0.575913906097  0.334216088057  -0.0993252620101  
5.49092721939  0.768166482449  -0.0348469316959  -0.291430801153  0.535982489586  0.348669052124  -0.114041887224  
5.49898719788  0.781128585339  0.0257836617529  -0.307652622461  0.503768920898  0.357992768288  -0.125019446015  
5.50707507133  0.7958548069  0.0631744414568  -0.323848903179  0.464460641146  0.363529503345  -0.147334069014  
5.51514315605  0.805097043514  0.105998076499  -0.338945835829  0.425176352262  0.369976997375  -0.160444810987  
5.52328109741  0.820334613323  0.152388215065  -0.352023035288  0.379660248756  0.381577730179  -0.166412949562  
5.53138399124  0.82226485014  0.198688864708  -0.361418664455  0.338889926672  0.395599275827  -0.179403856397  
5.53948307037  0.827889442444  0.239403277636  -0.375953137875  0.309504598379  0.402238547802  -0.191172361374  
5.54758501053  0.831136345863  0.278404742479  -0.389490514994  0.260656893253  0.417794078588  -0.205960899591  
5.55578708649  0.838576197624  0.311896651983  -0.397978544235  0.220294028521  0.41820153594  -0.220150217414  
5.56385111809  0.842577338219  0.350501835346  -0.407744884491  0.186666294932  0.425487935543  -0.23268571496  
5.57191109657  0.845095574856  0.384581774473  -0.413778543472  0.15028218925  0.429466694593  -0.242680564523  
5.57998013496  0.844085752964  0.414801210165  -0.423864454031  0.105748802423  0.433685153723  -0.255575597286  
5.58808898926  0.838831841946  0.440584868193  -0.430460572243  0.0732955187559  0.432007342577  -0.267775535583  
5.59621214867  0.838243842125  0.467621266842  -0.442310601473  0.0191507916898  0.440324395895  -0.274846225977  
5.60425901413  0.837834775448  0.491628080606  -0.448625475168  0.012439626269  0.438287079334  -0.287357747555  
5.61238217354  0.836351931095  0.51397305727  -0.453150719404  -0.0215955749154  0.439773142338  -0.300037056208  
5.62044215202  0.831136345863  0.535551071167  -0.459261059761  -0.0744939446449  0.440060764551  -0.310727000237  
5.62853622437  0.828694760799  0.551657855511  -0.466675311327  -0.0745179131627  0.438526779413  -0.314609885216  
5.63659906387  0.825601279736  0.567330002785  -0.480493932962  -0.0925421863794  0.435051351786  -0.334719419479  
5.64466500282  0.818429887295  0.585648298264  -0.472593933344  -0.123964823782  0.441091388464  -0.343683630228  
5.65287613869  0.807653665543  0.598814964294  -0.483446836472  -0.135397776961  0.43229496479  -0.354349583387  
5.66097021103  0.804087162018  0.611291348934  -0.492714643478  -0.156873509288  0.431048631668  -0.36012595892  
5.66905808449  0.794538140297  0.622642815113  -0.49658793211  -0.179331943393  0.427213668823  -0.370240658522  
5.67719507217  0.79207098484  0.635029733181  -0.496958643198  -0.195127159357  0.422108381987  -0.376640230417  
5.68527913094  0.781371474266  0.650574028492  -0.50203359127  -0.20284499228  0.412904500961  -0.38253647089  
5.69334721565  0.77376550436  0.660672783852  -0.506379842758  -0.216578915715  0.410771310329  -0.382943928242  
5.70141005516  0.76172375679  0.668930709362  -0.503324687481  -0.2284912467  0.405809849501  -0.384406000376  
5.70955610275  0.752264201641  0.673264205456  -0.52067142725  -0.233836203814  0.401207894087  -0.387138426304  
5.71775007248  0.743916809559  0.680320501328  -0.511186301708  -0.245101377368  0.392531305552  -0.383782833815  
5.72580814362  0.733613550663  0.69185090065  -0.52067142725  -0.24443025887  0.387569844723  -0.393394172192  
5.7339091301  0.717008173466  0.700914204121  -0.525350093842  -0.244598045945  0.375897198915  -0.39471244812  
5.74200201035  0.706257581711  0.707369685173  -0.526244878769  -0.245101377368  0.369545578957  -0.392603218555  
5.75014019012  0.680550575256  0.705375492573  -0.527305901051  -0.254281282425  0.366261899471  -0.389415413141  
5.75820207596  0.660097539425  0.708034396172  -0.520914316177  -0.259122908115  0.35451734066  -0.387833505869  
5.76626515388  0.633406221867  0.704033255577  -0.514126479626  -0.261136263609  0.342173606157  -0.381290107965  
5.77438616753  0.616724193096  0.704723596573  -0.515685975552  -0.256030976772  0.333856552839  -0.373356550932  
5.7824780941  0.590774357319  0.694765508175  -0.508041679859  -0.255120187998  0.328199982643  -0.364008873701  
5.79054021835  0.569937765598  0.679732441902  -0.501100420952  -0.255743384361  0.317845612764  -0.352384150028  
5.79868912697  0.557090699673  0.679118871689  -0.503669798374  -0.257708787918  0.314609885216  -0.348573178053  
5.8067471981  0.534451723099  0.679029405117  -0.495360761881  -0.260656893253  0.3005643785  -0.346368074417  
5.81480813026  0.514829516411  0.670183420181  -0.492625147104  -0.257157504559  0.297256737947  -0.340831369162  
5.82287406921  0.485440999269  0.659138798714  -0.48090299964  -0.255743384361  0.283450901508  -0.321321040392  
5.83096814156  0.460309296846  0.642661273479  -0.472593933344  -0.257229417562  0.266049802303  -0.313627183437  
5.8390622139  0.449405252934  0.640986680984  -0.469321429729  -0.269405394793  0.267967283726  -0.306172996759  
5.84715008736  0.428824335337  0.631680548191  -0.466675311327  -0.275277644396  0.258931159973  -0.296513706446  
5.85527610779  0.403718173504  0.622642815113  -0.46507743001  -0.274630516768  0.247857749462  -0.282084703445  
5.86333322525  0.381961226463  0.616532444954  -0.458442956209  -0.28074246645  0.238270372152  -0.269405394793  
5.87144112587  0.363336145878  0.603135704994  -0.451629519463  -0.283666610718  0.223002463579  -0.25337049365  
5.87952804565  0.343062013388  0.594673216343  -0.446286141872  -0.288292527199  0.218712106347  -0.239540696144  
5.88759899139  0.322839051485  0.58422935009  -0.437925964594  -0.289371103048  0.203731834888  -0.233764305711  
5.89573502541  0.30377933383  0.576738417149  -0.430256068707  -0.291264623404  0.201167210937  -0.218448460102  
5.90382409096  0.286943882704  0.570001721382  -0.425769150257  -0.289946347475  0.188008531928  -0.207255199552  
5.91191506386  0.265468150377  0.561884403229  -0.417984217405  -0.291144758463  0.183622300625  -0.191891416907  
5.91997408867  0.243851810694  0.555633425713  -0.408038884401  -0.297017037868  0.174753978848  -0.179955124855  
5.92807006836  0.221046641469  0.548883914948  -0.406274825335  -0.289946347475  0.153014585376  -0.164926916361  
5.93618416786  0.201130449772  0.538606226444  -0.401199907064  -0.297017037868  0.146471202374  -0.151121079922  
5.94432711601  0.181508287787  0.530527293682  -0.391433566809  -0.289011567831  0.12959741056  -0.129453599453  
5.95244503021  0.16537591815  0.52445524931  -0.378177404404  -0.289466977119  0.127919629216  -0.110374718904  
5.96055912971  0.146674126387  0.516555249691  -0.369382590055  -0.286327123642  0.116846196353  -0.0984144583344  
5.9686601162  0.131653904915  0.510559976101  -0.356918990612  -0.288196653128  0.111525200307  -0.0808695554733  
5.97677302361  0.11644192785  0.505574524403  -0.349632591009  -0.287261873484  0.0960895195603  -0.0618386045098  
5.98485612869  0.0975100472569  0.495578080416  -0.336874961853  -0.293805271387  0.0835779905319  -0.0428076535463  
5.99290108681  0.0828221812844  0.488713502884  -0.326047629118  -0.303919941187  0.0784966796637  -0.0195822250098  
6.00099110603  0.0674184560776  0.485517710447  -0.315590977669  -0.305358052254  0.0657214894891  -0.0173291899264  
6.00905919075  0.0508258976042  0.480353325605  -0.303766548634  -0.310870796442  0.0605203397572  -0.00867657922208  
6.01716899872  0.0379021093249  0.473245859146  -0.289526104927  -0.31348335743  0.0492072291672  0.0323813781142  
6.02530622482  0.0221276730299  0.470177918673  -0.27010846138  -0.319451510906  0.0362642668188  0.0493031032383  
6.03340601921  0.0125658595935  0.46507743001  -0.25126606226  -0.318996101618  0.0282588042319  0.0436705164611  
6.04149103165  0.00331084197387  0.462789237499  -0.234635144472  -0.331124156713  0.0183598324656  0.0636602044106  
6.04961109161  -0.0222171563655  0.459261059761  -0.217774137855  -0.336469113827  0.0156274307519  0.0684538930655  
6.05774521828  -0.029490781948  0.459708482027  -0.198688864708  -0.352384150028  0.00762196723372  0.0833622738719  
6.06578922272  -0.0407527573407  0.457254111767  -0.177519932389  -0.359454870224  0.00390685768798  0.0896899402142  
6.07389712334  -0.045239649713  0.459491163492  -0.153756007552  -0.369353830814  -0.0215716063976  0.102920524776  
6.08198618889  -0.0531268678606  0.46218842268  -0.130081579089  -0.384837448597  -0.00925182178617  0.106180235744  
6.09007501602  -0.0627909451723  0.467621266842  -0.106828980148  -0.399170577526  -0.0439821071923  0.119770348072  
6.09816217422  -0.0710872262716  0.47277289629  -0.0832568109035  -0.412592917681  -0.0182639602572  0.126721203327  
6.10625720024  -0.0812114998698  0.478704273701  -0.0597229860723  -0.427165716887  -0.0394280999899  0.136740013957  
6.11433720589  -0.0878076180816  0.489212036133  -0.0341822057962  -0.452764034271  -0.040914144367  0.139903843403  
6.12242507935  -0.0968197584152  0.487320154905  -0.0125658595935  -0.463861435652  -0.0425919368863  0.145392626524  
6.13051104546  -0.103390306234  0.500180006027  0.012808740139  -0.488644808531  -0.0523950345814  0.155507311225  
6.1385910511  -0.105780757964  0.503439724445  0.0357673205435  -0.504607796669  -0.0546001307666  0.14812502265  
6.14668703079  -0.109794676304  0.523726642132  0.0570896528661  -0.533681511879  -0.0585549250245  0.155363500118  
6.1548230648  -0.10997363925  0.543872892857  0.0743213742971  -0.570856571198  -0.0669918209314  0.156801611185  
6.16290521622  -0.114959076047  0.566997647285  0.0954263880849  -0.600937008858  -0.0677588135004  0.156801611185  
6.17098903656  -0.117042735219  0.588307201862  0.117183350027  -0.632095992565  -0.0676150023937  0.1513607651  
6.17910313606  -0.116710372269  0.613093793392  0.140755519271  -0.66294336319  -0.0781850889325  0.15814383328  
6.1872010231  -0.115470409393  0.635080814362  0.162435784936  -0.701916098595  -0.084704503417  0.149754881859  
6.19530200958  -0.115789987147  0.654562413692  0.185432717204  -0.739858150482  -0.0805100277066  0.139760032296  
6.20345211029  -0.112773157656  0.679118871689  0.208429649472  -0.777392745018  -0.0913197994232  0.136020958424  
6.21151614189  -0.110676713288  0.700313389301  0.231337085366  -0.820727705956  -0.0888750180602  0.132281884551  
6.21956515312  -0.110357135534  0.727541565895  0.25471752882  -0.856272876263  -0.0920867845416  0.120633214712  
6.22768712044  -0.10735309124  0.747815668583  0.273930639029  -0.901405513287  -0.0969284176826  0.121424168348  
6.23577713966  -0.105563446879  0.772589445114  0.287327378988  -0.944740474224  -0.0972879379988  0.103735454381  
6.24386501312  -0.102815061808  0.790843784809  0.303319126368  -0.988315105438  -0.100260026753  0.1030883044  
6.25195717812  -0.10105098784  0.814198672771  0.314708948135  -1.02580177784  -0.0981268361211  0.0894981920719  
6.26004815102  -0.0980725064874  0.836351931095  0.329179495573  -1.06983184814  -0.107330724597  0.0812770202756  
6.2681350708  -0.0937262251973  0.859476685524  0.336580961943  -1.10739040375  -0.100283995271  0.0702755004168  
6.27624106407  -0.088370077312  0.874100625515  0.342908620834  -1.15372133255  -0.109607726336  0.0608798637986  
6.2843542099  -0.0832951590419  0.888698995113  0.34379068017  -1.17819321156  -0.103567674756  0.048392303288  
6.29244804382  -0.0787827000022  0.903412461281  0.34770232439  -1.21275568008  -0.108289457858  0.0396677851677  
6.30054712296  -0.075356811285  0.917013764381  0.348085820675  -1.25009846687  -0.0970722287893  0.0230097118765  
6.30861902237  -0.0703074559569  0.924913764  0.343330472708  -1.277302742  -0.107043102384  0.0218112897128  
6.31680822372  -0.064810693264  0.927419245243  0.333602488041  -1.30803024769  -0.0931413993239  0.0161787047982  
6.32482719421  -0.0591221787035  0.930781185627  0.326047629118  -1.32346594334  -0.0999005064368  0.00539290159941  
6.3329410553  -0.0524621456861  0.931829452515  0.32016736269  -1.33559393883  -0.0886593014002  -0.0186953917146  
6.34103822708  -0.0470420792699  0.930998504162  0.307524800301  -1.35337853432  -0.0904329642653  -0.0245197247714  
6.34914803505  -0.0405226610601  0.923814356327  0.290881127119  -1.3600897789  -0.0891866087914  -0.0351377502084  
6.3572640419  -0.0365215279162  0.918087542057  0.272869616747  -1.35505640507  -0.0794314444065  -0.0359047390521  
6.36534714699  -0.0311398115009  0.912961483002  0.254512995481  -1.35925090313  -0.0772503167391  -0.0510288327932  
6.37345314026  -0.0274710394442  0.898823261261  0.232807159424  -1.35606300831  -0.0729839354753  -0.0523950345814  
6.38157510757  -0.0216802619398  0.885873913765  0.210602790117  -1.33518648148  -0.0666083246469  -0.0556547418237  
6.3896420002  -0.0198522675782  0.866328477859  0.186698243022  -1.31788134575  -0.0668480098248  -0.0609757378697  
6.39784121513  -0.0150841446593  0.854542374611  0.158626407385  -1.30453085899  -0.0574763454497  -0.0700597837567  
6.40591907501  -0.0100859235972  0.839637160301  0.130580112338  -1.27603232861  -0.0479369014502  -0.0710424855351  
6.41401100159  -0.00976634491235  0.82226485014  0.0981619879603  -1.2489720583  -0.0458516478539  -0.0764114186168  
6.42218017578  0.000766990415286  0.781128585339  0.0371351204813  -1.18214797974  -0.0429994016886  -0.0825233757496  
6.43021011353  0.000766990415286  0.76264411211  0.00685178115964  -1.14255213737  -0.0324772521853  -0.0923983752728  
6.43831110001  0.00236488715746  0.74314981699  -0.0313059911132  -1.09926509857  -0.0304878689349  -0.0897139087319  
6.44641709328  0.00942119862884  0.723399817944  -0.0684794634581  -1.05374896526  -0.0203012786806  -0.090576775372  
6.45453810692  0.0165925584733  0.701003670692  -0.101805195212  -1.00037121773  -0.0250949673355  -0.0956341177225  
6.46261811256  0.012936571613  0.687376797199  -0.136012971401  -0.952026844025  -0.0155315557495  -0.0943877622485  
6.47071909904  0.0202868971974  0.669672131538  -0.16905747354  -0.905192494392  -0.0158191770315  -0.0958498343825  
6.47876811028  0.018037058413  0.656070828438  -0.203469768167  -0.857159733772  -0.0117685096338  -0.0899535939097  
6.48683714867  0.0220893230289  0.64611274004  -0.240119129419  -0.801193416119  -0.00479369005188  -0.0871013477445  
6.49491906166  0.0239940173924  0.631987333298  -0.277036935091  -0.748846292496  -0.00385892065242  -0.080246374011  
6.50301718712  0.0256813950837  0.617593467236  -0.310963481665  -0.694485843182  0.00167779158801  -0.0693167597055  
6.51110601425  0.0288516227156  0.604388415813  -0.342371731997  -0.642018914223  0.015771239996  -0.0655297413468  
6.51921701431  0.0303983874619  0.593433260918  -0.369088560343  -0.594872951508  0.00812530517578  -0.0574044398963  
6.5273501873  0.032418128103  0.587348461151  -0.403232425451  -0.543628454208  0.0354014001787  -0.0361923612654  
6.53541707993  0.0367004908621  0.57515335083  -0.431380987167  -0.497321397066  0.0107858031988  -0.0222666915506  
6.54354906082  0.0401647314429  0.565259158611  -0.454978704453  -0.4476108253  0.0371990352869  -0.0193904768676  
6.55161499977  0.0448050238192  0.550136625767  -0.478947162628  -0.403341084719  0.0117685096338  -0.00757403066382  
6.55973100662  0.046108905226  0.538171589375  -0.501100420952  -0.362283140421  0.0431911498308  0.00901213753968  
6.56779122353  0.0496114976704  0.530028700829  -0.520914316177  -0.316575288773  0.0136620169505  0.0364080779254  
6.57589006424  0.052820071578  0.521949768066  -0.536969959736  -0.277338951826  0.0343228206038  0.0416092313826  
6.58398103714  0.055939167738  0.510943472385  -0.549689233303  -0.243255808949  0.0431432127953  0.0426878109574  
6.5921061039  0.0606945082545  0.500921428204  -0.562165617943  -0.213942393661  0.0355212427676  0.0634444877505  
6.60021710396  0.0625352859497  0.485019177198  -0.573951721191  -0.182184189558  0.0412497036159  0.076171733439  
6.60833406448  0.0671116635203  0.472389400005  -0.583130002022  -0.149323448539  0.0384453944862  0.0796471610665  
6.61639809608  0.0688246041536  0.451782912016  -0.583130002022  -0.116103172302  0.0378701537848  0.0988938286901  
6.62449407578  0.0715985521674  0.434423357248  -0.584037601948  -0.0910801142454  0.0413935147226  0.106995165348  
6.63255906105  0.0749988779426  0.412321269512  -0.582861602306  -0.0614071711898  0.0451565608382  0.124060697854  
6.64071416855  0.0764178112149  0.392328381538  -0.573376476765  -0.0234890822321  0.0476732477546  0.13077186048  
6.64881300926  0.0800482332706  0.372309923172  -0.568659484386  -0.0143810706213  0.0457078367472  0.147885337472  
6.65686106682  0.0806106925011  0.352023035288  -0.559110462666  0.017592843622  0.0441498868167  0.152415379882  
6.66493010521  0.0798564851284  0.323759436607  -0.541009485722  0.00680703995749  0.0454441830516  0.158862888813  
6.67303514481  0.0799843147397  0.302590489388  -0.526564478874  0.0510048642755  0.0472418181598  0.167036131024  
6.68113303185  0.0791534110904  0.274761527777  -0.505037605762  0.0554869621992  0.0419208221138  0.171901732683  
6.68919301033  0.0781307592988  0.250895351171  -0.482296347618  0.0694126337767  0.0391884185374  0.177438437939  
6.6973361969  0.0778878778219  0.224255219102  -0.45740750432  0.0769147574902  0.0372709408402  0.176120176911  
6.70547199249  0.0755996853113  0.196784168482  -0.428632587194  0.0889229550958  0.0366717278957  0.179955124855  
6.71368217468  0.0706909522414  0.168354392052  -0.396444559097  0.0989657342434  0.0374147519469  0.179787352681  
6.72179508209  0.0674440264702  0.143299371004  -0.365624338388  0.11042265594  0.0373907834291  0.181249424815  
6.72994709015  0.0640053525567  0.115789987147  -0.32985702157  0.115839526057  0.0322135984898  0.182184189558  
6.73800516129  0.0607072897255  0.0836275219917  -0.295904904604  0.119842253625  0.0259818006307  0.177797973156  
6.74610805511  0.0581506565213  0.05211699754  -0.258897602558  0.12346149236  0.0271322857589  0.169265195727  
6.75417017937  0.0529479049146  0.0215524304658  -0.221123337746  0.12636166811  0.0206608045846  0.167803123593  
6.76226615906  0.0509792976081  0.0066344672814  -0.180076569319  0.120944805443  0.0243759136647  0.1657897681  
6.77038311958  0.0436928868294  -0.0296186134219  -0.145536437631  0.130556151271  0.0114089827985  0.164159923792  
6.77847409248  0.0407271906734  -0.056655023247  -0.108350180089  0.123317681253  0.0242560729384  0.153733640909  
6.78655910492  0.0375697463751  -0.0789744481444  -0.071828648448  0.122430846095  0.00925182178617  0.14402641356  
6.79462099075  0.030935280025  -0.102469921112  -0.0326098762453  0.121999412775  0.0155315557495  0.140934497118  
6.80282616615  0.0273943413049  -0.126936912537  -0.00596974184737  0.117733031511  0.0117685096338  0.128902330995  
6.81090116501  0.020427512005  -0.149563133717  0.0428875461221  0.114641100168  -0.00218112906441  0.118811607361  
6.81895899773  0.0159917492419  -0.167945340276  0.0787059962749  0.106395952404  -0.00584830204025  0.108840733767  
6.82701802254  0.0127831734717  -0.184691295028  0.107647106051  0.106611669064  0.00412257341668  0.0969284176826  
6.83514404297  0.00782330241054  -0.202920094132  0.139605045319  0.0943877622485  -0.0215955749154  0.0837697386742  
6.84323811531  0.00433349562809  -0.221915885806  0.1705147475  0.0891866087914  -0.010474213399  0.079599224031  
6.85132408142  -0.00327249243855  -0.239556670189  0.197269931436  0.0794314444065  -0.039739690721  0.0588665157557  
6.8594121933  -0.006787864957  -0.248159751296  0.221967026591  0.0639717951417  -0.00846086349338  0.0428316220641  
6.86751508713  -0.0111724939197  -0.260751187801  0.243276581168  0.0567333213985  -0.0285703931004  0.0317581966519  
6.8756070137  -0.018164889887  -0.269878357649  0.268127053976  0.0520355068147  -0.0104981809855  0.022698123008  
6.88370609283  -0.0192258935422  -0.270351350307  0.28855457902  0.0340112298727  -0.0285943616182  0.0110734244809  
6.89182519913  -0.0231758933514  -0.282226890326  0.308163970709  0.0275397505611  -0.0117685096338  0.00807736814022  
6.89993309975  -0.0239301007241  -0.280935794115  0.322519481182  0.0189590454102  -0.042735747993  -0.0286902356893  
6.90802121162  -0.0273048579693  -0.279158949852  0.33566057682  0.0107858031988  -0.0117685096338  -0.026748791337  
6.91612315178  -0.0301810726523  -0.280565083027  0.343637257814  0.00462591089308  -0.0458276793361  -0.0313747003675  
6.92423605919  -0.0318940170109  -0.273841142654  0.353851020336  -0.0200136564672  -0.0117685096338  -0.0528024956584  
6.93228602409  -0.0343739539385  -0.267666876316  0.361597627401  -0.0188392028213  -0.0458276793361  -0.041896853596  
6.94053411484  -0.0375825315714  -0.267206668854  0.362581938505  -0.0385892055929  -0.0224344693124  -0.0528744012117  
6.94858121872  -0.0404459610581  -0.256315410137  0.36269697547  -0.0305118374527  -0.0351377502084  -0.0673992857337  
6.95665717125  -0.0404715277255  -0.2474822402  0.362057834864  -0.0442936979234  -0.0358088649809  -0.0717375725508  
6.96472001076  -0.0425424017012  -0.242420107126  0.356918990612  -0.0503337457776  -0.0309432707727  -0.0729359984398  
6.97281002998  -0.0433477424085  -0.224344700575  0.351102650166  -0.0523710660636  -0.0320697873831  -0.0881799310446  
6.98089504242  -0.0439996831119  -0.213325604796  0.339815109968  -0.0570928491652  -0.0279472135007  -0.0897858142853  
6.98899817467  -0.0451885201037  -0.201923012733  0.329179495573  -0.0637800469995  -0.0311589855701  -0.0949869677424  
6.99708604813  -0.0442936979234  -0.186532065272  0.320653110743  -0.0736790150404  -0.0299365948886  -0.100739397109  
7.00515413284  -0.0449456386268  -0.171729147434  0.31001752615  -0.0728161558509  -0.0281868986785  -0.10351973772  
7.01321315765  -0.0433733090758  -0.150930926204  0.296326756477  -0.0776338130236  -0.0326929651201  -0.108936607838  
7.02131319046  -0.0439613349736  -0.138390630484  0.278289675713  -0.0856632441282  -0.0222427230328  -0.107091039419  
7.02937602997  -0.0426702313125  -0.121184483171  0.259178847075  -0.0862145200372  -0.0276835598052  -0.113682359457  
7.03751206398  -0.0418009757996  -0.106547750533  0.242956995964  -0.0910801142454  -0.0162985473871  -0.108529143035  
7.04561114311  -0.0400624647737  -0.0870661959052  0.224152952433  -0.0917032957077  -0.0271802227944  -0.110830113292  
7.05377221107  -0.039205994457  -0.0686328560114  0.204735308886  -0.0945315733552  -0.0142132909968  -0.113802202046  
7.06182003021  -0.035383824259  -0.0517335049808  0.1804728508  -0.0965449213982  -0.0259098950773  -0.113274894655  
7.06988215446  -0.0341182909906  -0.0336069613695  0.156926244497  -0.0936207696795  -0.010953581892  -0.108888670802  
7.07800722122  -0.032430909574  -0.0181137565523  0.133622512221  -0.0990855768323  -0.0264132320881  -0.105245471001  
7.0860722065  -0.0292734671384  -0.00752928899601  0.113936424255  -0.0936207696795  -0.00762196723372  -0.103687517345  
7.09415411949  -0.0267807487398  0.0277906190604  0.0703202411532  -0.0914156734943  -0.0086526107043  -0.0951068103313  
7.10219621658  -0.0222938545048  0.0400496833026  0.049138519913  -0.0938604548573  -0.00647148163989  -0.0928777456284  
7.11026310921  -0.022651784122  0.0499949902296  0.0285192597657  -0.0906486809254  -0.00359526765533  -0.0835779905319  
7.11832809448  -0.0205042101443  0.0622412711382  0.00752928899601  -0.0825713127851  -0.00246875034645  -0.0808695554733  
7.12641716003  -0.0168993547559  0.0715985521674  -0.0156593881547  -0.0860227718949  -0.00189350766595  -0.0740385428071  
7.13450717926  -0.0158767011017  0.0800737962127  -0.0395127907395  -0.0749972835183  0.00160588615108  -0.0627973377705  
7.14261317253  -0.0134606817737  0.0916425734758  -0.0532163530588  -0.0710185170174  0.00956341158599  -0.0560861751437  
7.15076518059  -0.0103671541438  0.102367654443  -0.0717263892293  -0.0731996521354  0.0049375006929  -0.0499981865287  
7.15883803368  -0.00938284955919  0.111162476242  -0.0869127959013  -0.0643073543906  0.00208525522612  -0.037510626018  
7.16694307327  -0.00710744457319  0.116045646369  -0.102393217385  -0.0565176084638  0.0235130507499  -0.0356650538743  
7.17502307892  -0.00418009795249  0.12430357933  -0.11488237977  -0.0502378717065  0.00994690693915  -0.0267967283726  
7.18312311172  -0.00305517856032  0.132766038179  -0.127499371767  -0.0409620814025  0.0267967283726  -0.024783378467  
7.19120407104  -0.00472977431491  0.137189015746  -0.140078008175  -0.0328847132623  0.0143810706213  -0.0153158400208  
7.19926810265  -0.00502378726378  0.142570734024  -0.1502789855  -0.0248313155025  0.0380379296839  -0.00762196723372  
7.20736908913  -0.00556068029255  0.146942585707  -0.158626407385  -0.0227939970791  0.0161787047982  -0.00390685768798  
7.21546316147  -0.0123868947849  0.146418467164  -0.167600184679  -0.0180003065616  0.0379660278559  0.0213319212198  
7.22353816032  -0.0141126234084  0.145280763507  -0.173621058464  -0.0125594679266  0.0129429632798  0.0130148688331  
7.23165512085  -0.0141893224791  0.14381070435  -0.179130613804  -0.00836498942226  0.0374147519469  0.0418249480426  
7.2397851944  -0.0240195821971  0.141190156341  -0.180076569319  -0.00807736814022  0.0117685096338  0.0183358639479  
7.24788498878  -0.0241474155337  0.136652126908  -0.17937348783  0.00117445411161  0.0213319212198  0.0449887812138  
7.25594615936  -0.0312420763075  0.131078660488  -0.175768628716  0.0117685096338  0.0117685096338  0.033244241029  
