Ethan-CYM/ros_catkin_ws/test/伺服_gain100_looktime003/ur_joint_target_current.txt
time  shoulder_pan_joint  shoulder_lift_joint  elbow_joint  wrist_1_joint  wrist_2_joint  wrist_3_joint
0.163080215454  -4.98006436886e-05  -2.16628581507  -1.01607570409  -0.123557252545  0.0589742877885  -0.00955335538545  
0.171162128448  3.55091529629e-05  -2.16714476362  -1.01638674822  -0.14513131094  0.054574611468  -0.054948237685  
0.179347038269  3.14570895089e-05  -2.16713210502  -1.01638231715  -0.162895945579  0.0499356093123  -0.162251305051  
0.187402009964  -6.018275333e-05  -2.16626630506  -1.0160692947  -0.157816091472  0.0450908386792  -0.219259821827  
0.196015119553  -6.1957840412e-05  -2.16626807703  -1.0160700045  -0.156265798147  0.0400760494969  -0.246107978008  
0.203591108322  -6.32064259033e-05  -2.1662711769  -1.01607122022  -0.154786907114  0.0349271607242  -0.26837995646  
0.211739063263  -6.40245604836e-05  -2.16627466684  -1.01607260153  -0.153383536884  0.0296800869091  -0.288386217708  
0.220003128052  -6.44172934556e-05  -2.16627851548  -1.01607413577  -0.152062799359  0.0243704943278  -0.311413520606  
0.227999210358  -6.43922525245e-05  -2.16628268994  -1.01607580959  -0.150831114012  0.0190335797023  -0.320815166371  
0.236105203629  -6.39595340532e-05  -2.16628715603  -1.01607760909  -0.149694183348  0.013703857668  -0.324030168779  
0.244166135788  -6.31315802377e-05  -2.16629187851  -1.01607951989  -0.148656973496  0.00841495810425  -0.329072807876  
0.252343177795  -0.000247550183535  -2.16544956124  -1.01577534187  -0.125302438445  -0.00704024827599  -0.352836059286  
0.260469198227  -0.000153173507929  -2.16632736456  -1.01609332278  -0.128540440981  -0.0199927398757  -0.362958419089  
0.268716096878  -0.000343637420108  -2.16633857647  -1.01609794318  -0.128523725364  -0.052546005948  -0.372429163924  
0.276846170425  -3.6571953115e-05  -2.16634883611  -1.01610219065  -0.128710942134  -0.0507927127628  -0.372833040258  
0.284857034683  -3.07356960126e-05  -2.16635871819  -1.01610631504  -0.12909954722  -0.0534911532032  -0.380400874923  
0.292943000793  -2.51519915888e-05  -2.16636827355  -1.01611031358  -0.129682307192  -0.0557912224155  -0.378879632028  
0.300943136215  -1.95417471797e-05  -2.16637744944  -1.01611416391  -0.130450896661  -0.0576827458204  -0.381715220311  
0.309031009674  0.000171650955152  -2.16723329487  -1.01642402814  -0.153811227551  -0.0491432279221  -0.380886753822  
0.317154169083  -1.37853630155e-05  -2.16636901865  -1.01611162119  -0.150858524557  -0.052093191885  -0.376216092595  
0.325355052948  -9.51672621388e-06  -2.16637078236  -1.01611243073  -0.151425407799  -0.0530657451062  -0.373164815195  
0.333400011063  -9.24781296901e-05  -2.16552598309  -1.01580722768  -0.129626062368  -0.0536768611469  -0.368785237664  
0.341554164886  -9.64232524117e-05  -2.16640086429  -1.01612413823  -0.134352791109  -0.0639538550799  -0.356475101714  
0.349649190903  9.47241084228e-06  -2.16640882347  -1.0161274629  -0.135752467487  -0.0619813914404  -0.349026345122  
0.357809066772  0.000123729902766  -2.16556804278  -1.01582394295  -0.114846521742  -0.0412017699452  -0.341277467285  
0.366019010544  3.11986968729e-05  -2.16561054687  -1.0158408703  -0.100552565378  -0.0329890863154  -0.319734245657  
0.373970031738  3.11986968729e-05  -2.16561054687  -1.0158408703  -0.100552565378  -0.0329890863154  -0.319734245657  
0.3820271492  0.000220943870626  -2.16650694423  -1.01616699915  -0.110729778645  -0.00458374828364  -0.297597586529  
0.389978170395  0.000220943870626  -2.16650694423  -1.01616699915  -0.110729778645  -0.00458374828364  -0.297597586529  
0.398236036301  0.000308736408097  -2.166529739  -1.01617685588  -0.118378463251  0.0499613107111  -0.275368989946  
0.406159162521  0.000397728282219  -2.1665390354  -1.0161809188  -0.122483896517  0.085886365227  -0.258842881054  
0.414303064346  0.000383966880561  -2.16654688535  -1.01618438559  -0.126736394227  0.11887257258  -0.247510956892  
0.422594070435  0.000280653971613  -2.16570599828  -1.01588084566  -0.108670276148  0.150353145152  -0.230637292589  
0.430553197861  0.000265283473609  -2.16573636643  -1.01589279105  -0.0947473656548  0.180161788961  -0.216367463307  
0.438760042191  4.13591735751e-05  -2.16661841212  -1.0162130281  -0.104030461814  0.176445286852  -0.204994862376  
0.446762084961  -6.864022036e-05  -2.16663105455  -1.01621855343  -0.110065835628  0.165866935192  -0.191183261592  
0.454925060272  -7.72486886805e-05  -2.16664072039  -1.01622289137  -0.116276868244  0.156071387579  -0.177636056447  
0.462925195694  -8.50595671961e-05  -2.16664827615  -1.01622635775  -0.122623409887  0.145521780488  -0.16165509029  
0.471118211746  -4.83082518207e-06  -2.16750086293  -1.0165353693  -0.15147971124  0.134302133816  -0.151542717077  
0.479146003723  -0.000101017993283  -2.16663163456  -1.0162209509  -0.153898678163  0.122500225373  -0.139343620827  
0.48722910881  -0.00011805485619  -2.1674739916  -1.01652572116  -0.182045985256  0.0996630330721  -0.124950608292  
0.495365142822  -0.00011203072348  -2.16659598469  -1.01620759005  -0.183635967267  0.0888649048793  -0.116637398216  
0.503528118134  -0.000214561826644  -2.16658279357  -1.01620240667  -0.188430529706  0.0656560368334  -0.106433643586  
0.511671066284  -0.000116943013235  -2.16656944956  -1.01619706109  -0.192942553832  0.0546998739427  -0.094216367705  
0.519863128662  -0.000118930238129  -2.16655492352  -1.01619122481  -0.19714638832  0.0420862433156  -0.0854471094349  
0.528017997742  -0.000229346172832  -2.16738636435  -1.01649126293  -0.223401708496  0.00847544749418  -0.0775525099483  
0.535992145538  -3.01870747677e-05  -2.16734468788  -1.01647486159  -0.245267982419  -0.000187984757221  0.270780170024  
0.543980121613  -0.000119069414503  -2.16644900828  -1.01614934663  -0.243683443313  -0.011245182732  0.294541545193  
0.552043199539  -0.000216275934291  -2.16642043914  -1.01613759708  -0.24500032102  -0.0318819813601  0.299630030528  
0.560157060623  -0.000211578303315  -2.16639304069  -1.01612624081  -0.245757231419  -0.0502575358146  0.303916540139  
0.568286180496  -0.000107317972385  -2.16636605917  -1.01611501678  -0.245959062796  -0.0578635499251  0.310159452038  
0.576352119446  -0.000113835543347  -2.16718651502  -1.0164101162  -0.268028809204  -0.0765258969297  0.310172445366  
0.584455013275  -9.78776745141e-05  -2.16628816451  -1.01608338731  -0.263095292213  -0.0826625727109  0.311962844737  
0.592541217804  -5.12468618894e-06  -2.16710414872  -1.0163765238  -0.283437967465  -0.0897069387132  0.312925519431  
0.600740194321  -1.26344131722e-05  -2.16789693166  -1.01666064798  -0.321596279039  -0.106048261979  0.313063539124  
0.608854055405  -8.57890229241e-05  -2.16611835305  -1.0160149029  -0.309545419335  -0.109721044267  0.312387918445  
0.616958141327  -8.01611026055e-05  -2.16607569594  -1.01599702221  -0.303610995976  -0.114187212485  0.310914860734  
0.625006198883  2.41431111313e-05  -2.16603756962  -1.01598088486  -0.296920825444  -0.107789967249  0.308665695167  
0.633077144623  2.76901758804e-05  -2.16600224319  -1.01596589098  -0.289528684965  -0.102439444541  0.305666764005  
0.641153097153  -6.73472675742e-05  -2.16596989656  -1.01595211195  -0.281498727113  -0.106599809045  0.301949259159  
0.649227142334  2.5885421621e-05  -2.16678772011  -1.01624543362  -0.295329067484  -0.108406128396  0.297549008227  
0.657335042953  1.87694108928e-05  -2.16758344827  -1.0165302525  -0.327048997199  -0.119514020179  0.29250621121  
0.66544508934  -5.44156563899e-05  -2.1658098749  -1.01588684339  -0.308663238258  -0.117986401438  0.286865130051  
0.673536062241  -4.88768162013e-05  -2.16577395165  -1.01587150372  -0.296554046045  -0.117322579182  0.280673734098  
0.681655168533  -4.30791512057e-05  -2.1657442745  -1.01585862966  -0.283885006028  -0.115931210514  0.273983305404  
0.689889192581  -3.71456830525e-05  -2.16571910473  -1.01584760036  -0.270743473624  -0.11383683125  0.266848008573  
0.697984218597  -3.11168980404e-05  -2.16569849453  -1.01583844062  -0.25722478638  -0.111069557772  0.259324430492  
0.70600104332  -2.50329644927e-05  -2.16568246601  -1.01583116296  -0.243424294863  -0.107663091098  0.248687876682  
0.7139980793  -1.89334916994e-05  -2.16567101177  -1.01582576784  -0.229436744873  -0.103654412131  0.240415357174  
0.722025156021  -1.2857296685e-05  -2.16566409567  -1.01582224403  -0.2153556819  -0.0990834629149  0.229178320216  
0.730138063431  -0.0315716250313  -2.27441115136  -1.16242198614  -0.225630296333  -0.0940977072782  0.220451086735  
0.738206148148  -0.137694486838  -2.78267120799  -1.33040995246  -0.23594086869  -0.0888439043773  0.206126562246  
0.746266126633  -0.203270794434  -3.07672907481  -1.52939666954  -0.245211349902  -0.0928660496314  0.197093388078  
0.754369020462  -0.263471376543  -3.274533742  -1.70493725456  -0.209599628087  -0.104655327542  0.188195030769  
0.762423992157  -0.285420125985  -3.48202925655  -1.74843052334  -0.136748904653  -0.113818019369  0.179484059744  
0.77053809166  -0.316278097681  -3.71180699554  -1.75622391206  0.0167740931993  -0.132182891546  0.165463155678  
0.778611183167  -0.342189885742  -3.96343565802  -1.76502653133  0.034655849693  -0.147701333004  0.157007065971  
0.786666154861  -0.375218616348  -4.07776714767  -1.77040737887  0.048966353429  -0.171401026509  0.148947913291  
0.794857025146  -0.399178193663  -4.2543876358  -1.77170181874  0.0655843754836  -0.169727804264  0.14132502993  
0.802932024002  -0.408120302284  -4.42242848788  -1.77206075448  0.0793894526925  -0.171384756218  0.13417870918  
0.810906171799  -0.398267637237  -4.56969944525  -1.80707117161  0.0937085230284  -0.173111566383  0.127544536849  
0.819000005722  -0.393365152788  -4.6304839597  -1.80721003089  0.107488339541  -0.173150196578  0.11868489698  
0.827082157135  -0.385730671057  -4.73966925906  -1.83871273895  0.126609277944  -0.171386312666  0.113029114465  
0.835097074509  -0.383020201244  -4.76348876031  -1.8358923179  0.137766058235  -0.169461694039  -0.0178692760176  
0.843285083771  -0.381061558235  -4.79146948667  -1.86052661523  0.155211520189  -0.169136283997  -0.255963244785  
0.851376056671  -0.39178284234  -4.78775762288  -1.8667843138  0.16560612926  -0.165407067945  -0.260061468788  
0.859462022781  -0.391703806765  -4.75250728117  -1.87894104645  0.183282915939  -0.163084349549  -0.263571036989  
0.867660045624  -0.393282789128  -4.69193529513  -1.88893090461  0.201343972557  -0.160669908526  -0.266480341888  
0.875857114792  -0.394828916539  -4.62182973625  -1.88941873298  0.211878509054  -0.127345528712  -0.268781434733  
0.883885145187  -0.39649401824  -4.55510747354  -1.89861639467  0.232290962622  -0.0645522677932  -0.270470097687  
0.892050027847  -0.401434015818  -4.43837643338  -1.89513441973  0.239170826435  0.00548099935845  -0.271545893502  
0.899993181229  -0.406357198016  -4.32678472469  -1.90055479987  0.25551743943  0.0863141715254  -0.272012189983  
0.908070087433  -0.410743225302  -4.22260382418  -1.90668377273  0.265101936083  0.163733585091  -0.271876156899  
0.91628909111  -0.419545176925  -4.07090160145  -1.92694234682  0.271430476552  0.192769520092  -0.271148733424  
0.924296140671  -0.413395868872  -3.94324403657  -1.93985085181  0.276267326213  0.193624238148  -0.269844564675  
0.9323990345  -0.422045936176  -3.79680740515  -1.9606128026  0.280815294057  0.194231451639  -0.26798190648  
0.940497159958  -0.428864408432  -3.67610584309  -1.98353852067  0.283755659352  0.192958624752  -0.268369248904  
0.948601007462  -0.43855884017  -3.52496493163  -2.01254564022  0.286809111447  0.193184082231  -0.26282555613  
0.956659078598  -0.447062815083  -3.38663403654  -2.03335170364  0.28539370742  0.191546075246  -0.262193859684  
0.96483206749  -0.416600648164  -3.24983068828  -2.07199349408  0.28304256011  0.18968430585  -0.255691750694  
0.973098993301  -0.373986146516  -3.14014168646  -2.10284942976  0.282785920525  0.191094832501  -0.251378722559  
0.981017112732  -0.331657754295  -3.01846409392  -2.14094025387  0.278785578683  0.189039182515  -0.246685537993  
0.989171028137  -0.28638763751  -2.92645238442  -2.18917727463  0.280095907317  0.186783428459  -0.241648040305  
0.997235059738  -0.241342864856  -2.82241243984  -2.23513455895  0.277849020678  0.187827600292  -0.236306601832  
1.00537204742  -0.195456305817  -2.72033847192  -2.27060961242  0.27177925517  0.19065158154  -0.23070304382  
1.01345014572  -0.151165004307  -2.60676873331  -2.31192512538  0.269047594293  0.191865943093  -0.224880291984  
1.02153301239  -0.104343974207  -2.52457944819  -2.34478993541  0.265109193604  0.193087318961  -0.21888202451  
1.02958321571  -0.0581065264221  -2.44597393196  -2.37546750201  0.260791099317  0.192570331643  -0.20996587869  
1.03784513474  -0.011102790638  -2.38464469494  -2.39585128441  0.255834142359  0.193686028098  -0.206382370321  
1.04572606087  0.0344243324673  -2.32639595298  -2.41330281784  0.254062246788  0.1948026777  -0.197362074175  
1.05398607254  0.0803556502404  -2.28745059179  -2.4210039829  0.24476774908  0.194173628555  -0.193757838471  
1.0620059967  0.125937838137  -2.28492074871  -2.47443372344  0.243876124784  0.195170760518  -0.187587517674  
1.07015919685  0.288178915247  -2.17103526742  -2.48855242304  0.236229520092  0.193756102565  -0.175678660118  
1.0782160759  0.396991945888  -2.14990120117  -2.50335605184  0.236246756117  0.19462398875  -0.169843934695  
1.08627605438  0.519666070038  -2.07726984394  -2.50152352851  0.22774699585  0.193851262195  -0.164205863574  
1.09436106682  0.528368569691  -2.0370553366  -2.50897432168  0.225030394809  0.192870994391  -0.158794621679  
1.10246109962  0.547768306002  -1.98872402475  -2.52136295657  0.22595411751  0.191892826239  -0.153640637364  
1.11051821709  0.567327536781  -1.94614587617  -2.52313854372  0.220023624297  0.189085458866  -0.148771681927  
1.1187710762  0.583881037172  -1.87974641787  -2.52874400865  0.218313023412  0.189574449982  -0.144212737752  
1.12686705589  0.613861084149  -1.83388389302  -2.52423274408  0.216214978458  0.188467191078  -0.139985896283  
1.13485503197  0.62716842085  -1.74915472276  -2.5139472236  0.212138654241  0.187192554501  -0.136110285561  
1.14297914505  0.650551370422  -1.65994387853  -2.51894594289  0.20809723683  0.185963567688  -0.132602026724  
1.15100216866  0.673837810253  -1.57523599752  -2.50369791222  0.204478241146  0.186427804243  0.114663973451  
1.15903806686  0.707111079599  -1.48350901433  -2.48458194169  0.204809020212  0.183574295973  0.232417667412  
1.16712713242  0.712642638931  -1.35426797165  -2.46243353894  0.199303836518  0.183856167159  0.234668224749  
1.17520809174  0.754812767997  -1.25196083449  -2.46727855491  0.199525025311  0.184521489008  0.236546488557  
1.18337512016  0.758642739651  -1.13569967231  -2.43380676471  0.194328437814  0.183221390523  0.238048151045  
1.19138813019  0.773521432896  -1.03100861322  -2.40838478618  0.188957800589  0.181993931614  0.239171258887  
1.19954204559  0.787558193203  -0.935801885062  -2.38221610863  0.183710147979  0.184226622126  0.242686253398  
1.20756316185  0.811039703218  -0.838081565441  -2.36307709717  0.178841186173  0.181530334717  0.24042381982  
1.21565198898  0.798718557839  -0.758711219874  -2.31818579894  0.170980608623  0.18362016944  0.2403990323  
1.22393608093  0.809473910264  -0.694140751209  -2.28180710436  0.163028823993  0.182628938426  0.240013574219  
1.23193907738  0.806728615005  -0.638263532427  -2.24515409672  0.158879702574  0.181508457106  0.239274296432  
1.24003100395  0.813794031043  -0.581073345184  -2.21630332828  0.155230191357  0.182208357998  0.240965442325  
1.24808216095  0.83374087639  -0.552667053994  -2.19008139213  0.147826127081  0.184835923361  0.239696300836  
1.25624418259  0.852268721777  -0.536932339899  -2.17413668626  0.140538905977  0.184162468084  0.235317177533  
1.26427912712  0.869981910185  0.431159439291  -2.14036412552  0.134075744484  0.183441696975  0.236026635202  
1.27233505249  0.89893758798  0.428389623532  -2.11682794679  0.127737833493  0.187999755054  0.233829818079  
1.28046917915  0.938787204535  0.413808133934  -2.09442371966  0.121779202325  0.189444394117  0.231352720032  
1.28864002228  1.01428344328  0.38215444893  -2.0917972085  0.115664411169  0.194689678636  0.228619843064  
1.29688310623  1.0511531045  0.347728656855  -2.07273716484  0.102865887654  0.198101604917  0.222880298625  
1.30483102798  1.16061849575  0.291921583028  -2.07346692914  0.0841723250324  0.207409035412  0.222338827056  
1.31305003166  1.20589946392  0.238535029121  -2.04882456121  0.0668666997143  0.211331375321  0.216232085264  
1.32102608681  1.2851970651  0.169327060299  -2.05300379675  0.0529808284322  0.217274615793  0.21537191636  
1.32920718193  1.37573994358  0.0760825566398  -2.05193465591  0.0358761988122  0.225113789295  0.211772718621  
1.33727622032  1.44882484791  -0.00878351550625  -2.06058626385  0.0198215062653  0.232963542453  0.208066691229  
1.34537911415  1.55583277534  -0.10402330584  -2.07054888073  0.00440218706478  0.244663767054  0.204283219736  
1.35345602036  1.64580609722  -0.204862016979  -2.09205942822  -0.0103161110453  0.252994486119  0.200448895348  
1.36162900925  1.78136988684  -0.31891726354  -2.13348549302  -0.0247575858611  0.266894821393  0.196590074968  
1.3699131012  1.83663915887  -0.422686521746  -2.14018863306  -0.0369270112525  0.275140091888  0.19273269382  
1.37799215317  1.99445577903  -0.548622952446  -2.19287332178  -0.045954870785  0.289346760958  0.188902085204  
1.38601899147  2.03981893908  -0.661805180331  -2.21209783892  -0.059740423777  0.297553853471  0.182351642499  
1.39409017563  2.15283806169  -0.787510803293  -2.25810120976  -0.0661946800068  0.311287974782  0.181280322894  
1.4021730423  2.24546332972  -0.915132831495  -2.31529277731  -0.201375916679  0.324866345055  0.174928192483  
1.41036915779  2.39397158088  -1.06736448058  -2.39238108508  -0.451034765505  0.342328669712  0.171325861761  
1.41838812828  2.41854451796  -1.18455479411  -2.43215376588  -0.453274563636  0.350108166781  0.167887766067  
1.42643713951  2.49856510896  -1.32682054342  -2.49187577954  -0.459183282767  0.363031969592  0.167398189284  
1.43448901176  2.55626812089  -1.46440568017  -2.55087125767  -0.460201929624  0.373769812409  0.161703908178  
1.4426240921  2.61719815323  -1.59873432374  -2.59941621421  -0.459712251144  0.385850257103  0.158829667393  
1.45100808144  2.66802434519  -1.73078566157  -2.65623546782  -0.458156585717  0.397483658153  0.158949924829  
1.45895409584  2.70900242795  -1.85770301488  -2.70278029262  -0.458830512408  0.4086083381  0.153906768736  
1.4669752121  2.73958877053  -1.97742870015  -2.7464820342  -0.451041191707  0.419164919266  0.0635418909138  
1.47505402565  2.74573592951  -2.07573779776  -2.79595455324  -0.441489158224  0.428997413992  -0.118817105046  
1.48316812515  2.78163293468  -2.1908558742  -2.86367472548  -0.431795964092  0.44338492092  -0.208477966069  
1.49129605293  2.74367857818  -2.28317081405  -2.88254465911  -0.415718823543  0.444721451648  -0.209886097488  
1.49937200546  2.6307785439  -2.3456683086  -2.88924930284  -0.404733453044  0.44308289668  -0.213834692544  
1.5075070858  2.55066615463  -2.43372891256  -2.88638873296  -0.390290338189  0.444340217061  -0.212135566168  
1.51560401917  2.44849640716  -2.49388978042  -2.86868096811  -0.370429312606  0.446459273804  -0.212803602929  
1.52393817902  2.31342793999  -2.5421690283  -2.83949478846  -0.353006952041  0.4443906342  -0.213233944826  
1.531894207  2.2250959862  -2.60602175849  -2.81858160776  -0.339739078589  0.442083028432  -0.216203384915  
1.5399711132  2.07846090867  -2.63412855344  -2.7738806814  -0.317552132787  0.438657782395  -0.216306523218  
1.54805922508  1.91331625855  -2.63773257042  -2.7258450784  -0.157853504585  0.431177706493  -0.216156494748  
1.55605006218  1.75950878108  -2.64868624341  -2.67695033654  0.0875989287224  0.424851606855  -0.215762230427  
1.56418800354  1.62929947391  -3.15108156569  -2.65394460813  0.10584399123  0.41822640526  -0.215131347415  
1.57225704193  1.47135318888  -3.59488118344  -2.61025350822  0.121584594464  0.410887921751  -0.211493983489  
1.58034801483  1.3262436878  -3.56907009364  -2.58373136772  0.136577312409  0.401586962534  -0.210271676346  
1.58842420578  1.16961663077  -3.53211652161  -2.54722766556  0.151554889587  0.391785694583  -0.208867997333  
1.59656906128  1.05360737754  -3.49603453684  -2.5373441476  0.168993090556  0.380347658735  -0.207293182078  
1.60478520393  0.941172388889  -3.45316770321  -2.51896744071  0.17894560913  0.37197254473  -0.205561083974  
1.6129732132  0.883714905712  -3.41262976848  -2.52697243435  0.194617307434  0.365567591746  -0.203686309608  
1.62094020844  0.752746544793  -3.3521972119  -2.49955981556  0.203747210912  0.35343674132  -0.201684106438  
1.62902903557  0.691116937907  -3.29934254912  -2.50835319617  0.214429624637  0.348439413781  -0.199570247096  
1.63709902763  0.608557902757  -3.23481136528  -2.49894935367  0.22497782452  0.339972518723  -0.197360911293  
1.64508008957  0.5183108836  -3.16309735564  -2.48929415439  0.238537469606  0.331453168957  -0.197851567045  
1.65327501297  0.395288825291  -3.08207522024  -2.47143600149  0.248176960546  0.321065517236  -0.192867924933  
1.66125202179  0.356145595569  -3.0115026375  -2.48952527896  0.26305327557  0.314832364087  -0.190446632675  
1.66933012009  0.246440761979  -2.92115954718  -2.46248352584  0.275263047755  0.30484226295  -0.187998767187  
1.67741703987  0.118320281401  -2.82467904623  -2.42685029879  0.278901754921  0.293217896629  -0.182759960705  
1.6856071949  0.0626742107803  -2.73840430097  -2.41844278011  0.280932604285  0.28577125278  -0.185713835843  
1.69380521774  -0.0365997550179  -2.64153858194  -2.39237854034  0.283060346546  0.27493586661  -0.180668137523  
1.70193815231  -0.127061662565  -2.54246969165  -2.35733886195  0.28477620958  0.266140568054  -0.178262797503  
1.70998716354  -0.221230642194  -2.44142434933  -2.31409333909  0.282680720874  0.257709034915  -0.175909662999  
1.71803212166  -0.419782689169  -2.23558917389  -2.22020826527  0.280627035306  0.237043266362  -0.171407340732  
1.72611117363  -0.510106687995  -2.13477229995  -2.17061752511  0.277137687055  0.228333024858  -0.169283957738  
1.7341530323  -0.601016530238  -2.04825228234  -2.10598405333  0.27308619391  0.217369707025  -0.170037152688  
1.74229216576  -0.681160851246  -1.96535792266  -2.04282518415  0.268536907893  0.204404153941  -0.168268523969  
1.7503080368  -0.762948575871  -1.88424488111  -1.97277194067  0.2603672834  0.190243054612  -0.166595769756  
1.75835108757  -0.846100186432  -1.80334464934  -1.89496207071  0.255578742376  0.178329750583  -0.167804744225  
1.7663500309  -0.940220978527  -1.70956815195  -1.81740307838  0.251039586468  0.167096454609  -0.16372046102  
1.77462506294  -1.01436917768  -1.65532814447  -1.73866929699  0.241725273502  0.153408681511  -0.158321721989  
1.78266716003  -1.08904092775  -1.6077153903  -1.67286258577  0.231945816085  0.142075378928  -0.0944727298215  
1.79088807106  -1.15273280982  -1.54975881211  -1.60846155463  0.222540475818  0.129852525701  -0.0120176616521  
1.79889702797  -1.20226778906  -1.51504615143  -1.55075255962  0.212411477078  0.11849028445  0.0675232688362  
1.80689120293  -1.23756293475  -1.50376921297  -1.50002816542  0.201625483076  0.109789422697  0.145630421274  
1.81497621536  -1.25873975076  -1.51486237607  -1.44757839965  0.18706397242  0.100412305065  0.195550654255  
1.82309913635  -1.25330996577  -1.54943567841  -1.40168153631  0.175462802474  0.0921154016322  0.195924058712  
1.83120203018  -1.53032093772  -1.57030396431  -1.35851511839  0.164746273331  0.0845517027148  0.198972245521  
1.83928704262  -2.22374230829  -1.61950434061  -1.33292525221  0.149850143488  0.0782678145875  0.196529211633  
1.8474111557  -2.19620376849  -1.66918846157  -1.30269853544  0.139115021768  0.0728669761989  0.196601210763  
1.8554880619  -2.14314417389  -1.75916393528  -1.2914904299  0.130800978884  -0.269287794696  0.196584663266  
1.86362600327  -2.09620906366  -1.81803843125  -1.27246832409  0.116321170267  -0.27297630557  0.193712021501  
1.87184500694  -2.03744526276  -1.91027619978  -0.131500939405  0.0970614201924  -0.277453866716  0.193385200929  
1.87996315956  -1.99207977684  -1.9082803377  -0.0747101807235  0.077416192672  -0.28138571676  0.192999310343  
1.88795304298  -1.8758426456  -2.1698113085  -0.0675585364829  0.0572099811881  -0.280231991707  0.192555467606  
1.89604616165  -1.79184830352  -2.28316869754  -0.0615712485909  0.0390353816861  -0.282005273964  0.19205783463  
1.90419316292  -1.69962778448  -2.41026913203  -0.0529244533301  0.0213375028337  -0.281214838752  0.188743689696  
1.91220808029  -1.60489245903  -2.50513728493  -0.0618756891643  0.00887736927662  -0.281321926832  0.188017240033  
1.92031908035  -1.51441025645  -2.62651033832  -0.0618470921347  -0.00669068873098  -0.278967536587  0.181741212422  
1.92843604088  -1.40095015814  -2.81046498867  -0.074087842612  -0.0160976560432  -0.277288563438  0.175183727416  
1.93653607368  -1.30403493147  -2.90605925377  -0.0781914478666  -0.0247551604935  -0.275148034437  0.168400389333  
1.94465303421  -1.19959257213  -3.04331902768  -0.0830862088897  -0.0298416183714  -0.270493518657  0.107090529916  
1.95294618607  -1.10566373471  -3.17208654894  -0.0822616119096  -0.0367713095366  -0.266922661715  -0.106608765541  
1.96107316017  -0.998653742941  -3.28077566855  -0.0912925470262  -0.0421403036181  -0.264401884511  -0.226757826612  
1.96906518936  -0.897736844983  -3.42531161226  -0.0909704416839  -0.0436008103057  -0.256213429064  -0.237463872209  
1.97711110115  -0.781116974787  -3.60951433886  -0.0898573477801  -0.0412765050173  -0.250582019496  -0.25377485982  
1.98515605927  -0.683650055537  -3.73290334747  -0.0834613316122  -0.0354817898591  -0.244679691673  -0.273152585798  
1.99323511124  -0.592881338239  -3.80141034152  -0.091695852904  -0.0306652665865  -0.238406953366  -0.284529346179  
2.00128602982  -0.507636366825  -3.93384136749  -0.085204475617  -0.0228157212073  -0.230011529891  -0.304019366127  
2.00940012932  -0.428383099801  -4.02304131493  -0.084442484728  -0.00894467483056  -0.222989313604  -0.320907652243  
2.01749801636  -0.352184105123  -4.09329723633  -0.0957844331944  0.00246031223644  -0.21393861745  -0.337708862174  
2.02559518814  -0.28283743888  -4.10844667739  -0.104409617336  0.0161818511083  -0.208133539432  -0.354338171757  
2.03384113312  -0.228554109558  -4.12733520303  -0.126503479097  0.0338869871196  -0.198882045031  -0.373501495868  
2.04193711281  -0.170531800097  -4.09101137365  -0.154429111499  0.0466566370259  -0.191119737182  -0.389699066575  
2.05001401901  -0.13320025917  -4.12911108735  -0.168049558905  0.0687516993857  -0.18518983744  -0.408252940216  
2.0580060482  -0.0925447731985  -4.11094696064  -0.185975130037  0.0896223673683  -0.17759913316  -0.426463204533  
2.06616711617  -0.0584323759753  -4.06719449766  -0.21932587177  0.111526691139  -0.171832816368  -0.444237454376  
2.07421803474  -0.0276544797593  -4.03001467179  -0.256648556086  0.129758818238  -0.166247561037  -0.46148851413  
2.08228707314  -0.0112702479335  -4.00737905994  -0.278381002762  0.155211598153  -0.160999479896  -0.475487750306  
2.09041714668  0.011016420653  -3.96074525328  -0.297980116815  0.178033907897  -0.155939676999  -0.488401989915  
2.09845304489  0.0208897539073  -3.83175687271  -0.335266596702  0.195498719801  -0.149511679433  -0.487105005601  
2.10655903816  0.0210386581662  -3.76787938608  -0.363453544254  0.217888040597  -0.14680563682  -0.49799251433  
2.11464500427  0.0106095804633  -3.6384289727  -0.410603696649  0.237860066899  -0.141129633579  -0.499989529127  
2.12296915054  0.0172291221992  -3.47574438025  -0.453690785498  0.250886896289  -0.135537390119  -0.492945566286  
2.13106322289  0.00123962599508  -3.36412635084  -0.493482654712  0.272341592874  -0.130367962069  -0.492758749462  
2.13900399208  -0.0156726673185  -3.16041814848  -0.539449030175  0.284837716982  -0.127252888033  -0.486306212678  
2.147108078  -0.0301256767019  -3.01618268655  -0.584628488202  0.294216370324  -0.124485744231  -0.481528920946  
2.15513706207  -0.0497805100213  -2.85195197427  -0.634370313476  0.30012357709  -0.122204483133  -0.473211743719  
2.16327309608  -0.0916261968129  -2.72770712651  -0.671172244406  0.304130434205  -0.118758047129  -0.47202233486  
2.17134404182  -0.120051651867  -2.53485651494  -0.726855853216  0.298604996269  -0.11725983866  -0.462170666565  
2.17947506905  -0.158268027898  -2.38361446932  -0.767971709343  0.298288164787  0.00358386714575  -0.454224890394  
2.18760609627  -0.210555084209  -2.23044975152  -0.806420636399  0.304232325058  0.203438254461  -0.445649911678  
2.19567799568  -0.264124275761  -2.08088221325  -0.835628832727  0.299248020292  0.221883864776  -0.433850668893  
2.20399713516  -0.330689014044  -1.93286809449  -0.862855833111  0.293628846008  0.219631431507  -0.424188571341  
2.2120680809  -0.4182896227  -1.81340375043  -0.881192251929  0.293673689088  0.218478160476  -0.411467225811  
2.22001409531  -0.478847232387  -1.63028486511  -0.915959899454  0.291172568403  0.217172037802  -0.39572433159  
2.22809100151  -0.559346820442  -1.47961541874  -0.943505279739  0.28739623394  0.211908169178  -0.38234570604  
2.23619318008  -0.64911247381  -1.34936083654  -0.970744014581  0.282581646256  0.206065386833  -0.368812850942  
2.24433207512  -0.717489442554  -1.19853254638  -0.991940455497  0.274685219137  0.201636372648  -0.352550852563  
2.25246119499  -0.804368086566  -1.0815855742  -1.01333486469  0.272361092398  0.196741417106  -0.336277883325  
2.26055407524  -0.880640904573  -0.946339548175  -1.03880166021  0.263326609146  0.191637224413  -0.317438266887  
2.26882815361  -0.954352773518  -0.819017856951  -1.05276211464  0.250756606647  0.186287925927  -0.301422863758  
2.27685213089  -1.03532432316  -0.714661392562  -1.07410374784  0.244134066985  0.182402487134  -0.283058422868  
2.28504920006  -1.12615139919  -0.602549156377  -1.0906079845  0.237865425101  0.176606538098  -0.265063173724  
2.2931330204  -1.19207532291  -0.488859429996  -1.10293701581  0.228326901464  0.172569882966  -0.247545949298  
2.30107808113  -1.27554413698  -0.39714435828  -1.11377254597  0.221768893673  0.164901431758  -0.233267414529  
2.30918216705  -1.31386585606  -0.277487834343  -1.11711045725  0.209472342427  0.160822927761  -0.214369244139  
2.31727600098  -1.38026217988  -0.181834289473  -1.12941246514  0.196563828229  0.154864652513  -0.204160532283  
2.32533621788  -1.43243864346  -0.0829347818218  -1.13642905264  0.187684167528  0.150696598099  -0.186873504589  
2.33346199989  -1.50238049717  0.00600449900335  -1.14162540348  0.175597727656  0.0234669724695  -0.175747551877  
2.34157013893  -1.59000971476  0.0865107576635  -1.14359014783  0.16732642618  -0.153299443635  -0.162955972638  
2.34965205193  -1.65137094966  0.169649310485  -1.14177014744  0.156237257269  -0.204995149389  -0.15026377168  
2.3578350544  -1.68625567125  0.270351172321  -1.14516735482  0.145567779379  -0.210600658766  -0.127103009881  
2.36598610878  -1.76855866632  0.336728279875  -1.57497444243  0.13835407318  -0.214705466059  -0.107796628275  
2.37402415276  -1.81150147561  0.384945071315  -2.28882208875  0.124790752281  -0.221759600841  -0.0898403740433  
2.38211917877  -1.90511506477  0.476242514524  -2.25295087472  0.10708366335  -0.23590566865  -0.0555218418339  
2.39011502266  -1.92014563582  0.498853032847  -2.22849841803  0.0956958304738  -0.240774727241  -0.0391459840382  
2.3981730938  -1.96621087795  0.514618430096  -2.20248057263  0.0798331332232  -0.249159296733  -0.0270476536864  
2.40623807907  -1.98927487533  0.516831081559  -2.1744583482  0.0613570043764  -0.255611937274  -0.0138654078588  
2.41429400444  -1.96441995993  0.527575415752  -2.16123338639  0.0399660202173  -0.25973880969  0.356949433735  
2.42240405083  -2.0727570739  0.503759694925  -2.12465577223  0.0192869383804  -0.267976972248  0.363966157902  
2.43046212196  -2.12971615315  1.06704480931  -2.08651607195  0.00280344768426  -0.275680521075  0.369620968024  
2.43854904175  -2.11578715604  1.38926542568  -2.06372883997  -0.0163659552808  -0.279155747937  0.376664516583  
2.44657206535  -2.22197933169  1.30791335617  -2.01948585276  -0.0313303719546  -0.28829628374  0.382454439225  
2.45486903191  -2.21410809905  1.24208441818  -1.99844256676  -0.0488424711245  -0.292949928491  0.384183993579  
2.46292614937  -2.1339598311  1.17361339322  -1.97586149005  -0.0651417618644  -0.293176564419  0.387243670186  
2.47092199326  -2.28256815423  1.04401186863  -1.92617829196  -0.0734509595681  -0.304940793274  0.38901695579  
2.47906517982  -2.16606804555  0.955365306673  -1.90445539412  -0.160286988132  -0.306029417761  0.389501114243  
2.48710799217  -2.24489230495  0.802743017751  -1.84815372795  -0.470862909596  -0.314962927629  0.388704642252  
2.49517703056  -2.42319697535  0.615391748646  -1.7787154851  -0.479847923487  -0.331499033811  0.386644685538  
2.50326013565  -2.41299350665  0.482686129839  -1.7457794805  -0.487116385489  -0.338142952287  0.380556930304  
2.51134109497  -2.29917547298  0.375969566472  -1.67361572703  -0.496446650366  -0.338350877344  0.378688324802  
2.51939415932  -2.23135583117  0.247415516132  -0.792097366882  -0.501053354713  -0.339890663807  0.373052226592  
2.52752399445  -2.25467439783  0.100960825361  -0.49534799549  -0.504526965354  -0.350233695675  0.366305692411  
2.53574609756  -2.40993559057  -0.081238376622  -0.420426012371  -0.502715221435  -0.365033351467  0.354769290392  
2.54369020462  -2.3959974759  -0.233043323387  -0.387335047697  -0.503485720284  -0.371624374058  0.344766628143  
2.55185317993  -2.37617054029  -0.367696150141  -0.354557066313  -0.50247086096  -0.37773113805  0.334446038418  
2.55997014046  -2.18830063375  -0.465899714992  -0.354447422128  -0.500197196118  -0.375072755296  0.323877803938  
2.56804203987  -2.30653064101  -0.629466754576  -0.297080202112  -0.496658827033  -0.387817091828  0.313134811228  
2.57612299919  -2.25842950567  -0.742020478273  -0.279272281908  -0.4917969684  -0.392210900558  0.302289321092  
2.5841960907  -2.21388692168  -0.861301264423  -0.256088311122  -0.482181117868  -0.39126926205  0.29053473174  
2.59234714508  -2.16554034703  -0.961784826313  -0.243900824486  -0.474798105583  -0.393139070253  0.280397774789  
2.60042119026  -2.05784314914  -1.04932695211  -0.242188818984  -0.466484000976  -0.389144327515  0.264501526977  
2.60849499702  -2.05364144354  -1.14303065775  -0.228415893447  -0.457098164345  -0.392117731602  0.250980985671  
2.6166241169  -1.97694303694  -2.04600046318  -0.232398398822  -0.446810956842  -0.392571829909  0.237331486181  
2.62489914894  -1.79919463031  -2.22735126468  -0.248335169483  -0.443493250685  -0.386854616976  0.223650294795  
2.63299107552  -1.58037970927  -2.25358809104  -0.281055445405  -0.432246725282  -0.377013942474  0.210035597673  
2.64100313187  -1.64209288316  -2.3168580111  -0.271565324475  -0.420134261779  -0.385526944578  0.196582852587  
2.64904713631  -1.62556722491  -2.3695591038  -0.271468244984  -0.407696089463  -0.38834884072  0.183383964835  
2.65709900856  -1.43702381871  -2.38293445558  -0.304545679691  -0.398619326672  -0.381252587606  0.170526525341  
2.66521811485  -1.43414770328  -2.40441943581  -0.317695095835  -0.389099418826  -0.383495037203  0.158093119936  
2.67348313332  -1.40931509921  -2.42136879844  -0.332711291798  -0.379645097928  -0.387049903024  0.146160717249  
2.68149709702  -1.25693738757  -2.40637791614  -0.372405281207  -0.370261150073  -0.379433015601  0.13480014097  
2.68960213661  -1.16151642089  -2.3888503493  -0.406093499966  -0.357134870198  -0.373521346788  0.124075630553  
2.69768309593  -1.08187963213  -2.34928553278  -0.450021631699  -0.347438821161  -0.370761601611  0.114044492699  
2.70596909523  -1.02765288062  -2.3004314891  -0.504660854451  -0.334477278336  -0.366326396091  0.10752806208  
2.71407699585  -0.844761614965  -2.26296098019  -0.552500821418  -0.329342955913  -0.357393232456  0.0963923379367  
2.72205710411  -0.811260320105  -2.20029878107  -0.610543298242  -0.320710825727  -0.357681448984  0.088686415345  
2.73010611534  -0.706926394766  -2.12771449313  -0.676385444977  -0.308940941739  -0.352423718528  -0.0097169659803  
2.73824810982  -0.584190557788  -2.06763894152  -0.735888275335  -0.301405666539  -0.346926572998  -0.283779370794  
2.7463490963  -0.486067289741  -1.98534956847  -0.794361788683  -0.297518407921  -0.344911472897  -0.292147804479  
2.75440621376  -0.383272810101  -1.90023996994  -0.860765171561  0.0336741604558  -0.337874369539  -0.294328434169  
2.7625670433  -0.309285963371  -1.8082504868  -0.917854711345  0.089504398639  -0.332644446565  -0.298319037177  
2.77060413361  -0.231196550178  -1.71518456819  -0.9738970015  0.09536716759  -0.325719083345  -0.301500707517  
2.77888512611  -0.172907674866  -1.60488093037  -1.03637112058  0.100864878198  -0.318925931007  -0.30386229798  
2.7868771553  -0.131429865986  -1.5073185122  -1.09913822085  0.105321124159  -0.312300446459  -0.305400463929  
2.79496312141  -0.0862900940617  -1.40934348841  -1.15028118276  0.109408026419  -0.305727240106  -0.306116994721  
2.80306816101  -0.0377228730497  -1.3130026705  -1.19891712643  0.112804280686  -0.300919902034  -0.306018879565  
2.8111011982  -0.0310780478759  -1.20007286457  -1.25335611419  0.112140283546  -0.298259472928  -0.307907185641  
2.8191421032  0.0464646107001  -1.11093740943  -1.29557514959  0.117542579876  -0.288665423271  -0.303589508012  
2.82724618912  0.0597612386331  -1.00332689086  -1.34308471581  0.119227238889  -0.284642934982  -0.301117091834  
2.83541202545  0.132740130598  -0.921713304942  -1.38004809182  0.11607374848  -0.277152044364  -0.297911969792  
2.84352111816  0.163014183772  -0.822916880247  -1.41964530888  0.119852264587  -0.271840193781  -0.294003842695  
2.85179209709  0.196276270678  -0.73132866805  -1.46579468202  0.119165771947  -0.266809421358  -0.289429767187  
2.85962200165  0.210616662246  -0.640698305226  -1.49852486863  0.118238686718  -0.262228139992  -0.28423109687  
2.86797213554  0.260732434077  -0.561741779558  -1.53663415753  0.116227107737  -0.256071785417  -0.278453152082  
2.87594509125  0.30266749715  -0.485043343435  -1.62535274346  0.117716770687  -0.245475157821  -0.272144846182  
2.88394618034  0.314568948913  -0.412151010636  -2.7445696053  0.111545496601  -0.236408437674  -0.268151273808  
2.89208316803  0.305936450671  -0.328521966334  -2.76547907841  0.108578133183  -0.227836823832  -0.25830792765  
2.90017700195  0.323798063071  -0.268899832532  -2.77462494041  0.104848062272  -0.217754460434  -0.250706055236  
2.90827012062  0.344782591311  -0.21671101551  -2.77964481621  0.100656779378  -0.206241491547  -0.242799058002  
2.9162940979  0.345396972736  -0.153907227602  -2.78839254369  0.0963458582816  -0.198731541925  -0.234644433043  
2.92446613312  0.37009660998  -0.113373035244  -2.78474568315  0.0951682838118  -0.186447841107  -0.226303183  
2.93252801895  0.386501945421  -0.080775112291  -2.77934748627  0.082722187809  -0.179766680083  -0.21783651516  
2.94059514999  0.348761109696  0.925453720384  -2.77569335584  0.0811144374833  -0.174112729774  -0.209305322573  
2.94880700111  0.359714772512  0.946427408795  -2.76142952955  0.0754012132687  -0.165346349107  -0.200769676892  
2.95695304871  0.329943447519  0.96534112552  -2.74360757267  0.0696675593041  -0.160855695051  -0.192288339238  
2.96498608589  0.325933302041  0.973307366136  -2.72240145639  0.0636602829075  -0.153454060563  -0.186704907836  
2.97309303284  0.281866383968  0.979347046391  -2.69804066516  0.0577227848724  -0.148619567798  -0.175866905666  
2.98109412193  0.240709543045  0.990566480144  -2.67920903141  0.0481273436306  -0.144444168666  -0.167855123182  
2.9892821312  0.194720390485  0.983449657231  -2.64859762137  0.0456139990278  -0.141004111588  -0.160113298735  
2.99724411964  0.165249511376  0.966356516738  -2.6162349675  0.0395528049967  -0.136414775126  -0.15268471026  
3.00537204742  0.0974275476901  0.947872058932  -2.58166508647  0.0337153595422  -0.134429439844  -0.145611826542  
3.01355910301  0.0356990658333  0.922186924051  -2.54517049809  0.0279353935285  -0.134861466268  -0.141712846218  
3.02161812782  0.88694720179  0.905041330764  -2.51473416569  0.0224630910724  -0.134381372958  -0.132829307416  
3.02982115746  0.890152983871  0.869704068971  -2.47463900858  0.0207207452112  -0.134599830563  -0.127013324895  
3.03809118271  0.730493694718  0.79804016582  -2.39246306269  0.00369795088874  -0.140718115544  -0.116865649607  
3.04618406296  0.65340981593  0.748098034885  -2.35068906316  -0.0013027473431  -0.144828730853  0.115967934699  
3.05413007736  0.573206021712  0.709114435826  -2.31563315275  -0.00211061554654  -0.147852611188  0.250167497063  
3.06221413612  0.492047765921  0.667258608964  -2.2719272561  -0.105499088755  -0.151389556634  0.253298268929  
3.07025909424  0.411953944086  0.605740819547  -2.23121189382  -0.383823860054  -0.155419427123  0.253157027813  
3.07838010788  0.330168434307  0.556270048826  -2.19797752546  -0.387507497899  -0.161623000256  0.257908571993  
3.08642601967  0.239248087935  0.492772399031  -2.15732643754  -0.387238173575  -0.157330488524  0.259540729266  
3.09449410439  0.194017864145  0.420259127794  -2.1184439574  -0.390326975779  -0.155016535789  0.260658226154  
3.10268807411  0.150435576066  0.346272132274  -2.08082992081  -0.393071193526  -0.168720721887  0.261266084387  
3.11064004898  -0.546121034099  0.268313796717  -2.04468861667  -0.395554231403  -0.175386342123  0.261369681152  
3.11884117126  -0.898796095359  0.192054406196  -2.01096645549  -0.401293917785  -0.180912845309  0.260977491068  
3.12686419487  -0.948861172444  0.134117036969  -1.98447765194  -0.395466416144  -0.185001580715  0.260101025675  
3.13494920731  -0.961304749382  0.055318437374  -1.95475140032  -0.400316268654  -0.188968358723  0.258754749646  
3.14306306839  -0.972691805789  -0.00753765454781  -1.93395199085  -0.401123671934  -0.191255795801  0.256955973548  
3.1511490345  -0.979975451456  -0.0830546856053  -1.90792009615  -0.401723295429  -0.193489916911  0.257500525744  
3.15925908089  -0.9735435957  -0.159222340064  -1.88490662121  -0.405724239418  -0.199065517684  0.249450929515  
3.16736507416  -0.951692328626  -0.24775821426  -1.85594002037  -0.406050905993  -0.199462167835  0.24625657656  
3.17553305626  -0.940222640631  -0.317945082366  -1.83687651505  -0.4057439362  -0.201452315641  0.245507823414  
3.18378019333  -0.926629473894  -0.383080278755  -1.81891177788  -0.397587564646  -0.201578565218  0.241819897863  
3.19183421135  -0.899380338957  -0.449838362109  -1.8064686431  -0.403594284876  -0.203158435131  0.235055369753  
3.20001220703  -0.870328964003  -0.510787506824  -1.7951404926  -0.40225855281  -0.204615661847  0.233435103573  
3.20799517632  -0.838030805334  -0.580660833469  -1.77813555575  -0.39701257015  -0.204207417739  0.228975338736  
3.21597719193  -0.805579599026  -0.633721827947  -1.77260777992  -0.398492128637  -0.203570395954  0.224315992567  
3.22411203384  -0.770611767437  -0.694180809675  -1.7606906147  -0.392623158636  -0.20445256155  0.219494851251  
3.2321460247  -0.735893603765  -0.738218996917  -1.76093548054  -0.397242402761  -0.205237145065  0.211771719375  
3.24033617973  -0.699124513877  -0.787327718429  -1.19103097823  -0.387302740637  -0.202410494839  0.212141725493  
3.24833917618  -0.661750270092  -0.833796230082  -0.583067384741  -0.387843474107  -0.20276482526  0.20166529475  
3.25638604164  -0.624271575295  -0.872783504688  -0.579011381844  -0.380941829486  -0.201285270943  0.201956476296  
3.26456713676  -0.586719485633  -0.907879626219  -0.57864728693  -0.381081739728  -0.201371120123  0.194249073813  
3.27263522148  -0.54949238945  -0.93527372761  -0.578993227735  -0.373827050902  -0.197891904036  0.189194862517  
3.28091812134  -0.512760847018  -0.958665480525  -0.582941217947  -0.373670382637  -0.197634811786  0.184223472484  
3.28891611099  -0.476905744745  -0.974328190679  -0.587492191773  -0.366178502849  -0.195591513678  0.179363248342  
3.29692006111  -0.441926659988  -1.91802849539  -0.595502029177  -0.365838273935  -0.195164651705  0.17187230517  
3.30505204201  -0.408183907791  -1.9464348372  -0.603955274229  -0.358218664875  -0.191225132036  0.169954615692  
3.31308722496  -0.375803004917  -1.94541144829  -0.615700402399  -0.357809051736  -0.190562691058  0.162853366047  
3.32120299339  -0.344928453015  -1.93902393587  -0.629142561018  -0.357625392917  -0.188179047688  0.158601922887  
3.32932209969  -0.316084059242  -1.92472421522  -0.642022437705  -0.346491906506  -0.185700141182  0.157385165561  
3.337444067  -0.28885755506  -1.90826257209  -0.658592411729  -0.346133263671  -0.183174391607  0.153817365106  
3.34555411339  -0.263851663397  -1.8852552577  -0.675088681069  -0.338642005586  -0.180595575473  0.153290871764  
3.3538351059  -0.240899966935  -1.85873707739  -0.693571560053  -0.33476384796  -0.177996031756  0.147655374915  
3.3619852066  -0.220101069745  -1.8289671402  -0.713890527024  -0.334758272366  -0.17539316774  0.0798136645775  
3.36993503571  -0.201722104964  -1.79440069006  -0.734449622405  -0.3314024388  -0.172794172906  -0.141399581407  
3.3780040741  -0.185748393523  -1.75536575563  -0.755114857021  -0.324481981597  -0.168471690053  -0.219075689943  
3.38610506058  -0.172257890781  -1.71406800715  -0.777217007238  -0.165166563444  -0.16757930681  -0.220992131161  
3.39423918724  -0.161124878588  -1.67080362333  -0.800575357844  0.00126393520312  -0.166868167944  -0.22536849991  
3.40232920647  -0.152489851508  -1.62315967916  -0.822851211861  0.0545868150407  -0.162834007713  -0.22401713367  
3.41046118736  -0.146265948185  -1.57520212003  -0.846827226748  0.0533831769694  -0.162261178491  -0.224952434971  
3.41859722137  -0.142504926066  -1.52358908506  -0.869417799278  0.0591652171362  -0.1583951163  -0.225569363302  
3.42664217949  -0.141179881597  -1.47148354633  -0.892690178633  0.0611980556882  -0.158009161195  -0.225867689965  
3.43489909172  0.130426385577  -1.41919203229  -0.916459068509  0.0592503187764  -0.15611015768  -0.22863078453  
3.44295310974  0.76705151909  -1.36525829314  -0.939130438491  0.060551504513  -0.154319260058  -0.22567503814  
3.45098614693  0.840752613565  -1.3100499283  -0.960572926221  0.0653300661087  -0.15090507398  -0.225027802237  
3.45918917656  0.833764315846  -1.25667137124  -0.982849556785  0.0626226031725  -0.151013235398  -0.224093662594  
3.46718716621  0.824885470617  -1.2026765495  -1.00361117023  0.0631617201775  -0.0827944880863  -0.22288171311  
3.47533321381  0.802917502694  -1.14785244665  -1.02350569339  0.0635093122286  0.0141334913295  -0.221405426039  
3.48344802856  0.79033655029  -1.09554713252  -1.04239306916  0.0635641411781  0.103697700254  -0.219679757245  
3.49157500267  0.77621061815  -1.04362123692  -1.05944944732  0.0671053390221  0.19148898609  -0.217721026117  
3.49975013733  0.760857498037  -0.995080367944  -1.07676590005  0.063183703616  0.192223031774  -0.218327788815  
3.50791811943  0.732962752956  -0.945973023178  -1.09207438404  0.0625812865384  0.192736799378  -0.213323936047  
3.51598715782  0.715080342079  -0.900494911079  -1.10601103613  0.0617230901119  0.193180135912  -0.21075074741  
3.52395105362  0.696333123028  -0.857344641036  -1.11851845753  0.0606703393193  0.195213310937  -0.208023178488  
3.53204512596  0.665388322936  -0.814382927463  -1.12885676407  0.0631953076723  0.193651216635  -0.205159635299  
3.54009199142  0.645183082248  -0.777496881108  -1.13912461008  0.0582619179592  0.193636097884  -0.20218178987  
3.54813718796  0.613284325629  -0.741130318056  -1.14712140967  0.0567069120042  0.193410403419  -0.199111631264  
3.55632519722  0.592206217962  -0.709370744405  -1.3340377403  0.0549598846767  0.193125731815  -0.195971302733  
3.56437516212  0.571019009622  -0.680820492227  -1.89998832273  0.0530836078187  0.192708808975  -0.192782940242  
3.57247519493  0.53860984598  -0.653197112918  -2.32508137243  0.0548611008113  0.192094049768  -0.189568513853  
3.5806210041  0.517577750755  -0.631417403965  -2.32593629409  0.0529686979696  0.191431770643  -0.186349673426  
3.58885622025  0.496895259776  -0.613103864717  -2.32535115843  0.0509599209227  0.19065601535  -0.183147599997  
3.59696221352  0.476762528683  -0.599177133642  -2.32408351633  0.045137904699  0.189769144912  -0.182761560338  
3.60494399071  0.445875695482  -0.585459630219  -2.31999488449  0.046522129459  0.188718012039  -0.177020868275  
3.61295104027  0.425502794579  -0.178946339353  -2.32369424083  0.0407570330672  0.187650845915  -0.173964294414  
3.62106108665  0.396227536446  0.400524908564  -2.31789004239  0.03833343001  0.184686953575  -0.173781828272  
3.62910699844  0.355251740596  0.420132654002  -2.31774923862  0.0398464763658  0.183227125507  -0.16829970321  
3.63727402687  0.326833469011  0.432884355381  -2.31801751677  0.0340803180604  0.183530894218  -0.16555238108  
3.64535117149  0.288342674637  0.445350438739  -2.31581240991  0.0355798245647  0.180354077902  -0.162949032654  
3.65349006653  0.261188915416  0.465813955367  -2.32097271296  0.0337163011049  0.178854333828  -0.160500299038  
3.66154909134  0.224692437092  0.483303242848  -2.32603603725  0.0281936518345  0.175520710612  -0.158218218384  
3.66984415054  0.190053137049  0.498056667799  -2.32949309614  0.0262150711183  0.173827999904  -0.156113393289  
3.67795801163  0.170129712844  0.493611743576  -2.32445802997  0.0240807121147  0.1722290615  -0.132841178456  
3.68603205681  0.0945314822563  0.565414768973  -2.33845744678  0.0218299853023  0.167203540057  0.130007473951  
3.69399213791  0.0945314822563  0.565414768973  -2.33845744678  0.0218299853023  0.167203540057  0.130007473951  
3.70205903053  -0.44723914739  0.581715413624  -2.33612589968  -0.0624544997556  0.165569021628  0.209424032777  
3.71016716957  -0.999819546203  0.688267376979  -2.36763421015  -0.296376158348  0.158720748847  0.211384504023  
3.71826910973  -1.03225151482  0.721439682297  -2.37061022345  -0.354503613339  0.155354862702  0.209294279513  
3.72623705864  -1.06170484653  0.750816751125  -2.37203451898  -0.355013641436  0.128318502414  0.212401987909  
3.73431921005  -1.09100574603  0.803479770955  -2.3878641823  -0.355078726115  0.0139225249204  0.21270159237  
3.7423992157  -1.13108769756  0.881483419846  -2.40948270767  -0.35806632664  -0.102136144948  0.212801128316  
3.75054717064  -1.15332892688  0.922790431498  -2.4168295992  -0.369029638729  -0.195567268137  0.212707016055  
3.75863218307  -1.14230477804  0.883151476439  -2.41184516009  -0.371247727102  -0.19679069663  0.212424037279  
3.76667404175  -1.15936166436  0.92916469997  -2.42317464974  -0.374861405785  -0.201397902405  0.211958076654  
3.77490115166  -1.1931728652  1.05716175452  -2.46154500881  -0.384194815389  -0.207785542748  0.211316066929  
3.78293204308  -1.15734251123  0.971039285524  -2.43926724595  -0.3870461781  -0.208781945523  0.210505927598  
3.79096603394  -1.1338916498  0.924027281234  -2.42846153786  -0.388661160738  -0.209547295289  0.209536497543  
3.79903507233  -1.18618331552  1.09653572972  -2.47535765401  -0.400029879069  -0.215564763628  0.208417462111  
3.80716514587  -1.19383807352  1.184760221  -2.51241083549  -0.410246806222  -0.217928553667  0.209929000329  
3.81519699097  -1.19818621888  1.26811120211  -2.53921067132  -0.420408041154  -0.223558656809  0.211449999656  
3.82331109047  -1.18319060711  1.30002275216  -2.55123197323  -0.427938844221  -0.22388126185  0.215737741698  
3.83148121834  -1.16958369462  1.36130160216  -2.58449995092  -0.434809994716  -0.225566613098  0.220151763956  
3.83973121643  -1.13683411399  1.35712221293  -2.60442520154  -0.446195445789  -0.226952176054  0.219117811871  
3.84762120247  -1.11553296535  1.37469103704  -2.63787721554  -0.457175760308  -0.2281560546  0.220640225883  
3.8559191227  -1.06725639845  1.36744053652  -2.66240375008  -0.46839938557  -0.228946494222  0.222105115395  
3.86397814751  -1.02930840313  1.36547988384  -2.70308192189  -0.483311383553  -0.231316388122  0.220730722218  
3.87197613716  -0.973270513628  1.31530475566  -2.7175191371  -0.487676319466  -0.229965884688  0.221913186071  
3.88006711006  -0.92134513968  1.31320271482  -2.7605382436  -0.494269534088  -0.228221784684  0.220266405037  
3.88810610771  -0.87070642861  1.33421040902  -2.79837608315  -0.503088998249  -0.226105663837  0.223956826701  
3.89617705345  -0.812687346459  1.28820178139  -2.8236352354  -0.513036924033  -0.225441902829  0.22219663979  
3.90426921844  -0.753669969417  1.23531203557  -2.8465959169  -0.522632172365  -0.222827335943  0.222990289953  
3.9124891758  -0.700295720503  1.23638070768  -2.87705942408  -0.526644965555  -0.219865283822  0.226500612633  
3.92054605484  -0.638966254221  1.155927931  -2.88809905686  -0.53539589436  -0.218425509848  0.224544838014  
3.92874407768  -0.58234598185  1.11175883467  -2.91873385931  -0.543064341746  -0.215075589699  0.225132666681  
3.93687105179  -0.529234872061  1.09159554519  -2.95228461534  -0.5495019181  -0.211466701682  0.225656297359  
3.94498109818  -0.473826194775  1.03380507693  -2.98789669316  -0.556449508062  -0.20767686989  0.226111185081  
3.95299506187  -0.413409031758  0.917722561219  -2.97543757236  -0.551271244806  -0.201971550949  0.226495966911  
3.96097421646  -0.363711943207  0.877384646882  -3.00702064666  -0.555093770658  -0.199483251889  0.226809501602  
3.96908307076  -0.305098575026  0.736259515771  -2.98394165832  -0.549608957642  -0.195288571591  0.224279084258  
3.97719216347  -0.260849112915  0.703279448101  -3.01696534778  -0.548938617094  -0.190955079298  0.224309947175  
3.98527216911  -0.211224137736  0.596599346562  -3.01108703467  -0.545588643979  -0.186598564593  0.224294586819  
3.99340200424  -0.159797129218  0.446393438863  -2.98042780738  -0.535652997601  -0.182228730116  0.221458220466  
4.00153899193  -0.118891068378  0.360943299062  -2.99473080176  -0.535090281437  -0.177847697386  0.215661581121  
4.00962901115  -0.0812558715924  0.277758069032  -2.99604206709  -0.527017060866  -0.173481648254  0.217883340119  
4.01789617538  -0.03307765628  0.0630423722785  -2.94160378087  -0.52128561502  -0.169262137184  0.211954991197  
4.02591705322  0.0247491373417  -0.165716966815  -2.87866569808  -0.512278817763  -0.165042137252  0.211293394543  
4.03391218185  0.0326520274048  -0.0757858258382  -2.9606992453  -0.504320781098  -0.160845870914  0.20791482441  
4.04203414917  0.0584226953177  -0.184706261335  -2.94110240478  -0.492881083594  -0.156903642244  0.204449387165  
4.0501101017  0.0954498247346  -0.325631357595  -2.91615245403  -0.485866434348  -0.153062376661  0.203696812594  
4.05819320679  0.688898954455  -0.432131369575  -2.8947134971  -0.47810568425  -0.149480037212  0.200276136711  
4.06628203392  1.13279474789  -0.567179209006  -2.86707002003  -0.467877030607  -0.14602681789  0.196819433816  
4.07437300682  1.14229148878  -0.668549703269  -2.84458566471  -0.463984112436  -0.144626674092  0.193352904503  
4.08248519897  1.16128663446  -0.781878625252  -2.82243844544  -0.453944001302  -0.139989660828  0.192670677585  
4.09068012238  1.17595406494  -0.889917704522  -2.7911514807  -0.4473984785  -0.138972411651  0.186619844271  
4.09885811806  1.18630235535  -0.994957952621  -2.76891377468  -0.436888985814  -0.117308597452  0.186004462634  
4.1068789959  1.21582996844  -1.08004266681  -2.74313505084  -0.421030798044  0.0357437205837  0.18283606185  
4.11499905586  1.23033703387  -1.17654751371  -2.72120771595  -0.413057026315  0.193501843209  0.179739622857  
4.12299203873  1.25608768679  -1.2964184977  -2.68504183244  -0.402392199892  0.207168556112  0.176736373328  
4.13110399246  1.27592714608  -1.39368809664  -2.65537671455  -0.387926919574  0.210367304926  0.173843660264  
4.13914704323  1.27491484883  -1.56830524468  -2.58602790718  -0.375198120957  0.21138683558  0.171077649914  
4.14720821381  1.30796052762  -1.62430973888  -2.57214442502  -0.364242462782  0.212608473132  0.168453244336  
4.15540313721  1.31911048886  -1.74328920337  -2.52632252422  -0.358867845219  0.215014749825  0.16321657104  
4.16363716125  1.37610940901  -1.7265337203  -2.54020873786  -0.344325070032  0.217864909794  0.1635475032  
4.17159414291  1.38861465293  -1.80071089562  -2.50955176464  -0.339459936571  0.220006616795  0.161448446871  
4.17975711823  1.39931211975  -1.89341576767  -2.46542319541  -0.328558131412  0.223668766669  0.159534078301  
4.1876502037  1.43826372806  -1.92350734244  -2.4498238953  -0.320717402925  0.227567835506  0.0217368630615  
4.19591808319  1.4295426883  -2.02603802699  -2.39550584474  -0.311449718033  0.227360719513  -0.119835206258  
4.20397114754  1.44908091171  -2.06417973632  -2.36936937366  -0.301575222188  0.230636511322  -0.204468418908  
4.21194314957  1.47597873457  -2.08060542655  -2.35223268839  -0.295689781833  0.235619843158  -0.205662861094  
4.2200460434  1.52472940484  -2.09084795772  -2.33671614903  -0.290687727826  0.239012944733  -0.206650184784  
4.22813820839  1.53401864433  -2.13204287837  -2.3035746498  -0.28723936989  0.240106720557  -0.207428641378  
4.23621606827  1.58674051592  -2.12477855105  -2.29060534127  0.0939247088155  0.244847700021  -0.205221834835  
4.24427008629  1.64839621945  -2.12887392212  -2.27671170409  0.0968488537599  0.247832682922  -0.20821487804  
4.25238609314  1.63466260331  -2.2052956618  -2.21507732395  0.0974464370719  0.248111329014  -0.208393781073  
4.26045513153  1.70129854858  -2.20800667432  -2.18818111155  0.0985406132566  0.255829844988  -0.208367389533  
4.26883602142  1.7155228544  -2.25607185322  -2.13723620654  0.0978385850919  0.256159260275  -0.208143006598  
4.27688217163  1.80848904223  -2.23041524769  -2.12150062767  0.0976521083393  0.262136449618  -0.207726306952  
4.28495717049  1.83065004629  -2.24677539537  -2.08102986413  0.103190391874  0.269190985174  -0.204346406364  
4.29298305511  1.83354450221  -2.2558276905  -2.04451634068  0.10106722268  0.27262345984  -0.206198983687  
4.30099320412  1.84552925196  -2.27354254575  -2.00393525492  0.097862549345  0.27763900984  -0.205274792769  
4.30911421776  1.83819237202  -2.28088831932  -1.96552658174  0.097765912258  0.280634056791  -0.204188979302  
4.31723117828  1.82693204712  -2.29577522051  -1.92336731133  0.0969294100843  0.286809893331  -0.202954770891  
4.32527399063  1.69418453965  -2.33519359836  -1.8648908961  0.0952036090512  0.283130941032  -0.201583347941  
4.33334207535  1.58222857358  -2.35509820029  -1.81567955387  0.0933305591804  0.279038472226  -0.200086554327  
4.34142303467  1.7543288378  -2.32714653133  -1.802522155  0.0840808716561  0.294302752929  -0.198476806123  
4.34954619408  1.72775243223  -2.3430001173  -1.76004616445  0.0806815600392  0.297833064352  -0.196766997417  
4.35777807236  1.74862988962  -2.34290689521  -1.72724472789  0.0771406318061  0.305041867114  -0.194970404003  
4.36586713791  1.68573640171  -2.34224800087  -1.69199470933  0.0733603572394  0.304510660439  -0.193100585753  
4.37389302254  1.65923453445  -2.33960189865  -1.66016188543  0.0692271725232  0.307279344058  -0.191171288489  
4.38194108009  1.64111374584  -2.31697223827  -1.63866703936  0.0651952752974  0.313369572317  -0.189196346157  
4.38997721672  1.59421131738  -3.1625400958  -1.61471891502  0.0608054015481  0.31913663129  -0.18718958413  
4.39837408066  1.45313724565  -3.21738967257  -1.57272276674  0.0478700272185  0.320749312794  -0.182990672526  
4.40646219254  1.33338365432  -3.19082420878  -1.5295510833  0.0430196706825  0.318012623666  -0.178217820212  
4.41447210312  1.17259041967  -3.15375246159  -0.372303572963  0.0420961914885  0.312627152955  -0.176097116793  
4.4226500988  1.02590217431  -3.11483930667  -0.359045886248  0.0376713189452  0.306722078197  -0.176812097626  
4.43067121506  1.0952045  -3.0972704222  -0.348896122918  0.0287282144094  0.316039901103  -0.174962343019  
4.43906712532  1.09711206272  -3.06724607894  -0.342110543229  0.0236422665416  0.319860327697  -0.175942966826  
4.44703412056  0.991905464384  -3.02152236883  -0.339596161738  0.0191310409698  0.315690736548  -0.174357938952  
4.45495009422  0.88821755539  -2.97256743077  -0.340696187271  0.014802187937  0.312751954095  -0.172824740621  
4.46307015419  0.82683095547  -2.92537495724  -0.345108031448  0.0105154951447  0.313293236105  -0.165804410064  
4.47117400169  0.76756758873  -2.87579608924  -0.352971316452  0.00644688830934  0.311964067152  -0.166896349654  
4.47936606407  0.630727896254  -2.81393973193  -0.363963665071  0.00665643240504  0.304474331935  -0.165483830871  
4.48737215996  0.604536289857  -2.76720568437  -0.388488610091  -0.000820781794895  0.304348343926  -0.164176204144  
4.49545407295  0.501716606053  -2.70666514204  -0.406376638974  -0.00392582921954  0.298256170725  -0.0905189655983  
4.50355601311  0.38988897302  -2.64378669183  -0.427164016922  -0.00668083929079  0.289936065238  -0.00385903213103  
4.51180410385  0.376217960771  -2.59120260154  -0.450062933035  -0.00950806652008  0.288989321775  0.082685058423  
4.51985406876  0.300488866871  -2.53103575418  -0.475777804843  -0.157851036727  0.282302518754  0.167364349887  
4.52791619301  0.26960054117  -2.47582324587  -0.503497548239  -0.384315682044  0.277454840179  0.199773263289  
4.53608417511  0.217252890067  -2.41832021979  -0.53336970441  -0.386094256611  0.272295199401  0.200312098388  
4.54404520988  0.1833608081  -2.36344117036  -0.564938808685  -0.387622370939  0.267197190352  0.20072586321  
4.55222916603  0.167790977038  -2.31151510262  -0.597960819218  -0.388897871221  0.260441850997  0.201014755966  
4.56023311615  0.144157782678  -2.25979124416  -0.632334892253  -0.389811672105  0.253477513394  0.201179753764  
4.56834220886  0.13889816043  -2.21383227068  -0.677228291675  -0.390756744592  0.248330025655  0.201222592093  
4.57646107674  0.140184084743  -2.18286305301  -0.70665506179  -0.391405445802  0.243291569531  0.201145739905  
4.58456921577  0.125573152729  -2.13770325372  -0.743169970931  -0.391377512793  0.236532692136  0.200952370428  
4.59264302254  0.11545470077  -2.09735426171  -0.78950839839  -0.391332854557  0.231585931036  0.200646327936  
4.60098004341  0.123654679008  -2.06013341595  -0.826978070797  -0.394474585398  0.226967254482  0.200232090688  
4.60891103745  0.124703117208  -2.03934310049  -0.865613849249  -0.39062143395  0.222475354134  0.199714730296  
4.61690115929  0.156798906681  -2.02562358279  -0.904143206009  -0.390063378869  0.218468898912  0.199099867824  
4.62503314018  0.138822596849  -1.99374096307  -0.948888895206  -0.388700535722  0.212551562446  0.198393626939  
4.63309121132  0.179519957664  -1.98596664088  -0.985613228862  -0.387587121119  0.210775102401  0.197602584436  
4.64124417305  0.224176845621  -1.98117009248  -1.02095343976  -0.386209879578  0.209435761251  0.196733718536  
4.64927911758  0.23123192318  -1.96085267772  -1.06241588441  -0.387842063764  0.20470373271  0.195794355328  
4.65742611885  0.16248685894  -1.93117721386  -1.09251323267  -0.385121339936  0.196041505177  0.194792113752  
4.66554021835  0.0973731398749  -1.90481101698  -1.12070482588  -0.382170924296  0.187443839952  0.193734849555  
4.67352104187  0.263589689699  -1.94290905481  -1.15995803262  -0.377671019875  0.198299645744  0.192630598634  
4.68183302879  0.421339757608  -2.0014484386  -1.20115169131  -0.380726752146  0.2067221002  0.191487520182  
4.68999814987  0.460848228618  -2.02467440757  -1.21731751328  -0.374690351334  0.209740232638  0.19031384008  
4.69797301292  0.514622157606  -2.05371107999  -1.24017955669  -0.368593826129  0.209850955184  0.189117794936  
4.70597720146  0.542086814134  -2.06880256852  -1.26865974819  -0.369189837343  0.211715757084  0.18790757719  
4.71419501305  0.571792392122  -2.09725282324  -1.27750310623  -0.366205687493  0.210428794385  0.186691281669  
4.72216510773  0.603814391697  -2.03494750746  -1.71437007919  -0.363717033952  0.210993379199  0.185476853971  
4.7302980423  0.636317333579  -1.85190411482  -2.4559564741  -0.36114236492  0.211775504025  0.18427204103  
4.73836708069  0.655891865422  -1.73679891528  -2.46694780802  -0.358729435737  0.212653807219  0.183084344193  
4.74658703804  0.690191110044  -1.72539119614  -2.45826247456  -0.352614784202  0.213839531495  0.181920975091  
4.75473308563  0.698201164285  -1.78929995264  -2.44822085164  -0.353594963573  0.213246829298  0.180788814591  
4.7628262043  0.707291485822  -1.95954396762  -2.42735924676  -0.347653023282  0.21272591169  0.179694375053  
4.77102017403  0.669113764914  -2.05059273546  -2.41952778462  -0.342942954544  0.210191081887  0.178643766089  
4.77897500992  0.708889311423  -2.43447434851  -2.39265650663  -0.338484566686  0.213450056411  0.17764266399  
4.7870080471  0.715828540752  -2.61624188297  -2.37194792192  -0.335652797919  0.211541539025  0.176696284961  
4.79522418976  0.722372810513  -2.67247153547  -2.35809936654  -0.329488869144  0.211333365409  0.175809362228  
4.80321907997  0.715544509169  -2.72582817139  -2.34324290009  -0.326900214761  0.211096698012  0.169730515143  
4.8113861084  0.721222254256  -2.77568049027  -2.32535079333  -0.317082766636  0.209304649394  0.109739332828  
4.81937718391  0.728443003932  -2.83858625675  -2.29990179701  -0.146359353946  0.210976244159  0.0530822624017  
4.82747220993  0.72187161807  -2.89981331894  -2.28321944531  0.0612959231291  0.207507591769  -0.00248970453291  
4.83559417725  0.715094201794  -2.95276868372  -2.25448094826  0.0707491043765  0.209127084313  -0.0553268754428  
4.84385108948  0.709385972826  -3.01994557826  -2.22803115925  0.0760501130614  0.207478377233  -0.106406337557  
4.85192108154  0.690379251066  -3.08108132968  -2.20063857148  0.0813136355464  0.207442304247  -0.155642131875  
4.85986399651  0.672516614836  -3.15123794894  -2.16499794489  0.0898685085844  0.205767060906  -0.188175583886  
4.86789608002  0.651758856245  -3.18500727997  -2.13324420293  0.0956749247772  0.205820948043  -0.188450376408  
4.8759701252  0.632476420897  -3.22726203525  -2.09377030372  0.104675735166  0.20424435232  -0.188645690301  
4.88411903381  0.598929116624  -3.24851867537  -2.06154208152  0.110292590715  0.202559511358  -0.188762109106  
4.8922150135  0.567416160993  -3.27914665724  -2.02272404826  0.115301654887  0.200897326108  -0.188800701192  
4.90032315254  0.534976810567  -3.28566297494  -1.98067698204  0.12431621607  0.199254887832  -0.188763003193  
4.90843009949  0.516504622852  -3.29358686221  -1.95883232923  0.128836270613  0.197769758146  -0.188651000773  
4.91651105881  0.500577817322  -3.30632037261  -1.91212819428  0.133227256196  0.194586724017  -0.188467106889  
4.92456912994  0.471179308947  -3.30019572806  -1.89135450945  0.14072572875  0.19472759928  -0.185439027738  
4.93286299706  0.45746993494  -3.30719173008  -1.24230978761  0.140195761213  0.189946357989  -0.190527862418  
4.94105219841  0.430684933345  -3.28868501371  -0.672520063425  0.143373058508  0.188392653966  -0.187538727495  
4.94891810417  0.419817453175  -3.28249149875  -0.647462151122  0.149180156233  0.188804020428  -0.184321202674  
4.95705199242  0.410402304923  -3.27210951717  -0.624505902112  0.151027304236  0.187689304156  -0.186459831623  
4.96513414383  0.390966796665  -3.27115914107  -0.60522276169  0.155591758676  0.186571138309  -0.18594045757  
4.97317814827  0.3716563329  -3.24893131174  -0.585396743442  0.15677408274  0.185557325523  -0.185373070216  
4.98128509521  0.368270632969  -3.24055790553  -0.569997759508  0.156809233909  0.183031882039  -0.184765144067  
4.98936009407  0.353638229182  -3.22468311675  -0.555666600302  0.160158586589  0.182148034603  -0.184121499069  
4.99744820595  0.3532318272  -3.20454994685  -0.542384581825  0.166939192403  0.179761394742  -0.183447074383  
5.0055911541  0.340379582285  -3.16104275298  -0.538483096998  0.170287194762  0.180775314302  -0.182746893599  
5.01366114616  0.343275757076  -3.12509755107  -0.529787867152  0.17295690154  0.178670289337  -0.182026030102  
5.02164101601  0.334976945464  -3.08291043298  -0.522285480744  0.179095176775  0.178223132345  -0.181289572838  
5.0297729969  0.326804247432  -3.02260309092  -0.515276902556  0.178234889336  0.176182208207  -0.180542592703  
5.03796505928  0.334283024889  -2.97819351473  -0.521139299169  0.183298837989  0.176035681375  -0.182565134868  
5.04596018791  0.330583600023  -2.92845264001  -0.520127460967  0.184857162451  0.174197860557  -0.179179441802  
5.05422019958  0.342950589617  -2.85319848709  -0.517659731193  0.193602595284  0.172639375271  -0.177643981627  
5.06223320961  0.344893471336  -2.81370608484  -0.524349289412  0.193875467487  0.172817199285  -0.176895392646  
5.07029604912  0.363423546266  -2.80224546286  -0.518145889004  0.196849473647  0.171531825696  -0.176164645767  
5.07837915421  0.368916646218  -2.77543993079  -0.530164893262  0.195979992165  0.170199740271  -0.175455982941  
5.08634114265  0.376684365456  -2.75915035001  -0.535315998247  0.201912883847  0.168932840563  -0.174773401636  
5.09445810318  0.385460624035  -2.74398969547  -0.551823048007  0.203886263148  0.169484196987  -0.174120634673  
5.10246014595  0.31136965954  -2.74290082353  -0.562523950954  0.205345977786  0.166842667871  -0.169434402514  
5.11057519913  0.137848409068  -2.7377832202  -0.573999018754  0.20669108044  0.167541007041  -0.134536344517  
5.11884999275  0.0208507335088  -2.73066359513  -0.585431807805  0.211548967912  0.145316179452  -0.0996363916625  
5.12691020966  -0.0513629058324  -2.73895633803  -0.600827893754  0.21029585473  0.0935031226055  -0.0649562749533  
5.13491106033  -0.0814481544924  -2.7432900318  -0.615904178029  0.211923487342  0.0529464853212  -0.0307106383643  
5.14294099808  -0.0371887650455  -2.74727549415  -0.631961775356  0.209912587614  0.0116096963049  0.00289413736037  
5.15104913712  0.0348799198348  -2.74444446621  -0.646782699397  0.214814823917  -0.0275313742964  0.036572284166  
5.15911102295  0.180532266878  -2.77374760501  -0.666983769117  0.218370294325  -0.0545250465388  0.0693309697997  
5.16715812683  0.347275435019  -2.76726268995  -0.691984454381  0.219203461099  -0.0722091251521  0.100894366236  
5.17523002625  0.579689157975  -2.74112028089  -0.713631653433  0.223864693978  -0.0804852808809  0.148629884312  
5.18340206146  0.690892517713  -2.72981796865  -0.738581006954  0.224275324193  -0.0795909677016  0.17424170787  
5.1914331913  0.721915994221  -2.69960097123  -0.761320718869  0.221603186641  -0.0797924942778  0.18977801312  
5.19957399368  0.764890807034  -2.68171013683  -0.784191466256  0.228566334058  -0.0593354375075  0.192578853029  
5.2077331543  0.816676605948  -2.64994157066  -0.814971298614  0.228554252124  -0.022019712767  0.189933783224  
5.21585011482  0.855751715741  -2.6263813498  -0.836808819711  0.235077526956  0.0218105747936  0.189850336176  
5.22387719154  0.903196758344  -2.58922012464  -0.866269649466  0.234583275207  0.0859606378178  0.192490957224  
5.23195314407  0.959831654899  -2.55019548428  -0.894260434528  0.237264273778  0.155644545705  0.189689708124  
5.24003100395  1.00042178861  -2.4939125102  -0.937225157008  0.243133516222  0.199459522976  0.192221748998  
5.24813508987  1.04992623309  -2.43650716523  -0.970622326837  0.245457656783  0.204042753885  0.192085321585  
5.25622606277  1.09634334318  -2.37775114482  -1.00290834059  0.24745357338  0.208628554105  0.189121578733  
5.2643301487  1.13970813323  -2.3210931654  -1.04424999424  0.245332431288  0.214936953955  0.188734794314  
5.27240204811  1.17784609881  -2.24384590432  -1.07130802537  0.247263133706  0.219540052904  0.188319893202  
5.28049206734  1.2125276986  -2.16856948929  -1.10638497333  0.248546579983  0.224057479388  0.190644064049  
5.28856706619  1.22901870032  -2.05972995729  -1.13545533679  0.247177394043  0.230099018906  0.187545165317  
5.29656100273  1.2696819261  -2.00009926317  -1.15883312378  0.254456491862  0.23629924625  0.187033676169  
5.30468416214  1.2905272128  -1.89402359367  -1.17534736087  0.249171998989  0.238842927443  0.186507827183  
5.31292819977  1.31927904402  -1.79375629311  -1.20768892506  0.249811173718  0.242908217283  0.1859685589  
5.3210580349  1.33301323058  -1.69337279726  -1.22933158966  0.247024431859  0.248414000236  0.185419623811  
5.32904720306  1.36613879632  -1.60026740063  -1.2497404514  0.240365363988  0.252228301843  0.184864748473  
5.33709812164  1.38088872951  -1.47684438715  -1.27165889623  0.237766113542  0.255672890417  0.181541195698  
5.34519720078  1.39052349478  -1.34022530584  -1.28021961417  0.232317764152  0.258832275673  0.180851445857  
5.35334014893  1.39683682111  -1.21109070437  -2.2640049674  0.226337196193  0.263452411912  0.177424863273  
5.36145710945  1.41101270175  -1.08955844514  -2.4733455929  0.220154123593  0.26447797063  0.159536305762  
5.36952209473  1.4204434457  -0.955905824376  -2.4716466067  0.214724128528  0.270290502007  0.0780781372025  
5.37759613991  1.42509418988  -0.818179613143  -2.48537074921  0.205620249822  0.272515967912  -0.0167332979461  
5.38574314117  1.42661858633  -0.685558912285  -2.48705750575  0.200304794198  0.277870960223  -0.104038491536  
5.39393019676  1.41790317678  -0.548203788099  -2.49470088304  0.191736178498  0.279598628424  -0.197250617072  
5.40201711655  1.41622742295  -0.421087527283  -2.4999891311  0.186657317416  0.282768845198  -0.200872224636  
5.40990710258  1.39910992295  -0.286588397947  -2.50168702762  0.178787628893  0.285578191988  -0.204481523072  
5.41804718971  1.39077962539  -0.145441147419  -2.50259696653  0.167546014512  0.288191497403  -0.208056718245  
5.42612504959  1.39107811705  -0.0146408091985  -2.50037830086  0.163436686118  0.292329539507  -0.20880098004  
5.43427300453  1.38924862826  0.100823016475  -2.50768953979  0.152291563842  0.296286107473  -0.212101602197  
5.44232606888  1.38338901581  0.220310587068  -2.51966469293  0.145157185492  0.298268533083  -0.218108001616  
5.45044016838  1.37696134113  0.313979300104  -2.51437867019  0.135066819234  0.301659389307  -0.221391110818  
5.45855903625  1.36854608023  0.391831465081  -2.52579181767  0.128220734253  0.306571529341  -0.227318902508  
5.46680307388  1.33412531329  0.477117178527  -2.53286770497  0.122493206623  0.307673641101  -0.230469556667  
5.47490620613  1.33320507369  0.527505769349  -2.54145763052  0.116564210182  0.313893715725  -0.236214305326  
5.48303103447  1.30676143464  0.581960947393  -2.55604631149  0.107997396694  0.316401403773  -0.24191090522  
5.49104714394  1.27875704764  0.624331625085  -2.56841902352  0.103494006012  0.318594794177  -0.24752341575  
5.49906206131  1.25102272799  1.59853692573  -2.57237763032  0.0954391101706  0.320480098051  -0.250239732699  
5.5072491169  1.22082537256  1.61800510934  -2.58248627787  0.0782851600271  0.323796129694  -0.252659777336  
5.51525712013  1.2007105793  1.62360633239  -2.59125840743  0.0615863102882  0.323480220734  -0.260342786825  
5.52344417572  1.17031794824  1.60493017887  -2.59075560589  0.0490870869458  0.326132635987  -0.265236583173  
5.53157305717  1.14740542383  1.60153564125  -2.60348533002  0.0340873713828  0.326896911484  -0.269922135854  
5.5397400856  1.12565885332  1.57189789858  -2.60809783796  0.0196366675018  0.327330046485  -0.274378028455  
5.54785013199  1.10345179798  1.53216371891  -2.6105467498  0.00973100966385  0.325671836648  -0.275796048097  
5.55590319633  1.07973590189  1.49567582159  -2.61942356972  -0.00263603805741  0.32532622352  -0.279573180634  
5.56400203705  1.04625527229  1.43799924081  -2.61052823716  -0.0139050950222  0.322841959484  -0.283083040547  
5.57202410698  1.04354507374  1.39414693216  -2.62330396345  -0.0206495603449  0.323693325117  -0.286307723091  
5.58019518852  1.00907243387  1.33251954374  -2.61918665215  -0.029635947874  0.322395598134  -0.286443926218  
5.58821821213  0.997390509546  1.25662097753  -2.62384427241  -0.038112604306  0.319254910122  -0.291690016599  
5.59633517265  0.983145531549  1.2048097175  -2.63167329673  -0.0448816533337  0.317475907603  -0.294006757862  
5.60436916351  0.971103040637  1.13056100009  -2.63196216638  -0.121510243839  0.315488228252  -0.295992534473  
5.61252999306  0.967976931344  1.0739368566  -2.64439790415  -0.422342423595  0.316864212066  -0.297644132004  
5.62057614326  0.954338568429  1.00571345812  -2.64811784304  -0.429414868388  0.314698917396  -0.301749844325  
5.62881302834  0.952734387728  0.929585417265  -2.66008412952  -0.432496990112  0.310676203944  -0.302884873902  
5.63676714897  0.937528995604  0.884864186408  -2.66564994553  -0.433534998772  0.307995287458  -0.303657156011  
5.64473009109  0.923437992535  0.834694240604  -2.67144920938  -0.437412500351  0.305191551538  -0.304071721794  
5.65294122696  0.9005586168  0.76950961563  -2.66014788095  -0.44044321352  0.302187876413  -0.306927379526  
5.66116404533  0.875721986921  0.729174480174  -2.67035894803  -0.439006939928  0.299079280325  -0.304009400885  
5.66912221909  0.863723271832  0.684812114818  -2.67154256021  -0.440131343427  0.297741979672  -0.303361447381  
5.67734003067  0.841532803262  0.639864964201  -2.67127774933  -0.4368333581  0.292873847627  -0.302388952436  
5.68533802032  0.832468796193  0.589049252834  -2.67148524502  -0.436487277971  0.289706919811  -0.301101416332  
5.6934440136  0.833525735495  0.56356370447  -2.68187181193  -0.435192646692  0.290113332665  -0.299514580546  
5.7015171051  0.814636671922  0.524699612954  -2.68403336933  -0.429702618686  0.287087542923  -0.297644490859  
5.70988202095  0.797493271167  0.483474048207  -2.67807586392  -0.430583727437  0.284078919665  -0.295508489653  
5.71798110008  0.780433798106  0.456868158438  -2.67674720757  -0.423523328419  0.282825863865  -0.295924181997  
5.72598004341  0.745358044259  0.399142498727  -2.66377656719  -0.423576475302  0.279851491846  -0.293481472041  
5.73402500153  0.710562467978  0.354545056801  -2.6571590056  -0.423211878358  0.276922353621  -0.293606574447  
5.74222207069  0.598332460382  0.179785499513  -2.60456796496  -0.419293826604  0.267426091575  -0.282219113883  
5.75032901764  0.581972073979  0.129182760577  -2.59957661346  -0.421942319015  0.26466778  -0.278819408521  
5.75833702087  0.483862326235  0.00345558586398  -2.5545581035  -0.418175160535  0.256140653765  -0.272516448986  
5.76650714874  0.533074579695  0.0487415980791  -2.59568889824  -0.419186429053  0.262603240494  -0.271558996423  
5.77451014519  0.433906391303  -0.120870120475  -2.53278631509  -0.415822812745  0.252907140327  -0.262343741845  
5.78260707855  0.347513997129  -0.275348560779  -2.47759312024  -0.411923261206  0.243017369515  -0.252769651222  
5.7907512188  0.455689066361  -0.131643664135  -2.56776965092  -0.422042600594  0.250208406186  -0.259687963172  
5.79886412621  0.437561888289  -0.191809469482  -2.56009547506  -0.42845750946  0.246733720013  -0.253391211309  
5.80685019493  0.422467349292  -0.25008380178  -2.54968689705  -0.431394612653  0.243368000611  -0.249759028542  
5.81494998932  0.33949506693  -0.414532276419  -2.485451834  -0.428481227402  0.234342138465  -0.240628954931  
5.82300400734  0.263753151921  -0.548198580244  -2.4342557731  -0.428396963749  0.225244485805  -0.231289047902  
5.83110618591  0.371269766342  -0.364046716547  -2.53694007977  -0.441917741568  0.234967191362  -0.23577460527  
5.8392021656  0.341535399229  -0.410916726032  -2.5289604697  -0.444964873138  0.230630465664  -0.232603340142  
5.84729599953  0.316518367134  -0.469426459548  -2.51317416184  -0.440699249767  0.228116454778  -0.226820734092  
5.85541605949  0.293404731375  -0.510200490633  -2.4958909364  -0.442751025887  0.22407688601  -0.223874733395  
5.86344814301  0.275385319488  -0.56416506018  -2.47250120555  -0.44500484249  0.218442121931  -0.21838052143  
5.87163209915  0.256493486817  -0.571339813045  -2.47738039739  -0.442996664799  0.21804572929  -0.210192658224  
5.87975811958  0.24257023147  -0.586635253612  -2.45751997734  -0.440258458231  0.212804307701  -0.207559317474  
5.88773202896  0.218858660326  -0.586723099317  -2.45483693146  -0.440997967635  0.209294313549  -0.202481221228  
5.89587306976  0.209461282511  -0.567775779328  -2.44904052069  -0.43741584762  0.206056069847  -0.194807889937  
5.90401506424  0.184048165286  -0.590303434623  -2.42496741646  -0.434289703096  0.201162126773  -0.187204575945  
5.91202902794  0.173210287416  -0.598751851797  -2.40860119698  -0.434466999726  0.198251912001  -0.182509087976  
5.92010903358  0.153624931048  -0.602914127396  -2.39211617137  -0.43087131387  0.193761485931  -0.178133736688  
5.92816209793  0.150363876604  -0.608669989328  -2.37739676316  -0.430875733741  0.191313526283  -0.171313141644  
5.93625116348  0.129143880346  -0.639532396425  -2.35009580282  -0.427648303471  0.188998619951  -0.164700438402  
5.94442915916  0.122305331446  -0.656247492746  -2.33064153496  -0.427746981525  0.18535504375  -0.161118925525  
5.95253515244  0.119178705639  -0.668908421139  -2.30261470832  -0.427595967521  0.183655353675  -0.155189365568  
5.96081113815  0.10720325663  -0.677028539243  -2.26666462702  -0.430871636226  0.182188225876  -0.152332236797  
5.96896600723  0.0970136881819  -0.671081725979  -2.24758801003  -0.434475043381  0.177576007407  -0.147166703483  
5.9770359993  0.102886746934  -0.660566069627  -2.21090896797  -0.437745732063  0.174910850461  -0.142327607583  
5.98508310318  0.0997114384054  -0.651166881694  -2.18438244794  -0.437802125407  0.172412244149  -0.137841256077  
5.99297118187  0.0999308617125  -0.639766895693  -2.14999780914  -0.437532463969  0.171911074995  -0.133727963827  
6.00111103058  0.104963539249  -0.644616195023  -2.11190639458  -0.441290881567  0.168347883142  -0.130004832115  
6.00912308693  0.102126801462  -0.660432566361  -2.05973947477  -0.445196547882  0.166594523686  0.118242079729  
6.01728105545  0.103619666739  -0.692087010154  -2.01122582382  -0.442446769446  0.163409620312  0.23260027933  
6.02547121048  0.108287693939  -0.724613834085  -1.96558191069  -0.443165609765  0.163911914866  0.237622310607  
6.03356313705  0.116935401497  -0.632193796903  -1.90042685683  -0.450724509086  0.161217718826  0.239642882961  
6.04160404205  -0.47715929785  -0.611022518629  -1.85114817542  -0.457722708772  0.158756750775  0.238493840821  
6.0499060154  -0.872912149492  -0.580932477601  -1.78412007801  -0.456913307388  0.15633636921  0.239575267517  
6.05790710449  -0.862018958647  -0.557419955835  -1.73073601356  -0.460134601016  0.126360519157  0.240279628352  
6.06604719162  -0.8553689074  -0.461939601531  -1.66779412437  -0.464694549356  -0.0182983126375  0.240607104668  
6.07397508621  -0.853845882572  -0.422354061073  -1.61932876519  -0.471496379573  -0.139922157698  0.240563007912  
6.08205604553  -0.853258864799  -0.34912605778  -1.56886570573  -0.4810889178  -0.185267717592  0.242926519186  
6.09016609192  -0.844100170317  -0.34897259545  -1.52644803516  -0.489652075067  -0.188084445554  0.239532227233  
6.09830021858  -0.829517093929  -0.389363753176  -1.50349154542  -0.492498652571  -0.187236325478  0.238403302877  
6.10631918907  -0.813170228135  -0.287283632905  -1.45060403484  -0.504592031022  -0.189711802919  0.236948395544  
6.11439919472  -0.789956413508  -0.38535562378  -1.43716705976  -0.505551954542  -0.190071960566  0.235180598053  
6.12249112129  -0.789250970894  -0.218575538371  -1.39070235822  -0.522784763565  -0.190689974257  0.23311760255  
6.13058400154  -0.762689366404  -0.323284286388  -0.323460544078  -0.524110625439  -0.190593259684  0.230778734751  
6.13893604279  -0.781318155552  0.0835406666413  -0.135808466247  -0.542260938828  -0.191260071817  0.230958377667  
6.14692807198  -0.768701868398  0.158866372318  -0.0968224924418  -0.552609363928  -0.192824565595  0.22549913968  
6.15503716469  -0.752983830655  0.209789669064  -0.0650302334806  -0.55635792444  -0.194260907015  0.225211672205  
6.1630589962  -0.735647338682  0.256794724795  -0.0200005164883  -0.562697563957  -0.193851061648  0.222108846808  
6.17108917236  -0.715305576234  0.276918606814  0.0165271335785  -0.569399154692  -0.193167827033  0.216047078663  
6.17922902107  -0.690775484463  0.254851343405  0.0506582347365  -0.57672261246  -0.195689350622  0.212460878305  
6.18729400635  -0.681644217323  0.263289175232  0.0868605391233  -0.582349123954  -0.194913376715  0.208768509534  
6.19547605515  -0.659806394873  0.276309091203  0.11104496743  -0.59082682135  -0.193799209828  0.204993788685  
6.20359611511  -0.648910637799  0.263139229622  0.125768781506  -0.602969688224  -0.194275315432  0.203936045425  
6.21180319786  -0.639331178977  0.261157764756  0.131347629408  -0.603805243493  -0.194714709182  0.197443620572  
6.21962499619  -0.615371646841  0.243260528485  0.119733660321  -0.61499482459  -0.194882688715  0.193555781709  
6.22793316841  -0.60464861385  0.221680911353  0.104344171641  -0.618589823941  -0.195095045838  0.189692806035  
6.23589515686  -0.593337317174  0.190191361975  0.0824347590935  -0.628607052725  -0.193439469368  0.185876757671  
6.2439661026  -0.580478028849  0.131881355663  0.0434791348883  -0.635454566918  -0.193288271171  0.18213161797  
6.25202012062  -0.55400675691  0.0642502276393  -0.00887806626967  -0.638477416041  -0.192942704545  0.178480304636  
6.26016402245  -0.539539257426  -0.0268193207056  -0.0696131483631  -0.64487688918  -0.190849964849  0.174944531066  
6.26823210716  -0.511852848296  -0.122869628288  -0.133271009576  -0.647083107875  -0.190225930256  0.171544679279  
6.27630710602  -0.495231716848  -0.260286025619  -0.216531398308  -0.650057950915  -0.187844059064  0.16829968725  
6.28446817398  -0.468570647446  -0.363827370739  -0.28671008126  -0.654203148744  -0.187021216273  0.165226951255  
6.29257416725  -0.439509857971  -0.5021453972  -0.355386484975  -0.65507039135  -0.184390346226  0.159574592565  
6.30060219765  -0.411603117739  -0.645495696952  -0.443822153321  -0.652240311513  -0.181627488765  0.159524838489  
6.30880999565  -0.399055033273  -0.784583619408  -0.523724838676  -0.648268094164  -0.180653731987  0.157081563824  
6.31699514389  -0.372190928597  -0.942566945148  -0.607284916744  -0.644264854183  -0.177808993094  0.154860612828  
6.32495808601  -0.348433584338  -1.08190922183  -0.696122381052  -0.635706308332  -0.174932612841  -0.010783212744  
6.33307504654  -0.339073650141  -1.23899483648  -0.797974168777  -0.630859584009  -0.173818121016  -0.176540433712  
6.34120512009  -0.332901463331  -1.37321673334  -0.894706969898  -0.621270855738  -0.169343856955  -0.209878904508  
6.34929704666  -0.328896943997  -1.50585443765  -0.99925983814  -0.611400964099  -0.16996348989  -0.21124425342  
6.357391119  -0.324688285347  -1.65048553834  -1.09609651275  -0.604927395447  -0.165539746881  -0.21236442851  
6.36548709869  -0.309767394432  -1.77311888163  -1.19478241481  -0.59072350084  -0.164421653133  -0.213237563972  
6.3737590313  -0.309278476518  -1.90619086667  -1.28526950655  -0.583484010039  -0.163523984131  -0.213863355495  
6.3819000721  -0.296120772094  -2.03178047663  -1.37032349686  -0.569053971015  -0.160920827701  -0.214243042608  
6.3899102211  -0.300637959016  -2.13460244053  -1.45789096925  -0.557521196243  -0.158492151912  -0.214379381649  
6.39807915688  -0.292305598429  -2.23162388883  -1.54059285731  -0.545959556942  -0.157733496287  -0.214276609301  
6.40604901314  -0.286986563083  -2.30458875725  -1.62375135638  -0.530534799837  -0.155437901613  -0.213940396743  
6.41414117813  -0.00279210550803  -2.42688109039  -1.77359553648  -0.500018322729  -0.151180707297  -0.212597168753  
6.42226815224  0.148307789197  -2.46190369685  -1.84644307803  -0.48825154796  -0.150997609966  -0.211608127906  
6.43032121658  0.306496529306  -2.47461021173  -2.36126445544  -0.473062197073  -0.149178450944  -0.210421442482  
6.43841719627  0.460873026879  -2.49598930762  -3.14025148488  -0.458718315459  -0.147428730711  -0.211828015424  
6.44654107094  0.608001969076  -2.49386697821  -3.18732295121  -0.447792166469  -0.14754565867  -0.207650000983  
6.45462203026  0.663907333031  -2.48810315347  -3.23747781578  -0.437769168959  -0.146121303531  -0.205920511699  
6.46284508705  0.658683434031  -2.49064706925  -3.27436945913  -0.42531023272  -0.144787282755  -0.204048753082  
6.47102117538  0.651159591464  -2.46934940479  -3.30135790496  -0.412946709664  -0.145336757354  -0.199268045529  
6.47892022133  0.658104732843  -2.44673896408  -3.33109819287  -0.401715765542  -0.128810970212  -0.191447994463  
6.48695421219  0.651013950753  -2.43189146471  -3.33932151552  -0.394928594786  -0.0519385615788  -0.186042493011  
6.49504113197  0.641386163025  -2.39930287932  -3.35645385971  -0.38888933027  0.0117257336412  -0.18048355819  
6.50319004059  0.647995418171  -2.37925472626  -3.36082048023  -0.384211959242  0.0787983801252  -0.172031614474  
6.51123905182  0.640160475287  -2.36799054705  -3.35201382114  -0.377279703921  0.154972181206  -0.166137664396  
6.51933407784  0.64554059173  -2.33966117071  -3.34334167106  -0.374426414311  0.199153547245  -0.160234864759  
6.5274951458  0.653128284624  -2.34122939034  -3.32556194311  -0.373527598496  0.199747509153  -0.154360195577  
6.5355861187  0.642894393001  -2.32083406545  -3.30735601007  -0.365471951879  0.198305531437  -0.148552586565  
6.54378199577  0.664506915907  -2.31784531567  -3.28643888596  -0.351889952973  0.200412717672  -0.140074903533  
6.5518951416  0.671128370155  -2.32922347549  -3.26392956324  -0.343946138221  0.198938610231  -0.0379533321878  
6.56009602547  0.677021568831  -2.33576342491  -3.23548849378  -0.333836030164  0.200697774477  0.22878830974  
6.567923069  0.683444740584  -2.3553910071  -3.18321412054  -0.329178933777  0.200740919761  0.232630635667  
6.57601118088  0.705531069412  -2.39219596272  -3.13804139083  -0.323261799427  0.199084235019  0.234682913042  
6.58412218094  0.710912845594  -2.42234060551  -3.08950910331  -0.314812878869  0.198793109457  0.239134836452  
6.59222102165  0.716905597304  -2.46423366784  -3.02329917554  -0.307576293986  0.201887089917  0.243352979471  
6.60036015511  0.70708410962  -2.52618447719  -2.95969296294  -0.309405880468  0.199783835043  0.244544408193  
6.60845398903  0.711587938475  -2.58162226851  -2.89269068516  -0.301567601391  0.199291905634  0.248091098335  
6.61652421951  0.716353807331  -2.65233465214  -2.82854576392  -0.298845998533  0.198741381568  0.248597370314  
6.62479901314  0.704118927298  -2.71414431732  -2.75453648691  -0.296783168363  0.197942805332  0.251448273328  
6.63277006149  0.707878495888  -2.78689773757  -2.67381737365  -0.29241028863  0.197199986105  0.25125113756  
6.64088606834  0.69325718527  -2.83817360827  -2.59992020286  -0.291986686514  0.196221141876  0.250623719314  
6.64896512032  0.6775771517  -2.88256258402  -2.52619941918  -0.288760222369  0.196891698554  0.252354487325  
6.6570520401  0.67822952114  -2.94071502524  -2.44880861198  -0.102895997091  0.192561713577  0.245504934615  
6.66506314278  0.663411481095  -3.00277985088  -2.36521864762  0.0843107488651  0.194745541624  0.249059809053  
6.67313313484  0.646194264968  -3.05011890297  -2.30094754142  0.0775558469053  0.190172956659  0.244238307736  
6.68126320839  0.62985670054  -3.09942303676  -2.21961229597  0.0844761236744  0.192259348631  0.244453559789  
6.68934512138  0.61420104159  -3.16053182867  -2.12100823676  0.0834687724789  0.189359608591  0.241719330827  
6.69745516777  0.596837446999  -3.20284582433  -2.03980677905  0.0783693281386  0.188053891857  0.238665575662  
6.70559310913  0.580438036363  -3.2489072371  -1.9443224952  0.0798089119222  0.186721456041  0.235321388316  
6.7139480114  0.563756048225  -3.29074627993  -1.86081203271  0.0807478875672  0.185391042847  0.231714529911  
6.72193908691  0.547232011693  -3.32373194745  -1.77153902429  0.0779465621658  0.184062731786  0.22787404498  
6.73005414009  0.530684508031  -3.35230597308  -1.69525753619  0.0744370940624  0.182753656177  0.226605298578  
6.73815321922  0.514333496337  -3.37356688484  -1.62308092396  0.0705002150774  0.181461480651  0.222531132978  
6.74622821808  0.498047150645  -3.38630519407  -1.55481817573  0.0698944130705  0.178443803891  0.218290753642  
6.75429320335  0.482571209975  -3.39317508897  -1.49199292949  0.0654009571736  0.178848444146  0.213918476057  
6.76239609718  0.467239816051  -4.02628881736  -1.43373241192  0.0642854005094  0.17591941695  0.209446049445  
6.77050805092  0.452795117693  -4.33982511002  -1.38092944127  0.0630461642648  0.176412778149  0.204905251941  
6.77859711647  0.438925894064  -4.32326713767  -1.33377241267  0.0617079928319  0.175336373522  0.20032765347  
6.78684020042  0.425969575096  -4.30066848037  -1.29246714617  0.0602680854145  0.176055689021  0.195744384431  
6.79485321045  0.413588505291  -4.27341586803  -1.25766103977  0.0550443902653  0.141852654375  0.191185912444  
6.80295205116  0.402383694666  -4.23956955575  -0.375592429537  0.0532458656522  0.0940150527027  0.183909562349  
6.81106114388  0.391865510552  -4.20056544046  -0.0351183528394  0.0514302822821  0.0347458293827  0.182121339974  
6.81915712357  0.382585898647  -4.15810465361  -0.0139806380437  0.0458695160518  -0.0206447913639  0.177835384382  
6.82715916634  0.390454642056  -4.11143953176  0.0021352876668  0.0437457503887  -0.0622599478725  0.173682750029  
6.8352792263  0.2562834207  -4.05948217964  0.0124472937374  0.0417302949305  -0.104216397938  0.169690342171  
6.84335517883  0.0244554848234  -4.00405092747  0.0170774278459  0.0397576202483  -0.144521739394  0.165880506868  
6.85141706467  -0.201469231511  -3.94558984257  0.0160839926346  0.0378383938093  -0.169061694375  0.162273750817  
6.85955405235  -0.422627095366  -3.88573243143  0.00900560474723  0.0322749221196  -0.171111456536  0.158888643297  
6.86767816544  -0.628385622798  -3.82134542854  -0.0023534818771  0.0340054972173  -0.169721364953  0.155741737364  
6.87584114075  -0.631126986662  -3.76055618042  -0.0295964932135  0.0283847623704  -0.169835090561  0.152847510321  
6.88379311562  -0.633250120585  -3.6931168131  -0.0513395949125  0.0303398139225  -0.171645203802  0.14745220456  
6.89194107056  -0.634107181555  -3.6261962503  -0.0784460302146  0.0288981942449  -0.169980646056  -0.0132916500418  
6.90005707741  -0.634246232549  -3.56007825181  -0.11061022362  0.0238615576288  -0.171589722267  -0.207838128596  
6.90815711021  -0.633419250642  -3.49286199851  -0.146449803973  0.0188001626021  -0.169755534945  -0.215616706523  
6.91624712944  -0.632054306233  -3.42607606263  -0.186186659699  -0.152999355585  -0.171212984086  -0.217221095463  
6.92442202568  -0.629667176473  -3.36025948158  -0.22954226256  -0.320003373417  -0.169220842101  -0.21853867327  
6.93251800537  -0.626812345176  -3.29566905939  -0.276114436607  -0.351339678346  -0.170527649088  -0.219567087861  
6.94069814682  -0.623011645875  -3.23280741941  -0.325584930016  -0.352198033496  -0.168392805664  -0.220305808841  
6.94874811172  -0.618822193289  -3.17189348787  -0.377518451376  -0.352887423662  -0.169565709695  -0.220756111725  
6.95677518845  -0.61389770124  -3.11335568191  -0.431557027328  -0.353424665629  -0.169048410441  -0.220921051066  
6.96487998962  -0.608285079637  -3.05749942463  -0.48729530949  -0.353808391145  -0.166725524681  -0.220805422309  
6.97295212746  -0.602287127681  -3.00454131483  -0.54429746745  -0.354025806541  -0.165985211102  -0.220415712322  
6.98105621338  -0.595819886481  -2.95477187648  -0.602163953561  -0.354084011636  -0.16520961284  -0.219760038693  
6.9891500473  -0.588930038335  -2.90842264694  -0.660483813892  -0.353984776828  -0.164402805013  -0.21884807799  
6.99723005295  -0.580265264034  -2.87881714003  -0.703256762081  -0.353888012226  -0.165299396605  -0.217690983358  
7.00531220436  -0.572706905389  -2.83985040267  -0.760931826459  -0.353478779285  -0.164551068712  -0.216301291931  
7.01333117485  -0.56475435501  -2.8047638077  -0.818012544587  -0.352928923174  -0.162031447914  -0.214692822692  
7.02141809464  -0.556718129279  -2.77479852487  -0.874635464108  -0.355946462736  -0.162858830551  -0.212880565536  
7.02952122688  -0.547059818351  -2.76240309774  -0.92268799462  -0.352006595825  -0.160305690109  -0.208100992066  
7.03778910637  -0.538760510613  -2.73937375864  -0.975485854073  -0.35100214377  -0.15939125106  -0.208562304873  
7.04592204094  -0.530405075468  -2.72159093217  -1.02687789881  -0.353595438401  -0.160217296948  -0.20904350636  
7.05396699905  -0.520463002623  -2.72259503477  -1.06934760408  -0.352974489521  -0.157665964381  -0.203974708972  
7.06189703941  -0.512274601577  -2.71051568718  -1.11460203827  -0.348075640886  -0.156794178836  -0.201398173146  
7.07003712654  -0.502499307341  -2.72063926931  -1.15216142579  -0.350695387713  -0.155900957537  -0.198727843725  
7.07812404633  -0.500533447348  -2.34917535111  -1.22276626368  -0.348142839186  -0.152646921537  -0.193175600667  
7.08625721931  -0.491395187278  -1.79287692644  -1.25008307838  -0.346940506534  -0.132600616555  -0.190332938579  
7.09431505203  -0.482359232371  -1.81494782835  -1.27386599266  -0.345654361883  -0.0987437483584  -0.190250845824  
7.10234904289  -0.490769932953  -1.82291775855  -1.300274494  -0.34381642704  -0.0752364458015  -0.184757548262  
7.11036109924  -0.483477360973  -1.83530698375  -1.32314463945  -0.342000167738  -0.0400574787279  -0.181891403508  
7.11839413643  -0.475099010469  -1.86636456942  -1.47368768626  -0.340538367891  -0.00700376601383  -0.179065276817  
7.12650513649  -0.468586959263  -1.88300816163  -2.51558435796  -0.334913995614  0.0260234069406  -0.176293878654  
7.13457202911  -0.46227375694  -1.90329280577  -2.52588346965  -0.332791477319  0.059348116614  -0.173593966352  
7.14284515381  -0.47182728879  -1.925694137  -2.53363157452  -0.334356338371  0.0914590110861  -0.170981403821  
7.15095806122  -0.481765111942  -1.94898303684  -2.53759706891  -0.332445247475  0.122288170621  -0.168471072323  
7.15895104408  -0.440695272276  -1.97549260757  -2.53826244686  -0.330613369927  0.141265403002  -0.168852816372  
7.16702818871  -0.391086345979  -2.0024099422  -2.53598110833  -0.32876544284  0.170945523275  -0.163954325535  
7.17511916161  -0.360928213584  -2.02810672816  -2.52121443217  -0.326721325139  0.188438032687  -0.161803937519  
7.18319916725  -0.349865869694  -2.0551691996  -2.50345229343  -0.324743882733  0.1884353708  -0.159806702491  
7.19128513336  -0.357486200644  -2.08339939315  -2.48288269638  -0.322845089285  0.18838223573  -0.157968926487  
7.19938802719  -0.383295787355  -2.11259016812  -2.45968935487  -0.321035547626  0.188280123509  -0.0898037189158  
7.2075150013  -0.461183859656  -2.15711528405  -2.4281476951  -0.319672299637  0.189757526862  0.0347424127587  
7.21558022499  -0.577253581115  -2.18468226377  -2.39135038029  -0.321468577653  0.187793712161  0.159471318158  
7.22377204895  -0.604685177726  -2.21286903598  -2.36086086144  -0.316389378771  0.185663018117  0.206835838575  
7.23198604584  -0.64363878288  -2.25428677061  -2.31392010275  -0.265061218262  0.186766011276  0.207737354138  
