Ethan-CYM/ros_catkin_ws/test/伺服_gain100_looktime003/ur_joint_actual_degree.txt
time  shoulder_pan_joint  shoulder_lift_joint  elbow_joint  wrist_1_joint  wrist_2_joint  wrist_3_joint
0.162972211838  1.57000088692  -1.22111064592  2.09334897995  -3.15244084993  -1.57068473497  -0.0009711424457  
0.171066045761  1.56997692585  -1.22113448778  2.09334897995  -3.15242845217  -1.57049304644  -0.000947300587789  
0.17919421196  1.57004880905  -1.221098725  2.09338521957  -3.15244084993  -1.57055312792  -0.00112706819643  
0.18728017807  1.57001292706  -1.22113448778  2.09338521957  -3.15244084993  -1.5706132094  -0.000995461140768  
0.195405006409  1.56998896599  -1.22111064592  2.09330129623  -3.15241653124  -1.57048160235  -0.00128299394716  
0.203482151031  1.56998896599  -1.22112256685  2.09334897995  -3.15241653124  -1.57060128847  -0.00147468248476  
0.211609125137  1.56998896599  -1.22111064592  2.09338521957  -3.15240461031  -1.57043344179  -0.00197822252382  
0.219754219055  1.56998896599  -1.22113448778  2.09337282181  -3.15239268938  -1.57056504885  -0.00263768831362  
0.227849006653  1.57002484798  -1.22108680407  2.09333705902  -3.15240461031  -1.57051736513  -0.00368100801577  
0.235946178436  1.57002484798  -1.221098725  2.09336090088  -3.15239268938  -1.57043344179  -0.00503617921938  
0.244070053101  1.56998896599  -1.221098725  2.09334897995  -3.15240461031  -1.57058889071  -0.00670320192446  
0.252182006836  1.57001292706  -1.22107488314  2.09336090088  -3.15242845217  -1.57042152086  -0.00853759447207  
0.260301113129  1.57000088692  -1.221098725  2.09334897995  -3.15236884752  -1.57054120699  -0.0105760733234  
0.26839017868  1.56996500492  -1.22107488314  2.0933971405  -3.15229684511  -1.57054120699  -0.0129025618183  
0.276518106461  1.57003688812  -1.22112256685  2.09337282181  -3.15235692659  -1.57045776049  -0.0153964201557  
0.284611225128  1.56997692585  -1.22107488314  2.09333705902  -3.15232068697  -1.57060128847  -0.0181782881366  
0.292757034302  1.57000088692  -1.221098725  2.09332513809  -3.15223676363  -1.57050496737  -0.0212238470661  
0.300845146179  1.56998896599  -1.22108680407  2.09337282181  -3.15236884752  -1.57057696978  -0.0246418158161  
0.308906078339  1.57002484798  -1.22113448778  2.09334897995  -3.1522248427  -1.57060128847  -0.0282028357135  
0.317002058029  1.56996500492  -1.22108680407  2.09337282181  -3.15227300326  -1.57046968142  -0.0319922606098  
0.3251080513  1.56997692585  -1.22108680407  2.09333705902  -3.15224868456  -1.57066089312  -0.0358889738666  
0.333227157593  1.57000088692  -1.22112256685  2.09336090088  -3.15226108233  -1.57052928606  -0.04012185732  
0.341365098953  1.57001292706  -1.221098725  2.09334897995  -3.15216523806  -1.57063705126  -0.0442112127887  
0.349464178085  1.56998896599  -1.22113448778  2.09332513809  -3.15230876604  -1.57063705126  -0.0482881704914  
0.357577085495  1.57002484798  -1.221098725  2.09330129623  -3.15212899843  -1.57056504885  -0.0523770491229  
0.365616083145  1.56996500492  -1.22111064592  2.09331321716  -3.1523326079  -1.57076865831  -0.0566218535053  
0.373680114746  1.57000088692  -1.221098725  2.09336090088  -3.15206891695  -1.57063705126  -0.0608547369586  
0.381781101227  1.57001292706  -1.22108680407  2.09337282181  -3.15224868456  -1.57067281405  -0.065183941518  
0.389883995056  1.57001292706  -1.22112256685  2.09337282181  -3.15205699602  -1.57079297701  -0.0695369879352  
0.39798116684  1.57000088692  -1.22108680407  2.09338521957  -3.15216523806  -1.57074481646  -0.0775950590717  
0.406069993973  1.57000088692  -1.22111064592  2.09330129623  -3.15206891695  -1.57067281405  -0.081288162862  
0.414134025574  1.56998896599  -1.22107488314  2.09336090088  -3.15216523806  -1.57057696978  -0.0849455038654  
0.422320127487  1.56998896599  -1.22111064592  2.09336090088  -3.15198547045  -1.57067281405  -0.0885546843158  
0.430384159088  1.57001292706  -1.22106296221  2.09334897995  -3.15216523806  -1.57049304644  -0.0919364134418  
0.438482046127  1.57001292706  -1.221098725  2.0933971405  -3.15188914934  -1.57057696978  -0.0951502958881  
0.446624040604  1.56998896599  -1.22107488314  2.09338521957  -3.15212899843  -1.57043344179  -0.0981362501728  
0.45472407341  1.57000088692  -1.22112256685  2.09337282181  -3.15190154711  -1.57039767901  -0.101025883351  
0.462821006775  1.57000088692  -1.22113448778  2.09331321716  -3.15204507509  -1.57036191622  -0.103616062795  
0.470954179764  1.57002484798  -1.22111064592  2.09330129623  -3.15196115175  -1.57019406954  -0.105834309255  
0.479051113129  1.56997692585  -1.22115880648  2.09332513809  -3.15199739138  -1.57032567659  -0.107753101979  
0.487137079239  1.57000088692  -1.22108680407  2.09333705902  -3.15199739138  -1.57013398806  -0.109455887471  
0.49525308609  1.57001292706  -1.22108680407  2.09337282181  -3.15188914934  -1.57024175326  -0.110798660909  
0.503355026245  1.56997692585  -1.22113448778  2.09340953827  -3.15203315416  -1.57006198565  -0.111962143575  
0.511464118958  1.57003688812  -1.22111064592  2.09331321716  -3.15190154711  -1.57015782992  -0.112861458455  
0.519565105438  1.56997692585  -1.22113448778  2.09337282181  -3.15205699602  -1.57018214861  -0.113425079976  
0.527667999268  1.57001292706  -1.22113448778  2.09331321716  -3.15185338656  -1.57009822527  -0.113748852407  
0.5357401371  1.57000088692  -1.22111064592  2.09336090088  -3.1521170775  -1.57019406954  -0.113760773336  
0.543804168701  1.57001292706  -1.221098725  2.09332513809  -3.1519373099  -1.57001430193  -0.113509003316  
0.551892995834  1.57000088692  -1.22113448778  2.09337282181  -3.15215284029  -1.57019406954  -0.113017384206  
0.559979200363  1.56997692585  -1.221098725  2.09336090088  -3.15198547045  -1.57006198565  -0.112334076558  
0.568104028702  1.56998896599  -1.221098725  2.09336090088  -3.15217715899  -1.57017022768  -0.111494366323  
0.576166152954  1.57002484798  -1.22112256685  2.09336090088  -3.15203315416  -1.57024175326  -0.110379521047  
0.584278106689  1.57000088692  -1.22112256685  2.09336090088  -3.15218907992  -1.57014590899  -0.109096352254  
0.592392206192  1.57000088692  -1.221098725  2.09334897995  -3.15214091936  -1.57028991381  -0.107561413442  
0.600489139557  1.57000088692  -1.22111064592  2.09332513809  -3.15216523806  -1.57019406954  -0.105822388326  
0.608580112457  1.56998896599  -1.22113448778  2.09334897995  -3.15227300326  -1.57036191622  -0.103855911885  
0.616753101349  1.57002484798  -1.22112256685  2.09332513809  -3.15223676363  -1.57033759752  -0.101769272481  
0.62481713295  1.57000088692  -1.22111064592  2.09336090088  -3.15235692659  -1.57039767901  -0.0994790236103  
0.632881164551  1.57000088692  -1.22114688555  2.09334897995  -3.15227300326  -1.57045776049  -0.0970686117755  
0.640976190567  1.57000088692  -1.22108680407  2.09333705902  -3.15241653124  -1.57039767901  -0.094574276601  
0.649071216583  1.57001292706  -1.22111064592  2.09336090088  -3.15229684511  -1.57055312792  -0.0920322577106  
0.657162189484  1.57000088692  -1.22117072741  2.09334897995  -3.15256053606  -1.57044583956  -0.0893824736225  
0.665274143219  1.57001292706  -1.221098725  2.09334897995  -3.15235692659  -1.57054120699  -0.0867083708393  
0.673364162445  1.57002484798  -1.22111064592  2.09336090088  -3.15266782442  -1.57055312792  -0.0840218702899  
0.681479215622  1.57001292706  -1.221098725  2.09334897995  -3.15250045458  -1.57054120699  -0.0813840071308  
0.689568996429  1.56998896599  -1.22112256685  2.09337282181  -3.15278798739  -1.57070905367  -0.0788300673114  
0.697642087936  1.57000088692  -1.22113448778  2.09331321716  -3.15263206164  -1.57055312792  -0.0763238112079  
0.705704212189  1.56998896599  -1.221098725  2.09331321716  -3.15279990831  -1.5707209746  -0.0736859480487  
0.713779211044  1.57002484798  -1.22111064592  2.09337282181  -3.15282375017  -1.57076865831  -0.0711076895343  
0.721871137619  1.56998896599  -1.22111064592  2.09337282181  -3.1527279059  -1.57066089312  -0.0685771147357  
0.729958057404  1.56998896599  -1.22107488314  2.09331321716  -3.15287191073  -1.57084066073  -0.0661428610431  
0.738023042679  1.56996500492  -1.22114688555  2.09336090088  -3.15273982683  -1.57074481646  -0.0638769308673  
0.746118068695  1.57000088692  -1.22114688555  2.09332513809  -3.15295583407  -1.57087690035  -0.0616820494281  
0.754208087921  1.56994104385  -1.2212899367  2.09322929382  -3.15273982683  -1.57090074221  -0.0596678892719  
0.762273073196  1.56989300251  -1.22157794634  2.09310913086  -3.15299159685  -1.57085258165  -0.0578330198871  
0.770364046097  1.56988108158  -1.22199660936  2.09302568436  -3.15276366869  -1.57103234926  -0.0560820738422  
0.778453111649  1.56979680061  -1.22264272371  2.09294176102  -3.15275174776  -1.57091266314  -0.0546434561359  
0.786516189575  1.56973683834  -1.22360068956  2.09286975861  -3.15258437792  -1.57110435167  -0.0533006826984  
0.79461312294  1.56970095634  -1.22488147417  2.09274959564  -3.15230876604  -1.57116395632  -0.0521615187274  
0.80267906189  1.569617033  -1.22652131716  2.09261751175  -3.15192538897  -1.5711162726  -0.051237885152  
0.810782194138  1.56953310966  -1.22862798372  2.09258174896  -3.15129024187  -1.57137948671  -0.0505307356464  
0.818846225739  1.56944930553  -1.23110610643  2.09241390228  -3.15057164827  -1.57128364245  -0.0500147978412  
0.826937198639  1.5693410635  -1.23395473162  2.09228229523  -3.14939719835  -1.57153541247  -0.0497272650348  
0.835000991821  1.56926953793  -1.23731834093  2.09209060669  -3.14796001116  -1.57153541247  -0.049643341695  
0.84312415123  1.56917357445  -1.24111301104  2.0919585228  -3.14606696764  -1.57173902193  -0.0498469511615  
0.851250171661  1.56906580925  -1.24526673952  2.09177875519  -3.14401847521  -1.57182294527  -0.0500629583942  
0.859340190887  1.56899344921  -1.24982768694  2.09157514572  -3.14156276384  -1.57202655474  -0.0505188147174  
0.867491006851  1.56886172295  -1.25475913683  2.09131097794  -3.13907081286  -1.57212239901  -0.0510342756854  
0.875553131104  1.56871783733  -1.26001388231  2.09105920792  -3.13619548479  -1.57221824328  -0.0517657438861  
0.883650064468  1.5686699152  -1.26568729082  2.09079551697  -3.13302070299  -1.57229024569  -0.0527251402484  
0.891805171967  1.56854975224  -1.27161246935  2.09043598175  -3.1294148604  -1.57231408754  -0.0537322203266  
0.8998670578  1.56840586662  -1.27783662478  2.09012413025  -3.12561732927  -1.57232600847  -0.0549309889423  
0.907982110977  1.56826210022  -1.28432399431  2.08972883224  -3.12157994906  -1.57224208513  -0.0562499205219  
0.916071176529  1.56814181805  -1.29102737108  2.0893330574  -3.11742335955  -1.57220632235  -0.0577014128314  
0.924137115479  1.56808197498  -1.29790908495  2.08884143829  -3.11275083223  -1.57206231753  -0.0592597166644  
0.932260990143  1.56796205044  -1.3050549666  2.08827877045  -3.10781509081  -1.57190639177  -0.0609386602985  
0.940358161926  1.56782984734  -1.31238013903  2.0877866745  -3.10277206102  -1.57182294527  -0.0627496878253  
0.948473215103  1.56768608093  -1.31978875795  2.08711528778  -3.09727317492  -1.57159549395  -0.0645244757282  
0.956583023071  1.5676381588  -1.32729322115  2.08645629883  -3.09146291414  -1.57142764727  -0.0664551893817  
0.964683055878  1.56759023666  -1.3347380797  2.085688591  -3.08568841616  -1.5712240378  -0.0684335867511  
0.97282409668  1.5674943924  -1.34231406847  2.0848736763  -3.07918388048  -1.57097274462  -0.0705197493183  
0.98091506958  1.56743407249  -1.34979373613  2.0839266777  -3.07294255892  -1.57084066073  -0.0724628607379  
0.989010095596  1.56739807129  -1.35720235506  2.08294343948  -3.06631786028  -1.57060128847  -0.0743454138385  
0.997109174728  1.56733858585  -1.36471873919  2.08185243607  -3.0595257918  -1.57037383715  -0.0761564413654  
1.00523114204  1.56729066372  -1.3721631209  2.08064174652  -3.0527694861  -1.57012206713  -0.0780509153949  
1.01332306862  1.56736254692  -1.37949926058  2.07927513123  -3.04551011721  -1.56976300875  -0.0797408262836  
1.02141618729  1.56731462479  -1.38674003283  2.0777888298  -3.03846580187  -1.56946355501  -0.0815399328815  
1.02950310707  1.56736254692  -1.39384872118  2.07616996765  -3.03112250963  -1.56915170351  -0.0832665602313  
1.03759002686  1.56733858585  -1.40084964434  2.07443189621  -3.02363568941  -1.56880456606  -0.0849097410785  
1.04563903809  1.56732654572  -1.40773088137  2.07248973846  -3.01600534121  -1.56839734713  -0.0865519682514  
1.05375814438  1.56733858585  -1.41445619265  2.07052373886  -3.00869781176  -1.56802636782  -0.0881593863117  
1.061866045  1.56737411022  -1.42099076906  2.06830596924  -3.0009115378  -1.56763106981  -0.089586083089  
1.06996011734  1.56741011143  -1.42739326159  2.06608819962  -2.99319678942  -1.56717569033  -0.0908811728107  
1.0780570507  1.56742203236  -1.43981534639  2.06131649017  -2.97792369524  -1.56620580355  -0.0933392683612  
1.08615612984  1.56747043133  -1.4457748572  2.05861949921  -2.97007781664  -1.56570274035  -0.0943706671344  
1.09419608116  1.56759023666  -1.45155460039  2.0559220314  -2.96235114733  -1.56527167956  -0.0952461401569  
1.10228419304  1.56773400307  -1.45716697374  2.0531167984  -2.95467311541  -1.56470853487  -0.0960019270526  
1.11037802696  1.56781792641  -1.46267205874  2.05021572113  -2.94697076479  -1.56419355074  -0.0966733137714  
1.11850118637  1.56802201271  -1.46797305742  2.04711055756  -2.93907720247  -1.56378633181  -0.0971882979022  
1.1265900135  1.56817781925  -1.4730351607  2.04399299622  -2.93144685427  -1.56331903139  -0.0975964705097  
1.13465213776  1.56841790676  -1.47784549395  2.04074478149  -2.9240081946  -1.56286412874  -0.0978482405292  
1.14278006554  1.5687059164  -1.48252422014  2.03736352921  -2.91650993029  -1.56239730517  -0.097992245351  
1.15084409714  1.56904184818  -1.48697597185  2.03400707245  -2.90896350542  -1.56201392809  -0.0980041662799  
1.1589410305  1.56944930553  -1.49118787447  2.03057813644  -2.90144139925  -1.56160670916  -0.0978239218341  
1.16703414917  1.56989300251  -1.49512464205  2.02702951431  -2.89418250719  -1.56119949022  -0.0976322332965  
1.175096035  1.57049262524  -1.49881059328  2.02349281311  -2.88689929644  -1.56083995501  -0.0972726980792  
1.18321418762  1.57111656666  -1.50219709078  2.01984786987  -2.87988025347  -1.56049281756  -0.096828762685  
1.19127607346  1.57194387913  -1.50528461138  2.01619148254  -2.87294513384  -1.56018096605  -0.0963614622699  
1.19935107231  1.57280743122  -1.50795299212  2.01252269745  -2.8663447539  -1.5598581473  -0.095737759267  
1.20744919777  1.5737310648  -1.51029807726  2.00877046585  -2.85943395296  -1.5595462958  -0.0950782934772  
1.21551299095  1.5748103857  -1.51229602495  2.00548505783  -2.85306150118  -1.55923539797  -0.0942867437946  
1.2236020565  1.57598555088  -1.51400787035  2.00149297714  -2.84688121477  -1.55895930925  -0.093447033559  
1.23176622391  1.57724499702  -1.51529962221  1.9977889061  -2.84065229097  -1.55870801607  -0.0925119558917  
1.23988509178  1.5785523653  -1.51629287401  1.99404764175  -2.83501083056  -1.55848056475  -0.0914686361896  
1.24797415733  1.57994365692  -1.51695090929  1.99034309387  -2.8292611281  -1.55822879473  -0.0904734770404  
1.25603604317  1.58147883415  -1.51717883745  1.98668622971  -2.82399112383  -1.55796558062  -0.0893223921405  
1.26413202286  1.58303821087  -1.51709491411  1.98308944702  -2.81896049181  -1.5577138106  -0.0881350676166  
1.27222299576  1.5847890377  -1.51669961611  1.97948074341  -2.81412154833  -1.55743819872  -0.0869959036457  
1.28033709526  1.58657622337  -1.51598197619  1.97591972351  -2.80957013765  -1.55727082888  -0.0857847372638  
1.28847408295  1.58851921558  -1.5149529616  1.97237110138  -2.80552179018  -1.55706721941  -0.0845134894  
1.2965900898  1.59051001072  -1.51362449328  1.9689540863  -2.80156928698  -1.55680352846  -0.0832904020893  
1.3046901226  1.59270501137  -1.51202088991  1.9656085968  -2.79790383974  -1.55654031435  -0.0820792357074  
1.31282711029  1.59510374069  -1.51011878649  1.96231222153  -2.79453832308  -1.5561688582  -0.0808442274677  
1.32092905045  1.59762227535  -1.50790483156  1.95902681351  -2.79161578814  -1.55582172075  -0.0796931425678  
1.32904601097  1.60023677349  -1.50555926958  1.95592164993  -2.78892070452  -1.55530673662  -0.0785420576679  
1.3371360302  1.60301935673  -1.50299865404  1.95280408859  -2.78657323519  -1.55479175249  -0.077463452016  
1.3452231884  1.60597002506  -1.50019866625  1.94979476929  -2.78445321718  -1.55415708223  -0.0763238112079  
1.35333609581  1.60916006565  -1.49725515047  1.94674921036  -2.78268033663  -1.55353385607  -0.0752447287189  
1.36146807671  1.61251866817  -1.49411994616  1.94375181198  -2.78117114702  -1.55274326006  -0.0742014090167  
1.36959910393  1.61614096165  -1.49088889757  1.94089841843  -2.77996141115  -1.55174953142  -0.0732062498676  
1.3777320385  1.62013471127  -1.48755056063  1.93809270859  -2.77905112902  -1.55068380037  -0.0722945372211  
1.38582921028  1.62450063229  -1.48419982592  1.93528699875  -2.77845269838  -1.54950982729  -0.0714433828937  
1.39392209053  1.62915432453  -1.48078948656  1.93248128891  -2.77816516558  -1.5480726401  -0.0705683867084  
1.40201115608  1.63414382935  -1.47747451464  1.92974758148  -2.77808124224  -1.54647952715  -0.0698125998126  
1.41010904312  1.63937342167  -1.47413570086  1.92701387405  -2.77833301226  -1.54467136065  -0.0691531340228  
1.4182062149  1.64481878281  -1.47077304522  1.92418432236  -2.77854806582  -1.5426829497  -0.0686252752887  
1.42629504204  1.65064799786  -1.46750575701  1.92133045197  -2.77915889422  -1.54046756426  -0.0680978933917  
1.4343931675  1.65696895123  -1.46414357821  1.91838121414  -2.77988988558  -1.53804809252  -0.0676782766925  
1.44249510765  1.6637096405  -1.46087676684  1.91546773911  -2.78059655825  -1.53540116945  -0.06737834612  
1.45063114166  1.6707624197  -1.45770579973  1.9124341011  -2.7816622893  -1.53243142763  -0.0671985785114  
1.4587521553  1.67813909054  -1.45476180712  1.90935277939  -2.78268033663  -1.52929288546  -0.0670307318317  
1.46684813499  1.68598353863  -1.45199758211  1.90609121323  -2.78381807009  -1.52605945269  -0.0669825712787  
1.47493219376  1.69433200359  -1.44937688509  1.90285396576  -2.78502780596  -1.5223587195  -0.0670188109027  
1.48301720619  1.70282399654  -1.44699556032  1.89950847626  -2.78623754183  -1.51845437685  -0.0672104994403  
1.49110722542  1.71156835556  -1.44484168688  1.89597129822  -2.78745919863  -1.51428682009  -0.0673182646381  
1.49921703339  1.72090029716  -1.44291478792  1.89237451553  -2.78865749041  -1.50996333758  -0.0675824324237  
1.50733709335  1.73068845272  -1.44107133547  1.88874101639  -2.78968698183  -1.5053041617  -0.0677741209613  
1.51546311378  1.74048852921  -1.43946820894  1.88504838943  -2.7905977408  -1.5004418532  -0.0680859724628  
1.52352499962  1.75043237209  -1.43811589876  1.88115119934  -2.79136401812  -1.49551994005  -0.0684931913959  
1.53161716461  1.76073622704  -1.43694287935  1.87725448608  -2.79191524187  -1.49016648928  -0.0689972082721  
1.53968501091  1.77114832401  -1.43610507647  1.87326145172  -2.79235822359  -1.48474103609  -0.0695007483112  
1.54781007767  1.78180003166  -1.43543512026  1.86925697327  -2.7925379912  -1.47910052935  -0.0700047651874  
1.55591011047  1.79261994362  -1.43507606188  1.86519145966  -2.79245406786  -1.47332793871  -0.0706399122821  
1.56402206421  1.80316412449  -1.43498069445  1.86125898361  -2.79225045839  -1.46732837359  -0.071323696767  
1.57212209702  1.81373238564  -1.43517190615  1.85719394684  -2.79158002535  -1.46138793627  -0.0719230810748  
1.58020710945  1.82454061508  -1.4355190436  1.85323667526  -2.79076558748  -1.45518428484  -0.0726783911334  
1.58831119537  1.83531296253  -1.43615276018  1.84923219681  -2.78977090517  -1.44896918932  -0.0733860174762  
1.59643721581  1.8456530571  -1.43697864214  1.84525108337  -2.78843003908  -1.44276553789  -0.0741055647479  
1.60450315475  1.85601758957  -1.43800813357  1.84134197235  -2.78677684466  -1.43650228182  -0.0748732725727  
1.61257004738  1.86617827415  -1.43930036226  1.83760070801  -2.78481227556  -1.43025142351  -0.0756047407733  
1.62063908577  1.87630271912  -1.44074851671  1.83364391327  -2.7825606505  -1.42403537432  -0.0763838926898  
1.62871313095  1.88625979424  -1.44241220156  1.82984256744  -2.78003293673  -1.41788036028  -0.0771392027484  
1.63685202599  1.89591681957  -1.44415885607  1.82605314255  -2.7772787253  -1.41155749956  -0.0778468290912  
1.64495420456  1.9052978754  -1.44606191317  1.82221603394  -2.77423602739  -1.4054740111  -0.0785663763629  
1.65304803848  1.91460728645  -1.44812041918  1.81842708588  -2.77105027834  -1.39965373675  -0.0792859236347  
1.66111016273  1.92379653454  -1.45021468798  1.81473398209  -2.76737338701  -1.3937142531  -0.0799329916583  
1.6692302227  1.93248176575  -1.45245248476  1.81102848053  -2.76357633272  -1.38808566729  -0.0806043783771  
1.67731809616  1.94092726707  -1.4548218886  1.80732297897  -2.75955182711  -1.38250524202  -0.081264321004  
1.68544101715  1.94931328297  -1.45722705523  1.80373764038  -2.75527650515  -1.3770330588  -0.081827942525  
1.69356417656  1.95725464821  -1.45975238482  1.80015182495  -2.75080854097  -1.37170392672  -0.082415405904  
1.70165610313  1.96462082863  -1.4622648398  1.7965669632  -2.74602967898  -1.36672240893  -0.0829909483539  
1.70969009399  1.97205889225  -1.46479016939  1.79305315018  -2.74125081698  -1.3618367354  -0.08344632784  
1.71781301498  1.97907686234  -1.46726733843  1.78963565826  -2.73616010347  -1.35704690615  -0.0839379469501  
1.72587800026  1.98550713062  -1.46976834932  1.78623008728  -2.73093825976  -1.35261565844  -0.0843699614154  
1.73397016525  1.99143373966  -1.47220927874  1.78289651871  -2.72562009493  -1.34838897387  -0.0847414175617  
1.74203801155  2.00266218185  -1.47688800493  1.77644491196  -2.71437389055  -1.3407014052  -0.0852931181537  
1.75009918213  2.00759291649  -1.47911388079  1.77338695526  -2.70868474642  -1.33737212816  -0.0855572859394  
1.75816011429  2.0120677948  -1.48126823107  1.77047300339  -2.70282823244  -1.33407909075  -0.0857246557819  
1.76622414589  2.01612257957  -1.4833501021  1.76775121689  -2.69712716738  -1.33113319079  -0.0858567396747  
1.77436614037  2.0196018219  -1.48532420794  1.76516056061  -2.69130593935  -1.32848722139  -0.0859044233905  
1.7824640274  2.02264928818  -1.48723918596  1.76273775101  -2.68544894854  -1.32610398928  -0.0859168211566  
1.79058599472  2.0251326561  -1.48904639879  1.76044797897  -2.67980844179  -1.32398444811  -0.0859168211566  
1.79861807823  2.02712392807  -1.490817372  1.75842142105  -2.67410737673  -1.32214051882  -0.0858805815326  
1.80673003197  2.02875566483  -1.49237281481  1.7565984726  -2.66846591631  -1.32046395937  -0.0857966581928  
1.81482720375  2.02996706963  -1.49385625521  1.75501537323  -2.66311246554  -1.31915885607  -0.0858085791217  
1.82292199135  2.03066301346  -1.49518472353  1.7535405159  -2.65790254274  -1.31820089022  -0.0855811277973  
1.83103704453  2.0309510231  -1.49648887316  1.75235319138  -2.65276414553  -1.3174346129  -0.0854852835285  
1.83912420273  2.03067493439  -1.49763805071  1.75138187408  -2.64794952074  -1.31696778933  -0.0853050390827  
1.84725117683  2.03002738953  -1.4987748305  1.75066232681  -2.64319497744  -1.31677610079  -0.0852811972248  
1.85531520844  2.02898359299  -1.49981576601  1.75018262863  -2.6387274901  -1.31689578692  -0.0849812666522  
1.8634390831  2.02748370171  -1.50078517595  1.74989509583  -2.63453609148  -1.31707555452  -0.0849693457233  
1.87152814865  2.02563619614  -1.5017302672  1.7498831749  -2.63058358828  -1.31757814089  -0.0846574942218  
1.8795940876  2.0235247612  -1.50260383288  1.75013446808  -2.62702638308  -1.3182609717  -0.0845854918109  
1.88771414757  2.02106547356  -1.50364476839  1.75062656403  -2.62364894549  -1.31907493273  -0.0843098799335  
1.89583516121  2.01819825172  -1.50461417833  1.75120210648  -2.62070256868  -1.32018834749  -0.0841539541828  
1.90394020081  2.01521110535  -1.50566703478  1.75201749802  -2.6180079619  -1.32145816485  -0.0838421026813  
1.91203808784  2.01203203201  -1.50677997271  1.75304889679  -2.61562472979  -1.3229191939  -0.0836146513568  
1.92013120651  2.00851678848  -1.50802451769  1.75438022614  -2.61354095141  -1.32446366945  -0.0833385626422  
1.92825913429  2.00527763367  -1.50932866732  1.75592660904  -2.61169654528  -1.32619983355  -0.0831587950336  
1.93639111519  2.00111508369  -1.51077682177  1.75767755508  -2.61012727419  -1.3280561606  -0.0829909483539  
1.94449114799  1.99712026119  -1.51240426699  1.7596321106  -2.60883409182  -1.32997209231  -0.0828946272479  
1.95261716843  1.99308896065  -1.51421100298  1.76169490814  -2.60766011873  -1.33200771013  -0.082882706319  
1.96071815491  1.98911809921  -1.51617318789  1.76397323608  -2.6068461577  -1.33409148852  -0.0830748716937  
1.96881699562  1.98515915871  -1.51841098467  1.76638364792  -2.60623485247  -1.33633023897  -0.0831826368915  
1.97688007355  1.9811643362  -1.52091199556  1.76899766922  -2.60579234758  -1.33852178255  -0.0835660139667  
1.98497819901  1.97713315487  -1.52365237871  1.77180433273  -2.60546857515  -1.34067756334  -0.0839622656452  
1.99306702614  1.97300684452  -1.52671558062  1.77478981018  -2.60527688662  -1.34290439287  -0.0845974127399  
2.00113320351  1.96875953674  -1.53014976183  1.77793169022  -2.60515720049  -1.34514409701  -0.0854614416706  
2.0092291832  1.96478867531  -1.53385907808  1.78112125397  -2.60509711901  -1.34733516375  -0.0865400473224  
2.01734113693  1.96088969707  -1.53784305254  1.78452730179  -2.60497743288  -1.34956247011  -0.087907139455  
2.02544903755  1.95717084408  -1.54218703905  1.78801679611  -2.6048339049  -1.35162240664  -0.089537922536  
2.03354120255  1.95367968082  -1.54679423967  1.79168605804  -2.6047261397  -1.35368186632  -0.0914805571186  
2.04164409637  1.9501888752  -1.55173570315  1.79542779922  -2.6044142882  -1.35565740267  -0.0937832037555  
2.04979300499  1.94679355621  -1.55706054369  1.79938459396  -2.60398370424  -1.35747796694  -0.0963853041278  
2.05787801743  1.94347059727  -1.5627916495  1.80330562592  -2.60351640383  -1.35925037066  -0.0994308630573  
2.0659661293  1.94025540352  -1.56884605089  1.8073592186  -2.60279781023  -1.36095077196  -0.102944676076  
2.07405519485  1.93717253208  -1.57514030138  1.81148433685  -2.60180360476  -1.36245948473  -0.106578175222  
2.08214616776  1.93440115452  -1.58176881472  1.8156208992  -2.60060626665  -1.3639438788  -0.110463444387  
2.090239048  1.93182194233  -1.58870870272  1.81977033615  -2.59908515612  -1.36522609392  -0.114720169698  
2.09835100174  1.92939841747  -1.59587556521  1.82408666611  -2.59716874758  -1.36647111574  -0.119468514119  
2.10641622543  1.92719113827  -1.60329372088  1.8284034729  -2.594977204  -1.36756068865  -0.124697033559  
2.11451506615  1.92516386509  -1.61101085344  1.83267211914  -2.59243852297  -1.36854249636  -0.130392853414  
2.12264919281  1.92320859432  -1.61905128161  1.83683347702  -2.58969575564  -1.36942893664  -0.136556450521  
2.1307721138  1.92138516903  -1.62733108202  1.84104251862  -2.58648568789  -1.37018329302  -0.142624203359  
2.1388862133  1.91969347  -1.63574201265  1.84513092041  -2.58304816881  -1.37075835863  -0.149051491414  
2.1469810009  1.91821789742  -1.64420110384  1.84920835495  -2.57916814486  -1.37127286593  -0.155982796346  
2.15504312515  1.9168741703  -1.65277988115  1.85312891006  -2.57492858568  -1.37159616152  -0.163393322621  
2.16314220428  1.91565108299  -1.66147739092  1.85697793961  -2.57059318224  -1.37188369433  -0.170947853719  
2.17123818398  1.91458332539  -1.6701520125  1.86071920395  -2.56595832506  -1.37212306658  -0.178299252187  
2.17933511734  1.91364741325  -1.67884952227  1.86442470551  -2.56085616747  -1.37214738527  -0.186009709035  
2.18747520447  1.91278386116  -1.68769103685  1.86791324615  -2.55552655855  -1.37211114565  -0.194224182759  
2.19556999207  1.91199171543  -1.6963408629  1.87130689621  -2.5499218146  -1.37191945711  -0.202450577413  
2.20366716385  1.91133224964  -1.70491868654  1.87450838089  -2.5441253821  -1.37170392672  -0.210329357778  
2.21178007126  1.91080415249  -1.71350890795  1.87755441666  -2.53820926348  -1.37140447298  -0.218543354665  
2.21988105774  1.91022825241  -1.72189551989  1.88043165207  -2.53207713762  -1.37105733553  -0.227105442678  
2.22794604301  1.90973651409  -1.73018628756  1.88312959671  -2.52569371859  -1.37068635622  -0.235332314168  
2.23605108261  1.9092566967  -1.73829776445  1.88573169708  -2.51914292971  -1.37032729784  -0.243414227162  
2.24414920807  1.90877664089  -1.74626571337  1.88810586929  -2.51225692431  -1.36991960207  -0.251604859029  
2.25227808952  1.90821301937  -1.75401765505  1.89026403427  -2.50552589098  -1.36948901812  -0.25993901888  
2.260379076  1.90762495995  -1.7615907828  1.89230251312  -2.49859172503  -1.36897355715  -0.267613712941  
2.26851201057  1.9069890976  -1.76886445681  1.89417266846  -2.49165755907  -1.36853057543  -0.275084797536  
2.27663207054  1.90625762939  -1.77592260042  1.89589929581  -2.48463946978  -1.36808807055  -0.282676045095  
2.28472208977  1.90540599823  -1.78267032305  1.89745807648  -2.47769338289  -1.36762029329  -0.290182892476  
2.29283809662  1.90441024303  -1.78915387789  1.8988366127  -2.47077113787  -1.36723739306  -0.297149960195  
2.30093502998  1.90324664116  -1.79531509081  1.90006017685  -2.46380120913  -1.36696178118  -0.30346995989  
2.30902504921  1.90192687511  -1.80127269426  1.90103149414  -2.45689136187  -1.36661512056  -0.309622112905  
2.31711411476  1.90046334267  -1.80687123934  1.90196657181  -2.44993287722  -1.3663871924  -0.315570179616  
2.32520103455  1.89889144897  -1.81214744249  1.90269804001  -2.44338256518  -1.36619550387  -0.321374241506  
2.33329200745  1.89700853825  -1.81708795229  1.90327358246  -2.43692714373  -1.36615974108  -0.326482597982  
2.34139800072  1.89504122734  -1.82153779665  1.90370512009  -2.43055612246  -1.36615974108  -0.330979649221  
2.34948801994  1.89285743237  -1.82561713854  1.90396881104  -2.42447263399  -1.36633950869  -0.335069004689  
2.35757803917  1.89045834541  -1.82934981981  1.90423250198  -2.41844875017  -1.36643535296  -0.338942352925  
2.36564421654  1.88774728775  -1.83268767992  1.90425682068  -2.41285592714  -1.36679441134  -0.342168156301  
2.37371015549  1.88473629951  -1.83572560946  1.90417289734  -2.40758639971  -1.36711770693  -0.345082585012  
2.3818089962  1.8814855814  -1.83831006685  1.90399265289  -2.40252095858  -1.36753684679  -0.347504440938  
2.3898870945  1.87789845467  -1.84059459368  1.90374088287  -2.39763480822  -1.36806375185  -0.349483791982  
2.3979780674  1.87396395206  -1.84242469469  1.90333366394  -2.39326364199  -1.36869842211  -0.35098249117  
2.40611600876  1.86561429501  -1.84508067766  1.90243387222  -2.38537151018  -1.3704345862  -0.352625672017  
2.4141740799  1.86117601395  -1.84579831759  1.90187072754  -2.38205415407  -1.37142831484  -0.352637592946  
2.42223906517  1.85648536682  -1.84622890154  1.90135478973  -2.37917977968  -1.37262612978  -0.352229897176  
2.43030714989  1.85144710541  -1.84631282488  1.90076732635  -2.37665301958  -1.37394315401  -0.351498428975  
2.43839502335  1.84596502781  -1.84609777132  1.90018033981  -2.37455779711  -1.37541610399  -0.350346867238  
2.44645309448  1.84012305737  -1.84564334551  1.89953279495  -2.37278491655  -1.3770330588  -0.348860088979  
2.45454216003  1.83414900303  -1.8448656241  1.89888477325  -2.3714316527  -1.37882930437  -0.346881214772  
2.46260714531  1.82780337334  -1.84383660952  1.89834547043  -2.37042600313  -1.38073331514  -0.344698731099  
2.47067308426  1.82109773159  -1.8426044623  1.89778184891  -2.36986333529  -1.38276893297  -0.342156235372  
2.47884511948  1.81403195858  -1.84118110338  1.8972902298  -2.36967164675  -1.38496047655  -0.339338604604  
2.48694109917  1.80666685104  -1.83961373964  1.89693069458  -2.36983949343  -1.38719970385  -0.336184326802  
2.49502921104  1.79921758175  -1.83790332476  1.89655923843  -2.37025815645  -1.38964254061  -0.332910839711  
2.50309109688  1.79145634174  -1.83614427248  1.89629507065  -2.37108451525  -1.39222938219  -0.329492394124  
2.5111811161  1.78299951553  -1.83429032961  1.89622306824  -2.37225801149  -1.39495975176  -0.325907532369  
2.51927113533  1.77395486832  -1.83249599138  1.89618730545  -2.37368327776  -1.39789373079  -0.321997944509  
2.52737021446  1.76510262489  -1.8306778113  1.89629507065  -2.37535983721  -1.40101892153  -0.317944351827  
2.53543806076  1.7561661005  -1.82887155214  1.89660692215  -2.37725192705  -1.4040368239  -0.313807312642  
2.54352021217  1.74646186829  -1.82720834414  1.89702701569  -2.37940770784  -1.40742570559  -0.309622112905  
2.55158519745  1.73623001575  -1.82564145723  1.8974943161  -2.38165933291  -1.41109019915  -0.305460278188  
2.55976700783  1.72606992722  -1.82414561907  1.89818954468  -2.38418609301  -1.41480285326  -0.301263634359  
2.56785702705  1.71547889709  -1.82283002535  1.89898109436  -2.38680917421  -1.41862279574  -0.297233883535  
2.57592010498  1.70450365543  -1.82165748278  1.90004825592  -2.38957482973  -1.42275411287  -0.293145004903  
2.58404922485  1.69336056709  -1.82067662874  1.90124702454  -2.39241344133  -1.42692166964  -0.288959805165  
2.59217214584  1.68184554577  -1.81988698641  1.9026260376  -2.39534742037  -1.43120938936  -0.284930531179  
2.60028409958  1.66998267174  -1.81933671633  1.90417289734  -2.39814979235  -1.43564016024  -0.28092509905  
2.60837101936  1.65810823441  -1.81899005571  1.90597105026  -2.40098792711  -1.44015485445  -0.277195278798  
2.6164932251  1.64594602585  -1.81895381609  1.90784168243  -2.40380222002  -1.44476539293  -0.27356225649  
2.62458205223  1.63367605209  -1.81908542315  1.9098443985  -2.40656882921  -1.44975978533  -0.270204369222  
2.63267016411  1.62097430229  -1.81950408617  1.91209793091  -2.4092147986  -1.45460969607  -0.26713401476  
2.64078807831  1.60836875439  -1.82015020052  1.91434049606  -2.4117658774  -1.45968753496  -0.264244381581  
2.64889621735  1.59572732449  -1.8209994475  1.91684627533  -2.41412526766  -1.46482497851  -0.261534039174  
2.65699315071  1.58290600777  -1.82205230394  1.91938829422  -2.416329209  -1.46996289888  -0.258967701589  
2.66510510445  1.57013273239  -1.82330829302  1.92211008072  -2.41838866869  -1.47534019152  -0.256641689931  
2.67322707176  1.55721604824  -1.82489949862  1.92487955093  -2.42038852373  -1.48076516787  -0.2546265761  
2.68135118484  1.54439508915  -1.82669383684  1.92768526077  -2.4222334067  -1.48627406756  -0.252732578908  
2.68947315216  1.53146636486  -1.82871562639  1.93062257767  -2.42387372652  -1.4918311278  -0.251232926046  
2.69759821892  1.51856195927  -1.83097631136  1.93354845047  -2.4253466765  -1.49737579027  -0.249937836324  
2.70568704605  1.50592160225  -1.83344108263  1.9364862442  -2.42661649386  -1.50306493441  -0.248954598104  
2.71379613876  1.4932333231  -1.83608514467  1.93950748444  -2.42766982714  -1.50874168078  -0.248211208974  
2.72186303139  1.48066484928  -1.83884841601  1.94237327576  -2.42862826983  -1.51443082491  -0.247815434133  
2.72995209694  1.46830058098  -1.8418152968  1.94535827637  -2.42925054232  -1.52009517351  -0.247635666524  
2.73805403709  1.45623612404  -1.8448656241  1.94831991196  -2.42967015902  -1.52577191988  -0.247815434133  
2.74614214897  1.44436395168  -1.8480237166  1.95123338699  -2.42990953127  -1.53136521975  -0.248067204152  
2.75426101685  1.43252766132  -1.85126573244  1.95402669907  -2.42990953127  -1.53693420092  -0.248678986226  
2.7623500824  1.42113554478  -1.85447150866  1.9566526413  -2.42972976366  -1.54269487063  -0.249446217214  
2.77044010162  1.41023504734  -1.85767728487  1.95925474167  -2.42937070528  -1.54821664492  -0.250465695058  
2.77855420113  1.39939427376  -1.86095554033  1.96171236038  -2.4288075606  -1.5537498633  -0.251820389424  
2.78660917282  1.38898551464  -1.86417323748  1.96393060684  -2.42814904848  -1.55919915835  -0.253259960805  
2.79477405548  1.37890088558  -1.8674510161  1.96610069275  -2.4272869269  -1.56481630007  -0.254962746297  
2.80283713341  1.36923599243  -1.87063295046  1.96806716919  -2.42625695864  -1.57006198565  -0.256833378469  
2.81096220016  1.35990655422  -1.87375528017  1.96976947784  -2.42504722277  -1.57529575029  -0.258895699178  
2.8190510273  1.35110533237  -1.87676984469  1.97138834  -2.42375404039  -1.58026677767  -0.261042420064  
2.82711219788  1.34265160561  -1.87968856493  1.97276687622  -2.42237645784  -1.58508140246  -0.263224903737  
2.83522605896  1.33426976204  -1.88243991533  1.97400188446  -2.42074805895  -1.58996850649  -0.265491787587  
2.84333705902  1.32641589642  -1.88498813311  1.97498464584  -2.41910726229  -1.59457904497  -0.267877880727  
2.85145807266  1.31917369366  -1.88734466234  1.97584819794  -2.41750222841  -1.59908324877  -0.270240132009  
2.85952210426  1.31223070621  -1.88954574267  1.97644758224  -2.41569453875  -1.60352689425  -0.272782627736  
2.86757922173  1.30543231964  -1.89159137407  1.9769153595  -2.41384965578  -1.60777885119  -0.275456730519  
2.87574005127  1.29928100109  -1.89342195192  1.97701120377  -2.41205388704  -1.61191064516  -0.278035465871  
2.88386702538  1.29386150837  -1.89502460161  1.97693920135  -2.41011363665  -1.61573201815  -0.280661408101  
2.89194107056  1.28888547421  -1.89647227923  1.97666311264  -2.40817338625  -1.61945659319  -0.283311192189  
2.90003800392  1.284029603  -1.89770442644  1.97629165649  -2.40604192415  -1.62287027041  -0.285973850881  
2.9081029892  1.27947330475  -1.89868528048  1.97556018829  -2.40410167376  -1.62612849871  -0.288636032735  
2.91619205475  1.27542042732  -1.89943916002  1.97462511063  -2.40211373964  -1.62925464312  -0.291261974965  
2.92430615425  1.27183568478  -1.89986926714  1.97353410721  -2.40013772646  -1.63220149675  -0.293649021779  
2.93237018585  1.26872980595  -1.90004855791  1.97233486176  -2.39812595049  -1.63488465944  -0.295879189168  
2.94046401978  1.26606822014  -1.90001327196  1.97089624405  -2.39640123049  -1.63737565676  -0.298001591359  
2.94855499268  1.26377809048  -1.89974958101  1.96927785873  -2.39460498491  -1.63965160051  -0.299956623708  
2.95665216446  1.26175200939  -1.89922315279  1.96750354767  -2.39285642305  -1.64175969759  -0.301814858113  
2.96482300758  1.26003718376  -1.89843398729  1.96565675735  -2.39126331011  -1.64368802706  -0.303553883229  
2.97288703918  1.25864624977  -1.89746457735  1.96361875534  -2.38959914843  -1.64537698427  -0.305232826863  
2.98097705841  1.25757932663  -1.89629251162  1.9614481926  -2.38817388216  -1.64693433443  -0.306755844747  
2.98907113075  1.25669205189  -1.89483338991  1.95950603485  -2.38686877886  -1.64828759829  -0.308123413716  
2.99715709686  1.25615239143  -1.89325410524  1.95698833466  -2.38573056856  -1.64948589007  -0.30934602419  
3.00522017479  1.25579285622  -1.89144832293  1.95466279984  -2.3846171538  -1.65052777926  -0.310389343892  
3.01334309578  1.25568497181  -1.88941413561  1.95220422745  -2.38364679018  -1.6514022986  -0.311336819326  
3.02146720886  1.25580489635  -1.88722497622  1.94965076447  -2.38279658953  -1.65210897127  -0.312068287526  
3.0295920372  1.25592470169  -1.88496429125  1.9470615387  -2.38205415407  -1.65261155764  -0.312667671834  
3.03771209717  1.25622427464  -1.88249999682  1.94450712204  -2.38146716753  -1.65311462084  -0.313003842031  
3.04583621025  1.25663220882  -1.87993985811  1.94192934036  -2.38102418581  -1.6534503142  -0.313256088887  
3.05392003059  1.25714743137  -1.87723619143  1.93936395645  -2.38061744372  -1.65370208422  -0.313243691121  
3.06198406219  1.25766313076  -1.87438947359  1.93682146072  -2.38043767611  -1.6538456122  -0.313051525746  
3.07004904747  1.25815486908  -1.87150651613  1.93427991867  -2.38038999239  -1.65396529833  -0.312871758138  
3.07822299004  1.25913798809  -1.86553651491  1.92936420441  -2.38062936464  -1.65403730074  -0.311996285115  
3.08628821373  1.25954580307  -1.86245090166  1.92707395554  -2.38089257876  -1.65413314501  -0.311301056539  
3.09435415268  1.25980949402  -1.85940009752  1.92479562759  -2.38125163714  -1.6541689078  -0.31049710909  
3.1024889946  1.26001322269  -1.85636169115  1.9225897789  -2.38173085848  -1.65415698687  -0.309573952352  
3.11055421829  1.2600851059  -1.85335904757  1.92044305801  -2.38227016131  -1.65427667299  -0.308566872274  
3.1186671257  1.25995326042  -1.85035640398  1.91846513748  -2.38294011751  -1.65437251726  -0.307415310537  
3.12677907944  1.25982141495  -1.84742576281  1.91653442383  -2.38371879259  -1.65439683596  -0.306120220815  
3.1348400116  1.25946187973  -1.84451848665  1.91473579407  -2.38459331194  -1.65461188952  -0.304825131093  
3.14293408394  1.25905406475  -1.84165937105  1.91305780411  -2.3855269591  -1.65469581286  -0.303362194692  
3.15102815628  1.25852644444  -1.83886033693  1.91155862808  -2.386449639  -1.6549595038  -0.301947418843  
3.15912413597  1.257807374  -1.83616811434  1.91009569168  -2.38751537005  -1.65518695513  -0.300460163747  
3.16723799706  1.25694406033  -1.8336203734  1.90881299973  -2.38865310351  -1.65553456942  -0.29890090624  
3.17536115646  1.25588870049  -1.83114415804  1.90763807297  -2.3897784392  -1.65585738817  -0.297354046498  
3.18345999718  1.25482141972  -1.82883531252  1.90666723251  -2.39103585878  -1.65619308153  -0.295723263417  
3.19155621529  1.25358664989  -1.82670575777  1.90571928024  -2.39228183428  -1.65667230288  -0.294104401265  
3.19967508316  1.25221967697  -1.82467252413  1.90508413315  -2.39353877703  -1.65715152422  -0.29243737856  
3.20776414871  1.25076925755  -1.82278234163  1.90437650681  -2.39482099215  -1.65766650835  -0.290782276784  
3.21582603455  1.24927043915  -1.82107097307  1.90393257141  -2.39608985582  -1.65821725527  -0.289139572774  
3.22392511368  1.24769937992  -1.8195403258  1.90363359451  -2.39732343355  -1.65882808367  -0.287545029317  
3.23202514648  1.24610471725  -1.81816465059  1.903465271  -2.39852077166  -1.65942699114  -0.286033932363  
3.24012207985  1.24442660809  -1.81694394747  1.90341758728  -2.39973050753  -1.66009790102  -0.284534756337  
3.24818515778  1.24274766445  -1.81581956545  1.90352535248  -2.40098792711  -1.66078073183  -0.283071819936  
3.25628900528  1.24109351635  -1.81493455568  1.90371704102  -2.40212566057  -1.66145164171  -0.281728569661  
3.26439213753  1.23939096928  -1.81421643892  1.90405273438  -2.40328723589  -1.66219407717  -0.280445877706  
3.27251911163  1.23772406578  -1.81366616884  1.90443658829  -2.40434104601  -1.66292506853  -0.279246632253  
3.28058409691  1.23608183861  -1.8133075873  1.90500020981  -2.4053829352  -1.66366750399  -0.278143231069  
3.28864717484  1.23451113701  -1.81317598024  1.90558719635  -2.40634090105  -1.66444617907  -0.277135197316  
3.29680204391  1.23295211792  -1.81315166155  1.90637922287  -2.40722686449  -1.66515285174  -0.276248280202  
3.30488920212  1.23134577274  -1.81337911287  1.90713453293  -2.40805370012  -1.66597921053  -0.275397125875  
3.31298804283  1.22979915142  -1.81370193163  1.90803337097  -2.40880805651  -1.66669828096  -0.274677101766  
3.32111310959  1.22838425636  -1.81425267855  1.90895652771  -2.40950280825  -1.66748887697  -0.274149719869  
3.32920503616  1.22694540024  -1.8148744742  1.91004753113  -2.41011363665  -1.66817123095  -0.273622337972  
3.33729505539  1.22559070587  -1.81562787691  1.91113901138  -2.41060477892  -1.66889030138  -0.273166481649  
3.3454182148  1.22429609299  -1.81653720537  1.91233825684  -2.4110472838  -1.6695488135  -0.272950474416  
3.35351920128  1.2231811285  -1.81751853624  1.9134888649  -2.41141873995  -1.67017156283  -0.272722546254  
3.36165714264  1.22208988667  -1.81867868105  1.91478347778  -2.41167003313  -1.67081863085  -0.272722546254  
3.369754076  1.22111845016  -1.81994706789  1.91607904434  -2.41182595888  -1.67140561739  -0.272770706807  
3.37788701057  1.22020757198  -1.82127505938  1.91732645035  -2.41194564501  -1.671980683  -0.27298671404  
3.38597202301  1.21948814392  -1.82275849978  1.91853713989  -2.41202956835  -1.67250758806  -0.273142639791  
3.39406514168  1.21882867813  -1.82426578203  1.91984367371  -2.41192180315  -1.67299873034  -0.273418251668  
3.4021961689  1.21830141544  -1.82584458986  1.92117452621  -2.4117901961  -1.67335778872  -0.27380210558  
3.41031599045  1.21784555912  -1.82745963732  1.92239761353  -2.41158610979  -1.67375308672  -0.274209801351  
3.41841006279  1.21755754948  -1.82915813128  1.92357301712  -2.41141873995  -1.67411262194  -0.274749581014  
3.42649817467  1.2173422575  -1.83083326021  1.92477178574  -2.41111928621  -1.67441159884  -0.27528888384  
3.43462610245  1.21729433537  -1.8325436751  1.92599439621  -2.41076022783  -1.67462760607  -0.275912110006  
3.44272112846  1.21731829643  -1.83429032961  1.92709779739  -2.41036492983  -1.67483121554  -0.276620213185  
3.45082116127  1.21747374535  -1.83601314226  1.92812871933  -2.40988618532  -1.67496329943  -0.277363602315  
3.45891714096  1.21772575378  -1.83779555956  1.9291601181  -2.40938264528  -1.67504674593  -0.278250996267  
3.46703410149  1.21803736687  -1.83945781389  1.93011951447  -2.40878421465  -1.67508298555  -0.279102150594  
3.47515106201  1.21844518185  -1.84103709856  1.93097066879  -2.40818530718  -1.67511874834  -0.28009778658  
3.48327112198  1.21890056133  -1.84266454378  1.93176221848  -2.40749055544  -1.67502290407  -0.28100902239  
3.49139714241  1.21945226192  -1.84420758883  1.9325056076  -2.40673667589  -1.67497522036  -0.281932655965  
3.4995071888  1.22014725208  -1.84565526644  1.9331407547  -2.40604192415  -1.6749270598  -0.282951656972  
3.50760006905  1.22089064121  -1.84710246721  1.93376398087  -2.40527517  -1.67477113405  -0.28404266039  
3.51574110985  1.22168242931  -1.84844237963  1.9342918396  -2.40453273455  -1.67473537127  -0.285062138234  
3.52380514145  1.22247338295  -1.84965068499  1.9347114563  -2.40373021761  -1.67456752459  -0.286082092916  
3.53187012672  1.22337257862  -1.85078698794  1.93503570557  -2.40302402178  -1.6744239966  -0.287089172994  
3.53995418549  1.22423613071  -1.85181600252  1.93529891968  -2.40220958391  -1.67422038714  -0.288132492696  
3.54801607132  1.22520720959  -1.85271341005  1.93540668488  -2.40143090883  -1.67389709154  -0.28910333315  
3.55613017082  1.22599828243  -1.85358602205  1.93551445007  -2.40067655245  -1.67362147966  -0.290098969136  
3.56421709061  1.22704124451  -1.85430366198  1.93550252914  -2.39989787737  -1.67322618166  -0.291010204946  
3.57234406471  1.22804868221  -1.85492641131  1.93546676636  -2.39915544191  -1.67289096514  -0.291813675557  
3.58046102524  1.22895979881  -1.8554165999  1.93525075912  -2.39856893221  -1.67250758806  -0.29260522524  
3.58855319023  1.22985899448  -1.85575133959  1.93502378464  -2.39785033861  -1.6720884482  -0.293396774923  
3.59666919708  1.23080611229  -1.85609847704  1.93475961685  -2.39723951021  -1.67160922686  -0.294068161641  
3.60476517677  1.23177719116  -1.8563135306  1.93438768387  -2.39662868181  -1.67120200792  -0.294728104268  
3.61282801628  1.23267686367  -1.85637361208  1.93401622772  -2.39601785341  -1.67078239122  -0.295279328023  
3.62091708183  1.23355197906  -1.8563135306  1.93357229233  -2.39553863207  -1.6703508536  -0.29585534731  
3.62900805473  1.23439097404  -1.85617047945  1.93302106857  -2.39498836199  -1.66990787188  -0.296323124562  
3.63713502884  1.23511075974  -1.855823342  1.93251752853  -2.39450914065  -1.66946489016  -0.29668265978  
3.64522409439  1.23581779003  -1.8555243651  1.93186998367  -2.39408952395  -1.66903335253  -0.297042194997  
3.65333414078  1.23647689819  -1.85498553911  1.93121051788  -2.39371854464  -1.66856652895  -0.297329727803  
3.66144919395  1.23699295521  -1.85445958773  1.93045473099  -2.39339524904  -1.66812354723  -0.297546211873  
3.66956520081  1.2374484539  -1.85380155245  1.92966365814  -2.39317971865  -1.66775209108  -0.297642056142  
3.6776471138  1.23789179325  -1.85301191012  1.92886018753  -2.39294034639  -1.66740495363  -0.297701660787  
3.68572306633  1.23817980289  -1.85219842592  1.92793703079  -2.39277249971  -1.66710502306  -0.29774982134  
3.69381713867  1.23833560944  -1.85121804873  1.92700195312  -2.39268857638  -1.6667822043  -0.297665898  
3.70188117027  1.2384557724  -1.85008126894  1.92599439621  -2.39267665545  -1.66650611559  -0.297630135213  
3.70994710922  1.23837161064  -1.84886104265  1.92501163483  -2.3927004973  -1.66623050371  -0.297401730214  
3.71805620193  1.23790383339  -1.84600192705  1.92275714874  -2.3928325812  -1.66593152681  -0.297030274068  
3.72610020638  1.23750865459  -1.8443868796  1.92158269882  -2.39304763476  -1.6658595244  -0.29683858553  
3.73416900635  1.23700499535  -1.84264070192  1.92037153244  -2.39327556292  -1.66583568255  -0.296526734029  
3.74225902557  1.23633348942  -1.84067851702  1.91910076141  -2.39350301424  -1.66588336626  -0.296119038259  
3.75037717819  1.23557806015  -1.83860904375  1.9176735878  -2.39377862612  -1.66589528719  -0.295711342488  
3.75846600533  1.23463094234  -1.83630019823  1.91625833511  -2.39417344729  -1.66606313387  -0.295255486165  
3.76656222343  1.23349177837  -1.83385974566  1.91473579407  -2.39456922213  -1.66617089907  -0.294787708913  
3.77465415001  1.23218512535  -1.83128768602  1.91318893433  -2.39511949221  -1.66638642946  -0.294284645711  
3.78275203705  1.23074626923  -1.82856017748  1.91155862808  -2.39569455782  -1.66663819948  -0.293780628835  
3.79084014893  1.22915196419  -1.82564145723  1.9098443985  -2.39638930956  -1.66702109972  -0.293133083974  
3.79893612862  1.22748506069  -1.82254249254  1.90810537338  -2.39725143114  -1.66742879549  -0.2925213019  
3.80703115463  1.22571063042  -1.81934863726  1.90629529953  -2.39814979235  -1.66790754  -0.291921917592  
3.81509399414  1.2237803936  -1.81585580507  1.90446043015  -2.3991912047  -1.6684106032  -0.291298214589  
3.82315516472  1.22170639038  -1.81214744249  1.90238618851  -2.40049678484  -1.66905767122  -0.290602509175  
3.83128714561  1.21948814392  -1.80815154711  1.90026426315  -2.4018500487  -1.66980010668  -0.289919201528  
3.83939218521  1.21715044975  -1.80389243761  1.89808177948  -2.40339500109  -1.67060262362  -0.289151493703  
3.84748601913  1.21470463276  -1.799370114  1.89577913284  -2.40511924425  -1.67153770128  -0.288420025502  
3.85558605194  1.21229469776  -1.79460937182  1.89346504211  -2.40694028536  -1.67244750658  -0.287664715444  
3.86374020576  1.20983672142  -1.78962022463  1.8910074234  -2.40898782412  -1.67347795168  -0.286813561116  
3.87180519104  1.20740282536  -1.78445274035  1.88841724396  -2.4111793677  -1.67448360125  -0.285973850881  
3.87990307808  1.20493292809  -1.77903348604  1.88571977615  -2.41362220446  -1.67554980913  -0.285074059163  
3.88796806335  1.20252299309  -1.77336246172  1.882853508  -2.41618520418  -1.67678338686  -0.28412658373  
3.89606118202  1.20010149479  -1.76740485827  1.87985610962  -2.41897565523  -1.67795735994  -0.283251587545  
3.90412521362  1.19767951965  -1.76124364534  1.87666654587  -2.42200547854  -1.67914325396  -0.282267872487  
3.91222119331  1.19528150558  -1.75480777422  1.87332105637  -2.42522699038  -1.68038922945  -0.281344715749  
3.92034816742  1.19284796715  -1.74814397493  1.86991596222  -2.42872411409  -1.68169480959  -0.280313316976  
3.92843914032  1.19051027298  -1.74125272432  1.86637878418  -2.43230468432  -1.68296462694  -0.279306236898  
3.93653512001  1.18817222118  -1.73415834108  1.86262559891  -2.4361131827  -1.68429404894  -0.278262917195  
3.94463205338  1.18587052822  -1.72683698336  1.85887241364  -2.44005328814  -1.68550378481  -0.27725536028  
3.95279502869  1.18373656273  -1.7192996184  1.8548913002  -2.44412500063  -1.686774079  -0.276200119649  
3.96085906029  1.18181800842  -1.71164256731  1.850730896  -2.44834024111  -1.68791181246  -0.275097195302  
3.96895718575  1.18003201485  -1.70371085802  1.8465218544  -2.45279580752  -1.68910915056  -0.273981873189  
3.97704720497  1.17834103107  -1.69564706484  1.84215736389  -2.45732242266  -1.69028312365  -0.272806469594  
3.98514509201  1.17685461044  -1.68754798571  1.83762454987  -2.46198112169  -1.69138509432  -0.271715466176  
3.99326515198  1.17548811436  -1.67913657824  1.83296012878  -2.46681958834  -1.69246322313  -0.270588223134  
4.0013999939  1.17436122894  -1.67073756853  1.82812786102  -2.47169381777  -1.69343358675  -0.269472424184  
4.0094871521  1.173402071  -1.66230279604  1.82323551178  -2.47649604479  -1.69436818758  -0.268369499837  
4.01759719849  1.1725025177  -1.65382081667  1.81813907623  -2.48068744341  -1.69527799288  -0.267278496419  
4.02572321892  1.1718313694  -1.64525396029  1.81303071976  -2.48594504992  -1.69605666796  -0.266210858022  
4.0337870121  1.17125582695  -1.63672334353  1.80779075623  -2.49089128176  -1.6967514197  -0.265191857015  
4.04187321663  1.17086029053  -1.62813264528  1.80252695084  -2.49562150637  -1.69743425051  -0.264136616384  
4.04996299744  1.17060863972  -1.61957770983  1.79721450806  -2.50054389635  -1.69800931612  -0.263129059468  
4.05806803703  1.17053639889  -1.61104661623  1.79179430008  -2.50537044207  -1.69852430025  -0.262146298085  
4.06615805626  1.17066860199  -1.60268384615  1.78625392914  -2.50990897814  -1.69895583788  -0.261150185262  
4.07424807549  1.17086029053  -1.59439164797  1.78061819077  -2.5144127051  -1.69925529162  -0.26026279131  
4.08232307434  1.17124378681  -1.58605224291  1.77492189407  -2.51889115969  -1.69955474535  -0.259411636983  
4.09041905403  1.17177152634  -1.57785636583  1.76920175552  -2.52307111422  -1.69972259203  -0.258560005819  
4.09857320786  1.17247855663  -1.56986314455  1.76358938217  -2.52699882189  -1.69980651537  -0.257756535207  
4.10671305656  1.1732583046  -1.56194192568  1.75800180435  -2.53078347841  -1.69985372225  -0.257085148488  
4.11477708817  1.1742169857  -1.55416471163  1.75231742859  -2.53436452547  -1.69974643389  -0.256425682698  
4.12284016609  1.17533230782  -1.54667407671  1.74671697617  -2.53771764437  -1.69967443148  -0.255837742482  
4.13093805313  1.17661499977  -1.53932696978  1.74117708206  -2.54078418413  -1.69943505922  -0.255298439656  
4.13902521133  1.17804145813  -1.53213578859  1.73570823669  -2.5435980002  -1.69926721254  -0.254890743886  
4.14711618423  1.179672122  -1.52602130571  1.73020362854  -2.54625732103  -1.6988957564  -0.254506889974  
4.15520215034  1.181422472  -1.51880580584  1.72478342056  -2.54874784151  -1.69859630266  -0.254159275685  
4.16332817078  1.18328082561  -1.51234418551  1.71947097778  -2.55091602007  -1.69821340242  -0.253967110311  
4.17143321037  1.18528294563  -1.50616962114  1.71429014206  -2.55275994936  -1.69769794146  -0.253799263631  
4.17949414253  1.18750083447  -1.50016242663  1.70918178558  -2.5544608275  -1.69713479677  -0.253643814717  
4.18755817413  1.18986284733  -1.49445468584  1.70413255692  -2.55588609377  -1.69654781023  -0.253631893788  
4.19562220573  1.19226038456  -1.48899823824  1.69932365417  -2.55713159243  -1.6958172957  -0.253691498433  
4.20371603966  1.19481420517  -1.48387653032  1.69447898865  -2.55807763735  -1.69507438341  -0.253859345113  
4.211810112  1.19740390778  -1.4789703528  1.6898856163  -2.55872422854  -1.69428426424  -0.253907505666  
4.21989822388  1.20007741451  -1.47441131273  1.68531608582  -2.5590356032  -1.69338590304  -0.254135433828  
4.22796201706  1.20295476913  -1.47004348436  1.6809630394  -2.55931121508  -1.6923678557  -0.254327122365  
4.23602414131  1.20601189137  -1.46595126787  1.67674160004  -2.5592396895  -1.69134933153  -0.254590813314  
4.24412322044  1.2093091011  -1.4620979468  1.67271232605  -2.55898791948  -1.690223519  -0.254902664815  
4.25224804878  1.21278595924  -1.45842343966  1.66881418228  -2.55850869814  -1.68900138537  -0.255262200032  
4.26034522057  1.21650254726  -1.45498925844  1.66516876221  -2.55790979067  -1.68775588671  -0.255718056356  
4.2684700489  1.22044730186  -1.45190173784  1.66163063049  -2.55710727373  -1.68639022509  -0.256150070821  
4.27658104897  1.22449982166  -1.44906551043  1.65828466415  -2.55612546602  -1.68496448198  -0.256629769002  
4.28469705582  1.22858834267  -1.44651681582  1.65503454208  -2.55516750017  -1.68341952959  -0.257181469594  
4.29276204109  1.23286819458  -1.44418269793  1.65197658539  -2.55392200152  -1.68182689348  -0.257780377065  
4.30082416534  1.23730456829  -1.44205314318  1.64907407761  -2.55262881914  -1.68013745943  -0.258404556905  
4.30891799927  1.24193274975  -1.44009048143  1.64626741409  -2.55119115511  -1.67834073702  -0.259003464376  
4.31700515747  1.24683654308  -1.43833142916  1.64379692078  -2.54974252382  -1.67651969591  -0.259639565145  
4.32509803772  1.2520762682  -1.43678743044  1.64159011841  -2.54812509218  -1.67454368273  -0.260202709829  
4.33318305016  1.25743544102  -1.43542319933  1.63941955566  -2.54643661181  -1.67250758806  -0.260874096547  
4.34128117561  1.26291489601  -1.43422633806  1.6375246048  -2.54468804995  -1.67036277453  -0.261486355458  
4.34937214851  1.2683583498  -1.43329316774  1.63580989838  -2.5429871718  -1.66813546816  -0.262073818837  
4.35750508308  1.27388572693  -1.43251544634  1.63433504105  -2.54131061236  -1.6658595244  -0.26278144518  
4.36559319496  1.27961683273  -1.43189269701  1.63300323486  -2.53959829012  -1.66345197359  -0.26335698763  
4.3736550808  1.2855643034  -1.43156987826  1.63190031052  -2.53793317476  -1.66093618075  -0.263968292867  
4.3817820549  1.29160737991  -1.43149787584  1.63091659546  -2.53637677828  -1.65837318102  -0.264531914388  
4.38983201981  1.29769837856  -1.43156987826  1.63016080856  -2.53471166292  -1.65573817888  -0.265095535909  
4.39816117287  1.31048023701  -1.43212062517  1.62922525406  -2.53151446978  -1.65015632311  -0.266091171895  
4.40625810623  1.31708693504  -1.43258744875  1.629093647  -2.52999335924  -1.64717370669  -0.266570870076  
4.41435599327  1.32346630096  -1.43324548403  1.62918949127  -2.52862817446  -1.64409524599  -0.266990486776  
4.42247915268  1.32989323139  -1.43403512636  1.6294054985  -2.52721482912  -1.64106494585  -0.267422024404  
4.43057513237  1.33629655838  -1.43490916887  1.62974119186  -2.52601749102  -1.63790303866  -0.267733875905  
4.43865609169  1.34278333187  -1.43586618105  1.63032865524  -2.52479583422  -1.63469249407  -0.268069569265  
4.44676399231  1.34931850433  -1.4369190375  1.63115644455  -2.52363378206  -1.63147098223  -0.268369499837  
4.45485401154  1.35563790798  -1.43810397783  1.63203191757  -2.52270013491  -1.62817699114  -0.268633190786  
4.46291399002  1.36180126667  -1.43944436709  1.63303899765  -2.52181369463  -1.6248348395  -0.268873039876  
4.4710290432  1.36798882484  -1.44089252154  1.63422679901  -2.52110702196  -1.62151700655  -0.269089047109  
4.47911715508  1.37410449982  -1.44246036211  1.63554620743  -2.52043611208  -1.61811525026  -0.269305054341  
4.48723506927  1.38021981716  -1.44399196306  1.63694906235  -2.51995689074  -1.61464149157  -0.269388500844  
4.49529910088  1.38615584373  -1.44557124773  1.638484478  -2.51952630678  -1.61118013064  -0.269436661397  
4.50343513489  1.39188766479  -1.44724685351  1.63999509811  -2.51926261583  -1.60776693026  -0.269460503255  
4.51153421402  1.39746367931  -1.44894630114  1.64165019989  -2.51909476915  -1.6042693297  -0.269364658986  
4.51965498924  1.40289592743  -1.45059806505  1.64335346222  -2.51905900637  -1.60089141527  -0.26931697527  
4.5277531147  1.40823221207  -1.4522245566  1.6452126503  -2.51911908785  -1.59754974047  -0.269292656575  
4.53585314751  1.4133528471  -1.45386439959  1.64705896378  -2.51926261583  -1.59421998659  -0.269112888967  
4.54395008087  1.41813755035  -1.45554000536  1.64890623093  -2.51958591143  -1.59101039568  -0.269028965627  
4.55207419395  1.42275452614  -1.45716697374  1.65072870255  -2.51995689074  -1.58792001406  -0.268824879323  
4.56013703346  1.42720365524  -1.45881873766  1.65258836746  -2.52032834688  -1.58478194872  -0.268729035054  
4.56822013855  1.43150854111  -1.46038657824  1.65447092056  -2.52081948916  -1.58177596727  -0.268453423177  
4.57634711266  1.43568170071  -1.46190578142  1.65633010864  -2.52143031756  -1.57885343233  -0.268225495015  
4.58440709114  1.43978333473  -1.46332961718  1.65806865692  -2.52207690874  -1.57605058352  -0.267949883138  
4.59247016907  1.44364452362  -1.46475440661  1.65981960297  -2.52284318606  -1.57328397432  -0.267661873494  
4.60058903694  1.44725441933  -1.46607000033  1.66154670715  -2.52372962633  -1.57056504885  -0.267398182546  
4.60869312286  1.45069611073  -1.46730310122  1.66320180893  -2.52453214327  -1.56800252596  -0.267086331044  
4.61679315567  1.45387411118  -1.46846372286  1.66470050812  -2.5255501906  -1.56558305422  -0.266702953969  
4.62488222122  1.45675218105  -1.46950465838  1.66618776321  -2.5264843146  -1.56325942675  -0.266414944326  
4.63297104836  1.45959401131  -1.47046214739  1.66754293442  -2.5275982062  -1.56104356447  -0.266007248555  
4.64108514786  1.46234023571  -1.47131187121  1.66882610321  -2.52855664888  -1.55889970461  -0.265599552785  
4.64918112755  1.46499061584  -1.47206575075  1.67004966736  -2.52972966829  -1.55683929125  -0.26525146166  
4.65727901459  1.46761703491  -1.4727118651  1.67111730576  -2.53078347841  -1.55494720141  -0.264880005513  
4.66537117958  1.47014760971  -1.47332221666  1.67208862305  -2.53194553057  -1.55306703249  -0.264436070119  
4.67343711853  1.47254598141  -1.47378856341  1.67287969589  -2.53309518496  -1.55142575899  -0.264076534902  
4.68153309822  1.47465670109  -1.47424394289  1.67359972  -2.53416091601  -1.5497973601  -0.263704601918  
4.68963003159  1.47669553757  -1.47460252443  1.67417526245  -2.53525096575  -1.54830009142  -0.263249222432  
4.69778299332  1.47875785828  -1.47486573855  1.67463064194  -2.53634053866  -1.54682714144  -0.262901608144  
4.70585012436  1.48065292835  -1.47504550615  1.67493057251  -2.53740674654  -1.54534227053  -0.262601677571  
4.71394205093  1.48261940479  -1.47515327135  1.67515850067  -2.53838903109  -1.54396468798  -0.262265984212  
4.72203922272  1.4847304821  -1.47522479693  1.67515850067  -2.53938228289  -1.5425751845  -0.261917893087  
4.73016214371  1.48669743538  -1.47518903414  1.67507457733  -2.54024488131  -1.54122192064  -0.261606518422  
4.73827505112  1.48867595196  -1.47518903414  1.67489480972  -2.54120284716  -1.53988057772  -0.261341873799  
4.74639320374  1.4906065464  -1.47511703173  1.67464256287  -2.54194528261  -1.53855115572  -0.261030499135  
4.75448203087  1.49254953861  -1.47509318987  1.67424726486  -2.54274827639  -1.53728181521  -0.260826412831  
4.76256513596  1.49452841282  -1.47505695025  1.67379140854  -2.54346639315  -1.53605968157  -0.260646645223  
4.77063798904  1.49654328823  -1.47506934801  1.67332363129  -2.54410154024  -1.53471833864  -0.260466877614  
4.77879309654  1.49864196777  -1.47509318987  1.67274808884  -2.54460412661  -1.53353292147  -0.26026279131  
4.78688716888  1.50068080425  -1.47515327135  1.67210054398  -2.5451315085  -1.53239518801  -0.260118786489  
4.79497408867  1.5027551651  -1.47534448305  1.67141675949  -2.54546672503  -1.531209294  -0.260047260915  
4.80306410789  1.50475800037  -1.47552425066  1.67080497742  -2.54580194155  -1.53007156054  -0.25993901888  
4.81116199493  1.50676095486  -1.47581130663  1.67001390457  -2.54600555102  -1.52899390856  -0.259927097951  
4.8192551136  1.50869190693  -1.47621804873  1.66919803619  -2.54607755343  -1.52791577974  -0.259891335164  
4.82734322548  1.51063477993  -1.47666103045  1.66845417023  -2.54596978823  -1.5268500487  -0.259903256093  
4.83547520638  1.51255345345  -1.47718698183  1.66765117645  -2.54581433931  -1.52579576174  -0.259927097951  
4.84358215332  1.51449632645  -1.47780973116  1.66691970825  -2.54544240633  -1.52471810976  -0.259987179433  
4.85168099403  1.51640331745  -1.47859985033  1.66612768173  -2.5451315085  -1.52365190188  -0.260166947042  
4.85974407196  1.51828634739  -1.47956878344  1.66542053223  -2.54460412661  -1.52259809176  -0.260094944631  
4.86779403687  1.52021694183  -1.48071748415  1.66471290588  -2.54394561449  -1.52164012591  -0.260347191487  
4.87586021423  1.52208757401  -1.48197395006  1.6641368866  -2.54319125811  -1.52062255541  -0.260250870381  
4.88398218155  1.52395868301  -1.48349363009  1.66347789764  -2.54224521319  -1.51963979403  -0.260490719472  
4.89207005501  1.52579379082  -1.48513299624  1.66298627853  -2.54113084475  -1.51870614687  -0.260526959096  
4.90018105507  1.52760446072  -1.48702365557  1.66249418259  -2.5398495833  -1.51772386232  -0.260718647634  
4.9082942009  1.52936768532  -1.48909408251  1.66220617294  -2.53844863573  -1.51684934298  -0.260742489492  
4.91635608673  1.53108286858  -1.49131995836  1.66197824478  -2.53696328798  -1.51590377489  -0.260970417653  
4.92447113991  1.53270184994  -1.49372512499  1.66179847717  -2.53527480761  -1.51508886019  -0.261102501546  
4.93259811401  1.53423702717  -1.49629766146  1.66177463531  -2.53334695498  -1.51419097582  -0.261354271566  
4.94068622589  1.53582000732  -1.49908572832  1.66184663773  -2.53138238588  -1.5134361426  -0.261450115834  
4.94877505302  1.53716301918  -1.50198108355  1.66195440292  -2.52919084231  -1.51266986529  -0.26171428362  
4.95688414574  1.53842282295  -1.50509292284  1.66227817535  -2.52692777315  -1.51193887392  -0.2618821303  
4.9649450779  1.53963363171  -1.50832349459  1.66263818741  -2.52455598513  -1.51125651995  -0.26220590273  
4.97303915024  1.54073691368  -1.51168615023  1.66302204132  -2.52216083208  -1.51059800783  -0.262469593679  
4.98115301132  1.54178071022  -1.5152404944  1.66356182098  -2.51951438585  -1.50996333758  -0.262685600911  
4.98921704292  1.54274022579  -1.51888972918  1.66426897049  -2.51683122316  -1.50930434862  -0.262961212789  
4.99731516838  1.54366374016  -1.52270681063  1.6650724411  -2.51396924654  -1.50874168078  -0.263117138539  
5.00541520119  1.54447901249  -1.5267513434  1.66589975357  -2.51113063494  -1.50826245943  -0.263368908559  
5.01348114014  1.54523479939  -1.53091556231  1.66691970825  -2.50820857683  -1.50778371492  -0.263549153005  
5.02154803276  1.545966506  -1.53521091143  1.66795110703  -2.50521451632  -1.50726873079  -0.26384860674  
5.02961421013  1.5465657711  -1.53962642351  1.66915035248  -2.5021126906  -1.50683767  -0.264100853597  
5.03774213791  1.54712975025  -1.54413730303  1.67038536072  -2.4989751021  -1.50642997423  -0.26425630251  
5.04583311081  1.5475975275  -1.54874450365  1.67172861099  -2.49564534823  -1.50603515307  -0.264496151601  
5.05393314362  1.54799306393  -1.55342275301  1.67313146591  -2.49229270617  -1.50569945971  -0.264712158834  
5.06202411652  1.5483289957  -1.55818492571  1.67461872101  -2.48895103136  -1.5054362456  -0.264880005513  
5.07008719444  1.54865252972  -1.56306726137  1.67622613907  -2.48541814486  -1.50514871279  -0.265035931264  
5.07815313339  1.54907274246  -1.57299787203  1.67952394485  -2.47825652758  -1.50470525423  -0.265312019979  
5.08621716499  1.54924046993  -1.57801181475  1.68122673035  -2.47465163866  -1.50447780291  -0.265419785176  
5.0942800045  1.54930043221  -1.58315688768  1.68303775787  -2.47089082399  -1.50429851214  -0.265527550374  
5.10236620903  1.54943263531  -1.58840924898  1.68481302261  -2.46701080004  -1.50415498415  -0.265599552785  
5.11043000221  1.54939627647  -1.5937221686  1.68668365479  -2.4629629294  -1.50402290026  -0.265635315572  
5.11855101585  1.54943263531  -1.59902221361  1.68854236603  -2.4590233008  -1.5039990584  -0.265707317983  
5.12661600113  1.54938435555  -1.60439426104  1.69036531448  -2.45501119295  -1.5038912932  -0.265767399465  
5.13471317291  1.54931235313  -1.60989839235  1.69227218628  -2.45085508028  -1.50392705599  -0.265695397054  
5.14280200005  1.54936039448  -1.61546212832  1.69416666031  -2.44671184221  -1.50393897692  -0.265731159841  
5.1508641243  1.54936039448  -1.62116891543  1.69614553452  -2.44254380861  -1.50397521654  -0.265683476125  
5.15895819664  1.54934835434  -1.62693626085  1.69811248779  -2.43822080294  -1.50405913988  -0.26565915743  
5.16701817513  1.54936039448  -1.63278705279  1.700091362  -2.43374187151  -1.50404721895  -0.265647236501  
5.1750831604  1.54943263531  -1.63870937029  1.7019739151  -2.42923862139  -1.50408298174  -0.265575710927  
5.18317508698  1.54950451851  -1.64471561113  1.70391654968  -2.42456847826  -1.50414306322  -0.265407864247  
5.19126415253  1.54958844185  -1.65072185198  1.70578765869  -2.41980201403  -1.5041902701  -0.265455547963  
5.19939208031  1.54974424839  -1.65694314638  1.70767068863  -2.41497546831  -1.5042145888  -0.265323940908  
5.20749616623  1.55000782013  -1.66316444079  1.7095656395  -2.41008931795  -1.5042145888  -0.26525146166  
5.21558403969  1.55035579205  -1.66950542132  1.71138811111  -2.40500003496  -1.50417882601  -0.265143696462  
5.22367501259  1.55072760582  -1.67589408556  1.7131152153  -2.39964658419  -1.50417882601  -0.265131775533  
5.23176121712  1.55123138428  -1.68240338961  1.71480607986  -2.39434129397  -1.50411874453  -0.265047852193  
5.23985099792  1.55178260803  -1.68892318407  1.71649694443  -2.38872510592  -1.50398713747  -0.264928166066  
5.24794316292  1.55238258839  -1.69550353685  1.71806764603  -2.38316804567  -1.50392705599  -0.264880005513  
5.25604104996  1.55336642265  -1.70198804537  1.71955490112  -2.37753945986  -1.50372344652  -0.264700237905  
5.26415705681  1.5543974638  -1.70860416094  1.72093391418  -2.37159949938  -1.50356752077  -0.264628235494  
5.27224516869  1.5555729866  -1.71520787874  1.72218132019  -2.36551601091  -1.50324470202  -0.264388386403  
5.28033399582  1.55698823929  -1.72177583376  1.72341680527  -2.35925275484  -1.5028851668  -0.264328304921  
5.28839707375  1.55855929852  -1.72834378878  1.72457933426  -2.35301334063  -1.50244170824  -0.264100853597  
5.29646110535  1.56027424335  -1.73489982287  1.72550296783  -2.34664231936  -1.50193912188  -0.264028374349  
5.30454802513  1.56219315529  -1.741420571  1.72636604309  -2.34017545382  -1.50135261217  -0.263752762471  
5.3126142025  1.56431627274  -1.74791652361  1.72709798813  -2.33333713213  -1.50060969988  -0.263572994863  
5.32075810432  1.56658279896  -1.75429326693  1.72767353058  -2.32647544542  -1.4998310248  -0.263392750417  
5.32882404327  1.56906580925  -1.76057416597  1.72811698914  -2.3196495215  -1.49894458452  -0.263249222432  
5.33692717552  1.57171583176  -1.76677114168  1.72840499878  -2.31277543703  -1.49803477923  -0.263069454824  
5.34505915642  1.57452273369  -1.77276403109  1.72856092453  -2.30562574068  -1.49693280855  -0.262937370931  
5.35318303108  1.57755661011  -1.77875787417  1.72860908508  -2.29857236544  -1.49579507509  -0.262817684804  
5.36127400398  1.58071148396  -1.7844765822  1.72844076157  -2.29142314592  -1.49448997179  -0.262793366109  
5.36934113503  1.58410525322  -1.7900150458  1.72814083099  -2.28453714052  -1.49320823351  -0.262673679982  
5.37743401527  1.58781135082  -1.79530316988  1.72768545151  -2.27748376528  -1.49168759981  -0.262757126485  
5.38549900055  1.59172153473  -1.80041152636  1.72707414627  -2.27045423189  -1.49014217058  -0.262709442769  
5.39359521866  1.59584748745  -1.80524427096  1.72642660141  -2.26344854036  -1.48850185076  -0.262685600911  
5.40167999268  1.60018885136  -1.80982667605  1.72563505173  -2.25668222109  -1.48682529131  -0.262901608144  
5.40978813171  1.60467469692  -1.81404954592  1.72459125519  -2.25007135073  -1.48500472704  -0.262961212789  
5.41787910461  1.60928034782  -1.81786519686  1.72345256805  -2.24343759218  -1.4830883185  -0.263212982808  
5.42596912384  1.61400592327  -1.82137042681  1.72218132019  -2.23715049425  -1.48102885882  -0.263296906148  
5.4340941906  1.61883962154  -1.82451659838  1.7207660675  -2.2308271567  -1.47895700136  -0.263656918203  
5.44218301773  1.624117136  -1.82729226748  1.71921920776  -2.2249472777  -1.47675306002  -0.263980690633  
5.45028018951  1.62967002392  -1.82958871523  1.71757602692  -2.21921092669  -1.47444135347  -0.264400307332  
5.45841217041  1.63521158695  -1.83156282107  1.71578931808  -2.21372682253  -1.47208244005  -0.264868084584  
5.46650099754  1.64080071449  -1.8331416289  1.71378660202  -2.20840961138  -1.46962720553  -0.265407864247  
5.47460103035  1.64648616314  -1.83443385759  1.71172428131  -2.20349914232  -1.46712428728  -0.266067330037  
5.48278307915  1.65230333805  -1.83527118364  1.70955324173  -2.19878131548  -1.46452552477  -0.266750637685  
5.49088716507  1.65851604939  -1.83572560946  1.70728635788  -2.19447023073  -1.46180659929  -0.267589871083  
5.49895310402  1.66484928131  -1.83577329317  1.70493602753  -2.19048244158  -1.45892125765  -0.268477741872  
5.5070412159  1.67108631134  -1.83546287218  1.70240545273  -2.18674594561  -1.45605880419  -0.269580666219  
5.51511001587  1.67734777927  -1.83473283449  1.69974327087  -2.18330890337  -1.4530766646  -0.270744148885  
5.52324509621  1.68388438225  -1.83370381991  1.69696140289  -2.18017179171  -1.44997483889  -0.272027317678  
5.53134012222  1.69064950943  -1.8322446982  1.69413089752  -2.17738134066  -1.44695741335  -0.273490254079  
5.53945207596  1.69733071327  -1.83043843905  1.69110918045  -2.1749385039  -1.44372350374  -0.274977032338  
5.54755115509  1.70390367508  -1.82835656801  1.68806266785  -2.17278319994  -1.4405019919  -0.27659589449  
5.55571603775  1.71044111252  -1.82594043413  1.68487262726  -2.17096263567  -1.43719703356  -0.278262917195  
5.56381702423  1.71708595753  -1.82329637209  1.68167066574  -2.16944152514  -1.43386727968  -0.280121628438  
5.57188010216  1.72400724888  -1.82030564943  1.6783490181  -2.16814834276  -1.43045455614  -0.282064263021  
5.57994318008  1.73090445995  -1.81715947786  1.67500257492  -2.16723853747  -1.42696983019  -0.284114662801  
5.58805918694  1.73751378059  -1.81366616884  1.67160892487  -2.16661578814  -1.42355710665  -0.286273781453  
5.59617900848  1.74405121803  -1.81002933184  1.66803503036  -2.16629201571  -1.42008382479  -0.288612190877  
5.60422301292  1.75084030628  -1.80615359942  1.66450881958  -2.16620809237  -1.41656285921  -0.291082207357  
5.61234807968  1.75767767429  -1.8019545714  1.66092348099  -2.16636401812  -1.41299420992  -0.293480698262  
5.62041020393  1.764310956  -1.79773170153  1.65728902817  -2.16660386721  -1.4095214049  -0.295926872884  
5.62850117683  1.77075242996  -1.79334098497  1.65354728699  -2.16719037691  -1.40601283709  -0.298349205648  
5.63656616211  1.7773257494  -1.78886682192  1.64976978302  -2.16792089144  -1.40257579485  -0.300879780446  
5.64463019371  1.78415119648  -1.78424913088  1.64589595795  -2.16891462008  -1.39893514315  -0.303446118032  
5.65284013748  1.79078483582  -1.77950030962  1.64204597473  -2.17001659075  -1.39542657534  -0.306203667318  
5.6609351635  1.79717803001  -1.77465421358  1.63828039169  -2.17129785219  -1.39204961458  -0.309034649526  
5.66902518272  1.80338025093  -1.769677941  1.63422679901  -2.1726992766  -1.38867313067  -0.312044445668  
5.67715907097  1.80959367752  -1.76467687288  1.63022089005  -2.1741955916  -1.38534385363  -0.31506616274  
5.68524813652  1.81597566605  -1.75947314898  1.62627506256  -2.17582494417  -1.3819788138  -0.318196121846  
5.69331216812  1.82238078117  -1.7542570273  1.62225723267  -2.17753726641  -1.37872153917  -0.321446243917  
5.70137619972  1.82859504223  -1.74892169634  1.61818027496  -2.17935735384  -1.37542802492  -0.324563805257  
5.7095181942  1.83456873894  -1.74352628389  1.61411380768  -2.18117744127  -1.37229091326  -0.327621761953  
5.71762299538  1.84043502808  -1.73809415499  1.60997629166  -2.18327314058  -1.3691294829  -0.330607716237  
5.72575902939  1.84637284279  -1.73260337511  1.6059346199  -2.18511754671  -1.36599237124  -0.33358222643  
5.73386621475  1.85228669643  -1.72695666948  1.60172462463  -2.1870692412  -1.36291438738  -0.336759869252  
5.74196720123  1.85794889927  -1.72141725222  1.59744310379  -2.18906909624  -1.35990888277  -0.339889828359  
5.75010418892  1.86337137222  -1.71573430697  1.59317350388  -2.19110519091  -1.35691482226  -0.343032185231  
5.75816702843  1.87423956394  -1.70434505144  1.58472967148  -2.19502145449  -1.35108358065  -0.349352184926  
5.7662320137  1.8794939518  -1.69874602953  1.58055639267  -2.19711667696  -1.34830505053  -0.35254127184  
5.77435517311  1.88456809521  -1.69314653078  1.57644271851  -2.19912845293  -1.34558660189  -0.355659310018  
5.78244400024  1.88937902451  -1.68749982515  1.57234048843  -2.20126039187  -1.3429406325  -0.358561340963  
5.79050803185  1.89391314983  -1.68198424975  1.56828689575  -2.20333177248  -1.3403895537  -0.361283604299  
5.7985970974  1.89825594425  -1.67652875582  1.56428050995  -2.20537978808  -1.33797103563  -0.363970104848  
5.80670809746  1.90256273746  -1.67103702227  1.56026315689  -2.20749932924  -1.33545619646  -0.366704289113  
5.81477403641  1.90677332878  -1.66566497484  1.5563287735  -2.20955878893  -1.33307344118  -0.369378868734  
5.82283902168  1.91081619263  -1.66037685076  1.55246686935  -2.21163064638  -1.33081037203  -0.371980969106  
5.8309340477  1.91464328766  -1.65511256853  1.54867696762  -2.21372682253  -1.32863074938  -0.37455922762  
5.83903217316  1.91834974289  -1.6499560515  1.5449347496  -2.21588212649  -1.32649928728  -0.377029720937  
5.84712004662  1.92186486721  -1.64493114153  1.54124069214  -2.21803790728  -1.32441598574  -0.379476372396  
5.85523915291  1.92517590523  -1.63990575472  1.53753423691  -2.22025281588  -1.32237989107  -0.381861988698  
5.86330318451  1.92821085453  -1.63492852846  1.53382825851  -2.22251636187  -1.32050019899  -0.38418895403  
5.87139320374  1.93112611771  -1.63007098833  1.53021812439  -2.22470790545  -1.3186562697  -0.386335198079  
5.87949204445  1.9339094162  -1.62530881563  1.52658414841  -2.22693521181  -1.31684762636  -0.388290230428  
5.88755822182  1.93660891056  -1.62057096163  1.52303314209  -2.22921020189  -1.3151233832  -0.390148941671  
5.89570307732  1.93916368484  -1.61591655413  1.51960372925  -2.23155767122  -1.31350738207  -0.391839806234  
5.9037899971  1.94157516956  -1.61131030718  1.51617288589  -2.23394138018  -1.31191426912  -0.393446747457  
5.91188001633  1.94385445118  -1.60677510897  1.51282644272  -2.23626405398  -1.3104894797  -0.394945923482  
5.91994214058  1.94589400291  -1.60239631334  1.50954008102  -2.23861104647  -1.3090766112  -0.396301094686  
5.92803215981  1.94780135155  -1.59805328051  1.50626564026  -2.24099475542  -1.30786735216  -0.397668186818  
5.93614912033  1.94938516617  -1.59375745455  1.50295495987  -2.24335366884  -1.30666953722  -0.398939434682  
5.94428300858  1.95096862316  -1.58949786821  1.49980068207  -2.24574882189  -1.30554420153  -0.399982277547  
5.95241212845  1.95232391357  -1.58521491686  1.49670600891  -2.24811965624  -1.30450231234  -0.40092975298  
5.96052598953  1.95355975628  -1.58093101183  1.49375534058  -2.25040704409  -1.303484265  -0.401733223592  
5.96863102913  1.95463907719  -1.57687503496  1.49088907242  -2.25268203417  -1.30262262026  -0.402417008077  
5.97673201561  1.95557498932  -1.57278329531  1.48804616928  -2.25496989885  -1.30177194277  -0.40295678774  
5.98480606079  1.95639073849  -1.56876260439  1.48527526855  -2.25730497042  -1.30111390749  -0.403388325368  
5.99287104607  1.95712280273  -1.56488544146  1.48268461227  -2.2596877257  -1.30044299761  -0.403640095388  
6.00095915794  1.95767450333  -1.56104499498  1.48015403748  -2.26205903689  -1.29989225069  -0.403784100209  
6.00902414322  1.95815455914  -1.55718022982  1.4776468277  -2.26464587847  -1.29941302935  -0.403759781514  
6.01713609695  1.95845425129  -1.55332690874  1.47524785995  -2.26717263857  -1.29898244539  -0.40361625353  
6.02527022362  1.9586943388  -1.54955798784  1.47299289703  -2.2697356383  -1.29863483111  -0.40344840685  
6.03337001801  1.95882606506  -1.54581243197  1.47088193893  -2.27229816118  -1.29835969607  -0.403064552938  
6.04146003723  1.95885002613  -1.54215079943  1.46901082993  -2.27493268648  -1.29816800753  -0.402681175862  
6.04957604408  1.95875418186  -1.53842956225  1.4672832489  -2.27763921419  -1.29802400271  -0.402165238057  
6.05766320229  1.95853853226  -1.53481609026  1.46559238434  -2.28051358858  -1.29797584215  -0.401601139699  
6.06574201584  1.95832240582  -1.53119069735  1.46408081055  -2.28338748613  -1.29795200029  -0.400893990194  
6.07386517525  1.95795047283  -1.52748138109  1.46274995804  -2.28632146517  -1.29801208178  -0.40011436144  
6.08195209503  1.95757865906  -1.52381927172  1.4615983963  -2.28932744661  -1.29811984697  -0.399226967488  
6.09004116058  1.95721876621  -1.52003842989  1.46067428589  -2.2925007979  -1.2982638518  -0.39830381075  
6.09812712669  1.95661878586  -1.51629287401  1.45994281769  -2.29572230974  -1.29841930071  -0.397260014211  
6.10621809959  1.95605516434  -1.51251203219  1.45947504044  -2.29914695421  -1.29869491259  -0.396217171346  
6.11430501938  1.95545518398  -1.50861102739  1.45905542374  -2.30280000368  -1.2988746802  -0.395161453878  
6.12239217758  1.95465111732  -1.50472194353  1.45889949799  -2.30655986467  -1.29923326174  -0.393998448049  
6.13047504425  1.95381140709  -1.50080854097  1.45894765854  -2.31047565142  -1.29955703417  -0.392858807241  
6.13855910301  1.9530197382  -1.49681216875  1.45911550522  -2.31452352205  -1.29996377627  -0.39171964327  
6.14664912224  1.9521561861  -1.49269563357  1.45952320099  -2.3187511603  -1.30040675799  -0.390472714101  
6.15476512909  1.95131647587  -1.48835212389  1.45997905731  -2.32324201265  -1.30083781878  -0.389273468648  
6.16286802292  1.95040500164  -1.48391229311  1.46062660217  -2.32809192339  -1.30141288439  -0.388109985982  
6.1709561348  1.94945704937  -1.47930556933  1.46149015427  -2.33312207857  -1.30193978945  -0.386851135884  
6.17906904221  1.94848525524  -1.47451860109  1.46252202988  -2.33842736879  -1.30250293413  -0.385651890432  
6.18716907501  1.94760966301  -1.46951705614  1.46385288239  -2.34410363833  -1.30316096941  -0.384404484426  
6.19526600838  1.94664978981  -1.46433574358  1.46518468857  -2.34991151491  -1.30384380022  -0.383265320455  
6.20339918137  1.94573783875  -1.45897418657  1.46679210663  -2.35600692431  -1.30453807512  -0.382126156484  
6.21148109436  1.94479036331  -1.45336181322  1.46860313416  -2.36260587374  -1.30528051058  -0.381070915853  
6.21953010559  1.94392633438  -1.44760543505  1.47057008743  -2.36938411394  -1.30596334139  -0.380063358937  
6.22764420509  1.94301474094  -1.4416697661  1.47271728516  -2.37664109865  -1.30676538149  -0.379116360341  
6.23574209213  1.94216275215  -1.43557864824  1.47497177124  -2.38401872316  -1.30747205416  -0.378228489553  
6.24383306503  1.94128715992  -1.42927199999  1.47735929489  -2.39187413851  -1.30832225481  -0.377376858388  
6.25192308426  1.94048345089  -1.42284566561  1.4798541069  -2.40014964739  -1.3090522925  -0.376645867025  
6.26001501083  1.9396674633  -1.41624004046  1.48243284225  -2.40880805651  -1.30989104906  -0.375974003469  
6.26810407639  1.93888771534  -1.40946656862  1.48513174057  -2.41743070284  -1.31074124971  -0.375362698232  
6.27620601654  1.93812000751  -1.40248901049  1.48785448074  -2.42661649386  -1.31150752703  -0.374799076711  
6.28431820869  1.93747246265  -1.39530879656  1.49062490463  -2.4361131827  -1.31244117418  -0.374391380941  
6.29240918159  1.93674063683  -1.38812762896  1.49343156815  -2.44576579729  -1.31324369112  -0.373983208333  
6.30050802231  1.93612873554  -1.3817132155  1.49591445923  -2.45570546785  -1.31403381029  -0.373707596456  
6.30858802795  1.93552911282  -1.37389785448  1.49881696701  -2.46467572847  -1.31488401095  -0.373539749776  
6.31672811508  1.93500113487  -1.36639386812  1.50152778625  -2.47580176989  -1.31568652788  -0.37344342867  
6.32479310036  1.93452131748  -1.35890227953  1.50420284271  -2.48617250124  -1.31646472612  -0.373503510152  
6.33290600777  1.93405354023  -1.35146981875  1.50682926178  -2.49683124224  -1.31725532213  -0.373503510152  
6.34100317955  1.93369364738  -1.34407359758  1.50938415527  -2.50763351122  -1.31796151796  -0.373647514974  
6.34911322594  1.93334543705  -1.33660489718  1.51175880432  -2.51859218279  -1.31860858599  -0.373779598867  
6.35722899437  1.9330457449  -1.32912475268  1.51402568817  -2.52945405642  -1.3192785422  -0.374055687581  
6.36531805992  1.93274581432  -1.32181150118  1.51612520218  -2.54020911852  -1.31987744967  -0.374355141317  
6.37341809273  1.93251776695  -1.31457072893  1.5180439949  -2.5510113875  -1.32054788271  -0.374738995229  
6.38154506683  1.93231403828  -1.30737716356  1.51985502243  -2.56181461016  -1.3210867087  -0.375122849141  
6.38960814476  1.93216979504  -1.30027896563  1.52141427994  -2.57225782076  -1.32163745562  -0.375614468251  
6.39778399467  1.9319781065  -1.2934568564  1.52292537689  -2.58271342913  -1.32214051882  -0.37611800829  
6.40588116646  1.93189382553  -1.28674203554  1.52401685715  -2.59301311175  -1.32259542147  -0.37669355074  
6.41397619247  1.93188178539  -1.28009921709  1.52492856979  -2.6031091849  -1.32294303576  -0.377293411885  
6.42207813263  1.9318459034  -1.26720744768  1.52599573135  -2.62234336535  -1.32370978991  -0.37867194811  
6.43017315865  1.9318459034  -1.26098329226  1.52618789673  -2.63157779375  -1.3240202109  -0.379403893148  
6.43827319145  1.93186986446  -1.25492650667  1.52600812912  -2.64042789141  -1.32427198092  -0.380207840596  
6.44638109207  1.93199002743  -1.24918109575  1.52559995651  -2.64907533327  -1.32447559038  -0.380951229726  
6.45450210571  1.93203794956  -1.24342376391  1.52492856979  -2.65719587008  -1.32465535799  -0.381694618856  
6.4625852108  1.9321937561  -1.23784524599  1.52390909195  -2.66483718554  -1.32478696505  -0.382473770772  
6.47067308426  1.93234992027  -1.23244697252  1.5226855278  -2.67211944262  -1.32490665117  -0.383301560079  
6.47873902321  1.93245780468  -1.22715598742  1.52117443085  -2.67913753191  -1.32508641878  -0.384081188832  
6.48680210114  1.93257761002  -1.22199660936  1.51939916611  -2.68562871615  -1.325050656  -0.384776417409  
6.49488520622  1.93273377419  -1.21690923372  1.51727628708  -2.6917851607  -1.32508641878  -0.385532204305  
6.50297617912  1.93296158314  -1.21188098589  1.51491355896  -2.69736653963  -1.32503873507  -0.386107746755  
6.51107215881  1.93316566944  -1.20692569414  1.51225090027  -2.70255262056  -1.32493096987  -0.386587444936  
6.51918911934  1.93335735798  -1.20218497912  1.50939655304  -2.70742685  -1.32485896746  -0.387090508138  
6.52731513977  1.93365776539  -1.19743282  1.50628948212  -2.71185857454  -1.32471496264  -0.387462441121  
6.53538322449  1.93387341499  -1.19282371203  1.5028834343  -2.71584731737  -1.32460719744  -0.387738052999  
6.54351615906  1.93422138691  -1.18832236925  1.49927282333  -2.71962005297  -1.3244398276  -0.387930218373  
6.55158114433  1.93454527855  -1.18390542666  1.49555492401  -2.72298556963  -1.32434398333  -0.387942139302  
6.55969214439  1.93490517139  -1.17961913744  1.49160814285  -2.72594386736  -1.32408029238  -0.387882534658  
6.56775808334  1.93528914452  -1.1753094832  1.48751831055  -2.72854262987  -1.32397252718  -0.387630287801  
6.5758600235  1.9356969595  -1.17109567324  1.48327255249  -2.73073465029  -1.32372171084  -0.387354675923  
6.5839471817  1.93614077568  -1.16696578661  1.47890663147  -2.73262721697  -1.32348186175  -0.38706666628  
6.59207010269  1.93662083149  -1.16294318834  1.47448015213  -2.73434001604  -1.32317048708  -0.386695210134  
6.60018610954  1.93713653088  -1.15905267397  1.46988677979  -2.73586112658  -1.32284719149  -0.386119667684  
6.60829901695  1.9376885891  -1.15523368517  1.46522045135  -2.73714286486  -1.32257157961  -0.385484043752  
6.61636519432  1.93821585178  -1.15153390566  1.46050691605  -2.73811275164  -1.32226068178  -0.384752575551  
6.62445902824  1.93879187107  -1.14795428911  1.45584058762  -2.73884326616  -1.32193690935  -0.383853260671  
6.63252520561  1.93941581249  -1.14449435869  1.45121049881  -2.73941833178  -1.32157785097  -0.382893387471  
6.64066314697  1.94001531601  -1.14127380053  1.44662857056  -2.7397535483  -1.32123071352  -0.38183814684  
6.64876008034  1.94063925743  -1.13818484942  1.44211864471  -2.73990899721  -1.32085973421  -0.38068706194  
6.65682506561  1.94129920006  -1.13532382647  1.43763303757  -2.73980123201  -1.32050019899  -0.37953597704  
6.66488909721  1.94197106361  -1.13264209429  1.43323040009  -2.73983747164  -1.32011682192  -0.378204170858  
6.67300009727  1.94259500504  -1.13019973436  1.42894792557  -2.73941833178  -1.31974584261  -0.376837555562  
6.68109703064  1.94327878952  -1.12793666521  1.42479801178  -2.73909503618  -1.31935054461  -0.375506226216  
6.68916010857  1.94393837452  -1.12588912645  1.42080402374  -2.73862773577  -1.31905109087  -0.374091450368  
6.69730114937  1.94457423687  -1.12399799029  1.4171333313  -2.73799258867  -1.31873923937  -0.372628513967  
6.70543599129  1.94521009922  -1.12230998675  1.41358280182  -2.7373102347  -1.31848842302  -0.371141735707  
6.71364617348  1.94577419758  -1.12080127398  1.41034412384  -2.73655540148  -1.31816512743  -0.369702164327  
6.72175908089  1.9463378191  -1.11955625216  1.40722560883  -2.73562127749  -1.31787759462  -0.368263069783  
6.72991299629  1.94690179825  -1.11849099794  1.40453863144  -2.73466331164  -1.31759006182  -0.366752449666  
6.73797607422  1.94735753536  -1.11771232287  1.40197181702  -2.73378879229  -1.31727868715  -0.365300957357  
6.74607515335  1.94787323475  -1.11717349688  1.3997168541  -2.73278266588  -1.31712371508  -0.363934342061  
6.75413799286  1.94830548763  -1.116897885  1.39782142639  -2.73187238375  -1.31687194506  -0.362626854573  
6.76223301888  1.94873726368  -1.11688644091  1.39619016647  -2.73086625734  -1.31671601931  -0.361343685781  
6.77035021782  1.94910919666  -1.11704188982  1.3949303627  -2.72983628908  -1.31658441225  -0.360096756612  
6.77843904495  1.9494330883  -1.11740142504  1.39394712448  -2.72889024416  -1.31642896334  -0.35888559023  
6.78652906418  1.94978106022  -1.11797553698  1.39325141907  -2.72790795961  -1.31630880037  -0.357722107564  
6.79459404945  1.95003271103  -1.11874229113  1.39280748367  -2.726937596  -1.31627303759  -0.356654946004  
6.80279302597  1.9502607584  -1.11965209643  1.39267539978  -2.72599155108  -1.31614143053  -0.355527702962  
6.81085705757  1.95048880577  -1.12078935305  1.39291572571  -2.72516566912  -1.31623679796  -0.354604546224  
6.81892204285  1.95059669018  -1.12205821673  1.3934431076  -2.72420674959  -1.31621343294  -0.353692833577  
6.82698607445  1.95076489449  -1.12351924578  1.39417457581  -2.72341663042  -1.31616527239  -0.352877442037  
6.83511018753  1.95078885555  -1.12511092821  1.39518260956  -2.72264987627  -1.31633311907  -0.352157894765  
6.84320402145  1.95078885555  -1.12684756914  1.39641809464  -2.72197944323  -1.31629687945  -0.351534191762  
6.85129404068  1.95076489449  -1.12873870531  1.39797687531  -2.72130853335  -1.31641656557  -0.35098249117  
6.85938215256  1.95072853565  -1.13066655794  1.39962100983  -2.72073394457  -1.31651288668  -0.350610558187  
6.8674762249  1.95069253445  -1.1327140967  1.40155172348  -2.72026664415  -1.31663209597  -0.350275341664  
6.87557601929  1.95053672791  -1.13486892382  1.40361499786  -2.7198231856  -1.31676417986  -0.350023571645  
6.88367319107  1.9503929615  -1.13701183001  1.40585803986  -2.71949989  -1.31686002413  -0.349927250539  
6.89179420471  1.95030868053  -1.13922673861  1.40820884705  -2.71922475496  -1.31700355211  -0.349891487752  
6.89990019798  1.95010495186  -1.14150125185  1.41075181961  -2.71906882921  -1.31714755694  -0.350095574056  
6.90799021721  1.94994878769  -1.14378768602  1.41340255737  -2.71897298494  -1.31730300585  -0.35016709963  
6.91609215736  1.94968509674  -1.14599115053  1.41611433029  -2.71896106402  -1.31745845476  -0.35049087206  
6.92418003082  1.94944512844  -1.14828998247  1.41892051697  -2.7190211455  -1.31762630144  -0.350743118917  
6.93224716187  1.94914507866  -1.15044433275  1.4217634201  -2.71914083162  -1.31778175036  -0.351054493581  
6.94034409523  1.94886910915  -1.1526353995  1.42467832565  -2.71929628054  -1.31800967852  -0.351438347493  
6.94851613045  1.94859302044  -1.1547425429  1.42760515213  -2.71955997149  -1.31828481356  -0.351941887532  
6.95662212372  1.9482575655  -1.15677768389  1.43050813675  -2.71984702746  -1.31853658358  -0.352565113698  
6.96468615532  1.94789719582  -1.15874129931  1.43336248398  -2.72020656267  -1.31876355806  -0.353128735219  
6.97277522087  1.94760966301  -1.16060859362  1.43621730804  -2.72062617937  -1.31903916994  -0.353849236165  
6.98086309433  1.94727373123  -1.16235667864  1.43891620636  -2.7210448424  -1.3192785422  -0.354580704366  
6.98896121979  1.94690179825  -1.16392451922  1.4416270256  -2.72153646151  -1.31951791445  -0.355275932943  
6.99705719948  1.94651794434  -1.16550475756  1.44416999817  -2.72212297121  -1.31973392168  -0.356067482625  
7.00512003899  1.94620597363  -1.1668694655  1.44668865204  -2.72269803682  -1.32000953356  -0.356894318257  
7.01318216324  1.94582211971  -1.1681988875  1.44910001755  -2.72332078615  -1.32023650805  -0.357758347188  
7.02128219604  1.94546222687  -1.16932374636  1.45135498047  -2.72395545641  -1.32045203844  -0.358645264302  
7.02934598923  1.94506597519  -1.17031795183  1.45350170135  -2.72471028963  -1.3206799666  -0.359533135091  
7.03747701645  1.94471848011  -1.17119104067  1.45549297333  -2.72536880175  -1.32082349459  -0.360348526631  
7.04557514191  1.94445443153  -1.1719215552  1.45737600327  -2.72608739534  -1.32105094591  -0.36127168337  
7.05371999741  1.94407057762  -1.17248422304  1.45909118652  -2.72683030764  -1.32120687166  -0.362051312123  
7.06178712845  1.94381844997  -1.17296296755  1.4606385231  -2.72760850588  -1.32138616243  -0.362950627004  
7.06985020638  1.94354248047  -1.17329866091  1.46197032928  -2.72833949724  -1.3214820067  -0.363766018544  
7.07797217369  1.94320654869  -1.17347795168  1.46312189102  -2.72909385363  -1.3216732184  -0.364617649709  
7.08603620529  1.94297885895  -1.17357379595  1.46415281296  -2.72984821001  -1.32173329989  -0.365409199392  
7.09410214424  1.942486763  -1.17327434221  1.46559238434  -2.73132163683  -1.32188922564  -0.367004219686  
7.10216403008  1.94230699539  -1.17298680941  1.46608400345  -2.73205215136  -1.32190114657  -0.367711369191  
7.11022806168  1.94207894802  -1.17260390917  1.46636009216  -2.73278266588  -1.32191306749  -0.368394676839  
7.11829400063  1.94201898575  -1.17212516466  1.46651601791  -2.73345357576  -1.32187730471  -0.3690422217  
7.12638306618  1.94179093838  -1.17157441774  1.46648025513  -2.73416024843  -1.32191306749  -0.369654480611  
7.13447403908  1.94167101383  -1.17096454302  1.46630048752  -2.73477107683  -1.32182914415  -0.370169941579  
7.14257717133  1.94150292873  -1.17031795183  1.46596431732  -2.73532182375  -1.3218053023  -0.37064963976  
7.1507101059  1.94147896767  -1.16959983507  1.46547269821  -2.73592120806  -1.32175714174  -0.371081177388  
7.15880203247  1.94140708447  -1.16876155535  1.46480083466  -2.73650771776  -1.32174522081  -0.371405426656  
7.16690707207  1.94131112099  -1.167887036  1.4640212059  -2.73695069948  -1.32164937655  -0.371704880391  
7.17499113083  1.94127523899  -1.1668937842  1.46314573288  -2.73735791842  -1.32162553469  -0.371944729482  
7.1830830574  1.94123923779  -1.16581613222  1.46213817596  -2.73772937456  -1.32151776949  -0.372172657643  
7.19117116928  1.94122731686  -1.16476279894  1.4610581398  -2.73799258867  -1.32142192522  -0.372328583394  
7.19923520088  1.94119131565  -1.16364938418  1.45987129211  -2.73823243776  -1.32136232058  -0.372388188039  
7.20732212067  1.94114339352  -1.16245204607  1.45867156982  -2.73843604723  -1.32121879259  -0.372388188039  
7.21541404724  1.94104719162  -1.16130286852  1.45733976364  -2.73857957522  -1.32121879259  -0.372316185628  
7.22350621223  1.94095122814  -1.16015369097  1.45588874817  -2.73865157763  -1.32102710405  -0.372172657643  
7.23160910606  1.94083142281  -1.15901691118  1.45453310013  -2.7387474219  -1.32101518313  -0.372016731893  
7.23973917961  1.94067525864  -1.15784341494  1.45304632187  -2.73880750338  -1.32087165514  -0.371825043355  
7.247849226  1.94054341316  -1.15677768389  1.4516544342  -2.73868734041  -1.32083541552  -0.371597115194  
7.25591301918  1.94029140472  -1.15566474596  1.45025110245  -2.73869973818  -1.32061988512  -0.371429268514  
7.26403713226  1.94000339508  -1.15465909639  1.44887208939  -2.73866349856  -1.32055980364  -0.371069256459  
7.27212405205  1.93967938423  -1.15371305147  1.44755268097  -2.73843604723  -1.32035619417  -0.370829407369  
7.28018522263  1.93929553032  -1.15286285082  1.44631719589  -2.73842364946  -1.3202603499  -0.370457474385  
7.28824520111  1.93882775307  -1.15209705034  1.44522571564  -2.73814851442  -1.3200691382  -0.370002094899  
7.29636716843  1.93823981285  -1.15142614046  1.44420576096  -2.73810083071  -1.32003337542  -0.369558636342  
7.30443501472  1.93756830692  -1.15091163317  1.44331789017  -2.7379210631  -1.31982976595  -0.369102780019  
7.3125  1.93677663803  -1.1506245772  1.44261074066  -2.73780090014  -1.31984168688  -0.36859923998  
7.32060003281  1.9358048439  -1.15049249331  1.44197511673  -2.73759776751  -1.31964999834  -0.368023220693  
7.32870721817  1.93484532833  -1.15058833758  1.44167518616  -2.73746568361  -1.31974584261  -0.367495838796  
7.33683013916  1.93370568752  -1.15093547503  1.44159126282  -2.73716670672  -1.31962615648  -0.366884056722  
7.34494900703  1.93239784241  -1.15143806139  1.44185495377  -2.73701078096  -1.31986552874  -0.366320435201  
7.35303807259  1.93097031116  -1.15218049685  1.44225072861  -2.73674709002  -1.31976968447  -0.365768734609  
7.36116814613  1.92937445641  -1.15316230456  1.44294691086  -2.73654348055  -1.32003337542  -0.365241352712  
7.36928701401  1.92764687538  -1.15439540545  1.44390583038  -2.73626786867  -1.32009298006  -0.364677731191  
7.37740111351  1.92570400238  -1.15591556231  1.44514131546  -2.7360051314  -1.32042819658  -0.364150349294  
7.38552212715  1.92358052731  -1.15773564974  1.44676065445  -2.73578912417  -1.32075149218  -0.363610092794  
7.39362311363  1.92116904259  -1.15986615816  1.44876384735  -2.7354777495  -1.32103902498  -0.363082710897  
7.40181207657  1.91867375374  -1.16234428087  1.45106697083  -2.73519021669  -1.32150584856  -0.362638775502  
7.40989804268  1.91596269608  -1.16512185732  1.45362186432  -2.73501044909  -1.32202083269  -0.362159077321  
7.4180161953  1.9130115509  -1.16824657122  1.45658445358  -2.73477107683  -1.3226073424  -0.361607853566  
7.42610216141  1.90989232063  -1.1715982596  1.45987129211  -2.73450786272  -1.32331401507  -0.361128155385  
7.43419003487  1.90653336048  -1.17532188097  1.46351766586  -2.73431569735  -1.32409221331  -0.360636059438  
7.44231009483  1.90303051472  -1.17927199999  1.4672832489  -2.73407632509  -1.32496673266  -0.36012059847  
7.45043420792  1.89935958385  -1.1835582892  1.47146940231  -2.7338607947  -1.32592422167  -0.359617058431  
7.45855212212  1.89553296566  -1.18807107607  1.47599172592  -2.73365718523  -1.32706195513  -0.359065357839  
7.46665406227  1.89163398743  -1.19288331667  1.48076534271  -2.73339349428  -1.32821160952  -0.358489338552  
