Ethan-CYM/ros_catkin_ws/test/伺服_gain100_looktime003/ur_joint_actual_current.txt
time  shoulder_pan_joint  shoulder_lift_joint  elbow_joint  wrist_1_joint  wrist_2_joint  wrist_3_joint
0.163033008575  -0.0896724238992  -2.12971997261  -1.1276307106  -0.135728672147  0.292807906866  0.0213505774736  
0.171114206314  -0.0627706944942  -2.12075281143  -1.11417984962  -0.137253701687  -0.303483188152  -0.0610016472638  
0.179243087769  -0.0582870729268  -2.11626911163  -1.11642169952  -0.152504116297  0.169279575348  0.367534935474  
0.187331199646  -0.0739797502756  -2.10506010056  -1.1298725605  -0.154029160738  -0.0671018138528  -0.359909713268  
0.195905208588  -0.0605288855731  -2.10730195045  -1.10969626904  -0.149454042315  -0.154029160738  0.048801317811  
0.203530073166  -0.091914229095  -2.11402726173  -1.10745441914  -0.170804619789  0.301958143711  -0.181479901075  
0.211685180664  -0.0627706944942  -2.11178565025  -1.10745441914  -0.143353864551  -0.359909713268  -0.225706100464  
0.219804048538  -0.0627706944942  -2.11626911163  -1.10297083855  -0.155554205179  0.259256988764  -0.157079234719  
0.227912187576  -0.0717379376292  -2.11402726173  -1.11642169952  -0.132678583264  -0.0899774283171  -0.0747270211577  
0.236001014709  -0.0784633681178  -2.11626911163  -1.1276307106  -0.135728672147  -0.143353864551  -0.303483188152  
0.244117021561  -0.0717379376292  -2.11178565025  -1.12314713001  -0.126578420401  0.295857995749  -0.111328005791  
0.252230167389  -0.0851887986064  -2.11402726173  -1.10745441914  -0.0869273468852  -0.385835409164  -0.280607581139  
0.260360002518  -0.0448362119496  -2.11851096153  -1.10521256924  -0.0396510697901  0.271457344294  -0.134203627706  
0.268462181091  -0.0627706944942  -2.11851096153  -1.10969626904  -0.128103464842  -0.0427011549473  -0.28213262558  
0.276579141617  -0.0694961249828  -2.10730195045  -1.11642169952  -0.201305434108  -0.210455685854  -0.253156840801  
0.284657001495  -0.0515616424382  -2.10954380035  -1.11642169952  -0.0457512363791  0.291282862425  -0.202830478549  
0.29283118248  -0.0470780208707  -2.11626911163  -1.1276307106  -0.186055019498  -0.385835409164  -0.0991276800632  
0.300898075104  -0.0627706944942  -2.10281825066  -1.10521256924  -0.103702798486  0.166229486465  -0.100652717054  
0.308947086334  -0.0493198335171  -2.10954380035  -1.10521256924  -0.0533764399588  -0.0945525541902  -0.0945525541902  
0.317063093185  -0.0739797502756  -2.10954380035  -1.10745441914  -0.268407255411  -0.224181056023  -0.172329649329  
0.325195074081  -0.0717379376292  -2.11626911163  -1.1253888607  0.0381260290742  0.260782033205  -0.183004945517  
0.333291053772  -0.0538034513593  -2.10730195045  -1.11866343021  -0.253156840801  -0.36143475771  -0.294332951307  
0.34145116806  -0.0762215554714  -2.12075281143  -1.11417984962  -0.0808271840215  0.186055019498  -0.262307077646  
0.349549055099  -0.067254319787  -2.11402726173  -1.11417984962  -0.108277924359  -0.125053375959  -0.172329649329  
0.357633113861  -0.0582870729268  -2.11178565025  -1.12314713001  -0.294332951307  -0.262307077646  -0.193680226803  
0.365682125092  -0.0627706944942  -2.11402726173  -1.10745441914  0.112853050232  0.295857995749  -0.239431470633  
0.373871088028  -0.0739797502756  -2.10954380035  -1.11642169952  -0.40871104598  -0.393460631371  -0.320258647203  
0.381893157959  -0.0784633681178  -2.11851096153  -1.09848713875  0.230281218886  -0.00457512354478  -0.218080893159  
0.389931201935  -0.0560452640057  -2.11626911163  -1.10969626904  -0.390410542488  0.155554205179  -0.141828835011  
0.398130178452  -0.0829469934106  -2.12299466133  -1.11417984962  -0.213505759835  0.20588055253  -0.263832122087  
0.406113147736  -0.0717379376292  -2.11178565025  -1.11866343021  -0.097602635622  -0.134203627706  -0.274507403374  
0.414212226868  -0.0784633681178  -2.10954380035  -1.11642169952  0.0320258662105  -0.224181056023  -0.288232773542  
0.422373056412  -0.0582870729268  -2.10281825066  -1.11866343021  -0.274507403374  0.207405596972  -0.291282862425  
0.430466175079  -0.0605288855731  -2.10730195045  -1.11193799973  0.141828835011  -0.240956500173  -0.321783691645  
0.438568115234  -0.067254319787  -2.11402726173  -1.10521256924  -0.359909713268  0.298908084631  -0.31568351388  
0.446682214737  -0.0560452640057  -2.11178565025  -1.1253888607  0.219605922699  -0.143353864551  -0.332458972931  
0.454836130142  -0.0762215554714  -2.10954380035  -1.1298725605  -0.338559150696  0.222656011581  -0.248581707478  
0.462870121002  -0.0627706944942  -2.11626911163  -1.10072898865  0.195205271244  0.0183004941791  -0.295857995749  
0.471038103104  -0.0627706944942  -2.10730195045  -1.09400355816  -0.298908084631  -0.0625266879797  -0.3461843431  
0.479103088379  -0.0650125071406  -2.10954380035  -1.09624540806  0.0915024727583  0.314158469439  -0.181479901075  
0.48718214035  -0.0582870729268  -2.10506010056  -1.10521256924  -0.17385469377  -0.135728672147  -0.31568351388  
0.495301008224  -0.0829469934106  -2.11626911163  -1.12314713001  -0.0366009883583  0.3461843431  -0.106752879918  
0.503416061401  -0.067254319787  -2.11626911163  -1.1253888607  -0.0350759476423  -0.125053375959  -0.25163179636  
0.511557102203  -0.0784633681178  -2.11626911163  -1.1253888607  -0.20435552299  0.3126334548  -0.298908084631  
0.51962518692  -0.091914229095  -2.11851096153  -1.11642169952  0.0  0.0213505774736  -0.257731974125  
0.527922153473  -0.0358689688146  -2.10954380035  -1.10745441914  -0.344659298658  0.056426525116  -0.0472762770951  
0.535840034485  -0.0493198335171  -2.11178565025  -1.09848713875  0.129628494382  0.285182714462  -0.0213505774736  
0.543867111206  -0.0784633681178  -2.11402726173  -1.10521256924  -0.405660957098  -0.155554205179  0.0289757829159  
0.551948070526  -0.067254319787  -2.11626911163  -1.10745441914  0.144878908992  0.385835409164  -0.0167754534632  
0.560061216354  -0.0963978543878  -2.10730195045  -1.10745441914  -0.445312023163  -0.211980730295  -0.00305008236319  
0.568181037903  -0.0470780208707  -2.10954380035  -1.11193799973  0.0945525541902  0.22113096714  0.160129323602  
0.576243162155  -0.0560452640057  -2.09833478928  -1.1253888607  -0.431586652994  0.0777771025896  0.181479901075  
0.584357023239  -0.0560452640057  -2.11178565025  -1.11642169952  0.0289757829159  -0.0625266879797  -0.0274507403374  
0.592470169067  -0.0762215554714  -2.11851096153  -1.11417984962  -0.358384668827  0.3126334548  0.207405596972  
0.600573062897  -0.0694961249828  -2.11402726173  -1.1253888607  -0.0640517324209  -0.274507403374  0.0732019767165  
0.60875916481  -0.0650125071406  -2.10954380035  -1.08951997757  -0.18910510838  0.28213262558  0.25163179636  
0.616857051849  -0.0605288855731  -2.11178565025  -1.1276307106  -0.184529989958  -0.237906426191  0.0259256996214  
0.62490606308  -0.0762215554714  -2.11178565025  -1.11866343021  -0.105227842927  0.0960775911808  0.122003294528  
0.632949113846  -0.0493198335171  -2.11178565025  -1.09848713875  -0.234856337309  0.00305008236319  0.257731974125  
0.641050100327  -0.0762215554714  -2.11626911163  -1.12314713001  -0.106752879918  -0.161654368043  0.0915024727583  
0.649145126343  -0.0650125071406  -2.10730195045  -1.11866343021  -0.347709387541  0.239431470633  0.154029160738  
0.657240152359  -0.0739797502756  -2.12075281143  -1.10745441914  0.0244006589055  -0.364484846592  0.20588055253  
0.665349006653  -0.067254319787  -2.11402726173  -1.11866343021  -0.463612526655  0.161654368043  0.268407255411  
0.673441171646  -0.0739797502756  -2.12299466133  -1.1253888607  -0.00152504118159  -0.154029160738  0.186055019498  
0.681538105011  -0.0560452640057  -2.11178565025  -1.13211429119  -0.571890413761  -0.161654368043  0.100652717054  
0.689649105072  -0.0493198335171  -2.10954380035  -1.10745441914  -0.0579515658319  0.179954856634  0.196730315685  
0.697800159454  -0.0627706944942  -2.11178565025  -1.10521256924  -0.577990591526  -0.448362112045  0.298908084631  
0.705853223801  -0.0784633681178  -2.11402726173  -1.10745441914  -0.0899774283171  0.108277924359  0.199780389667  
0.713856220245  -0.0403525903821  -2.11626911163  -1.12090528011  -0.428536564112  -0.102177761495  0.126578420401  
0.721940040588  -0.0515616424382  -2.11851096153  -1.1253888607  -0.28213262558  -0.332458972931  0.18910510838  
0.73003411293  -0.0425943993032  -2.11851096153  -1.11417984962  -0.333984017372  0.135728672147  0.327883839607  
0.738092184067  -0.0829469934106  -2.29113030434  -1.33836090565  -0.378210216761  -0.42701151967  0.183004945517  
0.746199131012  -0.289193570614  -2.90987014771  -1.71274328232  -0.0884523913264  0.0503263585269  0.240956500173  
0.754284143448  -0.506649196148  -2.77984499931  -1.35629534721  -0.660342812538  -0.222656011581  0.198255360126  
0.762342214584  -0.342997014523  -3.14077663422  -1.68135786057  0.00610016472638  -0.301958143711  0.198255360126  
0.770431995392  -0.374382376671  -3.36047410965  -1.49080395699  -0.629841983318  0.143353864551  0.289757817984  
0.778537034988  -0.576145291328  -3.80883622169  -1.73964500427  -0.181479901075  -0.573415458202  0.244006589055  
0.786581993103  -0.253324598074  -4.23253822327  -1.73740315437  -0.202830478549  -0.00305008236319  0.131153538823  
0.794738054276  -0.551485419273  -4.44102668762  -1.82259202003  -0.216555848718  -0.230281218886  0.276032447815  
0.802865028381  -0.56941986084  -4.28634166718  -1.86518633366  -0.0305008236319  -0.327883839607  0.288232773542  
0.810832023621  -0.43939486146  -4.1697678566  -1.88312089443  0.0274507403374  0.0991276800632  0.164704442024  
0.818919181824  -0.63667422533  -4.75039672852  -1.88984632492  0.00915024708956  -0.430061608553  0.154029160738  
0.827006101608  -0.3564478755  -4.10251331329  -1.901055336  -0.112853050232  -0.0213505774736  0.141828835011  
0.835052013397  -0.580628931522  -4.48362112045  -1.86742818356  0.128103464842  -0.394985675812  0.108277924359  
0.843187093735  -0.468538403511  -4.19442749023  -1.88760447502  -0.0869273468852  -0.141828835011  0.0854023098946  
0.851300001144  -0.540276348591  -4.29979276657  -1.8988134861  0.0854023098946  -0.294332951307  -0.274507403374  
0.85938501358  -0.582870721817  -4.25495624542  -1.91226434708  -0.0533764399588  -0.164704442024  -0.0915024727583  
0.867573022842  -0.484231084585  -4.18994379044  -1.93019890785  -0.0594766065478  -0.15860427916  -0.0884523913264  
0.875612020493  -0.558210849762  -3.82677054405  -1.94589149952  -0.00610016472638  -0.272982358932  0.00152504118159  
0.883795022964  -0.553727209568  -3.8603978157  -1.95261704922  0.0198255348951  -0.0427011549473  -0.118953213096  
0.891942024231  -0.535792708397  -3.87384867668  -2.01538777351  -0.0305008236319  -0.0793021395802  -0.242481544614  
0.899916172028  -0.511132776737  -3.95007014275  -2.09833478928  -0.0183004941791  0.0  -0.097602635622  
0.908026218414  -0.513374626637  -3.95903754234  -2.13868737221  -0.097602635622  0.0518513992429  -0.154029160738  
0.916137218475  -0.490956515074  -3.75951623917  -2.0804002285  -0.00762520590797  0.00915024708956  -0.239431470633  
0.924189090729  -0.598563432693  -3.43669557571  -2.06022381783  0.0533764399588  0.0823522210121  -0.0960775911808  
0.932317018509  -0.571661710739  -3.63397479057  -1.98176050186  -0.0533764399588  -0.0640517324209  -0.277557492256  
0.940407991409  -0.457329362631  -3.42548656464  -1.93692433834  0.0518513992429  0.100652717054  -0.0152504118159  
0.948522090912  -0.430427610874  -3.49274086952  -1.90778076649  -0.0106752887368  -0.114378087223  -0.211980730295  
0.95662522316  -0.515616416931  -3.03989505768  -1.78896486759  0.0549014806747  0.0396510697901  -0.0945525541902  
0.964739084244  -0.535792708397  -2.97264075279  -1.75757944584  0.0244006589055  -0.0350759476423  -0.213505759835  
0.972973108292  -0.612014293671  -3.21699810028  -1.89432990551  0.0381260290742  -0.0472762770951  -0.166229486465  
0.980959177017  -0.235390111804  -3.12060022354  -1.91450619698  0.0701518952847  0.097602635622  -0.179954856634  
0.989076137543  -0.441636681557  -3.03989505768  -1.93916606903  0.0305008236319  0.0610016472638  -0.280607581139  
0.99719619751  -0.515616416931  -2.81571412086  -1.94589149952  0.0777771025896  0.179954856634  -0.141828835011  
1.00528812408  -0.363173305988  -2.74621796608  -2.02211308479  0.0960775911808  0.242481544614  -0.268407255411  
1.01336503029  -0.369898736477  -2.93901371956  -1.99745321274  0.0640517324209  0.31568351388  -0.154029160738  
1.02146720886  -0.322820723057  -2.57808208466  -2.00417852402  0.17385469377  0.367534935474  -0.321783691645  
1.02954721451  -0.351964265108  -2.68120551109  -1.99969506264  0.106752879918  0.329408884048  -0.0549014806747  
1.03764414787  -0.376624166965  -2.57584023476  -1.93692433834  0.0991276800632  0.29738304019  -0.240956500173  
1.04568600655  -0.257808208466  -2.6744799614  -1.99969506264  0.227231130004  0.219605922699  -0.0899774283171  
1.05384802818  -0.152443110943  -2.47720074654  -1.99072778225  0.132678583264  0.230281218886  -0.256206929684  
1.06192708015  -0.0807051807642  -2.29337215424  -1.94364976883  0.097602635622  0.225706100464  -0.154029160738  
1.0700070858  -0.0986396670341  -2.33820843697  -1.95710062981  0.210455685854  0.333984017372  -0.211980730295  
1.07817006111  0.145717680454  -2.50186061859  -1.95485877991  0.103702798486  0.417861282825  -0.109802961349  
1.08620500565  0.221939250827  -2.31130671501  -1.95934247971  0.146403953433  0.370584994555  -0.201305434108  
1.09427213669  0.170377597213  -2.21715068817  -1.99745321274  0.176904782653  0.277557492256  -0.253156840801  
1.10237717628  0.156926736236  -2.21939253807  -2.05349850655  0.239431470633  0.134203627706  -0.230281218886  
1.11044812202  0.246599167585  -2.26871228218  -2.02883863449  0.131153538823  0.147928997874  -0.0945525541902  
1.11855602264  0.318337112665  -2.46150803566  -2.04677295685  0.144878908992  0.240956500173  -0.103702798486  
1.1266541481  0.425944000483  -2.21490883827  -2.11402726173  0.202830478549  0.323308736086  -0.157079234719  
1.13476610184  0.414734959602  -2.02659678459  -2.0848839283  0.247056677938  0.376685172319  -0.125053375959  
1.14288306236  0.450603932142  -1.97951877117  -2.04228949547  0.166229486465  0.358384668827  -0.155554205179  
1.15091609955  0.513374626637  -2.01762938499  -1.99296963215  0.210455685854  0.29738304019  -0.0335509069264  
1.15898799896  0.549243569374  -2.01762938499  -1.93244063854  0.196730315685  0.196730315685  -0.0671018138528  
1.16708302498  0.672543168068  -1.77103030682  -2.15662169456  0.257731974125  0.157079234719  0.132678583264  
1.17514300346  0.708412110806  -1.82483375072  -1.9615842104  0.169279575348  0.166229486465  0.112853050232  
1.18327021599  0.937076807022  -1.62531268597  -1.98848593235  0.202830478549  0.210455685854  0.150979071856  
1.19132399559  0.986396670341  -1.67014884949  -1.97951877117  0.265357166529  0.25163179636  0.137253701687  
1.19939517975  0.959494888783  -1.19936859608  -1.99072778225  0.222656011581  0.295857995749  0.0381260290742  
1.20749521255  0.872064292431  -1.37647163868  -1.9615842104  0.225706100464  0.320258647203  0.00152504118159  
1.21555805206  0.710653960705  -1.44820964336  -1.99072778225  0.308058321476  0.344659298658  0.186055019498  
1.22381615639  0.645641446114  -1.13435614109  -2.01090407372  0.248581707478  0.298908084631  0.230281218886  
1.23186802864  0.858613431454  -1.21730315685  -1.79793202877  0.192155182362  0.265357166529  0.134203627706  
1.23993515968  0.878789722919  -1.41009879112  -1.94140791893  0.254681885242  0.201305434108  0.120478250086  
1.24801802635  0.768941044807  -1.43027508259  -1.96606791019  0.23638138175  0.120478250086  0.262307077646  
1.25611710548  0.600805222988  -1.3069756031  -1.88760447502  0.23638138175  0.0716769322753  0.18910510838  
1.2641890049  0.712895750999  -1.2464466095  -1.9615842104  0.272982358932  0.0716769322753  0.0350759476423  
1.27227210999  0.804809987545  -0.526825487614  -1.94364976883  0.190630152822  0.0411761105061  0.285182714462  
1.2803812027  0.706170320511  -0.524583697319  -1.95485877991  0.250106751919  0.109802961349  0.193680226803  
1.28853321075  0.629948735237  -0.0358689688146  -1.81586658955  0.320258647203  0.109802961349  0.109802961349  
1.29666304588  0.881031572819  -0.0448362119496  -1.8988134861  0.305008232594  0.170804619789  0.291282862425  
1.30475521088  0.87430614233  -0.226422861218  -1.88087904453  0.256206929684  0.210455685854  0.186055019498  
1.31290221214  0.692719459534  -0.168135792017  -1.89208805561  0.279082536697  0.240956500173  0.0625266879797  
1.32097911835  0.930351376534  -0.0605288855731  -1.901055336  0.33093392849  0.269932299852  0.248581707478  
1.32913303375  0.869822502136  -0.399042278528  -1.84725189209  0.190630152822  0.22113096714  0.134203627706  
1.33720517159  1.19488501549  -0.443878501654  -2.01090407372  0.125053375959  0.129628494382  0.137253701687  
1.3453001976  0.999847531319  -0.325062543154  -2.03780579567  0.193680226803  0.0762520581484  0.272982358932  
1.35338306427  1.188159585  -0.564936280251  -1.94364976883  0.0869273468852  0.143353864551  0.167754530907  
1.36151909828  1.17919230461  -0.551485419273  -1.93468248844  0.20435552299  0.277557492256  0.0945525541902  
1.36968517303  1.46838593483  -0.955011308193  -1.98400235176  0.00915024708956  0.224181056023  0.259256988764  
1.37789607048  1.18143415451  -0.620981514454  -2.04453110695  0.048801317811  0.0518513992429  0.225706100464  
1.38590621948  1.41458249092  -0.943802237511  -1.95710062981  0.155554205179  0.253156840801  0.135728672147  
1.39400410652  1.56478381157  -1.09848713875  -2.14765453339  0.0960775911808  0.215030804276  0.181479901075  
1.40206718445  1.47959494591  -1.0671018362  -2.14092898369  -0.0716769322753  0.213505759835  0.289757817984  
1.41020321846  1.27334845066  -1.02674925327  -2.259745121  0.115903131664  0.208930641413  0.276032447815  
1.41828918457  1.23972117901  -0.930351376534  -2.22387599945  -0.257731974125  0.18910510838  0.213505759835  
1.42634415627  1.34508633614  -1.17246687412  -2.23732686043  -0.233331307769  0.118953213096  0.0991276800632  
1.43444609642  1.7217104435  -1.08055269718  -2.1947324276  -0.341609239578  0.301958143711  0.0747270211577  
1.4425470829  1.94140791893  -1.4280333519  -2.20818328857  -0.30043309927  0.245531633496  0.0747270211577  
1.45091915131  1.69032514095  -1.40337336063  -2.38977003098  -0.269932299852  0.149454042315  0.118953213096  
1.45883107185  1.43027508259  -1.88087904453  -2.38752818108  -0.454462260008  0.105227842927  0.141828835011  
1.46689915657  1.43475878239  -1.68135786057  -2.41442990303  -0.443786978722  0.216555848718  0.120478250086  
1.47497606277  1.90553891659  -1.89432990551  -2.51979494095  -0.305008232594  0.131153538823  0.00305008236319  
1.48307704926  2.04901480675  -1.88312089443  -2.41218805313  -0.462087482214  0.225706100464  0.0686268508434  
1.49119520187  1.67687427998  -1.60737812519  -2.46599149704  -0.414811193943  0.216555848718  -0.231806263328  
1.4992711544  1.57375097275  -1.76654672623  -2.27319598198  -0.292807906866  0.242481544614  -0.0350759476423  
1.50740218163  1.67239069939  -1.88760447502  -2.34493374825  -0.483438044786  0.20435552299  -0.28213262558  
1.51551318169  1.33163547516  -1.64548897743  -2.50410246849  -0.484963089228  0.192155182362  -0.196730315685  
1.52367520332  1.55805838108  -1.73740315437  -2.49065160751  -0.320258647203  0.183004945517  -0.105227842927  
1.53180909157  1.99521136284  -1.99296963215  -2.38977003098  -0.372110038996  0.269932299852  -0.0122003294528  
1.53982114792  1.32491004467  -2.10057640076  -2.30458116531  -0.372110038996  0.23638138175  -0.00610016472638  
1.547935009  1.188159585  -2.13868737221  -2.40097904205  -0.306533277035  0.23638138175  -0.0762520581484  
1.55596017838  1.78448116779  -2.18800711632  -2.30906486511  -0.234856337309  0.23638138175  -0.160129323602  
1.56410002708  0.990880250931  -2.60498380661  -2.41218805313  0.0137253701687  0.198255360126  -0.230281218886  
1.57217121124  1.01778197289  -2.60946750641  -2.49289321899  -0.106752879918  0.356859624386  -0.20588055253  
1.58028507233  1.78896486759  -3.34253954887  -2.29785585403  -0.132678583264  0.279082536697  -0.106752879918  
1.58835911751  0.952769458294  -3.21475625038  -2.41218805313  -0.18910510838  0.277557492256  -0.125053375959  
1.59648299217  0.773424625397  -3.16767835617  -2.3740773201  0.0579515658319  0.347709387541  -0.222656011581  
1.60455513  1.51098036766  -3.13629293442  -2.15662169456  -0.131153538823  0.303483188152  -0.289757817984  
1.6126241684  0.831711709499  -2.91883730888  -2.3785610199  0.0518513992429  0.25163179636  -0.196730315685  
1.62073111534  0.654608666897  -3.12284207344  -2.39873719215  -0.112853050232  0.289757817984  -0.0549014806747  
1.62890601158  1.49080395699  -3.37392497063  -2.15213823318  -0.0716769322753  0.301958143711  -0.190630152822  
1.63695001602  0.885515153408  -3.00402617455  -2.30458116531  0.0228756181896  0.227231130004  -0.262307077646  
1.64500617981  0.455087542534  -2.66551280022  -2.28664684296  0.0671018138528  0.265357166529  -0.272982358932  
1.65312409401  1.32715189457  -3.01299333572  -2.23732686043  0.0930275097489  0.425486475229  -0.150979071856  
1.66115307808  0.744281113148  -2.93228816986  -2.2530195713  0.0549014806747  0.279082536697  -0.143353864551  
1.66927719116  0.340755194426  -2.66327095032  -2.14092898369  0.102177761495  0.283657670021  -0.219605922699  
1.67736911774  1.09848713875  -3.04437875748  -2.22387599945  0.0274507403374  0.382785350084  -0.362959802151  
1.68549203873  0.867580711842  -2.67896366119  -2.26422858238  -0.048801317811  0.318733602762  -0.30043309927  
1.69362616539  0.275742709637  -2.64085292816  -2.23508501053  0.0457512363791  0.326358824968  -0.175379738212  
1.70182919502  0.643399655819  -2.58032393456  -2.20818328857  0.0854023098946  0.308058321476  -0.0244006589055  
1.70989608765  0.659092307091  -2.32251572609  -2.13868737221  0.0686268508434  0.382785350084  -0.0960775911808  
1.71789503098  0.354206055403  -2.58032393456  -2.24181056023  0.0793021395802  0.239431470633  -0.157079234719  
1.72593998909  0.349722445011  -2.21939253807  -2.01762938499  0.0610016472638  0.308058321476  -0.201305434108  
1.73408412933  0.192795708776  -2.15886354446  -1.98400235176  0.128103464842  0.373635083437  -0.213505759835  
1.74218702316  0.251082777977  -1.75982129574  -1.9638260603  0.097602635622  0.387360453606  -0.193680226803  
1.75017619133  0.52234184742  -2.17903995514  -1.86742818356  0.179954856634  0.367534935474  -0.149454042315  
1.75824117661  0.351964265108  -2.16783070564  -1.92795705795  0.137253701687  0.372110038996  -0.135728672147  
1.76627516747  0.10088147223  -1.65445613861  -1.92347347736  0.154029160738  0.396510720253  -0.123528338969  
1.77445411682  -0.0269017256796  -2.01090407372  -1.96830964088  0.140303790569  0.231806263328  -0.0640517324209  
1.78252506256  -0.0560452640057  -1.89208805561  -1.84949374199  0.15860427916  0.176904782653  -0.0549014806747  
1.79064321518  -0.0313853472471  -1.47959494591  -1.75982129574  0.240956500173  0.344659298658  -0.0183004941791  
1.79871106148  0.237631917  -1.76878857613  -1.77551400661  0.216555848718  0.152504116297  0.0686268508434  
1.80684614182  0.204004764557  -1.9615842104  -1.80914115906  0.198255360126  0.352284520864  -0.0427011549473  
1.814879179  -0.237631917  -1.71274328232  -1.77551400661  0.289757817984  0.20435552299  0.0686268508434  
1.82300519943  -0.412493139505  -1.55581653118  -1.7799975872  0.218080893159  0.338559150696  -0.114378087223  
1.83109211922  -0.914658725262  -1.65221440792  -1.63427984715  0.222656011581  0.422436416149  0.112853050232  
1.83918499947  -0.61649787426  -1.86070275307  -1.64324712753  0.178429812193  0.317208558321  -0.0945525541902  
1.84731316566  -1.36974620819  -1.9032971859  -1.58271825314  0.218080893159  0.0625266879797  0.123528338969  
1.85538911819  -1.1253888607  -1.87415361404  -1.47735309601  0.254681885242  0.254681885242  -0.129628494382  
1.86351108551  -1.04020011425  -1.87639546394  -1.43924236298  0.15860427916  -0.0838772654533  0.132678583264  
1.8716301918  -1.04916739464  -1.9638260603  -0.995363891125  0.0838772654533  0.125053375959  -0.123528338969  
1.87976813316  -1.3047337532  -2.05574035645  -0.878789722919  0.135728672147  -0.0533764399588  0.167754530907  
1.88784503937  -1.20609402657  -2.1969742775  -0.836195349693  0.117428168654  -0.154029160738  -0.0198255348951  
1.89593100548  -1.23972117901  -2.62516021729  -0.757731974125  0.129628494382  -0.146403953433  0.247056677938  
1.90399122238  -1.07158541679  -2.48616790771  -0.632190585136  0.222656011581  -0.128103464842  0.0945525541902  
1.912099123  -1.15453243256  -2.41667175293  -0.585112571716  0.242481544614  -0.230281218886  0.30043309927  
1.9202041626  -0.961736738682  -2.29113030434  -0.555968999863  0.0655767694116  -0.0747270211577  0.213505759835  
1.92834305763  -1.27334845066  -2.53324604034  -0.61649787426  0.170804619789  -0.225706100464  0.308058321476  
1.93645310402  -0.896724224091  -2.98160791397  -0.73531383276  -0.0305008236319  -0.108277924359  0.237906426191  
1.94455099106  -0.840678930283  -2.96591544151  -0.775666475296  0.152504116297  -0.301958143711  0.292807906866  
1.95273303986  -0.804809987545  -2.7305252552  -0.654608666897  0.0655767694116  -0.0960775911808  0.157079234719  
1.96094703674  -0.578387141228  -3.38289213181  -0.645641446114  -0.0396510697901  -0.152504116297  0.29738304019  
1.96888613701  -0.701686680317  -3.46583914757  -0.68375223875  0.0152504118159  -0.272982358932  -0.0991276800632  
1.97698616982  -0.782391905785  -3.11611676216  -0.699444890022  0.0594766065478  -0.0335509069264  0.172329649329  
1.98506307602  -0.68375223875  -3.65639305115  -0.836195349693  0.0122003294528  -0.208930641413  -0.0335509069264  
1.99314212799  -0.889998793602  -3.28425240517  -0.708412110806  0.0106752887368  -0.256206929684  -0.109802961349  
2.0011920929  -0.724104821682  -3.59138059616  -0.800326347351  0.0274507403374  -0.0991276800632  -0.126578420401  
2.00930404663  -0.42818582058  -3.3873758316  -0.605288863182  0.0716769322753  -0.224181056023  0.0335509069264  
2.01741409302  -0.401284098625  -3.58689689636  -0.717379391193  0.0762520581484  -0.274507403374  -0.20435552299  
2.02552509308  -0.246599167585  -3.63845849037  -0.654608666897  0.0  -0.183004945517  -0.0472762770951  
2.03361821175  -0.51785826683  -3.42997002602  -0.703928530216  0.122003294528  -0.257731974125  -0.172329649329  
2.04170513153  -0.587354362011  -3.58913874626  -0.751006543636  0.0259256996214  -0.112853050232  -0.0213505774736  
2.04991722107  -0.549243569374  -3.60707306862  -0.811535418034  -0.0869273468852  -0.276032447815  -0.0899774283171  
2.05793404579  -0.529067277908  -3.73485636711  -0.80705177784  -0.17385469377  -0.0899774283171  -0.169279575348  
2.06604599953  -0.295919001102  -3.60034775734  -0.685994029045  -0.115903131664  -0.256206929684  -0.198255360126  
2.07413220406  -0.206246569753  -3.34926486015  -0.694961249828  0.0228756181896  -0.0960775911808  -0.149454042315  
2.0822031498  -0.161410361528  -3.21923995018  -0.677026808262  -0.0427011549473  -0.272982358932  -0.0793021395802  
2.09032320976  -0.360931485891  -3.39858484268  -0.61649787426  -0.0579515658319  -0.225706100464  -0.0762520581484  
2.09840416908  -0.446120291948  -3.5039498806  -0.681510388851  -0.0640517324209  -0.288232773542  -0.0838772654533  
2.10646605492  -0.387833237648  -3.61379861832  -0.795842766762  -0.0137253701687  -0.286707729101  -0.0762520581484  
2.11456513405  -0.488714694977  -3.326846838  -0.818260848522  -0.164704442024  -0.260782033205  -0.128103464842  
2.12272119522  -0.488714694977  -3.08697319031  -0.701686680317  -0.131153538823  -0.154029160738  -0.131153538823  
2.13090419769  -0.289193570614  -3.04886245728  -0.766699194908  -0.0457512363791  -0.3461843431  -0.183004945517  
2.13893604279  -0.331787973642  -2.80450510979  -0.768941044807  -0.00305008236319  -0.338559150696  -0.138778746128  
2.14703321457  -0.470780223608  -2.53772950172  -0.490956515074  -0.0244006589055  -0.335509061813  -0.135728672147  
2.15508699417  -0.551485419273  -2.68568897247  -0.798084557056  -0.0320258662105  -0.277557492256  -0.20588055253  
2.16319322586  -0.421460390091  -2.70810723305  -0.739797472954  -0.0137253701687  -0.141828835011  -0.201305434108  
2.1712911129  -0.233148291707  -2.34269213676  -0.663575947285  0.00610016472638  -0.0411761105061  -0.176904782653  
2.17938709259  -0.363173305988  -2.34717559814  -0.737555682659  0.0137253701687  -0.0777771025896  -0.161654368043  
2.18752717972  -0.441636681557  -2.1947324276  -0.751006543636  0.100652717054  0.135728672147  -0.175379738212  
2.19562220573  -0.466296583414  -2.06246566772  -0.903449654579  0.0472762770951  0.00305008236319  -0.269932299852  
2.20384311676  -0.526825487614  -2.11178565025  -0.674784958363  0.056426525116  0.0289757829159  -0.234856337309  
2.21193313599  -0.609772443771  -1.81138288975  -0.757731974125  0.0823522210121  -0.00762520590797  -0.259256988764  
2.21994400024  -0.580628931522  -1.93468248844  -0.73531383276  0.0549014806747  -0.0762520581484  -0.262307077646  
2.22800016403  -0.578387141228  -1.86742818356  -0.746522903442  0.0610016472638  -0.00457512354478  -0.269932299852  
2.23611307144  -0.544759988785  -1.47959494591  -0.679268598557  0.134203627706  0.0930275097489  -0.274507403374  
2.24420905113  -0.578387141228  -1.34284448624  -0.746522903442  0.0915024727583  0.172329649329  -0.268407255411  
2.25233721733  -0.690477669239  -1.58496010303  -0.831711709499  0.0930275097489  0.225706100464  -0.305008232594  
2.26045703888  -0.865338861942  -1.31818461418  -0.685994029045  0.135728672147  0.211980730295  -0.381260305643  
2.26859903336  -1.04692554474  -1.08503627777  -0.672543168068  0.152504116297  0.160129323602  -0.320258647203  
2.27671003342  -1.10969626904  -1.06037640572  -0.820502638817  0.141828835011  0.056426525116  -0.311108410358  
2.28490209579  -1.11866343021  -1.05140912533  -0.914658725262  0.149454042315  0.0747270211577  -0.359909713268  
2.29300713539  -1.00657296181  -0.990880250931  -0.751006543636  0.169279575348  0.0991276800632  -0.353809565306  
2.3010160923  -0.92586773634  -0.663575947285  -0.726346611977  0.161654368043  0.154029160738  -0.372110038996  
2.30910921097  -1.0110565424  -0.744281113148  -0.739797472954  0.196730315685  0.186055019498  -0.42396146059  
2.31718921661  -1.08727812767  -0.589596152306  -0.863097071648  0.193680226803  0.216555848718  -0.350759476423  
2.32525610924  -1.16798329353  -0.625465154648  -0.941560447216  0.179954856634  0.224181056023  -0.391935586929  
2.33336806297  -1.11417984962  -0.699444890022  -0.845162570477  0.219605922699  0.250106751919  -0.391935586929  
2.34145617485  -1.17022514343  -0.289193570614  -0.748764753342  0.265357166529  0.0869273468852  -0.436161786318  
2.34954214096  -1.3630207777  -0.20176294446  -0.771182835102  0.244006589055  0.115903131664  -0.332458972931  
2.35763406754  -1.16125786304  -0.531309127808  -0.892240583897  0.230281218886  -0.128103464842  -0.271457344294  
2.36585712433  -1.35405361652  -0.188312083483  -1.08279454708  0.201305434108  -0.0411761105061  -0.283657670021  
2.37386202812  -1.17470872402  -0.401284098625  -1.26438117027  0.262307077646  -0.183004945517  -0.349234431982  
2.38196516037  -1.41234064102  -0.19055390358  -1.80914115906  0.184529989958  -0.199780389667  -0.446837067604  
2.38997912407  -1.19488501549  -0.3564478755  -1.67014884949  0.262307077646  -0.201305434108  -0.324833780527  
2.39803409576  -1.3630207777  -0.13675044477  -1.85846090317  0.306533277035  -0.132678583264  -0.433111697435  
2.40616607666  -1.29352474213  0.0448362119496  -1.92123162746  0.152504116297  -0.256206929684  -0.215030804276  
2.41422104836  -1.34508633614  -0.114332340658  -1.98176050186  0.143353864551  -0.257731974125  0.0808271840215  
2.42229509354  -1.46614408493  -0.138992249966  -2.03332209587  0.198255360126  -0.0381260290742  0.0289757829159  
2.43036413193  -1.3047337532  0.464054793119  -1.96606791019  0.279082536697  -0.222656011581  -0.128103464842  
2.43845415115  -1.50649666786  0.347480624914  -1.91674804688  0.122003294528  -0.176904782653  -0.0335509069264  
2.44650006294  -1.46614408493  0.842920780182  -1.83380103111  0.216555848718  -0.259256988764  0.056426525116  
2.45462703705  -1.22851216793  0.798084557056  -1.7822394371  0.0991276800632  -0.176904782653  0.0213505774736  
2.46268510818  -1.27783203125  0.739797472954  -1.88984632492  0.247056677938  -0.215030804276  0.0518513992429  
2.47072315216  -1.28455746174  0.647883236408  -1.99072778225  0.186055019498  -0.117428168654  0.20435552299  
2.47894406319  -1.6028945446  0.506649196148  -2.02883863449  -0.0396510697901  -0.272982358932  0.202830478549  
2.487003088  -1.47511136532  0.555968999863  -2.04677295685  0.0442261956632  -0.15860427916  0.0793021395802  
2.49507403374  -1.28455746174  0.650125086308  -1.96606791019  -0.0884523913264  -0.129628494382  0.140303790569  
2.50317406654  -1.52218937874  0.372140556574  -1.95037519932  -0.211980730295  -0.253156840801  0.0594766065478  
2.51126217842  -1.73740315437  0.0605288855731  -1.91002261639  -0.301958143711  -0.279082536697  0.150979071856  
2.51932001114  -1.39216434956  0.266775459051  -1.79569029808  -0.15860427916  -0.227231130004  0.160129323602  
2.52744007111  -0.914658725262  0.224181056023  -1.29800832272  -0.364484846592  -0.0823522210121  0.228756174445  
2.53553199768  -1.59616911411  -0.188312083483  -1.17695057392  -0.187580063939  -0.149454042315  0.23638138175  
2.54358315468  -2.1947324276  -0.39231684804  -1.23523759842  -0.356859624386  -0.140303790569  0.150979071856  
2.55164599419  -0.988638460636  0.0739797502756  -0.997605681419  -0.410236090422  -0.149454042315  0.170804619789  
2.55986213684  -0.847404360771  -0.204004764557  -0.757731974125  -0.283657670021  -0.169279575348  0.211980730295  
2.567923069  -2.05125665665  -0.378865987062  -0.715137541294  -0.28213262558  -0.269932299852  0.305008232594  
2.57598209381  -1.6656652689  -0.555968999863  -0.699444890022  -0.410236090422  -0.20435552299  0.240956500173  
2.58409810066  -0.75549018383  -0.455087542534  -0.730830252171  -0.446837067604  -0.225706100464  0.15860427916  
2.592233181  -1.99969506264  -0.27350088954  -0.907933294773  -0.367534935474  -0.208930641413  0.166229486465  
2.60033416748  -1.40337336063  -0.475263834  -0.721862971783  -0.337034106255  -0.18910510838  0.207405596972  
2.6084291935  -0.744281113148  -0.625465154648  -0.659092307091  -0.394985675812  -0.257731974125  0.30043309927  
2.61654210091  -1.91002261639  -1.10072898865  -0.838437139988  -0.449887156487  -0.219605922699  0.294332951307  
2.62479019165  -1.29352474213  -1.27110660076  -0.699444890022  -0.516988933086  -0.164704442024  0.335509061813  
2.63289499283  -1.20161044598  -1.3675044775  -0.694961249828  -0.413286149502  -0.321783691645  0.20435552299  
2.64086914062  -1.25541388988  -1.45717680454  -0.858613431454  -0.31568351388  -0.213505759835  0.225706100464  
2.64897608757  -0.896724224091  -1.93244063854  -0.643399655819  -0.420911371708  -0.219605922699  0.187580063939  
2.65704321861  -1.7777557373  -2.09609293938  -0.818260848522  -0.48801317811  -0.233331307769  0.28213262558  
2.66514801979  -0.975187599659  -2.21042513847  -0.73531383276  -0.337034106255  -0.276032447815  0.372110038996  
2.67328214645  -1.17695057392  -1.88536262512  -0.887757003307  -0.542914688587  -0.279082536697  0.231806263328  
2.68139600754  -1.35405361652  -2.1969742775  -0.932593166828  -0.416336238384  -0.219605922699  0.358384668827  
2.68952322006  -0.782391905785  -2.52203679085  -0.773424625397  -0.529189288616  -0.259256988764  0.228756174445  
2.69764900208  -1.47735309601  -1.85621917248  -0.961736738682  -0.3461843431  -0.265357166529  0.332458972931  
2.70589399338  -0.748764753342  -2.1969742775  -0.744281113148  -0.501738548279  -0.245531633496  0.352284520864  
2.71387004852  -1.1904014349  -1.93468248844  -0.943802237511  -0.463612526655  -0.291282862425  0.276032447815  
2.72193312645  -1.04916739464  -1.88536262512  -0.719621181488  -0.279082536697  -0.271457344294  0.170804619789  
2.73001599312  -0.638916015625  -2.01090407372  -0.728588402271  -0.359909713268  -0.280607581139  -0.112853050232  
2.73812103271  -1.47735309601  -1.53788208961  -0.833953499794  -0.416336238384  -0.244006589055  0.140303790569  
2.74622821808  -0.730830252171  -1.89432990551  -0.896724224091  -0.399560779333  -0.210455685854  -0.161654368043  
2.75432109833  -0.876547932625  -1.58720183372  -1.00657296181  -0.291282862425  -0.320258647203  0.0930275097489  
2.76245713234  -0.975187599659  -1.80465745926  -0.840678930283  -0.244006589055  -0.28213262558  0.0183004941791  
2.77051615715  -0.399042278528  -1.46166050434  -0.860855221748  -0.0594766065478  -0.250106751919  -0.137253701687  
2.77866601944  -1.26438117027  -1.57599282265  -0.970703959465  -0.0411761105061  -0.298908084631  -0.0854023098946  
2.78669214249  -0.979671239853  -1.69032514095  -1.05365097523  -0.0518513992429  -0.239431470633  -0.108277924359  
2.79484415054  -0.215213805437  -1.62307083607  -1.00208926201  -0.183004945517  -0.309583365917  -0.167754530907  
2.80293512344  -1.425791502  -1.2509303093  -0.883273363113  -0.0732019767165  -0.279082536697  -0.105227842927  
2.81101417542  -0.672543168068  -1.33163547516  -0.883273363113  -0.00610016472638  -0.280607581139  -0.146403953433  
2.81909418106  -0.351964265108  -1.34284448624  -1.0110565424  -0.146403953433  -0.274507403374  -0.250106751919  
2.82716107368  -1.19936859608  -1.3652626276  -0.896724224091  0.0274507403374  -0.332458972931  -0.0472762770951  
2.83529114723  -1.09624540806  -0.762215614319  -0.903449654579  -0.0213505774736  -0.28213262558  -0.201305434108  
2.84339618683  -0.210730195045  -1.01554012299  -0.966220319271  0.0183004941791  -0.211980730295  -0.263832122087  
2.85151815414  -0.786875486374  -0.793600916862  -0.997605681419  0.0213505774736  -0.407186001539  -0.0686268508434  
2.85957407951  -1.16125786304  -1.27334845066  -1.20833587646  -0.0198255348951  -0.308058321476  -0.122003294528  
2.86777615547  -0.679268598557  -1.20161044598  -1.3069756031  -0.0366009883583  -0.219605922699  -0.215030804276  
2.87583112717  -0.269017279148  -0.733072042465  -1.51098036766  0.117428168654  -0.253156840801  -0.23638138175  
2.88391208649  -0.672543168068  -0.818260848522  -1.19488501549  -0.00915024708956  -0.288232773542  -0.147928997874  
2.89199018478  -1.00208926201  -1.02450740337  -2.28216314316  0.152504116297  -0.417861282825  -0.108277924359  
2.90009117126  -0.946044027805  -0.786875486374  -2.22835969925  -0.111328005791  -0.305008232594  -0.26688221097  
2.90816116333  -0.558210849762  -0.394558668137  -2.259745121  0.0915024727583  -0.326358824968  -0.298908084631  
2.91624116898  -0.576145291328  -0.277984499931  -2.03780579567  -0.0457512363791  -0.231806263328  -0.114378087223  
2.92436099052  -0.609772443771  -0.316095292568  -2.06694936752  0.0701518952847  -0.201305434108  -0.211980730295  
2.93242907524  -0.52234184742  -0.181586652994  -2.1947324276  0.0793021395802  -0.207405596972  -0.321783691645  
2.94051408768  -0.553727209568  -0.0650125071406  -2.32475757599  0.0183004941791  -0.321783691645  -0.114378087223  
2.9486310482  -0.780150055885  0.490956515074  -2.17903995514  0.179954856634  -0.356859624386  -0.250106751919  
2.95682311058  -0.663575947285  0.452845722437  -2.12299466133  0.0610016472638  -0.208930641413  -0.256206929684  
2.96492004395  -0.589596152306  0.587354362011  -2.27543759346  0.155554205179  -0.317208558321  -0.239431470633  
2.97297501564  -0.650125086308  0.547001779079  -2.31130671501  0.0381260290742  -0.129628494382  -0.305008232594  
2.9810230732  -0.544759988785  0.372140556574  -2.17903995514  0.0533764399588  -0.29738304019  -0.288232773542  
2.989123106  -0.378865987062  0.708412110806  -2.23284339905  0.134203627706  -0.211980730295  -0.234856337309  
2.99720311165  -0.275742709637  0.840678930283  -2.10281825066  -0.00610016472638  -0.167754530907  -0.376685172319  
3.00529408455  -0.20176294446  0.529067277908  -2.1969742775  0.056426525116  -0.242481544614  -0.202830478549  
3.01341700554  0.15468493104  0.313853472471  -2.35165929794  0.123528338969  -0.245531633496  -0.128103464842  
3.02152919769  -0.116574145854  0.715137541294  -2.259745121  0.0350759476423  -0.0991276800632  -0.207405596972  
3.02964806557  0.881031572819  0.497681945562  -2.16110539436  -0.0579515658319  -0.166229486465  -0.253156840801  
3.0378921032  0.443878501654  0.782391905785  -2.19024896622  0.0518513992429  -0.215030804276  -0.253156840801  
3.0460062027  0.578387141228  0.560452640057  -2.13868737221  0.115903131664  -0.231806263328  -0.15860427916  
3.05399799347  0.473022013903  0.286951750517  -2.22611784935  0.137253701687  -0.239431470633  -0.0838772654533  
3.06204104424  0.466296583414  0.605288863182  -2.02211308479  0.0747270211577  -0.279082536697  -0.201305434108  
3.07018303871  0.441636681557  0.576145291328  -2.08712553978  -0.0838772654533  -0.245531633496  -0.00305008236319  
3.07828021049  0.457329362631  0.150201305747  -2.0848839283  -0.103702798486  -0.3126334548  0.120478250086  
3.08634018898  0.455087542534  0.466296583414  -2.20369982719  -0.18910510838  -0.256206929684  0.202830478549  
3.09441018105  0.464054793119  0.152443110943  -2.14541268349  -0.31568351388  -0.219605922699  0.15860427916  
3.10257005692  0.466296583414  0.511132776737  -2.10954380035  -0.355334609747  -0.288232773542  0.00457512354478  
3.11060214043  0.206246569753  0.0269017256796  -2.14765453339  -0.40871104598  -0.265357166529  0.166229486465  
3.118735075  0.0269017256796  0.334029763937  -2.10506010056  -0.298908084631  -0.213505759835  0.170804619789  
3.12682199478  -0.464054793119  0.163652166724  -2.00866222382  -0.196730315685  -0.283657670021  0.0701518952847  
3.13488221169  -0.479747444391  0.318337112665  -2.17007255554  -0.340084195137  -0.166229486465  0.240956500173  
3.14299511909  -0.764457404613  0.0403525903821  -2.12747812271  -0.433111697435  -0.279082536697  0.163179412484  
3.15107822418  -0.782391905785  -0.0694961249828  -1.99296963215  -0.308058321476  -0.0732019767165  0.125053375959  
3.15917420387  -0.777908265591  0.0851887986064  -1.95261704922  -0.23638138175  -0.135728672147  0.218080893159  
3.16728711128  -0.654608666897  -0.277984499931  -2.09609293938  -0.396510720253  -0.0167754534632  0.126578420401  
3.17541313171  -0.490956515074  0.00224181055091  -2.01314592361  -0.349234431982  -0.0549014806747  0.242481544614  
3.18351411819  -0.558210849762  -0.423702180386  -2.00193691254  -0.259256988764  -0.152504116297  0.0335509069264  
3.19161510468  -0.726346611977  -0.421460390091  -1.97279334068  -0.376685172319  -0.233331307769  0.245531633496  
3.19983506203  -0.775666475296  -0.0627706944942  -1.93692433834  -0.3126334548  -0.256206929684  0.106752879918  
3.20790410042  -0.645641446114  -0.313853472471  -1.93019890785  -0.301958143711  -0.279082536697  0.280607581139  
3.21587920189  -0.587354362011  -0.28470993042  -1.97055149078  -0.401085823774  -0.222656011581  0.0808271840215  
3.22402310371  -0.739797472954  -0.121057771146  -2.04901480675  -0.25163179636  -0.126578420401  0.22113096714  
3.23207712173  -0.842920780182  -0.316095292568  -1.99745321274  -0.373635083437  -0.097602635622  0.129628494382  
3.24017310143  -0.715137541294  -0.56941986084  -1.67687427998  -0.414811193943  -0.28213262558  0.187580063939  
3.24824905396  -0.589596152306  -0.73531383276  -1.59841096401  -0.263832122087  -0.257731974125  0.222656011581  
3.25634503365  -0.614256083965  -0.733072042465  -1.14332342148  -0.463612526655  -0.33093392849  0.0625266879797  
3.26445317268  -0.632190585136  -0.670301377773  -1.15901601315  -0.462087482214  -0.115903131664  0.318733602762  
3.27257418633  -0.629948735237  -0.587354362011  -0.955011308193  -0.277557492256  -0.0854023098946  0.215030804276  
3.2807700634  -0.618739724159  -0.553727209568  -0.905691444874  -0.375160127878  -0.201305434108  0.166229486465  
3.28882002831  -0.813777208328  -0.730830252171  -0.80256819725  -0.451412200928  -0.247056677938  0.318733602762  
3.29685401917  -0.851888000965  -1.03795826435  -0.768941044807  -0.382785350084  -0.207405596972  0.277557492256  
3.30494618416  -0.659092307091  -1.32042646408  -0.838437139988  -0.225706100464  -0.0625266879797  0.125053375959  
3.31303906441  -0.349722445011  -1.32939362526  -0.87430614233  -0.362959802151  -0.181479901075  0.125053375959  
3.3211581707  -0.580628931522  -1.52891480923  -0.901207864285  -0.42396146059  -0.233331307769  0.240956500173  
3.32925200462  -0.589596152306  -1.73740315437  -0.800326347351  -0.465137571096  -0.327883839607  0.271457344294  
3.3373529911  -0.470780223608  -1.85621917248  -0.733072042465  -0.388885498047  -0.18910510838  0.285182714462  
3.34546208382  -0.36765691638  -1.8988134861  -0.847404360771  -0.301958143711  -0.0366009883583  0.234856337309  
3.35357999802  -0.585112571716  -1.7822394371  -0.92586773634  -0.274507403374  -0.154029160738  0.222656011581  
3.36170816422  -0.690477669239  -1.6051363945  -1.07606911659  -0.262307077646  -0.208930641413  0.149454042315  
3.36984014511  -0.629948735237  -1.50425493717  -0.981913030148  -0.274507403374  -0.259256988764  0.0396510697901  
3.37793922424  -0.598563432693  -1.73067772388  -0.898966014385  -0.303483188152  -0.250106751919  0.176904782653  
3.38603711128  -0.461812973022  -1.76878857613  -0.845162570477  -0.225706100464  -0.146403953433  -0.0823522210121  
3.3941321373  -0.378865987062  -1.49977123737  -0.847404360771  -0.0732019767165  -0.0793021395802  0.0625266879797  
3.40224719048  -0.358689695597  -1.25317203999  -0.910175085068  -0.0228756181896  -0.102177761495  -0.0167754534632  
3.4103782177  -0.423702180386  -1.77551400661  -0.932593166828  -0.0854023098946  -0.190630152822  -0.120478250086  
3.41849422455  -0.394558668137  -1.79344844818  -0.831711709499  0.0884523913264  -0.227231130004  -0.170804619789  
3.42655205727  -0.30936986208  -1.34284448624  -0.905691444874  -0.0472762770951  -0.253156840801  -0.210455685854  
3.43468904495  -0.21969743073  -1.33163547516  -0.959494888783  -0.0335509069264  -0.280607581139  -0.0884523913264  
3.44285511971  0.188312083483  -1.56926739216  -1.03571653366  -0.097602635622  -0.291282862425  0.0122003294528  
3.45088005066  0.43939486146  -1.26662302017  -1.04692554474  -0.144878908992  -0.295857995749  -0.143353864551  
3.45906400681  0.434911251068  -1.10297083855  -0.932593166828  -0.0655767694116  -0.294332951307  -0.190630152822  
3.46711921692  0.520100057125  -1.3630207777  -0.898966014385  0.0259256996214  -0.308058321476  -0.161654368043  
3.47520899773  0.643399655819  -1.4235496521  -0.932593166828  0.0640517324209  -0.18910510838  -0.0472762770951  
3.48334717751  0.699444890022  -1.188159585  -0.914658725262  0.0274507403374  -0.118953213096  -0.201305434108  
3.49146914482  0.780150055885  -1.0088146925  -0.975187599659  -0.0915024727583  -0.193680226803  -0.253156840801  
3.49955821037  0.632190585136  -1.14332342148  -1.04468369484  -0.105227842927  0.0274507403374  -0.0945525541902  
3.50779104233  0.5940797925  -1.25765573978  -1.04468369484  0.00610016472638  -0.222656011581  -0.114378087223  
3.51584601402  0.531309127808  -1.07382726669  -1.01778197289  0.0671018138528  0.0701518952847  -0.234856337309  
3.5238711834  0.571661710739  -0.896724224091  -0.977429389954  -0.0183004941791  -0.125053375959  -0.17385469377  
3.53191804886  0.672543168068  -0.791359126568  -0.979671239853  -0.128103464842  0.0884523913264  -0.152504116297  
3.54001307487  0.762215614319  -1.03347468376  -0.939318597317  -0.0320258662105  0.0838772654533  -0.274507403374  
3.54806518555  0.746522903442  -1.1904014349  -0.975187599659  0.0732019767165  0.0335509069264  -0.298908084631  
3.55622911453  0.679268598557  -1.24196302891  -1.04468369484  0.0655767694116  0.280607581139  -0.154029160738  
3.56428313255  0.542518138885  -1.15453243256  -1.31370103359  -0.0198255348951  0.237906426191  -0.120478250086  
3.57239103317  0.625465154648  -1.02226555347  -1.50873851776  -0.0549014806747  0.23638138175  -0.195205271244  
3.58050918579  0.775666475296  -0.869822502136  -1.8382846117  0.0518513992429  0.215030804276  -0.26688221097  
3.58861708641  0.966220319271  -0.710653960705  -1.77103030682  0.118953213096  0.132678583264  -0.190630152822  
3.5967810154  0.800326347351  -0.625465154648  -1.90553891659  0.0716769322753  0.0838772654533  -0.112853050232  
3.60483503342  0.650125086308  -0.48647287488  -1.97055149078  0.0366009883583  0.132678583264  -0.181479901075  
3.61287403107  0.468538403511  -0.293677181005  -2.0759165287  -0.0549014806747  0.213505759835  -0.265357166529  
3.62096619606  0.347480624914  0.00672543141991  -2.11402726173  0.0122003294528  0.29738304019  -0.31568351388  
3.62905812263  0.383349597454  0.253324598074  -2.10281825066  0.0747270211577  0.366009891033  -0.317208558321  
3.63718605042  0.48647287488  0.0336271598935  -2.17007255554  0.126578420401  0.327883839607  -0.237906426191  
3.64527201653  0.502165555954  0.0874306112528  -2.1947324276  0.117428168654  0.169279575348  -0.125053375959  
3.65339803696  0.538034558296  0.0112090529874  -2.18576526642  0.0823522210121  0.111328005791  -0.0793021395802  
3.6614921093  0.51785826683  -0.0246599167585  -2.09833478928  0.0305008236319  0.056426525116  -0.0594766065478  
3.66963911057  0.459571152925  -0.0313853472471  -2.13196182251  0.00915024708956  0.0884523913264  -0.0518513992429  
3.67773604393  0.405767709017  0.0313853472471  -2.17455625534  -0.0686268508434  0.109802961349  -0.146403953433  
3.68588614464  0.327304333448  0.246599167585  -2.25077772141  -0.0503263585269  0.201305434108  0.0183004941791  
3.69388699532  0.206246569753  0.531309127808  -2.21042513847  -0.0701518952847  0.23638138175  0.0610016472638  
3.70195102692  -0.0425943993032  0.571661710739  -2.16334724426  -0.106752879918  0.29738304019  0.155554205179  
3.71004319191  -0.280226320028  0.533550918102  -2.17903995514  -0.175379738212  0.306533277035  0.105227842927  
3.71818614006  -0.441636681557  0.495440125465  -2.13644552231  -0.198255360126  0.268407255411  0.0213505774736  
3.72616100311  -0.710653960705  0.652366876602  -2.19249081612  -0.254681885242  0.231806263328  0.244006589055  
3.73424220085  -0.703928530216  0.515616416931  -2.21042513847  -0.224181056023  0.128103464842  0.0228756181896  
3.74230599403  -0.831711709499  0.347480624914  -2.20145797729  -0.120478250086  0.118953213096  -0.0533764399588  
3.75046110153  -1.0110565424  0.542518138885  -2.15437984467  -0.170804619789  0.109802961349  0.0122003294528  
3.75852108002  -1.18367600441  0.681510388851  -2.15662169456  -0.109802961349  0.00457512354478  0.0960775911808  
3.7666220665  -1.22627031803  0.464054793119  -2.28216314316  -0.198255360126  0.105227842927  0.187580063939  
3.77471017838  -1.0088146925  0.757731974125  -2.30682301521  -0.271457344294  0.0381260290742  0.23638138175  
3.78285717964  -0.836195349693  0.347480624914  -2.20369982719  -0.347709387541  -0.102177761495  0.25163179636  
3.79089212418  -0.800326347351  0.706170320511  -2.10281825066  -0.352284520864  -0.114378087223  0.129628494382  
3.79898810387  -0.950527667999  0.479747444391  -2.13644552231  -0.178429812193  -0.170804619789  0.0869273468852  
3.80708312988  -0.863097071648  0.858613431454  -2.0759165287  -0.233331307769  -0.256206929684  0.140303790569  
3.81514620781  -0.881031572819  0.468538403511  -2.16110539436  -0.373635083437  -0.260782033205  0.250106751919  
3.82322406769  -1.17022514343  0.943802237511  -2.36062645912  -0.320258647203  -0.109802961349  0.25163179636  
3.83136820793  -1.02450740337  0.930351376534  -2.05798196793  -0.301958143711  -0.0335509069264  0.178429812193  
3.83945703506  -0.883273363113  0.782391905785  -2.02883863449  -0.384310364723  -0.193680226803  0.0106752887368  
3.84755015373  -0.952769458294  0.988638460636  -2.17007255554  -0.25163179636  -0.248581707478  0.048801317811  
3.855656147  -0.894482433796  0.85412979126  -2.15886354446  -0.378210216761  -0.176904782653  0.178429812193  
3.86389517784  -0.966220319271  0.43939486146  -2.30458116531  -0.277557492256  -0.109802961349  0.198255360126  
3.87188720703  -1.04244196415  0.578387141228  -2.38752818108  -0.271457344294  -0.25163179636  0.0915024727583  
3.87996506691  -0.795842766762  0.524583697319  -2.29561400414  -0.359909713268  -0.289757817984  0.0716769322753  
3.88802409172  -1.10297083855  0.717379391193  -2.27992129326  -0.305008232594  -0.0732019767165  0.240956500173  
3.89611816406  -1.0110565424  0.789117336273  -2.2530195713  -0.230281218886  -0.305008232594  0.225706100464  
3.90419101715  -0.979671239853  0.775666475296  -2.35838460922  -0.276032447815  -0.294332951307  0.0915024727583  
3.91237020493  -0.916900515556  0.531309127808  -2.08936738968  -0.250106751919  -0.179954856634  0.126578420401  
3.92042708397  -0.647883236408  0.694961249828  -2.33596658707  -0.308058321476  -0.295857995749  0.248581707478  
3.9285390377  -0.789117336273  0.502165555954  -2.28664684296  -0.271457344294  -0.244006589055  0.231806263328  
3.93662118912  -0.681510388851  0.654608666897  -2.32475757599  -0.250106751919  -0.146403953433  0.144878908992  
3.94481921196  -0.694961249828  0.461812973022  -2.34045028687  -0.265357166529  -0.262307077646  0.276032447815  
3.95292901993  -0.715137541294  0.547001779079  -2.40546274185  -0.3461843431  -0.0808271840215  0.248581707478  
3.96090912819  -0.587354362011  0.414734959602  -2.47944235802  -0.398035734892  -0.262307077646  0.114378087223  
3.96900820732  -0.520100057125  0.286951750517  -2.36959385872  -0.327883839607  -0.28213262558  0.198255360126  
3.97710204124  -0.603047013283  0.282468140125  -2.31130671501  -0.269932299852  -0.0167754534632  0.239431470633  
3.98519515991  -0.605288863182  0.206246569753  -2.47271704674  -0.396510720253  -0.211980730295  0.152504116297  
3.99331521988  -0.56941986084  -0.00896724220365  -2.46599149704  -0.417861282825  -0.239431470633  0.22113096714  
4.00145220757  -0.493198335171  0.107606902719  -2.45478248596  -0.366009891033  -0.117428168654  0.309583365917  
4.00954008102  -0.475263834  0.0560452640057  -2.39649558067  -0.414811193943  -0.199780389667  0.125053375959  
4.01779103279  -0.587354362011  -0.130025014281  -2.51979494095  -0.372110038996  -0.271457344294  0.154029160738  
4.02581310272  -0.694961249828  -0.105365097523  -2.42339730263  -0.507838726044  -0.337034106255  0.247056677938  
4.03384113312  -0.659092307091  -0.150201305747  -2.22387599945  -0.405660957098  -0.123528338969  0.123528338969  
4.04192304611  -0.580628931522  -0.470780223608  -2.62964367867  -0.413286149502  -0.141828835011  0.137253701687  
4.05001115799  -0.408009529114  -0.360931485891  -2.65654540062  -0.44226193428  -0.239431470633  0.279082536697  
4.05811905861  -0.163652166724  -0.300402611494  -2.5534222126  -0.410236090422  -0.263832122087  0.199780389667  
4.0662112236  0.00224181055091  -0.571661710739  -2.36511015892  -0.452937245369  -0.33093392849  0.0594766065478  
4.07429599762  0.542518138885  -0.540276348591  -2.50186061859  -0.504788637161  -0.309583365917  0.247056677938  
4.08238220215  0.437153071165  -0.614256083965  -2.32027387619  -0.384310364723  -0.247056677938  0.259256988764  
4.09050416946  0.582870721817  -0.784633696079  -2.33820843697  -0.394985675812  -0.20588055253  0.166229486465  
4.09876203537  0.710653960705  -0.674784958363  -2.52203679085  -0.526139199734  -0.186055019498  0.141828835011  
4.10678815842  0.984154820442  -0.813777208328  -2.57135677338  -0.483438044786  -0.0899774283171  0.274507403374  
4.11484122276  1.11193799973  -1.07382726669  -2.61395120621  -0.500213503838  -0.0274507403374  0.311108410358  
4.1229031086  0.977429389954  -0.829469919205  -2.33148288727  -0.491063266993  -0.00152504118159  0.308058321476  
4.13098907471  0.92138415575  -1.08279454708  -2.48840975761  -0.494113355875  -0.193680226803  0.213505759835  
4.13907217979  1.11866343021  -1.00433111191  -2.57584023476  -0.405660957098  0.102177761495  0.140303790569  
4.14716506004  1.16798329353  -1.19264316559  -2.44805717468  -0.437686830759  -0.0838772654533  0.0716769322753  
4.15528321266  0.981913030148  -1.15004885197  -2.44133162498  -0.51546394825  0.0472762770951  0.0701518952847  
4.16339015961  0.957253098488  -1.34956991673  -2.41667175293  -0.527664244175  0.129628494382  0.108277924359  
4.17151021957  1.1298725605  -1.56702554226  -2.65654540062  -0.443786978722  0.225706100464  0.118953213096  
4.17954707146  1.26438117027  -1.57375097275  -2.53997135162  -0.524614155293  0.25163179636  0.15860427916  
4.18760609627  1.0671018362  -1.43700051308  -2.46823334694  -0.459037393332  0.198255360126  0.125053375959  
4.19580507278  1.19488501549  -1.35853719711  -2.34493374825  -0.314158469439  0.0305008236319  -0.0350759476423  
4.2038640976  1.16125786304  -1.41906607151  -2.47047519684  -0.465137571096  0.112853050232  -0.0106752887368  
4.21185922623  1.08727812767  -1.76654672623  -2.49289321899  -0.507838726044  0.306533277035  -0.216555848718  
4.21995401382  1.32939362526  -1.5401238203  -2.2530195713  -0.405660957098  0.242481544614  -0.0610016472638  
4.22805500031  1.19264316559  -1.47959494591  -2.38528633118  -0.25163179636  0.132678583264  -0.271457344294  
4.23610401154  1.34508633614  -1.79120659828  -2.40994644165  -0.161654368043  0.245531633496  -0.179954856634  
4.24418711662  1.10969626904  -1.45717680454  -2.29785585403  -0.144878908992  0.324833780527  -0.176904782653  
4.25229811668  1.27334845066  -1.52667295933  -2.31803202629  -0.216555848718  0.112853050232  -0.129628494382  
4.26039505005  1.3652626276  -1.93468248844  -2.45702433586  -0.149454042315  0.234856337309  -0.00457512354478  
4.26852107048  1.33387732506  -1.75982129574  -2.40322089195  0.00152504118159  0.216555848718  -0.0320258662105  
4.27666306496  1.36974620819  -1.94589149952  -2.46150803566  0.0  0.111328005791  -0.112853050232  
4.28484010696  1.21506130695  -1.76654672623  -2.32475757599  -0.102177761495  0.277557492256  -0.178429812193  
4.29286599159  1.188159585  -1.68584156036  -2.34045028687  -0.0305008236319  0.0350759476423  -0.228756174445  
4.30089712143  1.27783203125  -1.92571520805  -2.17231440544  0.0274507403374  0.269932299852  -0.230281218886  
4.30899810791  1.57375097275  -1.62082898617  -2.11178565025  -0.146403953433  0.0762520581484  -0.149454042315  
4.31709504128  1.59841096401  -1.41906607151  -2.03332209587  0.0686268508434  0.314158469439  -0.0793021395802  
4.32518219948  1.62307083607  -1.62082898617  -2.25077772141  -0.144878908992  0.056426525116  -0.160129323602  
4.33326101303  1.45045137405  -1.8427683115  -2.13868737221  0.0915024727583  0.254681885242  -0.239431470633  
4.34136414528  0.916900515556  -1.73964500427  -2.14092898369  -0.0701518952847  0.280607581139  -0.288232773542  
4.34942603111  1.00208926201  -1.68359971046  -2.15886354446  0.0991276800632  0.0838772654533  -0.231806263328  
4.35756921768  1.00208926201  -1.7822394371  -2.17231440544  -0.0503263585269  0.277557492256  -0.0671018138528  
4.36580014229  1.45045137405  -1.95934247971  -2.14989638329  0.117428168654  0.224181056023  -0.102177761495  
4.37375020981  1.79120659828  -2.07143306732  -2.19024896622  -0.0503263585269  0.0808271840215  -0.175379738212  
4.38184905052  1.87639546394  -2.23508501053  -2.04453110695  0.129628494382  0.208930641413  -0.248581707478  
4.38989901543  1.21506130695  -2.21715068817  -2.00642037392  -0.0213505774736  0.311108410358  -0.263832122087  
4.39826011658  0.753248333931  -2.49289321899  -1.91898977757  0.0259256996214  0.218080893159  -0.150979071856  
4.40635800362  1.19264316559  -2.66102910042  -1.87415361404  -0.0106752887368  0.100652717054  -0.154029160738  
4.41440415382  1.31594276428  -2.70138168335  -1.73516142368  0.0732019767165  0.170804619789  -0.183004945517  
4.42252802849  1.11417984962  -2.69913983345  -1.00433111191  -0.123528338969  0.202830478549  -0.234856337309  
4.43062520027  0.80256819725  -2.81123042107  -1.01554012299  0.150979071856  0.254681885242  -0.279082536697  
4.43872404099  0.92586773634  -2.96815705299  -0.782391905785  0.0274507403374  0.3126334548  -0.303483188152  
4.44682312012  0.999847531319  -3.14974379539  -0.863097071648  -0.056426525116  0.318733602762  -0.301958143711  
4.4549062252  1.09624540806  -3.12284207344  -1.00657296181  0.100652717054  0.366009891033  -0.244006589055  
4.4629650116  0.863097071648  -2.90090274811  -0.818260848522  0.097602635622  0.268407255411  -0.157079234719  
4.4710931778  0.919142305851  -2.94798088074  -0.809293627739  0.0350759476423  0.309583365917  -0.0884523913264  
4.47920417786  0.872064292431  -3.08697319031  -0.737555682659  -0.0671018138528  0.222656011581  -0.0701518952847  
4.4872841835  1.08503627777  -2.93004631996  -0.724104821682  0.0350759476423  0.276032447815  -0.0106752887368  
4.49535107613  0.934835016727  -2.45926618576  -0.811535418034  0.0838772654533  0.240956500173  -0.0533764399588  
4.50348305702  0.63667422533  -2.42339730263  -0.690477669239  0.0701518952847  0.341609239578  0.0472762770951  
4.51161599159  0.329546153545  -2.6744799614  -0.670301377773  0.0533764399588  0.23638138175  0.0884523913264  
4.51972317696  0.42818582058  -2.45702433586  -0.61649787426  0.0610016472638  0.285182714462  0.0533764399588  
4.52781605721  0.535792708397  -2.32027387619  -0.733072042465  -0.135728672147  0.211980730295  0.242481544614  
4.5359442234  0.784633696079  -2.89866113663  -0.934835016727  -0.140303790569  0.244006589055  -0.0198255348951  
4.54400110245  0.809293627739  -2.84261584282  -0.798084557056  -0.157079234719  0.157079234719  0.245531633496  
4.55212402344  0.582870721817  -2.32251572609  -0.685994029045  -0.257731974125  0.245531633496  -0.0915024727583  
4.56018614769  0.336271584034  -2.22163414955  -0.744281113148  -0.317208558321  0.111328005791  0.231806263328  
4.56826615334  0.459571152925  -2.6699962616  -0.881031572819  -0.355334609747  0.183004945517  -0.0427011549473  
4.57639718056  0.481989264488  -2.50634407997  -0.739797472954  -0.269932299852  0.234856337309  0.0244006589055  
4.58445715904  0.677026808262  -2.23732686043  -0.773424625397  -0.175379738212  0.314158469439  0.0198255348951  
4.59252214432  0.75549018383  -2.16110539436  -0.867580711842  -0.257731974125  0.321783691645  0.0228756181896  
4.60068702698  0.520100057125  -2.34493374825  -0.712895750999  -0.320258647203  0.149454042315  0.122003294528  
4.60884809494  0.289193570614  -2.41218805313  -0.798084557056  -0.378210216761  0.260782033205  0.140303790569  
4.61685013771  0.363173305988  -2.28888845444  -0.881031572819  -0.183004945517  0.378210216761  0.193680226803  
4.62496209145  0.39231684804  -2.10954380035  -0.932593166828  -0.388885498047  0.25163179636  0.216555848718  
4.63301801682  0.751006543636  -1.97503507137  -0.831711709499  -0.398035734892  0.164704442024  0.22113096714  
4.64115810394  0.730830252171  -2.06919121742  -0.827228069305  -0.335509061813  0.332458972931  0.138778746128  
4.64922714233  0.746522903442  -2.26198673248  -0.865338861942  -0.279082536697  0.0915024727583  0.097602635622  
4.65733098984  0.663575947285  -2.38528633118  -0.975187599659  -0.410236090422  0.222656011581  0.0777771025896  
4.66542005539  0.248840972781  -2.42563891411  -0.990880250931  -0.370584994555  0.207405596972  0.112853050232  
4.6734790802  0.230906486511  -2.40770459175  -0.986396670341  -0.260782033205  0.215030804276  0.170804619789  
4.68158912659  0.432669430971  -2.30906486511  -0.934835016727  -0.407186001539  0.137253701687  0.20588055253  
4.68979001045  0.52234184742  -2.18576526642  -0.939318597317  -0.366009891033  0.262307077646  0.26688221097  
4.69784212112  1.03347468376  -2.14989638329  -0.892240583897  -0.227231130004  0.128103464842  0.286707729101  
4.70591402054  0.988638460636  -2.15886354446  -0.907933294773  -0.369059979916  0.311108410358  0.23638138175  
4.71403503418  0.771182835102  -2.14989638329  -0.997605681419  -0.370584994555  0.167754530907  0.17385469377  
4.72209000587  0.818260848522  -2.1947324276  -1.26213932037  -0.227231130004  0.306533277035  0.0869273468852  
4.73021507263  0.578387141228  -2.15886354446  -1.51770579815  -0.373635083437  0.225706100464  0.0533764399588  
4.73831915855  0.587354362011  -1.92571520805  -1.82035017014  -0.448362112045  0.129628494382  0.0305008236319  
4.74645209312  0.780150055885  -1.901055336  -1.7261941433  -0.379735261202  0.289757817984  0.0671018138528  
4.7545311451  0.780150055885  -1.88760447502  -1.91226434708  -0.242481544614  0.117428168654  0.115903131664  
4.76261901855  0.829469919205  -1.93019890785  -2.03556394577  -0.359909713268  0.0716769322753  0.137253701687  
4.77083015442  0.742039263248  -2.22163414955  -2.19024896622  -0.388885498047  0.256206929684  0.195205271244  
4.77887415886  0.733072042465  -2.28664684296  -2.27543759346  -0.452937245369  0.105227842927  0.207405596972  
4.78693008423  0.529067277908  -2.74173426628  -2.27767944336  -0.422436416149  0.161654368043  0.211980730295  
4.79505515099  0.553727209568  -2.45478248596  -2.24853587151  -0.36143475771  0.257731974125  0.274507403374  
4.80312418938  0.872064292431  -2.67672181129  -2.28440499306  -0.289757817984  0.0823522210121  0.163179412484  
4.81126117706  0.715137541294  -2.5579059124  -2.30458116531  -0.240956500173  0.198255360126  0.237906426191  
4.81931519508  0.813777208328  -2.58032393456  -2.23732686043  -0.202830478549  0.30043309927  0.195205271244  
4.82739305496  1.05140912533  -2.65206193924  -2.17455625534  -0.0640517324209  0.138778746128  0.120478250086  
4.83554410934  0.791359126568  -2.71483254433  -2.23508501053  0.0  0.225706100464  0.0930275097489  
4.84369015694  0.793600916862  -2.95694804192  -2.27992129326  -0.167754530907  0.317208558321  -0.00457512354478  
4.85178613663  0.892240583897  -3.23493266106  -2.3808028698  -0.131153538823  0.224181056023  0.176904782653  
4.85979199409  0.728588402271  -3.36271572113  -2.34045028687  -0.20435552299  0.128103464842  -0.112853050232  
4.86784911156  0.737555682659  -3.26631808281  -2.26647043228  -0.0930275097489  0.370584994555  0.184529989958  
4.87591314316  0.818260848522  -2.99281716347  -2.28664684296  0.0381260290742  0.248581707478  -0.0747270211577  
4.88403105736  0.681510388851  -2.86951756477  -2.24405241013  -0.0213505774736  0.105227842927  0.0930275097489  
4.89212322235  0.668059527874  -3.27976894379  -2.16558909416  -0.126578420401  0.25163179636  -0.123528338969  
4.90023303032  0.61649787426  -3.210272789  -2.06694936752  0.0167754534632  0.276032447815  0.0350759476423  
4.90836715698  0.681510388851  -2.86055016518  -2.02211308479  0.0274507403374  0.183004945517  -0.193680226803  
4.9164121151  0.576145291328  -3.3223631382  -2.05574035645  0.0  0.0320258662105  -0.0793021395802  
4.92452120781  0.457329362631  -3.210272789  -1.93692433834  -0.00762520590797  0.20588055253  -0.30043309927  
4.9326570034  0.600805222988  -2.86727571487  -1.9032971859  -0.00915024708956  0.244006589055  -0.105227842927  
4.94085216522  0.777908265591  -3.14077663422  -1.31145918369  -0.0427011549473  0.167754530907  -0.388885498047  
4.94883918762  0.603047013283  -2.88745188713  -0.99312210083  0.0655767694116  0.0793021395802  -0.144878908992  
4.95694708824  0.578387141228  -3.10042405128  -1.07382726669  -0.157079234719  0.186055019498  -0.326358824968  
4.96502304077  0.612014293671  -2.64309453964  -0.970703959465  0.00457512354478  0.289757817984  -0.132678583264  
4.97310805321  0.872064292431  -3.01971888542  -0.878789722919  0.106752879918  0.285182714462  -0.126578420401  
4.9812040329  0.85412979126  -2.74173426628  -0.838437139988  0.0137253701687  0.192155182362  -0.056426525116  
4.98926615715  0.771182835102  -3.01747703552  -0.833953499794  -0.0549014806747  0.0427011549473  -0.0228756181896  
4.99736499786  0.607530653477  -3.09145665169  -0.858613431454  0.0213505774736  0.140303790569  -0.0793021395802  
5.00546813011  0.508890986443  -2.93901371956  -0.903449654579  0.0793021395802  0.202830478549  -0.0427011549473  
5.01353120804  0.504407346249  -3.16992020607  -0.858613431454  0.0655767694116  0.298908084631  -0.154029160738  
5.02159810066  0.573903501034  -2.94573903084  -0.820502638817  0.0335509069264  0.305008232594  -0.135728672147  
5.02968502045  0.567178070545  -2.62740206718  -0.766699194908  0.0594766065478  0.262307077646  -0.186055019498  
5.03784418106  0.562694430351  -2.63412737846  -0.712895750999  -0.00305008236319  0.201305434108  -0.195205271244  
5.04588103294  0.64115780592  -2.61619281769  -0.706170320511  -0.00762520590797  0.111328005791  -0.242481544614  
5.05399513245  0.620981514454  -2.67672181129  -0.766699194908  -0.00610016472638  0.108277924359  -0.256206929684  
5.06208705902  0.665817737579  -2.57135677338  -0.744281113148  0.00457512354478  0.132678583264  -0.262307077646  
5.07014107704  0.571661710739  -2.81347227097  -0.798084557056  -0.0167754534632  0.199780389667  -0.219605922699  
5.07824707031  0.504407346249  -2.5534222126  -0.829469919205  0.0106752887368  0.242481544614  -0.213505759835  
5.0862660408  0.441636681557  -2.49065160751  -0.719621181488  0.00457512354478  0.272982358932  -0.219605922699  
5.09436821938  0.473022013903  -2.38977003098  -0.75549018383  0.0381260290742  0.327883839607  -0.202830478549  
5.10241413116  0.351964265108  -2.5534222126  -0.869822502136  0.0381260290742  0.283657670021  -0.155554205179  
5.11047911644  0.461812973022  -2.75518512726  -0.80705177784  0.0594766065478  0.289757817984  -0.196730315685  
5.11875605583  0.266775459051  -2.74173426628  -0.804809987545  0.100652717054  0.3461843431  -0.208930641413  
5.1267490387  0.0336271598935  -2.75070142746  -0.840678930283  0.0442261956632  0.262307077646  -0.0350759476423  
5.13478708267  0.0941560417414  -2.52203679085  -0.712895750999  0.0244006589055  0.211980730295  -0.0411761105061  
5.14286017418  0.0650125071406  -2.59825849533  -0.703928530216  0.0106752887368  0.184529989958  -0.00762520590797  
5.15094518661  0.0381107777357  -2.52652049065  -0.867580711842  0.0457512363791  0.131153538823  -0.00305008236319  
5.1590180397  0.0829469934106  -2.64533638954  -0.903449654579  0.0808271840215  0.184529989958  -0.0320258662105  
5.16706609726  0.390075027943  -2.45029902458  -0.786875486374  0.0289757829159  0.169279575348  0.0167754534632  
5.1751511097  0.282468140125  -2.41891360283  -0.800326347351  0.0686268508434  0.106752879918  0.0503263585269  
5.18323421478  0.679268598557  -2.45254063606  -0.869822502136  0.0686268508434  0.143353864551  -0.0655767694116  
5.19132399559  0.499923765659  -2.58929109573  -0.87430614233  0.0152504118159  0.152504116297  -0.0518513992429  
5.19948911667  0.798084557056  -2.70138168335  -0.889998793602  -0.00457512354478  0.128103464842  0.100652717054  
5.20756816864  0.677026808262  -2.64757823944  -1.03795826435  0.0289757829159  0.128103464842  -0.134203627706  
5.21572899818  0.64115780592  -2.36735200882  -0.894482433796  0.0213505774736  0.195205271244  0.0991276800632  
5.2237970829  0.634432375431  -2.27095413208  -0.816019058228  0.0442261956632  0.256206929684  -0.0854023098946  
5.23183321953  0.742039263248  -2.29113030434  -0.887757003307  0.0442261956632  0.335509061813  0.193680226803  
5.2399251461  0.865338861942  -2.3785610199  -1.00657296181  0.0579515658319  0.20435552299  -0.122003294528  
5.24803113937  1.06037640572  -2.22611784935  -0.85412979126  0.0305008236319  0.375160127878  0.150979071856  
5.25610113144  1.06485998631  -2.20145797729  -0.833953499794  0.0777771025896  0.150979071856  -0.132678583264  
5.26423215866  0.860855221748  -2.11178565025  -0.930351376534  0.0732019767165  0.413286149502  0.198255360126  
5.27232408524  0.782391905785  -2.28664684296  -0.966220319271  0.103702798486  0.114378087223  -0.0701518952847  
5.28039121628  0.728588402271  -2.27095413208  -0.914658725262  0.0640517324209  0.140303790569  0.268407255411  
5.2884721756  0.804809987545  -2.32924127579  -0.934835016727  0.0457512363791  0.056426525116  0.0106752887368  
5.29651522636  0.889998793602  -2.0759165287  -0.986396670341  0.0869273468852  0.100652717054  0.242481544614  
5.30459904671  0.858613431454  -2.1969742775  -0.959494888783  0.0594766065478  0.274507403374  0.097602635622  
5.31277799606  0.840678930283  -1.89432990551  -0.99312210083  0.0838772654533  0.257731974125  0.262307077646  
5.32084703445  1.17246687412  -2.02883863449  -1.09848713875  0.137253701687  0.256206929684  0.172329649329  
5.3289232254  0.865338861942  -1.70825958252  -1.11193799973  0.0762520581484  0.0732019767165  0.324833780527  
5.33698821068  1.00208926201  -1.73067772388  -1.07158541679  0.117428168654  0.219605922699  0.190630152822  
5.34511804581  0.959494888783  -1.56030011177  -1.22627031803  0.157079234719  0.285182714462  0.36143475771  
5.35326504707  1.10297083855  -1.78448116779  -1.58047640324  0.0945525541902  0.0884523913264  0.143353864551  
5.36136722565  1.02674925327  -1.54909110069  -1.82483375072  0.126578420401  0.134203627706  0.314158469439  
5.36942100525  1.13211429119  -1.31370103359  -1.92347347736  0.164704442024  0.201305434108  0.0701518952847  
5.37751603127  0.903449654579  -0.943802237511  -1.85846090317  0.155554205179  0.0396510697901  0.147928997874  
5.38555622101  1.0132983923  -0.872064292431  -1.96606791019  0.161654368043  0.298908084631  0.210455685854  
5.39365005493  0.791359126568  -1.01778197289  -2.04677295685  0.210455685854  0.0533764399588  0.0533764399588  
5.40183806419  0.878789722919  -0.903449654579  -2.13196182251  0.166229486465  0.326358824968  0.233331307769  
5.4098470211  0.995363891125  -0.780150055885  -2.09609293938  0.20435552299  0.100652717054  -0.0289757829159  
5.41793608665  0.867580711842  -0.721862971783  -1.97727692127  0.215030804276  0.295857995749  0.213505759835  
5.42602419853  0.878789722919  -0.42818582058  -2.10057640076  0.218080893159  0.0396510697901  -0.196730315685  
5.43417716026  0.894482433796  -0.340755194426  -1.99521136284  0.231806263328  0.186055019498  0.0183004941791  
5.44225716591  1.03571653366  -0.481989264488  -1.92571520805  0.23638138175  0.29738304019  -0.141828835011  
5.45033216476  1.13883972168  -0.670301377773  -2.07143306732  0.164704442024  0.0640517324209  -0.22113096714  
5.45846414566  0.934835016727  -0.327304333448  -2.23956871033  0.247056677938  0.224181056023  -0.234856337309  
5.46658205986  0.914658725262  -0.410251319408  -2.04677295685  0.213505759835  0.30043309927  -0.227231130004  
5.47467899323  0.842920780182  -0.365415126085  -2.06694936752  0.288232773542  0.0762520581484  -0.160129323602  
5.48293113708  0.903449654579  -0.204004764557  -2.09385108948  0.199780389667  0.167754530907  -0.150979071856  
5.49094414711  0.878789722919  -0.00224181055091  -2.00866222382  0.169279575348  0.231806263328  -0.253156840801  
5.49900317192  1.0671018362  0.473022013903  -2.11851096153  0.25163179636  0.311108410358  -0.3126334548  
5.50712800026  0.847404360771  0.632190585136  -2.17455625534  0.271457344294  0.277557492256  -0.0533764399588  
5.51516819  0.92586773634  0.775666475296  -2.05798196793  0.323308736086  0.100652717054  -0.219605922699  
5.52333116531  0.75997376442  0.863097071648  -2.0848839283  0.265357166529  0.115903131664  -0.18910510838  
5.53146314621  0.863097071648  1.06485998631  -2.16783070564  0.123528338969  0.109802961349  -0.0671018138528  
5.53950810432  0.943802237511  0.863097071648  -2.30009770393  0.0884523913264  0.22113096714  -0.228756174445  
5.54761099815  1.05589282513  0.540276348591  -2.13868737221  0.23638138175  0.176904782653  -0.0228756181896  
5.55581617355  1.02002382278  1.10297083855  -2.05798196793  0.0732019767165  0.202830478549  -0.23638138175  
5.56390714645  0.997605681419  0.878789722919  -2.06919121742  0.257731974125  0.219605922699  -0.0777771025896  
5.57193899155  0.831711709499  0.959494888783  -2.24629426003  0.0793021395802  0.224181056023  -0.268407255411  
5.58006215096  0.775666475296  0.56941986084  -2.20145797729  0.0228756181896  0.228756174445  -0.100652717054  
5.58813714981  0.800326347351  0.708412110806  -2.32699942589  0.210455685854  0.29738304019  -0.202830478549  
5.5962331295  1.05140912533  0.753248333931  -2.1992161274  0.193680226803  0.283657670021  -0.277557492256  
5.60428714752  0.981913030148  0.800326347351  -2.21042513847  -0.00915024708956  0.277557492256  -0.0899774283171  
5.61241412163  0.881031572819  0.34523883462  -2.12971997261  0.192155182362  0.234856337309  -0.211980730295  
5.620470047  0.824986279011  0.484231084585  -2.29785585403  -0.20435552299  0.23638138175  -0.26688221097  
5.62856721878  0.912416875362  0.535792708397  -2.40994644165  -0.227231130004  0.22113096714  -0.112853050232  
5.63661503792  1.01778197289  0.365415126085  -2.18576526642  -0.352284520864  0.250106751919  -0.132678583264  
5.64468717575  0.863097071648  0.230906486511  -2.36286830902  -0.250106751919  0.242481544614  -0.265357166529  
5.65289115906  1.04020011425  0.27350088954  -2.25077772141  -0.207405596972  0.210455685854  -0.260782033205  
5.661039114  0.995363891125  0.511132776737  -2.33596658707  -0.353809565306  0.213505759835  -0.198255360126  
5.66907405853  1.12090528011  0.529067277908  -2.3785610199  -0.301958143711  0.237906426191  -0.103702798486  
5.67723703384  0.961736738682  0.248840972781  -2.20145797729  -0.402610868216  0.256206929684  -0.097602635622  
5.68529319763  1.00208926201  0.246599167585  -2.17007255554  -0.362959802151  0.285182714462  -0.0899774283171  
5.69336414337  0.955011308193  0.020176295191  -2.38752818108  -0.362959802151  0.347709387541  -0.192155182362  
5.70142602921  0.999847531319  0.271259069443  -2.53772950172  -0.327883839607  0.31568351388  -0.254681885242  
5.70961117744  0.932593166828  0.342997014523  -2.16334724426  -0.376685172319  0.337034106255  -0.291282862425  
5.71787309647  0.894482433796  0.468538403511  -2.35838460922  -0.272982358932  0.276032447815  -0.272982358932  
5.72589015961  0.818260848522  0.419218569994  -2.26422858238  -0.369059979916  0.298908084631  -0.211980730295  
5.73395705223  0.99312210083  0.0336271598935  -2.41442990303  -0.247056677938  0.18910510838  -0.22113096714  
5.7420501709  0.858613431454  -0.0313853472471  -2.50410246849  -0.413286149502  0.207405596972  -0.131153538823  
5.75020909309  0.753248333931  0.0627706944942  -2.15886354446  -0.372110038996  0.18910510838  -0.143353864551  
5.75824999809  0.609772443771  -0.0358689688146  -2.34045028687  -0.491063266993  0.280607581139  -0.215030804276  
5.76631116867  0.840678930283  -0.134508639574  -2.37631917  -0.292807906866  0.323308736086  -0.242481544614  
5.77442121506  0.952769458294  -0.21969743073  -2.35838460922  -0.452937245369  0.247056677938  -0.254681885242  
5.78252410889  0.910175085068  -0.161410361528  -2.38977003098  -0.295857995749  0.123528338969  -0.298908084631  
5.79059100151  0.623223304749  -0.170377597213  -2.36286830902  -0.356859624386  0.227231130004  -0.269932299852  
5.79878306389  0.605288863182  -0.0986396670341  -2.31130671501  -0.390410542488  0.372110038996  -0.175379738212  
5.80677700043  0.708412110806  -0.228664681315  -2.29337215424  -0.265357166529  0.166229486465  -0.112853050232  
5.8148431778  0.701686680317  -0.484231084585  -2.32475757599  -0.40871104598  0.176904782653  -0.245531633496  
5.82291603088  0.795842766762  -0.419218569994  -2.31354856491  -0.283657670021  0.323308736086  -0.305008232594  
5.83101701736  1.03347468376  -0.551485419273  -2.30458116531  -0.407186001539  0.154029160738  -0.199780389667  
5.83910799026  0.620981514454  -0.251082777977  -2.48168420792  -0.4727627635  0.164704442024  -0.114378087223  
5.84717202187  0.558210849762  -0.342997014523  -2.5579059124  -0.333984017372  0.359909713268  -0.233331307769  
5.85530209541  0.51785826683  -0.538034558296  -2.33820843697  -0.411761105061  0.0869273468852  -0.265357166529  
5.86335921288  0.663575947285  -0.515616416931  -2.40322089195  -0.353809565306  0.349234431982  -0.126578420401  
5.87148118019  0.670301377773  -0.647883236408  -2.40994644165  -0.308058321476  0.183004945517  -0.269932299852  
5.87957310677  0.75549018383  -0.340755194426  -2.26647043228  -0.384310364723  0.366009891033  -0.208930641413  
5.88762116432  0.665817737579  -0.452845722437  -2.33372473717  -0.350759476423  0.126578420401  -0.250106751919  
5.89577507973  0.699444890022  -0.661334097385  -2.27319598198  -0.286707729101  0.288232773542  -0.295857995749  
5.9038541317  0.470780223608  -0.372140556574  -2.33596658707  -0.40871104598  0.146403953433  -0.306533277035  
5.91193199158  0.206246569753  -0.464054793119  -2.24629426003  -0.463612526655  0.338559150696  -0.152504116297  
5.91999912262  0.578387141228  -0.681510388851  -2.44581532478  -0.352284520864  0.128103464842  -0.250106751919  
5.9280860424  0.488714694977  -0.596321582794  -2.40097904205  -0.376685172319  0.160129323602  -0.097602635622  
5.93620014191  0.459571152925  -0.405767709017  -2.30682301521  -0.396510720253  0.242481544614  -0.268407255411  
5.94435501099  0.768941044807  -0.437153071165  -1.98176050186  -0.276032447815  0.0838772654533  -0.248581707478  
5.95246100426  0.685994029045  -0.555968999863  -2.21939253807  -0.343134254217  0.219605922699  -0.0610016472638  
5.96059203148  0.643399655819  -0.497681945562  -2.17231440544  -0.356859624386  0.295857995749  -0.198255360126  
5.96867704391  0.43939486146  -0.638916015625  -2.31354856491  -0.291282862425  0.184529989958  -0.213505759835  
5.9769051075  0.3564478755  -0.827228069305  -2.2552614212  -0.446837067604  0.056426525116  -0.274507403374  
5.9849460125  0.490956515074  -0.789117336273  -2.28216314316  -0.455987304449  0.237906426191  -0.215030804276  
5.99291610718  0.562694430351  -0.737555682659  -2.26422858238  -0.308058321476  0.320258647203  -0.123528338969  
6.00101804733  0.495440125465  -0.573903501034  -2.2575032711  -0.379735261202  0.283657670021  -0.0854023098946  
6.00907421112  0.513374626637  -0.43939486146  -2.15213823318  -0.402610868216  0.25163179636  0.0106752887368  
6.01719808578  0.479747444391  -0.753248333931  -1.91450619698  -0.265357166529  0.126578420401  -0.0625266879797  
6.0253341198  0.358689695597  -0.432669430971  -2.12075281143  -0.253156840801  0.112853050232  0.202830478549  
6.03345918655  0.156926736236  -0.553727209568  -2.14092898369  -0.373635083437  0.097602635622  -0.0427011549473  
6.04151916504  0.0896724238992  -0.773424625397  -2.04453110695  -0.385835409164  0.102177761495  0.0167754534632  
6.04979419708  -0.260050028563  -0.459571152925  -2.1969742775  -0.36143475771  0.126578420401  0.134203627706  
6.05777716637  -0.466296583414  -0.659092307091  -2.05574035645  -0.298908084631  0.097602635622  0.208930641413  
6.06585717201  -0.300402611494  -0.51785826683  -1.74861228466  -0.308058321476  0.0793021395802  0.250106751919  
6.07391309738  -0.42818582058  -0.477505654097  -1.71050143242  -0.344659298658  -0.0838772654533  0.169279575348  
6.08200120926  -0.585112571716  -0.383349597454  -1.83604288101  -0.366009891033  -0.0259256996214  0.0137253701687  
6.09009218216  -0.768941044807  -0.165893986821  -1.84725189209  -0.370584994555  -0.117428168654  0.218080893159  
6.09821105003  -0.919142305851  -0.596321582794  -1.84501004219  -0.381260305643  -0.157079234719  0.239431470633  
6.10627412796  -0.955011308193  -0.338513404131  -1.88312089443  -0.385835409164  -0.0625266879797  0.0991276800632  
6.11435317993  -0.930351376534  -0.390075027943  -1.86070275307  -0.305008232594  -0.233331307769  0.208930641413  
6.12244009972  -0.831711709499  -0.751006543636  -1.68808329105  -0.370584994555  -0.112853050232  0.288232773542  
6.13053202629  -0.665817737579  -0.260050028563  -1.38992249966  -0.341609239578  -0.0747270211577  0.114378087223  
6.13860702515  -0.605288863182  -0.410251319408  -0.919142305851  -0.283657670021  -0.0274507403374  0.109802961349  
6.1467192173  -0.589596152306  -0.138992249966  -0.833953499794  -0.244006589055  -0.0716769322753  0.175379738212  
6.15493416786  -0.699444890022  0.199521139264  -0.706170320511  -0.303483188152  -0.183004945517  0.0808271840215  
6.16295099258  -0.733072042465  0.0896724238992  -0.61649787426  -0.292807906866  -0.242481544614  0.22113096714  
6.1710050106  -0.789117336273  -0.210730195045  -0.511132776737  -0.208930641413  -0.309583365917  0.199780389667  
6.17912912369  -0.775666475296  -0.0269017256796  -0.369898736477  -0.259256988764  -0.263832122087  0.0655767694116  
6.18721699715  -0.708412110806  0.020176295191  -0.316095292568  -0.280607581139  -0.0610016472638  0.253156840801  
6.19532608986  -0.645641446114  0.0784633681178  -0.313853472471  -0.274507403374  -0.129628494382  0.196730315685  
6.20350408554  -0.52234184742  -0.00672543141991  -0.381107807159  -0.26688221097  -0.274507403374  0.126578420401  
6.21154499054  -0.656850516796  -0.215213805437  -0.260050028563  -0.269932299852  -0.311108410358  0.269932299852  
6.21958112717  -0.829469919205  -0.208488374949  -0.39231684804  -0.276032447815  -0.268407255411  0.272982358932  
6.22771000862  -0.901207864285  -0.493198335171  -0.598563432693  -0.259256988764  -0.143353864551  0.097602635622  
6.23580121994  -0.791359126568  -0.347480624914  -0.410251319408  -0.355334609747  -0.211980730295  0.192155182362  
6.24388504028  -0.748764753342  -0.531309127808  -0.414734959602  -0.333984017372  -0.283657670021  0.25163179636  
6.25197219849  -0.558210849762  -0.237631917  -0.425944000483  -0.250106751919  -0.333984017372  0.253156840801  
6.26006913185  -0.443878501654  -0.490956515074  -0.396800458431  -0.31568351388  -0.18910510838  0.169279575348  
6.26815009117  -0.526825487614  -0.390075027943  -0.515616416931  -0.347709387541  -0.0533764399588  0.135728672147  
6.27626109123  -0.603047013283  -0.571661710739  -0.504407346249  -0.42701151967  -0.195205271244  0.170804619789  
6.28439307213  -0.703928530216  -0.540276348591  -0.497681945562  -0.367534935474  -0.25163179636  0.242481544614  
6.29246520996  -0.73531383276  -0.567178070545  -0.571661710739  -0.311108410358  -0.160129323602  0.268407255411  
6.300563097  -0.64115780592  -0.950527667999  -0.694961249828  -0.393460631371  -0.0671018138528  0.272982358932  
6.30863499641  -0.564936280251  -0.990880250931  -0.865338861942  -0.454462260008  -0.222656011581  0.311108410358  
6.31688404083  -0.484231084585  -1.36974620819  -0.694961249828  -0.399560779333  -0.269932299852  0.240956500173  
6.32486915588  -0.434911251068  -1.10521256924  -0.715137541294  -0.549014806747  -0.22113096714  0.225706100464  
6.33299016953  -0.396800458431  -1.32715189457  -0.816019058228  -0.469712674618  -0.00762520590797  0.0686268508434  
6.34109520912  -0.448362112045  -1.46166050434  -0.948285877705  -0.446837067604  -0.125053375959  0.117428168654  
6.3492000103  -0.571661710739  -1.425791502  -0.885515153408  -0.539864599705  -0.184529989958  -0.0289757829159  
6.35728907585  -0.578387141228  -1.67239069939  -0.92586773634  -0.542914688587  -0.244006589055  0.0122003294528  
6.3653960228  -0.580628931522  -1.63876354694  -1.05813455582  -0.545964717865  -0.215030804276  -0.0762520581484  
6.37350106239  -0.533550918102  -1.85846090317  -1.09400355816  -0.651192605495  -0.0671018138528  -0.152504116297  
6.38162517548  -0.538034558296  -1.88312089443  -1.10969626904  -0.637467205524  -0.0930275097489  -0.169279575348  
6.38966917992  -0.585112571716  -1.73740315437  -1.1904014349  -0.56426525116  -0.184529989958  -0.161654368043  
6.39793419838  -0.542518138885  -1.99521136284  -1.34508633614  -0.637467205524  -0.242481544614  -0.105227842927  
6.40594410896  -0.508890986443  -2.0781583786  -1.46166050434  -0.606966376305  -0.311108410358  -0.0411761105061  
6.41402602196  -0.547001779079  -2.33820843697  -1.27559018135  -0.605441331863  -0.29738304019  -0.0915024727583  
6.42219805717  -0.210730195045  -2.36959385872  -1.27334845066  -0.649667561054  -0.115903131664  -0.242481544614  
6.43026804924  -0.112090528011  -2.29337215424  -1.69929242134  -0.651192605495  -0.048801317811  -0.215030804276  
6.43832802773  0.224181056023  -2.5534222126  -1.78896486759  -0.684743463993  -0.0274507403374  -0.0167754534632  
6.44646120071  -0.0739797502756  -2.32924127579  -2.36735200882  -0.660342812538  -0.0640517324209  -0.102177761495  
6.45455503464  0.331787973642  -2.24853587151  -2.40097904205  -0.695418775082  -0.0869273468852  -0.187580063939  
6.46263408661  0.114332340658  -1.95485877991  -2.56463122368  -0.588665902615  -0.102177761495  -0.234856337309  
6.47075510025  0.425944000483  -1.98400235176  -2.69017267227  -0.655767679214  -0.160129323602  -0.160129323602  
6.47878813744  0.237631917  -1.93916606903  -2.67672181129  -0.635942161083  -0.0793021395802  -0.0838772654533  
6.48685312271  0.540276348591  -2.0826420784  -2.76191067696  -0.614591598511  -0.141828835011  -0.181479901075  
6.49495720863  0.461812973022  -2.31803202629  -2.66551280022  -0.571890413761  -0.0640517324209  -0.260782033205  
6.50306606293  0.441636681557  -2.17007255554  -2.60050034523  -0.599341213703  0.0183004941791  -0.298908084631  
6.51114916801  0.538034558296  -2.15662169456  -2.50858592987  -0.527664244175  0.0183004941791  -0.262307077646  
6.51924610138  0.61649787426  -2.02435493469  -2.81123042107  -0.581040680408  0.100652717054  -0.0945525541902  
6.52739810944  0.68375223875  -2.14989638329  -2.77311968803  -0.591715991497  0.103702798486  -0.0793021395802  
6.53548908234  0.744281113148  -2.46823334694  -2.64533638954  -0.541389644146  0.160129323602  -0.0442261956632  
6.54357409477  0.68375223875  -2.14989638329  -2.53100419044  -0.483438044786  0.154029160738  -0.111328005791  
6.55176019669  0.661334097385  -2.04901480675  -2.58929109573  -0.42396146059  0.216555848718  -0.0411761105061  
6.55977916718  0.652366876602  -2.15213823318  -2.5534222126  -0.439211845398  0.137253701687  0.0762520581484  
6.56783914566  0.656850516796  -1.79569029808  -2.44581532478  -0.535289466381  0.303483188152  0.0808271840215  
6.57591700554  0.638916015625  -1.91674804688  -2.48168420792  -0.484963089228  0.0472762770951  0.179954856634  
6.5840280056  0.647883236408  -2.31579041481  -2.58480763435  -0.448362112045  0.175379738212  0.109802961349  
6.59214901924  0.638916015625  -2.23956871033  -2.57359862328  -0.599341213703  0.0442261956632  0.0823522210121  
6.60026717186  0.68375223875  -2.32475757599  -2.56463122368  -0.512413859367  0.0167754534632  -0.0244006589055  
6.60836005211  0.681510388851  -2.58480763435  -2.43460631371  -0.40871104598  0.0655767694116  -0.00305008236319  
6.61642408371  0.766699194908  -2.26198673248  -2.39649558067  -0.478862941265  0.0930275097489  0.15860427916  
6.62454819679  0.867580711842  -2.51306962967  -2.5489385128  -0.501738548279  0.161654368043  0.219605922699  
6.6326072216  0.87430614233  -2.42563891411  -2.3718354702  -0.391935586929  0.230281218886  0.103702798486  
6.64078521729  0.867580711842  -2.49289321899  -2.48168420792  -0.269932299852  0.306533277035  0.129628494382  
6.6488699913  0.757731974125  -2.44805717468  -2.57584023476  -0.143353864551  0.283657670021  0.285182714462  
6.65693616867  0.672543168068  -2.5601477623  -2.28440499306  -0.161654368043  0.280607581139  0.181479901075  
6.66495704651  0.643399655819  -2.59153294563  -2.34941744804  0.0183004941791  0.186055019498  0.117428168654  
6.67306303978  0.558210849762  -2.8470993042  -2.36735200882  -0.202830478549  0.122003294528  0.28213262558  
6.68116116524  0.526825487614  -2.3830447197  -2.28888845444  -0.0930275097489  0.0960775911808  0.154029160738  
6.6892311573  0.553727209568  -2.39201188087  -2.22163414955  -0.175379738212  0.108277924359  0.285182714462  
6.69738221169  0.629948735237  -2.5579059124  -2.21266698837  -0.149454042315  0.179954856634  0.211980730295  
6.7055170536  0.708412110806  -2.39425373077  -2.12747812271  -0.0167754534632  0.244006589055  0.0732019767165  
6.71381020546  0.793600916862  -2.45254063606  -2.1947324276  0.0335509069264  0.288232773542  0.240956500173  
6.72181916237  0.721862971783  -2.79553771019  -2.09609293938  -0.0289757829159  0.335509061813  0.0915024727583  
6.72997307777  0.721862971783  -3.12508392334  -2.259745121  -0.183004945517  0.314158469439  0.298908084631  
6.7380361557  0.742039263248  -3.22148180008  -2.06919121742  0.00610016472638  0.3126334548  0.176904782653  
6.74614620209  0.665817737579  -3.06231331825  -2.01538777351  0.0533764399588  0.280607581139  0.192155182362  
6.75421500206  0.652366876602  -3.05334591866  -2.04228949547  -0.0289757829159  0.233331307769  0.268407255411  
6.76231217384  0.645641446114  -3.44790458679  -2.01987123489  -0.0366009883583  0.187580063939  0.163179412484  
6.77040600777  0.638916015625  -3.72813105583  -2.06919121742  0.0884523913264  0.141828835011  0.31568351388  
6.77851819992  0.625465154648  -4.10027170181  -1.96830964088  0.0381260290742  0.120478250086  0.202830478549  
6.78660821915  0.612014293671  -4.20115280151  -1.98176050186  -0.0701518952847  0.0396510697901  0.0960775911808  
6.79466605186  0.629948735237  -4.27737474442  -1.8382846117  0.0640517324209  0.155554205179  0.274507403374  
6.80287599564  0.634432375431  -4.10923862457  -1.33387732506  0.109802961349  -0.118953213096  0.179954856634  
6.81094908714  0.598563432693  -3.90971755981  -1.29576647282  0.0442261956632  0.0411761105061  0.128103464842  
6.81898617744  0.627706944942  -3.84918880463  -0.957253098488  -0.0457512363791  0.0442261956632  0.213505759835  
6.82708001137  0.701686680317  -4.1518330574  -0.822744488716  0.0823522210121  -0.0762520581484  0.28213262558  
6.83517217636  0.650125086308  -4.23702192307  -0.677026808262  0.100652717054  0.0884523913264  0.228756174445  
6.84326219559  0.526825487614  -3.9814555645  -0.63667422533  0.0411761105061  -0.0274507403374  0.0686268508434  
6.85134601593  0.143475875258  -3.77520895004  -0.719621181488  -0.0701518952847  -0.143353864551  0.0320258662105  
6.85944604874  0.192795708776  -4.08009529114  -0.73531383276  -0.0320258662105  -0.00152504118159  0.100652717054  
6.86756515503  -0.224181056023  -3.9859392643  -0.470780223608  0.0549014806747  -0.134203627706  0.138778746128  
6.87562918663  0.0269017256796  -3.41203570366  -0.455087542534  0.0823522210121  0.0671018138528  0.140303790569  
6.88373112679  -0.246599167585  -3.83349609375  -0.551485419273  0.105227842927  -0.135728672147  0.140303790569  
6.89185118675  -0.286951750517  -3.61379861832  -0.470780223608  0.0945525541902  0.0960775911808  0.0701518952847  
6.8999581337  -0.376624166965  -3.27304339409  -0.629948735237  0.0579515658319  -0.0259256996214  0.0655767694116  
6.90807008743  -0.437153071165  -3.80883622169  -0.457329362631  0.0335509069264  0.0838772654533  -0.186055019498  
6.91615104675  -0.540276348591  -3.45687198639  -0.526825487614  0.0274507403374  0.0167754534632  0.0442261956632  
6.92430710793  -0.612014293671  -3.46359729767  -0.524583697319  -0.138778746128  0.00762520590797  -0.20435552299  
6.93236613274  -0.665817737579  -3.74382352829  -0.656850516796  -0.0350759476423  0.0335509069264  -0.23638138175  
6.9405632019  -0.659092307091  -3.29546141624  -0.647883236408  -0.144878908992  -0.152504116297  -0.257731974125  
6.94861316681  -0.629948735237  -3.48153185844  -0.564936280251  -0.111328005791  -0.0716769322753  -0.175379738212  
6.95668411255  -0.674784958363  -3.56447887421  -0.706170320511  -0.192155182362  -0.18910510838  -0.00762520590797  
6.96476316452  -0.614256083965  -3.19906353951  -0.578387141228  -0.259256988764  -0.175379738212  -0.0289757829159  
6.97284913063  -0.5940797925  -3.08024764061  -0.742039263248  -0.301958143711  -0.224181056023  -0.154029160738  
6.98094010353  -0.598563432693  -3.29546141624  -0.5940797925  -0.338559150696  -0.240956500173  -0.20588055253  
6.9890460968  -0.576145291328  -3.13180923462  -0.659092307091  -0.338559150696  -0.207405596972  -0.202830478549  
6.99710702896  -0.63667422533  -2.88072657585  -0.558210849762  -0.240956500173  -0.213505759835  -0.102177761495  
7.00520610809  -0.564936280251  -3.0309278965  -0.719621181488  -0.15860427916  -0.140303790569  -0.140303790569  
7.01324009895  -0.526825487614  -3.33805584908  -0.784633696079  -0.222656011581  -0.0930275097489  -0.247056677938  
7.02134013176  -0.488714694977  -3.38065028191  -0.726346611977  -0.294332951307  -0.0808271840215  -0.277557492256  
7.02940702438  -0.511132776737  -3.18112921715  -0.746522903442  -0.352284520864  -0.0244006589055  -0.0579515658319  
7.03756117821  -0.585112571716  -2.95470619202  -0.748764753342  -0.303483188152  -0.0823522210121  -0.161654368043  
7.04563522339  -0.68375223875  -2.82468128204  -0.827228069305  -0.17385469377  -0.0244006589055  -0.224181056023  
7.05383419991  -0.748764753342  -2.95694804192  -0.934835016727  -0.272982358932  -0.135728672147  -0.242481544614  
7.06184220314  -0.795842766762  -3.00626802444  -1.0088146925  -0.355334609747  -0.0472762770951  -0.0762520581484  
7.06990599632  -0.804809987545  -3.07576417923  -0.914658725262  -0.391935586929  -0.164704442024  -0.181479901075  
7.07803201675  -0.791359126568  -3.09145665169  -0.737555682659  -0.248581707478  -0.111328005791  -0.272982358932  
7.08611822128  -0.809293627739  -2.79329586029  -0.793600916862  -0.20588055253  -0.179954856634  -0.257731974125  
7.09419417381  -0.710653960705  -2.0804002285  -0.87430614233  -0.416336238384  -0.0945525541902  -0.150979071856  
7.10224318504  -0.690477669239  -2.22163414955  -1.01554012299  -0.382785350084  -0.111328005791  -0.207405596972  
7.11028718948  -0.632190585136  -2.03780579567  -1.05813455582  -0.218080893159  -0.126578420401  -0.263832122087  
7.11834406853  -0.564936280251  -1.93468248844  -1.38992249966  -0.326358824968  -0.0899774283171  -0.211980730295  
7.12643313408  -0.560452640057  -1.84725189209  -1.57375097275  -0.44226193428  -0.0610016472638  -0.129628494382  
7.13452315331  -0.520100057125  -1.82035017014  -2.11178565025  -0.394985675812  -0.0198255348951  -0.18910510838  
7.14266204834  -0.495440125465  -1.85846090317  -1.9032971859  -0.443786978722  -0.0259256996214  -0.250106751919  
7.15078806877  -0.495440125465  -2.01090407372  -1.97951877117  -0.314158469439  -0.0625266879797  -0.26688221097  
7.15886211395  -0.551485419273  -2.03556394577  -1.93916606903  -0.208930641413  0.0472762770951  -0.355334609747  
7.16695809364  -0.513374626637  -1.93692433834  -1.93916606903  -0.274507403374  -0.0686268508434  -0.317208558321  
7.17503809929  -0.508890986443  -1.71946871281  -2.03556394577  -0.355334609747  0.0137253701687  -0.305008232594  
7.18314003944  -0.618739724159  -1.66790699959  -2.17231440544  -0.385835409164  0.196730315685  -0.218080893159  
7.19122004509  -0.591838002205  -1.73740315437  -2.24181056023  -0.396510720253  -0.0625266879797  -0.149454042315  
7.19928407669  -0.461812973022  -1.94589149952  -2.26198673248  -0.425486475229  0.268407255411  -0.152504116297  
