Ethan-CYM/ros_catkin_ws/test/伺服_gain2000_looktime003/ur_joint_actual_degree.txt
time  shoulder_pan_joint  shoulder_lift_joint  elbow_joint  wrist_1_joint  wrist_2_joint  wrist_3_joint
0.151964187622  1.57002484798  -1.22108680407  2.09333705902  -3.1525366942  -1.57105666796  0.0365361571312  
0.160067081451  1.57000088692  -1.221098725  2.09333705902  -3.15248853365  -1.57098466555  0.03962995857  
0.168133020401  1.57003688812  -1.22111064592  2.09334897995  -3.15242845217  -1.57104427019  0.0422915816307  
0.176238059998  1.57003688812  -1.22107488314  2.09334897995  -3.15240461031  -1.57091266314  0.0442221648991  
0.184338092804  1.57000088692  -1.22107488314  2.09332513809  -3.15227300326  -1.57103234926  0.0456853657961  
0.192476034164  1.57001292706  -1.22108680407  2.09336090088  -3.15230876604  -1.5708287398  0.0472680330276  
0.200570106506  1.57000088692  -1.22108680407  2.09337282181  -3.15227300326  -1.57093650499  0.0490544289351  
0.208634138107  1.57002484798  -1.22107488314  2.09333705902  -3.15220100084  -1.57086450258  0.0507573150098  
0.216706991196  1.57003688812  -1.22108680407  2.09336090088  -3.15226108233  -1.57074481646  0.0523160099983  
0.224775075912  1.57001292706  -1.22107488314  2.09332513809  -3.15216523806  -1.57092458407  0.053707305342  
0.232819080353  1.57003688812  -1.221098725  2.09338521957  -3.15227300326  -1.57076865831  0.0550023503602  
0.240919113159  1.57001292706  -1.22107488314  2.09336090088  -3.15208131472  -1.57078105608  0.0561528354883  
0.249018192291  1.57001292706  -1.221098725  2.09332513809  -3.1523326079  -1.57086450258  0.057208199054  
0.257117986679  1.57002484798  -1.22107488314  2.09334897995  -3.15203315416  -1.57074481646  0.0580714344978  
0.265207052231  1.56998896599  -1.22107488314  2.09336090088  -3.15230876604  -1.57088882128  0.0588391758502  
0.273275136948  1.57000088692  -1.22107488314  2.09331321716  -3.15209323565  -1.57085258165  0.0594387613237  
0.281372070312  1.57002484798  -1.22105056444  2.09338521957  -3.15226108233  -1.57080489794  0.0598941631615  
0.289508104324  1.57001292706  -1.22108680407  2.09337282181  -3.15217715899  -1.57093650499  0.0603020004928  
0.29762005806  1.57001292706  -1.22108680407  2.09332513809  -3.1522248427  -1.57076865831  0.0607817433774  
0.305718183517  1.56998896599  -1.22119456926  2.09332513809  -3.15238076845  -1.57068473497  0.0612251609564  
0.313811063766  1.56994104385  -1.22154170672  2.09324121475  -3.15250045458  -1.57008630434  0.0617528408766  
0.321902990341  1.57003688812  -1.22234374682  2.09338521957  -3.15278798739  -1.56886464754  0.062256552279  
0.329995155334  1.57008481026  -1.22349244753  2.09361314774  -3.15312320391  -1.5670560042  0.0628917142749  
0.338320016861  1.5702406168  -1.2248933951  2.09375667572  -3.153758351  -1.564828221  0.0634673312306  
0.346421003342  1.5704087019  -1.2263897101  2.09384059906  -3.1545847098  -1.56240922609  0.0638512000442  
0.354485988617  1.57054054737  -1.22780210177  2.09384059906  -3.15551931063  -1.56010944048  0.0640669167042  
0.362626075745  1.57058846951  -1.2289035956  2.09388828278  -3.15659791628  -1.55795365969  0.064306601882  
0.370723009109  1.57057654858  -1.22966987291  2.09387636185  -3.15774757067  -1.55585796038  0.0644747540355  
0.378822088242  1.57054054737  -1.23023254076  2.09396028519  -3.15887386004  -1.5538576285  0.0646665021777  
0.386887073517  1.57054054737  -1.23055535952  2.09399652481  -3.15976030031  -1.55218059221  0.0647623762488  
0.394952058792  1.57055258751  -1.2308066527  2.09388828278  -3.1604197661  -1.55081540743  0.0650024414062  
0.40305018425  1.57055258751  -1.23115379015  2.09379243851  -3.16112596193  -1.54960567156  0.0652061700821  
0.411115169525  1.57054054737  -1.23153716723  2.09378051758  -3.16168910662  -1.54859954516  0.0654458552599  
0.419233083725  1.57049262524  -1.23200351397  2.09361314774  -3.16209632555  -1.5477493445  0.0656979009509  
0.427317142487  1.57050466537  -1.23259050051  2.09348106384  -3.16269523302  -1.54712611834  0.0659136101604  
0.435386180878  1.57050466537  -1.23317701021  2.09331321716  -3.16312677065  -1.54652721087  0.066057421267  
0.443420171738  1.57050466537  -1.23375159899  2.09328889847  -3.16351014773  -1.54609662691  0.0661413148046  
0.451586008072  1.5705165863  -1.2342060248  2.09325313568  -3.16370183626  -1.54567748705  0.0662735179067  
0.459676980972  1.57042074203  -1.23472100893  2.09310913086  -3.16362983385  -1.54532987276  0.0661772638559  
0.46776509285  1.57036077976  -1.23537952105  2.09294176102  -3.16352206865  -1.54510242144  0.0664772465825  
0.475862026215  1.57021665573  -1.23626453081  2.09264183044  -3.16311484972  -1.54483920733  0.0662615299225  
0.483995199203  1.57014477253  -1.23749810854  2.09229421616  -3.16288692156  -1.54444343248  0.0664293095469  
0.49208521843  1.57003688812  -1.2390182654  2.0918507576  -3.16250354448  -1.54392844835  0.0664173215628  
0.500209093094  1.57006084919  -1.24078971544  2.09117937088  -3.16179687182  -1.5432937781  0.0666330382228  
0.508310079575  1.57006084919  -1.2429450194  2.0905919075  -3.16088611284  -1.54256326357  0.0664173215628  
0.516393184662  1.5700968504  -1.24550611178  2.08988428116  -3.15964061419  -1.54176074663  0.0663813725114  
0.524531126022  1.57001292706  -1.25131160418  2.08839797974  -3.1559026877  -1.5400484244  0.0662974864244  
0.532675981522  1.5700968504  -1.25427991549  2.08760690689  -3.15357858339  -1.53912622133  0.0664892271161  
0.5407371521  1.57010877132  -1.25710517565  2.08688783646  -3.15102702776  -1.53811961809  0.06634542346  
0.548840999603  1.57008481026  -1.25976258913  2.08627605438  -3.14805585543  -1.53716212908  0.0664892271161  
0.556926012039  1.57007277012  -1.26221639315  2.08561658859  -3.14494067827  -1.53629953066  0.0662974864244  
0.565014123917  1.56998896599  -1.26440650622  2.08499336243  -3.14167052904  -1.53544933001  0.0662854984403  
0.573127985001  1.56983280182  -1.26647740999  2.08434581757  -3.13857919375  -1.53464681307  0.0661532953382  
0.581232070923  1.56960511208  -1.26840430895  2.08362674713  -3.13550073305  -1.53388005892  0.0662012323737  
0.589353084564  1.5693769455  -1.27026015917  2.08308696747  -3.13244611422  -1.53317386309  0.0662615299225  
0.597496032715  1.56920957565  -1.27194768587  2.08252382278  -3.12925893465  -1.53249103228  0.0662735179067  
0.605596065521  1.56910169125  -1.27353936831  2.08216428757  -3.12635976473  -1.53189212481  0.0662974864244  
0.613663196564  1.56895756721  -1.27492839495  2.0817565918  -3.12366420427  -1.53143722216  0.0661892518401  
0.621762037277  1.56877779961  -1.276161019  2.08132553101  -3.12114888826  -1.53110200564  0.0662371888757  
0.629859209061  1.56854975224  -1.27721435228  2.08091783524  -3.11888486544  -1.53063422838  0.0662735179067  
0.637924194336  1.56817781925  -1.27820760409  2.08045005798  -3.11646444002  -1.53039533297  0.0662132203579  
0.646020174026  1.56774604321  -1.27892619768  2.0801024437  -3.11416465441  -1.53007156054  0.0662735179067  
0.654108047485  1.56723070145  -1.27976352373  2.07980251312  -3.11190015474  -1.52980786959  0.06634542346  
0.662208080292  1.56670296192  -1.28042155901  2.07949113846  -3.10982782045  -1.52954465548  0.0665491521358  
0.67035317421  1.5658749342  -1.28114062945  2.07917928696  -3.10799485842  -1.52940065065  0.0663693919778  
0.678452014923  1.56497573853  -1.28179866472  2.07885551453  -3.10634166399  -1.52910119692  0.0665012151003  
0.686622142792  1.56388413906  -1.28254062334  2.07856798172  -3.10460454622  -1.52881414095  0.0664532780647  
0.694686174393  1.56263697147  -1.28342658678  2.07824420929  -3.10291558901  -1.52852660814  0.0664652585983  
0.702785015106  1.56131792068  -1.28450376192  2.07793235779  -3.10128623644  -1.5282514731  0.0663334354758  
0.710918188095  1.55983042717  -1.28589231173  2.07753658295  -3.09981280962  -1.52805978457  0.0664772465825  
0.719046115875  1.55811560154  -1.28759175936  2.07709360123  -3.0982316176  -1.52799970308  0.0663334354758  
0.727135181427  1.5562684536  -1.28978234926  2.07670974731  -3.09672195116  -1.52792770067  0.0664293095469  
0.735280990601  1.5543974638  -1.29221183458  2.07631397247  -3.09502107302  -1.52780801455  0.0663214549422  
0.74337720871  1.55253839493  -1.29504901568  2.07599020004  -3.09349900881  -1.52767640749  0.0665491521358  
0.751471042633  1.55076360703  -1.2980893294  2.07581090927  -3.09189445177  -1.52773648897  0.0663933604956  
0.759695053101  1.54913258553  -1.30123693148  2.07560682297  -3.09025317827  -1.52776033083  0.0665251836181  
0.767789125443  1.54764544964  -1.30452853838  2.07552289963  -3.08837205568  -1.52781993548  0.0664173215628  
0.775888204575  1.54633772373  -1.30793935457  2.07537889481  -3.08637172381  -1.52789193789  0.0666210576892  
0.783975124359  1.54510259628  -1.31135112444  2.07511520386  -3.08432323137  -1.5278561751  0.0665251836181  
0.792062997818  1.54411947727  -1.31469041506  2.07464742661  -3.08215457598  -1.52792770067  0.0666689947248  
0.80016207695  1.54330384731  -1.31805354754  2.07404851913  -3.0799501578  -1.52808362642  0.0667289122939  
0.808288097382  1.54261994362  -1.32127315203  2.07328128815  -3.07784206072  -1.52804786364  0.0665970891714  
0.816376209259  1.54209268093  -1.32449227968  2.07241773605  -3.07570964495  -1.52799970308  0.0668008178473  
0.824465036392  1.54168486595  -1.32758075396  2.07141065598  -3.07337361971  -1.52798778216  0.066645026207  
0.83256816864  1.54130089283  -1.33071643511  2.07033205032  -3.07092982927  -1.5279396216  0.0667049437761  
0.84063410759  1.54109680653  -1.33370858828  2.06914520264  -3.06797105471  -1.52788001696  0.0667049437761  
0.848700046539  1.54092907906  -1.33668882052  2.06797027588  -3.06484443346  -1.52771264711  0.0666570067406  
0.856790065765  1.54088115692  -1.33966905275  2.06655550003  -3.06129819552  -1.52772456804  0.0667648687959  
0.864878177643  1.54090511799  -1.34256536165  2.06512880325  -3.05766851107  -1.52767640749  0.066609069705  
0.872943162918  1.54097700119  -1.34548551241  2.06348705292  -3.05351192156  -1.52761680285  0.0667528808117  
0.881041049957  1.54098892212  -1.34833366076  2.06165266037  -3.04883987108  -1.52761680285  0.0667049437761  
0.889136075974  1.54100096226  -1.35127813021  2.05963802338  -3.04402429262  -1.52742511431  0.0666689947248  
0.897230148315  1.54107284546  -1.35422259966  2.05762434006  -3.03947192827  -1.52743703524  0.0668008178473  
0.905359983444  1.54104888439  -1.35719091097  2.05555057526  -3.03464490572  -1.52712518374  0.0667409002781  
0.913483142853  1.54109680653  -1.36030227343  2.05351257324  -3.02935010592  -1.5268500487  0.0668847113848  
0.921643018723  1.54112076759  -1.36350995699  2.05117416382  -3.02443820635  -1.52640659014  0.0670288950205  
0.929706096649  1.54109680653  -1.36683684984  2.04887247086  -3.0196946303  -1.52597552935  0.0668487548828  
0.937793016434  1.54110884666  -1.37024814287  2.04675102234  -3.01510650316  -1.52542478243  0.067112788558  
0.945880174637  1.54106092453  -1.37355119387  2.04471302032  -3.01105767885  -1.52486211458  0.0669689774513  
0.953968048096  1.54109680653  -1.37684232393  2.04266262054  -3.00722438494  -1.5242989699  0.0671966746449  
0.962057113647  1.54109680653  -1.38018113772  2.0406126976  -3.00260049502  -1.5236881415  0.0672565922141  
0.970173120499  1.54112076759  -1.38349610964  2.0387544632  -2.99834806124  -1.52294522921  0.0674483403563  
0.978268146515  1.54103696346  -1.38687163988  2.03702783585  -2.99421531359  -1.52231055895  0.0673165172338  
0.986357212067  1.54109680653  -1.39041358629  2.03543376923  -2.99013024965  -1.52179557482  0.0673045292497  
0.994418144226  1.54113280773  -1.3940876166  2.03403139114  -2.98578197161  -1.52125722567  0.0672805607319  
1.00262713432  1.5412170887  -1.39806110064  2.03285551071  -2.98154145876  -1.52076560656  0.0674363598228  
1.01069903374  1.54134893417  -1.40205842653  2.03182506561  -2.97742063204  -1.52037078539  0.0673045292497  
1.01879811287  1.54155266285  -1.40599567095  2.03094959259  -2.9733598868  -1.52005941073  0.0673284977674  
1.02692914009  1.54179263115  -1.40986091295  2.03030204773  -2.96917945543  -1.51979571978  0.0671247690916  
1.03502511978  1.54192447662  -1.41347533861  2.02969121933  -2.96495086352  -1.51961595217  0.0671727061272  
1.04315114021  1.54200875759  -1.41681415239  2.02917528152  -2.9609020392  -1.51955634752  0.0670888200402  
1.05124211311  1.54220056534  -1.41988975206  2.02876806259  -2.95684129397  -1.51941281954  0.0671247690916  
1.05932116508  1.54241585732  -1.42275029818  2.02839612961  -2.95285255114  -1.51930505434  0.0673045292497  
1.06738805771  1.54267990589  -1.4254544417  2.02814435959  -2.94917518297  -1.51919681231  0.067112788558  
1.07545399666  1.54303979874  -1.42825490633  2.02791643143  -2.94554549852  -1.51910096804  0.0672446116805  
1.08362412453  1.54345965385  -1.43111497561  2.02773714066  -2.94198781649  -1.51908904711  0.0671008005738  
1.09168505669  1.54399967194  -1.43413097063  2.02755689621  -2.9386938254  -1.51910096804  0.0671247690916  
1.09978103638  1.54471874237  -1.43713456789  2.02728128433  -2.93537599245  -1.51896936098  0.067076832056  
1.10787320137  1.54563057423  -1.44003039995  2.02686166763  -2.93212968508  -1.51875335375  0.0672446116805  
1.1159760952  1.5466376543  -1.44290286699  2.02638196945  -2.92897922197  -1.51845437685  0.0672925487161  
1.12404108047  1.54769337177  -1.44557124773  2.02581834793  -2.92617637316  -1.51822644869  0.0671966746449  
1.13216519356  1.54876077175  -1.44809657732  2.02526712418  -2.92342120806  -1.51789123217  0.0671727061272  
1.14024806023  1.549924016  -1.45066911379  2.02479982376  -2.92027122179  -1.51737672487  0.0671846866608  
1.14839506149  1.55113554001  -1.45331412951  2.02409172058  -2.91706067721  -1.51670581499  0.067376434803  
1.15650820732  1.55398964882  -1.4592850844  2.02264165878  -2.91092759768  -1.51546031633  0.0672206431627  
1.16460514069  1.55564498901  -1.46249229113  2.0218744278  -2.90793306032  -1.5147412459  0.0671727061272  
1.17267107964  1.5573362112  -1.46584350268  2.02104711533  -2.9047349135  -1.51397544542  0.0674483403563  
1.18073606491  1.5589672327  -1.46883470217  2.020195961  -2.9021952788  -1.51324445406  0.0674483403563  
1.18879914284  1.56059813499  -1.4716351668  2.01938056946  -2.89940482775  -1.51249009768  0.0674603283405  
1.19689416885  1.56255304813  -1.47445899645  2.01849317551  -2.89585906664  -1.51166373888  0.0674962773919  
1.20495820045  1.56462788582  -1.47710401217  2.01735448837  -2.89227754274  -1.51076585451  0.0674842968583  
1.21304702759  1.56675100327  -1.47950870195  2.01631164551  -2.88918716112  -1.50993901888  0.0674842968583  
1.22114300728  1.56871783733  -1.48189002672  2.015376091  -2.88621694246  -1.50910073916  0.0673165172338  
1.22924518585  1.57074463367  -1.48411590258  2.01420116425  -2.88321048418  -1.50831014315  0.0672446116805  
1.2373111248  1.57277154922  -1.48604280153  2.01284646988  -2.8800962607  -1.50732833544  0.0671247690916  
1.2454431057  1.57472646236  -1.48781377474  2.01128768921  -2.87681419054  -1.50623876253  0.0671727061272  
1.25359320641  1.57677721977  -1.48929721514  2.00968122482  -2.87371141115  -1.50507671038  0.0672805607319  
1.26169705391  1.57874417305  -1.49056607882  2.00826644897  -2.87076503435  -1.50374728838  0.067412391305  
1.26979517937  1.58065116405  -1.49184638659  2.00695991516  -2.86763888994  -1.50235826174  0.0674962773919  
1.27788209915  1.58247423172  -1.49304277102  2.00564098358  -2.86446458498  -1.50100499788  0.0675801709294  
1.28597021103  1.58409321308  -1.49421531359  2.00411844254  -2.86143428484  -1.49977142016  0.0677003860474  
1.29406619072  1.58571255207  -1.49540073076  2.00275182724  -2.8586195151  -1.49858600298  0.0677003860474  
1.3021261692  1.5874158144  -1.49666864077  2.00145721436  -2.85590058962  -1.4973877112  0.0677842795849  
1.31019210815  1.58938276768  -1.49785310427  2.00018644333  -2.85294181505  -1.4962981383  0.0677842795849  
1.31830000877  1.59119391441  -1.49891788164  1.99841165543  -2.85011512438  -1.49513656298  0.067844197154  
1.32638812065  1.59292078018  -1.49982768694  1.99694919586  -2.84731227556  -1.49415427843  0.0681318193674  
1.3345181942  1.59471988678  -1.50048572222  1.99557065964  -2.84458142916  -1.49306470553  0.0681557878852  
1.3426451683  1.59653067589  -1.50110847155  1.99419164658  -2.84181386629  -1.49186689058  0.0680838823318  
1.35074305534  1.59831774235  -1.50161105791  1.99264478683  -2.83922702471  -1.49074107805  0.0682280659676  
1.35882902145  1.60014128685  -1.50207740465  1.99118232727  -2.83693963686  -1.4895919005  0.0681681483984  
1.36691713333  1.60190403461  -1.50250846544  1.98986339569  -2.83481914202  -1.48838168779  0.0681681483984  
1.37498211861  1.6035233736  -1.50287896792  1.98856878281  -2.83309442202  -1.48728019396  0.0679161027074  
1.38304519653  1.60485446453  -1.5032137076  1.98757362366  -2.83141786257  -1.48617822329  0.0679161027074  
1.39110898972  1.60627007484  -1.5033214728  1.98651838303  -2.82984859148  -1.48511249224  0.0678322091699  
1.39920806885  1.60786509514  -1.50339347521  1.9854631424  -2.82808763186  -1.48392707506  0.0678561776876  
1.40735316277  1.60957992077  -1.50340539614  1.98438453674  -2.82661420504  -1.48262149492  0.0679880082607  
1.41541600227  1.61146295071  -1.50341731707  1.98342514038  -2.8251174132  -1.48141175905  0.0679999887943  
1.42360711098  1.61352610588  -1.50339347521  1.98249006271  -2.82371598879  -1.48035794893  0.0680718943477  
1.43170499802  1.61556494236  -1.50330955187  1.98136329651  -2.82235032717  -1.47923165957  0.0679640397429  
1.43979907036  1.61749625206  -1.50327378908  1.98026037216  -2.82100898424  -1.47826224962  0.0680479258299  
1.44788718224  1.6195114851  -1.50324947039  1.9790968895  -2.81972724596  -1.47726804415  0.0678681656718  
1.45594906807  1.62153828144  -1.50320178667  1.97782611847  -2.81851751009  -1.47621423403  0.0679999887943  
1.46404099464  1.62355315685  -1.50320178667  1.97642326355  -2.81724769274  -1.47524387041  0.0680359452963  
1.47215414047  1.62550806999  -1.50317842165  1.97506856918  -2.81602603594  -1.47427398363  0.0682040974498  
1.48018407822  1.627415061  -1.5032137076  1.9734621048  -2.81460076967  -1.47341186205  0.068431802094  
1.48827409744  1.62915432453  -1.50320178667  1.97161531448  -2.81331950823  -1.47258550326  0.0684078335762  
1.49636220932  1.63092982769  -1.50320178667  1.96974563599  -2.81191808382  -1.47177106539  0.0684797391295  
1.50444817543  1.63276457787  -1.50320178667  1.9676232338  -2.81043273607  -1.47096854845  0.0682520344853  
1.51257801056  1.63475584984  -1.50324947039  1.96533298492  -2.80903131167  -1.47026187578  0.0682400539517  
1.52067112923  1.63695037365  -1.50319034258  1.96264743805  -2.80750972429  -1.46936399141  0.0680479258299  
1.5287361145  1.63938546181  -1.50319034258  1.95985364914  -2.80588084856  -1.46844178835  0.0680359452963  
1.53679919243  1.64198827744  -1.50315457979  1.957072258  -2.80416804949  -1.46747142473  0.0680119767785  
1.54488921165  1.64481878281  -1.50314265886  1.95429086685  -2.80235940615  -1.46639424959  0.0679400712252  
1.55301499367  1.6479010582  -1.50314265886  1.95153331757  -2.80045539538  -1.46517259279  0.0679041147232  
1.5611371994  1.65106785297  -1.50317842165  1.94870376587  -2.79865867296  -1.46389085451  0.0679400712252  
1.569272995  1.65434253216  -1.50327378908  1.9459695816  -2.79665834108  -1.46242982546  0.0679640397429  
1.5773692131  1.65749657154  -1.50328571001  1.94346427917  -2.79475385347  -1.46074134508  0.0679760202765  
1.58548212051  1.66060316563  -1.50326186815  1.94101810455  -2.79283744494  -1.45901662508  0.0679400712252  
1.59356403351  1.66335022449  -1.50320178667  1.93874025345  -2.79118425051  -1.45735198656  0.0679760202765  
1.60165500641  1.66592860222  -1.5032380263  1.93664169312  -2.78947192827  -1.45575935045  0.0678322091699  
1.60971808434  1.66862773895  -1.50320178667  1.93454360962  -2.78756696383  -1.45411855379  0.0678082481027  
1.61778116226  1.67150616646  -1.50316650072  1.93226528168  -2.78556710878  -1.45241815249  0.0677483230829  
1.62584018707  1.67448091507  -1.50315457979  1.92996358871  -2.78339940706  -1.45070535341  0.0677123740315  
1.63392710686  1.67767167091  -1.50308257738  1.92767333984  -2.78121930758  -1.44906503359  0.0675322338939  
1.64199113846  1.68111383915  -1.50314265886  1.9254193306  -2.77893144289  -1.44742423693  0.0675082653761  
1.65011620522  1.68472445011  -1.50316650072  1.92316532135  -2.77665597597  -1.44585544268  0.0671367496252  
1.65821409225  1.68832266331  -1.50313073794  1.9207072258  -2.77421218554  -1.44428664843  0.0669450089335  
1.66630911827  1.69230484962  -1.50320178667  1.9182009697  -2.77144557634  -1.44252616564  0.0666689947248  
1.67440915108  1.69676673412  -1.50319034258  1.91539573669  -2.76805621782  -1.44049007097  0.0662735179067  
1.68250107765  1.70152890682  -1.5030468146  1.91215801239  -2.76465446154  -1.43814260164  0.0659136101604  
1.6905670166  1.70623087883  -1.50307065645  1.90896892548  -2.76107293764  -1.43567639986  0.0654338672757  
1.69866514206  1.71078896523  -1.50313073794  1.90589904785  -2.75744373003  -1.43322116533  0.0648702383041  
1.70676207542  1.71508312225  -1.50320178667  1.90288972855  -2.75377923647  -1.4307902495  0.0641987472773  
1.71485209465  1.71916103363  -1.50326186815  1.89976024628  -2.75018579165  -1.42826301256  0.063239634037  
1.72293710709  1.72317922115  -1.50322562853  1.8966550827  -2.746676747  -1.4258201758  0.0619809143245  
1.73099803925  1.72699391842  -1.50320178667  1.89359760284  -2.74343043963  -1.42353278795  0.0605297014117  
1.73908615112  1.73080825806  -1.5032137076  1.89063596725  -2.74034053484  -1.42134124437  0.0587552860379  
1.74717402458  1.73465895653  -1.50310641924  1.88767385483  -2.73717862764  -1.41918546358  0.0567763894796  
1.75525712967  1.738317132  -1.50310641924  1.8846282959  -2.73413592974  -1.41705400149  0.0546064972878  
1.76335120201  1.74184346199  -1.50309497515  1.88149881363  -2.73142940203  -1.41508990923  0.0528317093849  
1.77145004272  1.74485445023  -1.50316650072  1.87869310379  -2.72923738161  -1.41331798235  0.0512370578945  
1.77957201004  1.74804496765  -1.50328571001  1.8762588501  -2.72655469576  -1.41136533419  0.0493424274027  
1.78763604164  1.75197947025  -1.50327378908  1.87296152115  -2.72352439562  -1.40886289278  0.0472081117332  
1.79573321342  1.75613021851  -1.50310641924  1.86910057068  -2.72078210512  -1.40632421175  0.0451097488403  
1.80380010605  1.76022052765  -1.50308257738  1.8654794693  -2.71730834643  -1.40385753313  0.0428671985865  
1.81186819077  1.76416671276  -1.50305873552  1.8624458313  -2.71379882494  -1.40140277544  0.0405531190336  
1.81997013092  1.76793348789  -1.50314265886  1.85953235626  -2.71044522921  -1.39903098742  0.0381431691349  
1.82806515694  1.77107596397  -1.50326186815  1.85654640198  -2.70717555681  -1.39687568346  0.0357807762921  
1.83617806435  1.77372717857  -1.50329763094  1.85359668732  -2.70394164721  -1.39494783083  0.0333944186568  
1.84428310394  1.77646172047  -1.5032137076  1.85083866119  -2.70069581667  -1.39315158526  0.0310447607189  
1.85234713554  1.7792570591  -1.50309497515  1.8484287262  -2.69739085833  -1.3914030234  0.0286464188248  
1.86045503616  1.78209996223  -1.50285512606  1.84603071213  -2.6940129439  -1.38970262209  0.0260199997574  
1.86854720116  1.78766548634  -1.50230485598  1.84130573273  -2.6874015967  -1.38656551043  0.0209360662848  
1.87663912773  1.79022073746  -1.50222093264  1.83883571625  -2.68420392672  -1.3851164023  0.0185377243906  
1.88470101357  1.79245173931  -1.50212508837  1.83638954163  -2.68129378954  -1.3837035338  0.0162595976144  
1.89276504517  1.79467141628  -1.50204116503  1.83388328552  -2.67853862444  -1.38226586977  0.0139930807054  
1.90085506439  1.79683041573  -1.50190955797  1.83135318756  -2.6760113875  -1.38085300127  0.0117153292522  
1.90894317627  1.79884564877  -1.50162297884  1.82896709442  -2.67341262499  -1.37939197222  0.0093289706856  
1.91706609726  1.80074107647  -1.50129920641  1.82655715942  -2.67072993914  -1.37791902224  0.00688269035891  
1.92516517639  1.80245625973  -1.50096446673  1.82411050797  -2.66813069979  -1.37655383745  0.00452029984444  
1.93328714371  1.80409967899  -1.5006535689  1.82166481018  -2.66577130953  -1.37524825731  0.00219423673116  
1.94141316414  1.80568301678  -1.5004380385  1.81913423538  -2.66341144243  -1.37401515642  -0.000167671834127  
1.94948601723  1.8073028326  -1.50011474291  1.81649637222  -2.6613872687  -1.37291318575  -0.00273400941958  
1.95759010315  1.80883789062  -1.4997437636  1.81367826462  -2.65913612047  -1.37179977099  -0.00531226793398  
1.96568608284  1.81044530869  -1.49932510058  1.81087255478  -2.65696841875  -1.37069827715  -0.00814181963076  
1.97377419472  1.81201708317  -1.49885875383  1.80807876587  -2.65478831926  -1.36971646944  -0.0109117666828  
1.98187398911  1.81351625919  -1.49830800692  1.80510425568  -2.65290815035  -1.36865026156  -0.0135620276081  
1.98993802071  1.81500375271  -1.49766189257  1.80207109451  -2.65120774904  -1.36758453051  -0.0163796583759  
1.99806118011  1.81645536423  -1.49700385729  1.79906082153  -2.64966279665  -1.36653119722  -0.0193775335895  
2.00615000725  1.81785869598  -1.49633342425  1.79620695114  -2.64818936983  -1.3654888312  -0.0224707762348  
2.01424503326  1.8192024231  -1.49554378191  1.79346084595  -2.64687139193  -1.3643634955  -0.0253732840167  
2.02236104012  1.82038998604  -1.4945862929  1.79075050354  -2.64561444918  -1.36327344576  -0.0280831495868  
2.03040218353  1.82139778137  -1.49352151552  1.78822088242  -2.64441663424  -1.36231595675  -0.0306490103351  
2.03846907616  1.82224905491  -1.49227697054  1.78579807281  -2.64315921465  -1.36146527926  -0.0331433455097  
2.04653310776  1.82293283939  -1.4907096068  1.78327989578  -2.64190179506  -1.36071139971  -0.0355175177204  
2.05459713936  1.82349681854  -1.48896247545  1.78074979782  -2.64042789141  -1.36001664797  -0.0377839247333  
2.06265902519  1.82388079166  -1.48702365557  1.77827978134  -2.63902694384  -1.35927421251  -0.0397504011737  
2.07075405121  1.82433652878  -1.48483401934  1.77586889267  -2.63787728945  -1.35871154467  -0.0415371100055  
2.07884311676  1.82472038269  -1.4824646155  1.77332735062  -2.63689548174  -1.35804063479  -0.0430358091937  
2.08690810204  1.82506835461  -1.47992784182  1.77074861526  -2.63587695757  -1.35743028322  -0.0444029013263  
2.09499120712  1.82526004314  -1.47742683092  1.7683262825  -2.63506299654  -1.35677081743  -0.0456021467792  
2.10307908058  1.82547616959  -1.47485429445  1.76584434509  -2.63434440294  -1.3561967055  -0.0464537779437  
2.11114215851  1.82558405399  -1.47222119967  1.76346969604  -2.63390094439  -1.35552579561  -0.0471490065204  
2.11920499802  1.82565593719  -1.46948129336  1.76104736328  -2.63352996508  -1.35490352312  -0.0478203932392  
2.12728214264  1.82564389706  -1.46669322649  1.75878095627  -2.6332543532  -1.35422069231  -0.0483720938312  
2.1353700161  1.82555997372  -1.46378451983  1.75653886795  -2.63296682039  -1.35364610354  -0.0487316290485  
2.1434700489  1.82551205158  -1.46090060869  1.75432014465  -2.63283521334  -1.35310727755  -0.0491278807269  
2.15155720711  1.82535624504  -1.45786124865  1.75193357468  -2.63283521334  -1.35259181658  -0.0494635740863  
2.15962314606  1.8251761198  -1.4548218886  1.74959516525  -2.63287097612  -1.35210115114  -0.0497511068927  
2.16771411896  1.82505631447  -1.45172244707  1.74730491638  -2.63318235079  -1.35163432757  -0.0499070326435  
2.17577409744  1.8250323534  -1.44849139849  1.74491834641  -2.63367349306  -1.35104734102  -0.0501712004291  
2.18384218216  1.8250323534  -1.44529563585  1.74250793457  -2.63432008425  -1.35049659411  -0.0502188841449  
2.19193911552  1.8250323534  -1.44208890596  1.74003744125  -2.63513499895  -1.35001737276  -0.0501712004291  
2.20002818108  1.8250323534  -1.43895370165  1.73750734329  -2.63624841372  -1.34956247011  -0.0502551237689  
2.20809102058  1.82505631447  -1.43563872973  1.73500108719  -2.63740998903  -1.34903556505  -0.0502551237689  
2.21617698669  1.8250323534  -1.4323237578  1.73237466812  -2.63867932955  -1.34853250185  -0.0501712004291  
2.22426605225  1.82505631447  -1.42886525789  1.72971248627  -2.64026052157  -1.34804183642  -0.0503867308246  
2.23235917091  1.8249963522  -1.42525130907  1.72701406479  -2.64181787172  -1.34750253359  -0.0501712004291  
2.24046015739  1.82494843006  -1.42131406466  1.72407579422  -2.64362603823  -1.3469637076  -0.0504468123065  
2.24856305122  1.82486414909  -1.41713697115  1.72102975845  -2.64575797716  -1.34652120272  -0.0501230398761  
2.25665521622  1.82476830482  -1.41275722185  1.71798372269  -2.64815360705  -1.34601813952  -0.0504468123065  
2.26475405693  1.82462453842  -1.40834075609  1.7148900032  -2.65045291582  -1.34550267855  -0.0503509680377  
2.27284002304  1.82451629639  -1.40382939974  1.71180820465  -2.65304023424  -1.34500009218  -0.0505307356464  
2.28095316887  1.82445633411  -1.39943725268  1.70872592926  -2.65573436419  -1.34447318712  -0.0505664984332  
2.28907299042  1.82450425625  -1.39508134524  1.70576381683  -2.65852481524  -1.34394628206  -0.0506146589862  
2.29718613625  1.82445633411  -1.39097673098  1.70292139053  -2.66124374071  -1.34326392809  -0.0506022612201  
2.30529403687  1.82433652878  -1.38697940508  1.700091362  -2.66417867342  -1.34264070192  -0.0505064169513  
2.31338405609  1.82406055927  -1.38297015825  1.69718933105  -2.66712505022  -1.34210235277  -0.05068618456  
2.32142901421  1.82370054722  -1.37906819979  1.694190979  -2.67021447817  -1.34146768252  -0.0505664984332  
2.32949614525  1.82329273224  -1.37504703203  1.69127655029  -2.67361623446  -1.34094077746  -0.0505188147174  
2.33759617805  1.82270479202  -1.37101394335  1.68837451935  -2.67690974871  -1.34052163759  -0.0503028074848  
2.34568810463  1.82204532623  -1.36700469652  1.68571186066  -2.68010789553  -1.34013826052  -0.0501592795001  
2.35377001762  1.82132542133  -1.36284000078  1.68303775787  -2.6833413283  -1.33976728121  -0.0500510374652  
2.36186599731  1.8204498291  -1.35881835619  1.6804356575  -2.68644363085  -1.33956414858  -0.0500629583942  
2.36996817589  1.8195502758  -1.35492879549  1.67777299881  -2.68967706362  -1.33942014376  -0.0498588720905  
2.37803506851  1.81853055954  -1.35129005114  1.67520618439  -2.69264728228  -1.33921653429  -0.0499671141254  
2.38612508774  1.8173429966  -1.34777146975  1.67266368866  -2.69547444979  -1.33902484575  -0.0498350302326  
2.3942220211  1.81622731686  -1.34452850023  1.67025327682  -2.69820481936  -1.33888084093  -0.0498951117145  
2.40234804153  1.81502771378  -1.34147626558  1.66801071167  -2.70055276552  -1.33885699907  -0.0499909559833  
2.4104411602  1.81376826763  -1.33875924746  1.66604375839  -2.7027443091  -1.33879739443  -0.0501349608051  
2.41850709915  1.81243693829  -1.33595878283  1.66395711899  -2.70486432711  -1.33874923388  -0.0501712004291  
2.42659711838  1.81106925011  -1.3332417647  1.66167831421  -2.70688850084  -1.33872539202  -0.0502908865558  
2.43466114998  1.80962967873  -1.3305366675  1.65948390961  -2.70876866976  -1.33865338961  -0.0502789656269  
2.4427549839  1.80803453922  -1.3277481238  1.65731334686  -2.71034938494  -1.33883268038  -0.0500872770893  
2.45085215569  1.80636692047  -1.3250430266  1.65522623062  -2.71161872545  -1.33895284334  -0.050206963216  
2.45895004272  1.80461537838  -1.32215863863  1.65301990509  -2.71275693575  -1.33925229708  -0.0499547163593  
2.46706104279  1.80275630951  -1.31938201586  1.65081262589  -2.71372682253  -1.33951598803  -0.0500753561603  
2.47512412071  1.80076503754  -1.31662923494  1.64873790741  -2.71466094652  -1.33987456957  -0.0499189535724  
2.4832110405  1.7987858057  -1.31388789812  1.64672374725  -2.71559554735  -1.34025842348  -0.0500991980182  
2.49128103256  1.79657840729  -1.31130296389  1.64472055435  -2.71650535265  -1.34073716799  -0.0500391165363  
2.49931502342  1.79429912567  -1.30888492266  1.64288568497  -2.71736842791  -1.34122783342  -0.0500271956073  
2.5073800087  1.79190003872  -1.30668288866  1.64120674133  -2.71817046801  -1.34176665941  -0.0500028769123  
2.5154671669  1.78924930096  -1.30467158953  1.63968372345  -2.71914083162  -1.34248525301  -0.0498712698566  
2.52353310585  1.78632211685  -1.30303222338  1.63829231262  -2.72001487414  -1.34318000475  -0.0500147978412  
2.53163218498  1.7830837965  -1.3014643828  1.63694906235  -2.72096091906  -1.34406596819  -0.0501831213581  
2.53969812393  1.77947318554  -1.30019551912  1.63579750061  -2.72154838244  -1.34516793886  -0.0503266493427  
2.54776120186  1.7754663229  -1.29901057879  1.63485002518  -2.72213489214  -1.34649736086  -0.0504587332355  
2.55586004257  1.77105200291  -1.2979572455  1.63399887085  -2.72272187868  -1.34804183642  -0.0504706541644  
2.56395101547  1.76643395424  -1.29708320299  1.63347101212  -2.72306901613  -1.34971791903  -0.05068618456  
2.57205414772  1.7616597414  -1.29642516771  1.63307523727  -2.7231648604  -1.35157424608  -0.0504348913776  
2.5801551342  1.75660991669  -1.29597026507  1.63290739059  -2.72321302096  -1.35363418261  -0.0504224936115  
2.5882191658  1.75129568577  -1.29574281374  1.6328830719  -2.72322494188  -1.35572940508  -0.0502789656269  
2.5963101387  1.74579000473  -1.29563504854  1.63290739059  -2.72351247469  -1.35804063479  -0.0504706541644  
2.60440301895  1.74018847942  -1.2956588904  1.63290739059  -2.72346479097  -1.36030418078  -0.050146881734  
2.61246800423  1.73449075222  -1.29580289522  1.63299131393  -2.72374040285  -1.36261493364  -0.0502427260028  
2.62059020996  1.7227473259  -1.2962697188  1.63317108154  -2.72387153307  -1.36763269106  -0.0501712004291  
2.62865614891  1.71653425694  -1.29641324679  1.63319540024  -2.72401553789  -1.37021905581  -0.0501831213581  
2.6367521286  1.71030926704  -1.29653293291  1.63323116302  -2.72423059145  -1.37292558352  -0.0503986517536  
2.6448571682  1.70414376259  -1.29659301439  1.63309955597  -2.72421867052  -1.3757036368  -0.0502670446979  
2.65295314789  1.69788229465  -1.29652101198  1.63307523727  -2.72447044054  -1.37849408785  -0.0503390471088  
2.66104221344  1.69159698486  -1.29641324679  1.63294315338  -2.72445851961  -1.38133174578  -0.0500391165363  
2.66913819313  1.6853120327  -1.29654533068  1.63278722763  -2.72466212908  -1.38436156908  -0.0503028074848  
2.67723798752  1.67907500267  -1.29653293291  1.63257169724  -2.72472221056  -1.38734323183  -0.050206963216  
2.68537020683  1.67284953594  -1.29664069811  1.63230800629  -2.72482997576  -1.39044505755  -0.0503147284137  
2.6934671402  1.66670835018  -1.29683238665  1.6320681572  -2.7250216643  -1.39345103899  -0.0501831213581  
2.70162701607  1.66049528122  -1.29702359835  1.63176822662  -2.72476989428  -1.39654046694  -0.0500391165363  
2.70969200134  1.65412640572  -1.29733497301  1.63143253326  -2.72471028963  -1.39972573916  -0.0500147978412  
2.71775817871  1.64778113365  -1.29767018953  1.63104867935  -2.72433883349  -1.40285140673  -0.0501230398761  
2.72585606575  1.64156842232  -1.29813701311  1.63088035583  -2.72411138216  -1.40601283709  -0.0500391165363  
2.73394107819  1.63527154922  -1.29863959948  1.6307964325  -2.723883454  -1.409222428  -0.0501111189472  
2.74204111099  1.62892663479  -1.29933387438  1.63080835342  -2.72363216082  -1.41232377688  -0.0499189535724  
2.75014615059  1.62267756462  -1.30017120043  1.63084459305  -2.72328502337  -1.41532975832  -0.0500147978412  
2.75826716423  1.61662065983  -1.30117685  1.63098859787  -2.72285396258  -1.41825181643  -0.0498469511615  
2.76636910439  1.61079180241  -1.30232602755  1.63115644455  -2.72243434588  -1.42101794878  -0.0499189535724  
2.77451610565  1.60517835617  -1.30365497271  1.63133621216  -2.72201520601  -1.42371255556  -0.0498588720905  
2.78258013725  1.59970939159  -1.30518657366  1.63158845901  -2.72158414522  -1.42639476458  -0.0497630278217  
2.79068017006  1.59440791607  -1.30676633516  1.6316242218  -2.72096091906  -1.42901736895  -0.0499671141254  
2.79874610901  1.58934688568  -1.30856162706  1.631731987  -2.72038633028  -1.43149692217  -0.0497749487506  
2.80685806274  1.58458530903  -1.31039268175  1.63181638718  -2.7195242087  -1.43374807039  -0.0499070326435  
2.81494998932  1.5801115036  -1.31238013903  1.63191223145  -2.71846992174  -1.43602306048  -0.0499189535724  
2.82306408882  1.57606983185  -1.31442672411  1.63205575943  -2.71688920656  -1.43821460405  -0.0498111883747  
2.83117818832  1.57229173183  -1.31664115587  1.63223600388  -2.7152484099  -1.44034654299  -0.0500391165363  
2.83928418159  1.5687417984  -1.31896335283  1.63236808777  -2.71342736879  -1.4424422423  -0.049583260213  
2.84738111496  1.5653116703  -1.3212369124  1.63279914856  -2.71160680452  -1.44433433214  -0.0492833296405  
2.85544514656  1.56191718578  -1.32358295122  1.63315916061  -2.70942718187  -1.44627458254  -0.0487678686725  
2.86355805397  1.55840313435  -1.32598859469  1.63361501694  -2.70685273806  -1.44799930254  -0.0482524077045  
2.87164616585  1.55486524105  -1.32837039629  1.63423871994  -2.70420533815  -1.44959193865  -0.0477007071124  
2.87973713875  1.55138719082  -1.33075267473  1.63497018814  -2.70122319857  -1.45113689104  -0.0470173994647  
2.88780498505  1.54792106152  -1.33320600191  1.63586950302  -2.69816905657  -1.45254975954  -0.0463693777667  
2.89590716362  1.54456293583  -1.33580333391  1.63699674606  -2.69487506548  -1.45391494433  -0.045697991048  
2.90400004387  1.54116868973  -1.33852035204  1.63820838928  -2.69186908404  -1.4553044478  -0.0450266043292  
2.91209816933  1.5377509594  -1.34150010744  1.63958740234  -2.68885070482  -1.45664579073  -0.0445111433612  
2.92021417618  1.5342130661  -1.34476739565  1.64123058319  -2.68566495577  -1.45799857775  -0.0439713636981  
2.92828011513  1.53063905239  -1.34823877016  1.64298200607  -2.68256265322  -1.45934039751  -0.0435035864459  
2.93640303612  1.52704119682  -1.35187656084  1.64482831955  -2.67952043215  -1.4606812636  -0.042976204549  
2.94453811646  1.52344334126  -1.35568267504  1.64666318893  -2.67631084124  -1.4620106856  -0.0425322691547  
2.95260214806  1.51979744434  -1.35968047777  1.64864206314  -2.67294532457  -1.46336394945  -0.0421488920795  
2.96066498756  1.51621162891  -1.36353379885  1.65063285828  -2.66949588457  -1.46476489702  -0.0417049566852  
2.96873116493  1.51251745224  -1.36747104326  1.65268421173  -2.66628581682  -1.46616632143  -0.0413330237018  
2.97681999207  1.50881171227  -1.37137300173  1.65480709076  -2.66304046312  -1.46762735048  -0.0410454908954  
2.9849190712  1.50511789322  -1.37519103685  1.65690565109  -2.65996247927  -1.46907645861  -0.0407937208759  
2.99301719666  1.50148415565  -1.37892514864  1.65902853012  -2.65724403063  -1.47074157396  -0.0406134764301  
3.0011382103  1.49799406528  -1.38255101839  1.66119909286  -2.65456134478  -1.47236997286  -0.0404818693744  
3.00923013687  1.49460029602  -1.38618880907  1.66351366043  -2.65210563341  -1.47402269045  -0.0404217878925  
3.01735019684  1.4912904501  -1.38974363009  1.66580438614  -2.64954263369  -1.47567540804  -0.0404699484455  
3.02544617653  1.48808836937  -1.39332181612  1.6681189537  -2.64703923861  -1.47744781176  -0.0404818693744  
3.03358411789  1.48469460011  -1.3968761603  1.67043304443  -2.64453632036  -1.47917253176  -0.0405896345722  
3.04165506363  1.48126447201  -1.40040713945  1.67273616791  -2.64236861864  -1.4809568564  -0.0405414740192  
3.04972505569  1.47759473324  -1.40388900438  1.67515850067  -2.6402481238  -1.48275310198  -0.0405538717853  
3.05782008171  1.47372114658  -1.40732413927  1.67761707306  -2.63826066652  -1.48463327089  -0.0405295530902  
3.06588411331  1.4697637558  -1.41071063677  1.67999172211  -2.63645202318  -1.48642999331  -0.0406015555011  
3.07390999794  1.46572208405  -1.41382247606  1.68217420578  -2.63453609148  -1.48834592501  -0.0406015555011  
3.08202815056  1.46147704124  -1.41686231295  1.68448877335  -2.63269120852  -1.49035770098  -0.040625397359  
3.09009313583  1.45715975761  -1.41972190539  1.68688774109  -2.63085872332  -1.4924419562  -0.040625397359  
3.09820318222  1.45269858837  -1.42243844668  1.68918991089  -2.62905007998  -1.49446612993  -0.040625397359  
3.10629105568  1.44811761379  -1.42519122759  1.69146823883  -2.62732583681  -1.49635821978  -0.0405896345722  
3.11437916756  1.44333255291  -1.42803985277  1.69385480881  -2.62566072146  -1.4984181563  -0.0406015555011  
3.12242221832  1.43815231323  -1.43094760576  1.69634962082  -2.62415200869  -1.50053769747  -0.0405896345722  
3.13049006462  1.43253958225  -1.4341190497  1.69895172119  -2.62275058428  -1.50283700625  -0.0406015555011  
3.138641119  1.42679584026  -1.43749362627  1.70145845413  -2.62143308321  -1.50518447558  -0.0406015555011  
3.14672899246  1.42109954357  -1.44098788897  1.70403671265  -2.62006789843  -1.50756818453  -0.0405657927143  
3.15478920937  1.41530740261  -1.44462615648  1.70660305023  -2.61867839495  -1.51007110277  -0.0406015555011  
3.16292214394  1.40938341618  -1.44837123552  1.7092294693  -2.61727744738  -1.51249009768  -0.0405777136432  
3.17102003098  1.40347146988  -1.45220071474  1.71172428131  -2.61584026018  -1.51489717165  -0.0405657927143  
3.17914605141  1.39765536785  -1.45613795916  1.71410989761  -2.61428291002  -1.51716119448  -0.0406134764301  
3.18729114532  1.39207935333  -1.46009904543  1.71655654907  -2.61254626909  -1.5195201079  -0.0405538717853  
3.19538807869  1.38667142391  -1.4640715758  1.71897888184  -2.61069041887  -1.52178365389  -0.0405896345722  
3.20348501205  1.38129913807  -1.4681409041  1.72128200531  -2.608690087  -1.52411967913  -0.0405657927143  
3.21155118942  1.3761190176  -1.47224504152  1.72322463989  -2.60652238527  -1.52646667162  -0.0405657927143  
3.21964812279  1.37128639221  -1.47622996966  1.72504711151  -2.6041987578  -1.52864677111  -0.0403979460346  
3.22774410248  1.36684954166  -1.48008376757  1.72664213181  -2.6015642325  -1.53062230745  -0.0400498549091  
3.2358109951  1.36254501343  -1.48412830034  1.72832107544  -2.5986421744  -1.53247911135  -0.0397146383869  
3.2438762188  1.35855162144  -1.48824435869  1.72998809814  -2.59559995333  -1.53431111971  -0.0393427054035  
3.2519671917  1.35477435589  -1.49244434038  1.73155927658  -2.59242660204  -1.53611976305  -0.039042774831  
3.26009011269  1.35118913651  -1.49671632448  1.73299789429  -2.58923989931  -1.53794032732  -0.0386951605426  
3.26815414429  1.34760403633  -1.50101215044  1.73426914215  -2.585814778  -1.53979665438  -0.0383237043964  
3.27624106407  1.34406638145  -1.50516444841  1.73534870148  -2.58231813112  -1.54171258608  -0.0379756132709  
3.28435707092  1.34061312675  -1.50920898119  1.73632001877  -2.57879716555  -1.54371291796  -0.0376156012165  
3.29243421555  1.33726763725  -1.51313430468  1.73719549179  -2.57503635088  -1.54568940798  -0.0372679869281  
3.30057907104  1.33141636848  -1.52045709292  1.7388625145  -2.56764680544  -1.54949790636  -0.0366686026203  
3.30864810944  1.32892179489  -1.52381927172  1.73958158493  -2.56371862093  -1.55119878451  -0.0365245977985  
3.31674814224  1.3267275095  -1.52730161348  1.74031305313  -2.55969459215  -1.55274326006  -0.0362847487079  
3.32481002808  1.32471346855  -1.53076011339  1.7411646843  -2.55567056337  -1.55409700075  -0.0359013716327  
3.33290410042  1.322686553  -1.5343135039  1.74199199677  -2.55152637163  -1.5553782622  -0.0353496710407  
3.34102010727  1.32076835632  -1.53803521792  1.74290370941  -2.54729921023  -1.5564087073  -0.0346902052509  
3.34910702705  1.31884980202  -1.54189998308  1.74386262894  -2.54289132753  -1.55742627779  -0.0338385740863  
3.35719108582  1.31691920757  -1.54576474825  1.74487018585  -2.53859216372  -1.55813295046  -0.0329397360431  
3.36528515816  1.31474888325  -1.54971343676  1.74600934982  -2.5342929999  -1.55899554888  -0.0320523420917  
3.37341499329  1.31242287159  -1.55381757418  1.74742460251  -2.52987367312  -1.55969030062  -0.0309732596027  
3.38145208359  1.30995261669  -1.55786163012  1.74896001816  -2.52539426485  -1.56050473848  -0.0299175421344  
3.38955020905  1.30743479729  -1.56179839769  1.75049448013  -2.52139455477  -1.56131917635  -0.0289586226093  
3.39766311646  1.30485665798  -1.56567508379  1.75196933746  -2.51747829119  -1.56218129793  -0.0281189123737  
3.40577316284  1.30215907097  -1.56951648394  1.75356435776  -2.51364595095  -1.563103501  -0.0274475256549  
3.41389107704  1.299664855  -1.57322532335  1.75525522232  -2.50981361071  -1.56412154833  -0.0267518202411  
3.42198705673  1.29720699787  -1.57681495348  1.75703001022  -2.50600463549  -1.56517535845  -0.0261042753803  
3.43011498451  1.29476106167  -1.58039266268  1.75892496109  -2.50228053728  -1.56621772448  -0.0256126562702  
3.43820905685  1.29224252701  -1.5838025252  1.76083135605  -2.49869949022  -1.56725961367  -0.0253012816059  
3.44634604454  1.28984451294  -1.587164704  1.76237869263  -2.49508268038  -1.56825381914  -0.0249412695514  
3.45447206497  1.28741061687  -1.59049112002  1.76406955719  -2.49146587053  -1.56941539446  -0.0245936552631  
3.46257305145  1.28495275974  -1.59387714068  1.76574802399  -2.48778897921  -1.57051736513  -0.0243418852436  
3.47066807747  1.28260266781  -1.59729940096  1.76741504669  -2.48432857195  -1.57152349154  -0.0241740385639  
3.47873210907  1.28037250042  -1.60069734255  1.76896190643  -2.48067552248  -1.57255393664  -0.024102036153  
3.48682117462  1.2782022953  -1.60419112841  1.77049684525  -2.47716647783  -1.57357150713  -0.024065796529  
3.49491214752  1.27617585659  -1.60762530962  1.77204370499  -2.47337037722  -1.57454187075  -0.0240538756  
3.5030040741  1.27430546284  -1.61096316973  1.77339887619  -2.46953803698  -1.57546359697  -0.024090115224  
3.51110100746  1.27247083187  -1.61422950426  1.77471828461  -2.46583730379  -1.57652980486  -0.0243418852436  
3.51918816566  1.27078032494  -1.61726886431  1.77603721619  -2.46208888689  -1.57754785219  -0.0243657271015  
3.52730703354  1.26910173893  -1.62017614046  1.77720022202  -2.45824462572  -1.57847005526  -0.0243418852436  
3.53539419174  1.26742315292  -1.62293988863  1.77838754654  -2.4542444388  -1.57933265368  -0.0239942709552  
3.54348516464  1.26587605476  -1.62553674379  1.77955055237  -2.45030433336  -1.58024293581  -0.0239217917072  
3.55155110359  1.2642698288  -1.62800103823  1.78076171875  -2.44679576555  -1.58111745516  -0.0235145727741  
3.55964398384  1.26268720627  -1.63036996523  1.78174495697  -2.44357425371  -1.58199149767  -0.0230467955219  
3.5677421093  1.26112806797  -1.63269168535  1.78265666962  -2.44038802782  -1.58297378222  -0.0225189367877  
3.57582402229  1.2594499588  -1.63491660753  1.78350782394  -2.43719083468  -1.58382398287  -0.0219433943378  
3.58393621445  1.25768709183  -1.63717824617  1.78440713882  -2.43418533007  -1.584734265  -0.021235767995  
3.59203100204  1.25574493408  -1.63951093355  1.78539037704  -2.43110734621  -1.58553678194  -0.0204446951496  
3.60015821457  1.2536585331  -1.64177257219  1.78643417358  -2.42824536959  -1.58632690111  -0.019713703786  
3.60824608803  1.25150024891  -1.64398557345  1.78748893738  -2.42531043688  -1.58711749712  -0.0190537611591  
3.61636304855  1.24919855595  -1.64612704912  1.78850793839  -2.42238885561  -1.58795625368  -0.0184662977802  
3.62448716164  1.24674034119  -1.64810115496  1.78965997696  -2.41931087175  -1.58874684969  -0.0179389158832  
3.63265013695  1.2440546751  -1.64991981188  1.79089450836  -2.4161494414  -1.58954936663  -0.017422978078  
3.64074707031  1.24112939835  -1.65171510378  1.79221343994  -2.41313106218  -1.59049541155  -0.016919438039  
3.64884400368  1.23789179325  -1.65338975588  1.79358100891  -2.41014939943  -1.59154969851  -0.0167034308063  
3.65693211555  1.23445081711  -1.65514833132  1.79504346848  -2.4071911017  -1.59275895754  -0.0163915793048  
3.66501998901  1.23073422909  -1.65690690676  1.79666280746  -2.40448505083  -1.59424430529  -0.0161517302143  
3.67313718796  1.22676599026  -1.65884572664  1.7983417511  -2.40179044405  -1.59590894381  -0.0158522764789  
3.68122410774  1.22238945961  -1.66098720232  1.80011606216  -2.39914352099  -1.59794551531  -0.0156601111041  
3.68934798241  1.21785759926  -1.66324836413  1.80201101303  -2.39674884478  -1.6002090613  -0.0155285040485  
3.69745802879  1.21310997009  -1.66567689577  1.80395364761  -2.39454538027  -1.60271245638  -0.0154684225665  
3.70557403564  1.20832598209  -1.66807014147  1.80592012405  -2.39248544375  -1.60535937945  -0.0153964201557  
3.71366214752  1.20342218876  -1.67052251497  1.80785083771  -2.39060479799  -1.60809022585  -0.0153725782978  
3.72172498703  1.19857907295  -1.67297536532  1.80976915359  -2.38877278963  -1.61078483263  -0.0150726477252  
3.72982215881  1.19339931011  -1.67538053194  1.81166362762  -2.3871439139  -1.61356383959  -0.0150726477252  
3.73788714409  1.18786072731  -1.67783290545  1.81352233887  -2.38565904299  -1.61629468599  -0.0148447195636  
3.74595499039  1.18276512623  -1.68027335802  1.81546497345  -2.38412601153  -1.61912137667  -0.0147369543659  
3.75402021408  1.17650711536  -1.68265420595  1.81735992432  -2.38286859194  -1.62190038363  -0.0145090262042  
3.76208400726  1.17063260078  -1.68497544924  1.81929063797  -2.38146716753  -1.62464315096  -0.014149490987  
3.77014803886  1.16480565071  -1.68729621569  1.82124519348  -2.38010245958  -1.62741023699  -0.0136936346637  
3.77826404572  1.15878772736  -1.68948537508  1.82323551178  -2.37860519091  -1.63036901156  -0.0131180922138  
3.78635501862  1.15263748169  -1.69167501131  1.82499837875  -2.37726384798  -1.63333923021  -0.0125306288349  
3.79444408417  1.14645147324  -1.69373256365  1.82667684555  -2.37587482134  -1.63633376757  -0.0118230024921  
3.80262112617  1.14036118984  -1.69573098818  1.82830762863  -2.37460548082  -1.63941175142  -0.0109837690936  
3.8106842041  1.13418745995  -1.69757348696  1.8299741745  -2.3732641379  -1.64250213305  -0.0102284590351  
3.81878113747  1.12798941135  -1.69929582277  1.83135318756  -2.37194711367  -1.64546090761  -0.00924474397768  
3.82690811157  1.12169539928  -1.70095903078  1.83255243301  -2.37079698244  -1.64833575884  -0.0083101431476  
3.83499598503  1.11565351486  -1.70240670839  1.83360767365  -2.36976749102  -1.6511982123  -0.00723058382143  
3.84308409691  1.11004292965  -1.70368653933  1.83462667465  -2.3687971274  -1.6539533774  -0.00622350374331  
3.8512032032  1.10470807552  -1.70465594927  1.8355383873  -2.36782724062  -1.65656453768  -0.00515586534609  
3.85932517052  1.09927773476  -1.70561343828  1.83636569977  -2.36702472368  -1.65937930742  -0.00405294099917  
3.86738920212  1.09371519089  -1.70651036898  1.83704900742  -2.36624652544  -1.66203862826  -0.00290185609926  
3.87545108795  1.08832120895  -1.70728809038  1.83774471283  -2.36563569704  -1.6647456328  -0.00164300600161  
3.88351917267  1.08321404457  -1.70795804659  1.83835601807  -2.36485702196  -1.6673930327  -0.000599209462301  
3.8916079998  1.07826340199  -1.70844823519  1.83903980255  -2.36440164248  -1.67026693026  0.000431432097685  
3.89970421791  1.07350456715  -1.70886737505  1.83959102631  -2.36403114  -1.67310649553  0.0014987771865  
3.90778899193  1.06886518002  -1.70913058916  1.84002256393  -2.36377936998  -1.67589694658  0.00251818541437  
3.9158551693  1.06422615051  -1.7093094031  1.84039449692  -2.36355191866  -1.67881995836  0.00352523475885  
3.9239192009  1.05968260765  -1.70934564272  1.84091043472  -2.36348039309  -1.68174297014  0.00431656790897  
3.93203401566  1.05558288097  -1.70923787752  1.8412938118  -2.36333638826  -1.684425656  0.00508393300697  
3.94009518623  1.05180716515  -1.70905858675  1.84165382385  -2.36339646975  -1.68722898165  0.00585129810497  
3.94818401337  1.04812681675  -1.7089269797  1.84208536148  -2.36315662066  -1.68992406527  0.00654675764963  
3.95629906654  1.0446870327  -1.70890313784  1.8425412178  -2.36337215105  -1.69246322313  0.00714634312317  
3.96441602707  1.04125845432  -1.7088192145  1.84294843674  -2.36321670214  -1.69500285784  0.00796201918274  
3.97248315811  1.0370029211  -1.70868808428  1.84333229065  -2.36337215105  -1.69788915316  0.00882525835186  
3.9805970192  1.02726984024  -1.70843631426  1.84395599365  -2.36327630678  -1.70350772539  0.0103360200301  
3.9886610508  1.0225468874  -1.70819741884  1.84431552887  -2.3631327788  -1.70622665087  0.0110078854486  
3.99672412872  1.01783597469  -1.70771867434  1.84486675262  -2.36307269732  -1.70876628557  0.0116793764755  
4.00481414795  1.01330518723  -1.70732385317  1.84525108337  -2.36301261583  -1.71132976214  0.0121827144176  
4.01291203499  1.0088340044  -1.70694142977  1.84558677673  -2.36319238344  -1.71384507815  0.0125426156446  
4.02097201347  1.00426721573  -1.70645076433  1.8459944725  -2.36300069491  -1.71631271044  0.0128661897033  
4.02906107903  0.999412477016  -1.70586425463  1.84654569626  -2.36322862307  -1.71900827089  0.0130938896909  
4.03716921806  0.994474232197  -1.70505077044  1.84691762924  -2.36307269732  -1.72182304064  0.0130579369143  
4.0452580452  0.989547610283  -1.70404559771  1.8472776413  -2.36337215105  -1.72455436388  0.0132137322798  
4.05334806442  0.984801113605  -1.70287353197  1.84746932983  -2.36325246492  -1.72726136843  0.0133215896785  
4.06147217751  0.980306267738  -1.70176059404  1.84774494171  -2.36338407198  -1.7298968474  0.013489369303  
4.06965112686  0.975979208946  -1.7005999724  1.84793710709  -2.36356383959  -1.73243600527  0.013561273925  
4.07772111893  0.971724033356  -1.69942742983  1.84792518616  -2.36386329332  -1.73492795626  0.0136814909056  
4.08578801155  0.967289149761  -1.69853049914  1.84786510468  -2.3643301169  -1.73729974428  0.0137773649767  
4.09387898445  0.962890207767  -1.69758540789  1.84774494171  -2.36471349398  -1.73969537417  0.0137414122  
4.1019411087  0.958659350872  -1.69662839571  1.84762525558  -2.36525231997  -1.74178010622  0.0139930807054  
4.11000204086  0.954584002495  -1.69563514391  1.8472776413  -2.36591130892  -1.74381667772  0.0139691121876  
4.11812615395  0.950760662556  -1.69445068041  1.84686994553  -2.36655742327  -1.74566108385  0.0141732189804  
4.12619113922  0.946961283684  -1.69309884707  1.84643793106  -2.36731225649  -1.7473505179  0.0140889547765  
4.13431215286  0.942957818508  -1.69150764147  1.84595870972  -2.36824638048  -1.74913484255  0.0143170291558  
4.14237999916  0.938774526119  -1.68964130083  1.84543085098  -2.3691924254  -1.75081235567  0.0143170291558  
4.15046715736  0.934399902821  -1.68752366701  1.84477090836  -2.37025815645  -1.75250083605  0.0146765559912  
4.15858316422  0.930097222328  -1.68533403078  1.84414815903  -2.37139588991  -1.75423843065  0.0148926470429  
4.1666841507  0.925986230373  -1.68312055269  1.84344053268  -2.37258130709  -1.75607139269  0.0151203470305  
4.17477202415  0.921959161758  -1.68095523516  1.84272098541  -2.37404281298  -1.75801211992  0.0153120951727  
4.18289518356  0.917991638184  -1.67889720598  1.84206151962  -2.37582713762  -1.75994044939  0.0154442954808  
4.19099211693  0.914132356644  -1.67682773272  1.84135389328  -2.37769490877  -1.76196462313  0.0155042167753  
4.19911813736  0.91026109457  -1.6747100989  1.84068250656  -2.37969524065  -1.76402551333  0.0154203269631  
4.20720911026  0.906306266785  -1.67243653933  1.83997488022  -2.3815873305  -1.7660501639  0.0154562797397  
4.2153031826  0.902375102043  -1.67010385195  1.83915996552  -2.38377887407  -1.76821834246  0.0153360636905  
4.22338914871  0.89841991663  -1.66762715975  1.83821249008  -2.38618594805  -1.77024251619  0.0156360436231  
4.23148608208  0.894716441631  -1.66506702105  1.83712100983  -2.38877278963  -1.77225524584  0.0157079491764  
4.23956418037  0.891085207462  -1.66238671938  1.8360657692  -2.39152700106  -1.77439958254  0.015899695456  
4.24766898155  0.887609422207  -1.6597550551  1.83492660522  -2.39436561266  -1.77652007738  0.015899695456  
4.25575709343  0.884277403355  -1.65707475344  1.83359575272  -2.39732343355  -1.77877217928  0.0159476324916  
4.26384615898  0.880921840668  -1.65441829363  1.83239650726  -2.40025741259  -1.78089267412  0.0159596167505  
4.27194309235  0.877661764622  -1.65173894564  1.83111381531  -2.40301210085  -1.78295308748  0.0159716010094  
4.28003716469  0.874593794346  -1.64909440676  1.82968664169  -2.40574199358  -1.7850373427  0.0160798337311  
4.28813314438  0.871693611145  -1.64649802843  1.8281879425  -2.40836507479  -1.78706199328  0.0161157865077  
4.29622006416  0.869092643261  -1.64387780825  1.82677316666  -2.41070014635  -1.78895455996  0.01619967632  
4.30428409576  0.866899549961  -1.64123374621  1.82520198822  -2.4130952994  -1.79075175921  0.0161397550255  
4.31234717369  0.86477792263  -1.63857776323  1.82345104218  -2.41551477114  -1.79251271883  0.0163554716855  
4.32043719292  0.862824499607  -1.63590985933  1.82172489166  -2.41811305681  -1.79421359697  0.0161876920611  
4.3285381794  0.860919415951  -1.63303834597  1.81985425949  -2.42066461245  -1.79581910769  0.0161637235433  
4.3367061615  0.859085798264  -1.63013106981  1.81799554825  -2.42309552828  -1.79726869265  0.0160554908216  
4.34480500221  0.857467591763  -1.62705594698  1.81606483459  -2.42535859743  -1.79867011706  0.0162835661322  
4.35290002823  0.855909645557  -1.62374145189  1.81422996521  -2.42781383196  -1.79988032976  0.0160435065627  
4.36099910736  0.854566991329  -1.62017614046  1.81232357025  -2.43030482927  -1.8010781447  0.0162595976144  
4.36908698082  0.853416919708  -1.61633569399  1.81035709381  -2.43286735216  -1.80215675036  0.0160315223038  
4.37717604637  0.852482140064  -1.61232740084  1.80842590332  -2.43564635912  -1.80325824419  0.0162356290966  
4.38529801369  0.851774692535  -1.60793620745  1.80632781982  -2.43838864962  -1.80425244967  0.016007553786  
4.39341616631  0.85127133131  -1.60358125368  1.80408525467  -2.44126254717  -1.80515128771  0.0162236448377  
4.40150904655  0.850876271725  -1.59921342531  1.80174684525  -2.44412500063  -1.8060019652  0.01619967632  
4.40957403183  0.850732445717  -1.59470302263  1.79939651489  -2.44739467302  -1.80674440065  0.0162835661322  
4.41765213013  0.850660502911  -1.58995277086  1.79663848877  -2.45078355471  -1.80735570589  0.0162476133555  
4.42575001717  0.850684523582  -1.58501130739  1.79364061356  -2.45459157625  -1.80788261095  0.0162715818733  
4.43384099007  0.850660502911  -1.57986623446  1.79076290131  -2.45825654665  -1.80828982988  0.0162835661322  
4.44190907478  0.850540697575  -1.57462579409  1.7879447937  -2.46181327501  -1.80863792101  0.0163195189089  
4.45002007484  0.850564658642  -1.56927711168  1.7851266861  -2.46540576616  -1.80888921419  0.0162356290966  
4.4581360817  0.850612580776  -1.56380874315  1.78217697144  -2.46933442751  -1.80922443071  0.0161397550255  
4.46622300148  0.850648522377  -1.55844813982  1.77932262421  -2.47298700014  -1.80947620073  0.0159356482327  
4.47428607941  0.850660502911  -1.55312377611  1.77654075623  -2.47643596331  -1.80969173113  0.0157798547298  
4.48240804672  0.850720465183  -1.54795486132  1.77385425568  -2.4797056357  -1.80979949633  0.0158517602831  
4.49051713943  0.850696504116  -1.54295283953  1.77124023438  -2.48291474978  -1.80987149874  0.0158038232476  
4.49862098694  0.850636541843  -1.53804713884  1.76854228973  -2.48618442217  -1.81008702913  0.015899695456  
4.50671219826  0.850696504116  -1.53323680559  1.76579618454  -2.48946601549  -1.81011087099  0.0157439019531  
4.51481604576  0.850720465183  -1.52847415606  1.76306200027  -2.49268752733  -1.81024295488  0.0160918179899  
4.52293014526  0.850732445717  -1.52383166948  1.76054382324  -2.49559766451  -1.81033832232  0.0159476324916  
4.5310151577  0.850732445717  -1.51924878756  1.75815725327  -2.49846011797  -1.81041032473  0.0162476133555  
4.53913998604  0.850720465183  -1.51471358935  1.75577116013  -2.50148994127  -1.81036216417  0.0162236448377  
4.54720306396  0.850756406784  -1.51041776339  1.75334835052  -2.50454408327  -1.81041032473  0.01652325131  
4.55532407761  0.850876271725  -1.50626498858  1.75110626221  -2.50754958788  -1.81032640139  0.0164992827922  
4.56342315674  0.851067602634  -1.50231677691  1.74886369705  -2.51066381136  -1.81053001085  0.0166311077774  
4.57154917717  0.851199448109  -1.49838000933  1.74652528763  -2.51381379763  -1.81042224566  0.0166674349457  
4.57971811295  0.851391553879  -1.4944785277  1.74403047562  -2.51698714892  -1.81042224566  0.0166554506868  
4.58780813217  0.851511418819  -1.49049407641  1.74157238007  -2.52017289797  -1.81059009234  0.0167033877224  
4.5958750248  0.851607263088  -1.48646146456  1.73919820786  -2.52317887941  -1.81057817141  0.0166311077774  
4.60394310951  0.851703166962  -1.48247653643  1.73676347733  -2.52602941195  -1.81080609957  0.0166311077774  
4.6120300293  0.851751089096  -1.47842008272  1.73428106308  -2.5289033095  -1.81067449251  0.0166430920362  
4.62012815475  0.851798653603  -1.47435123125  1.73161888123  -2.53179008165  -1.81091386477  0.0164393614978  
4.62824702263  0.851846575737  -1.47030669848  1.72887277603  -2.53464013735  -1.81079417864  0.0163794402033  
4.63631820679  0.851846575737  -1.46624976793  1.72610235214  -2.53752690951  -1.81096154848  0.0162476133555  
4.64438319206  0.851834595203  -1.46222907702  1.72328424454  -2.54025680224  -1.81096154848  0.0164633300155  
4.6524450779  0.851846575737  -1.45825654665  1.72046613693  -2.54305917421  -1.81093770662  0.0163315031677  
4.6605091095  0.851966440678  -1.45427161852  1.71776819229  -2.54579002062  -1.81105739275  0.0166794192046  
4.66855812073  0.852002382278  -1.45028621355  1.71493768692  -2.54879600206  -1.8108180205  0.0164393614978  
4.67664217949  0.852649927139  -1.44208890596  1.70889377594  -2.55492812792  -1.81082994143  0.0164513457566  
4.6847422123  0.852973103523  -1.4379122893  1.70599126816  -2.55802995363  -1.81074601809  0.0165951550007  
4.69283819199  0.853297054768  -1.43366414705  1.70296907425  -2.56115562121  -1.81047040621  0.0164992827922  
4.70090317726  0.853608250618  -1.42936784426  1.69999504089  -2.56450921694  -1.81017095247  0.0165352355689  
4.70896601677  0.854040086269  -1.42519122759  1.6971411705  -2.56792241732  -1.80988341967  0.0164034087211  
4.71705198288  0.854459524155  -1.4210746924  1.69438266754  -2.57135945955  -1.80950004259  0.0164633300155  
4.72511720657  0.854902923107  -1.4171851317  1.69205617905  -2.57462913195  -1.80904466311  0.0163554716855  
4.73321318626  0.855358362198  -1.41348773638  1.68929767609  -2.57824594179  -1.80854207674  0.0160918179899  
4.74134111404  0.85576581955  -1.41001636187  1.68689966202  -2.58162337938  -1.80813438097  0.0161876920611  
4.74944615364  0.856305122375  -1.40675002733  1.68458509445  -2.58495265642  -1.80769092241  0.0162476133555  
4.75753998756  0.856748521328  -1.40354186693  1.68230628967  -2.58830625216  -1.80725986162  0.0161397550255  
4.76560521126  0.857251882553  -1.40046722094  1.67993164062  -2.59182721773  -1.80684072176  0.0160435065627  
4.77369618416  0.857779145241  -1.39742690722  1.67765283585  -2.59514505068  -1.80637342135  0.0159236639738  
4.78176116943  0.858378350735  -1.39453059832  1.67554235458  -2.59821063677  -1.80596620241  0.0158158075064  
4.78984808922  0.859085798264  -1.39165860811  1.67356395721  -2.60110885302  -1.80549842516  0.0158517602831  
4.79792809486  0.859912753105  -1.38894206682  1.67159700394  -2.60391170183  -1.8048637549  0.016007553786  
4.80601501465  0.860751628876  -1.38624889055  1.6695098877  -2.60686952273  -1.80425244967  0.015899695456  
4.81407904625  0.86160248518  -1.38373595873  1.66755533218  -2.6096718947  -1.80351001421  0.0161876920611  
4.82217216492  0.86248934269  -1.38140184084  1.66569662094  -2.61246234575  -1.80264741579  0.016007553786  
4.83026218414  0.863484025002  -1.37922412554  1.66394519806  -2.61509734789  -1.80178481737  0.01630753465  
4.83837604523  0.864694058895  -1.37711745897  1.66219425201  -2.61763650576  -1.80074292818  0.0160798337311  
4.84646916389  0.86594080925  -1.37501079241  1.66040706635  -2.62019998232  -1.79962855974  0.0162116605788  
4.85457015038  0.867295026779  -1.37291652361  1.6585726738  -2.6226905028  -1.79847842852  0.0159716010094  
4.86265420914  0.86872112751  -1.37100202242  1.65686988831  -2.62508660952  -1.79734021822  0.016007553786  
4.87074303627  0.870279073715  -1.36870414415  1.65515422821  -2.62739736239  -1.79621440569  0.0159955695271  
4.87880301476  0.871897339821  -1.36648971239  1.65354728699  -2.6294816176  -1.79499227205  0.0159835852683  
4.88686418533  0.873515188694  -1.36418039003  1.65188074112  -2.63150579134  -1.79349500338  0.01619967632  
4.89492702484  0.87519299984  -1.36197835604  1.65026140213  -2.63354188601  -1.79193765322  0.0160435065627  
4.90301609039  0.876870751381  -1.35983592669  1.6487622261  -2.63555366198  -1.7902601401  0.0161397550255  
4.91107916832  0.8786444664  -1.35771686236  1.6476111412  -2.63757783571  -1.78858358065  0.0159476324916  
4.91914319992  0.88050198555  -1.3555987517  1.64633989334  -2.63954192797  -1.78685838381  0.0160918179899  
4.92720603943  0.88250374794  -1.35344440142  1.6452126503  -2.6416981856  -1.78502542177  0.0159955695271  
4.93530011177  0.884469151497  -1.35135013262  1.64401292801  -2.64384156862  -1.78307229677  0.0160315223038  
4.94339609146  0.886566758156  -1.34927970568  1.6428976059  -2.64635688463  -1.78123981157  0.0157199334353  
4.95148515701  0.888735890388  -1.34719688097  1.64179420471  -2.64883596102  -1.77931100527  0.015755886212  
4.95954608917  0.891048848629  -1.3450067679  1.64059495926  -2.65127927462  -1.7771785895  0.0155641380697  
4.96767401695  0.893325865269  -1.34286433855  1.63952732086  -2.65373450914  -1.77498656908  0.015755886212  
4.97573900223  0.895663142204  -1.3406384627  1.63847255707  -2.65616590181  -1.77257854143  0.0156959649175  
4.98380112648  0.898107945919  -1.33846027056  1.63744068146  -2.65852481524  -1.77035075823  0.0159116797149  
4.99188804626  0.900565445423  -1.33617383638  1.63640975952  -2.66083699862  -1.76823026339  0.0157798547298  
4.99998998642  0.902842104435  -1.33386403719  1.63537788391  -2.66328031221  -1.76621753374  0.0158158075064  
5.00807619095  0.905562877655  -1.33157807985  1.63431072235  -2.66587907473  -1.76414519945  0.0158877111971  
5.01613998413  0.908259689808  -1.3291366736  1.6332192421  -2.66868144671  -1.7621567885  0.0156839806587  
5.02422499657  0.910884618759  -1.326754872  1.63209199905  -2.67179567019  -1.76007205645  0.015863744542  
5.0323112011  0.913425266743  -1.32434922854  1.63089227676  -2.67507774035  -1.75783235232  0.0158517602831  
5.04040002823  0.916026234627  -1.32182342211  1.62965726852  -2.67855054537  -1.75566369692  0.0159476324916  
5.04849100113  0.918626844883  -1.31933385531  1.62844610214  -2.68202382723  -1.75331575075  0.0159716010094  
5.05666518211  0.921383917332  -1.3168442885  1.62721061707  -2.68553287188  -1.75084811846  0.0159236639738  
5.06473016739  0.92417627573  -1.31439096132  1.62607145309  -2.68907863299  -1.74829656283  0.0160674750805  
5.0727930069  0.927100777626  -1.31197292009  1.62499189377  -2.69238406817  -1.74573308626  0.0160918179899  
5.08085918427  0.930060863495  -1.30960351626  1.62394857407  -2.69579726854  -1.74307376543  0.0159955695271  
5.08892011642  0.933141589165  -1.30737716356  1.62308502197  -2.6990793387  -1.74046260515  0.0160798337311  
5.09701418877  0.936329782009  -1.30525809923  1.62229347229  -2.70196563402  -1.73789865175  0.0158158075064  
5.10510706902  0.939493596554  -1.30330783526  1.62162160873  -2.70484048525  -1.73543101946  0.0159236639738  
5.11319303513  0.942646205425  -1.30164367357  1.62103366852  -2.70730716387  -1.73285562197  0.0158397760242  
5.12128520012  0.945714533329  -1.30027896563  1.62060260773  -2.70959502855  -1.73042375246  0.0158277917653  
5.1293990612  0.9488068223  -1.29915410677  1.62013483047  -2.71169072786  -1.72797996203  0.0159356482327  
5.13752412796  0.951863586903  -1.29823238054  1.61982297897  -2.71347552935  -1.72564441362  0.0157079491764  
5.14571118355  0.954991459846  -1.29764587084  1.61951112747  -2.71516448656  -1.72341615358  0.0158158075064  
5.1537771225  0.958155632019  -1.29735881487  1.61943912506  -2.71673328081  -1.72136766115  0.0156959649175  
5.16184020042  0.961559534073  -1.29729873339  1.6193189621  -2.71789485613  -1.71930724779  0.0157678704709  
5.16994905472  0.965059697628  -1.29733497301  1.61927127838  -2.71906882921  -1.71734315554  0.0160195380449  
5.17803812027  0.968619406223  -1.29741889635  1.61924695969  -2.72006303469  -1.71543819109  0.0160554908216  
5.18610405922  0.972167849541  -1.2975619475  1.61929512024  -2.72090083758  -1.7135699431  0.0160195380449  
5.19416999817  0.975631654263  -1.29775363604  1.61935472488  -2.72148830095  -1.71159345308  0.015863744542  
5.20227217674  0.979047894478  -1.29792148272  1.61957120895  -2.72201520601  -1.70954448382  0.0159236639738  
5.21038913727  0.982415854931  -1.29810125033  1.61976289749  -2.72245818773  -1.70756799379  0.015755886212  
5.21847915649  0.985820114613  -1.29836446444  1.6199669838  -2.72275764147  -1.70548373858  0.0158038232476  
5.22657012939  0.989224016666  -1.29871112505  1.6202545166  -2.72294980684  -1.70331603685  0.0156240593642  
5.23463511467  0.99278408289  -1.29913026491  1.6205906868  -2.72306901613  -1.70113593737  0.0158517602831  
5.24270200729  0.996428012848  -1.29970485369  1.62108230591  -2.72323686281  -1.69893199602  0.015648027882  
5.25079917908  0.999843895435  -1.30045873324  1.62168169022  -2.7232969443  -1.69683534304  0.015648027882  
5.25890207291  1.00324821472  -1.30138045946  1.62242555618  -2.7232726256  -1.69475108782  0.0157678704709  
5.26700210571  1.00652062893  -1.30250579516  1.6232047081  -2.72323686281  -1.69282275835  0.0154083427042  
5.27509212494  1.00979268551  -1.30376226107  1.62417650223  -2.72293740908  -1.69094163576  0.0155641380697  
5.28318119049  1.01305317879  -1.30534202257  1.62536382675  -2.72260219256  -1.68900138537  0.0154442954808  
5.29132318497  1.01627767086  -1.30695850054  1.62662315369  -2.72226697603  -1.68703729311  0.0155641380697  
5.29942011833  1.0194901228  -1.30874187151  1.62778663635  -2.7216442267  -1.68519241015  0.0157798547298  
5.30748414993  1.02272629738  -1.31066829363  1.62885379791  -2.72090083758  -1.68331176439  0.0157199334353  
5.31558418274  1.02583098412  -1.31260711352  1.63005304337  -2.71979934374  -1.68151504198  0.0158757288009  
5.32368016243  1.02876782417  -1.31451064745  1.63128805161  -2.71813470522  -1.67979032198  0.0157079491764  
5.33180117607  1.03142905235  -1.31623441378  1.63236808777  -2.71634990374  -1.67831689516  0.0158757288009  
5.33986616135  1.03383827209  -1.31774264971  1.63317108154  -2.71425420443  -1.67701131502  0.0157079491764  
5.34795713425  1.03619992733  -1.31891519228  1.63390254974  -2.71154719988  -1.67571765581  0.0157079491764  
5.35601115227  1.03847765923  -1.31983691851  1.63463449478  -2.70842153231  -1.67455560366  0.0157918389887  
5.3640961647  1.04070711136  -1.32047111193  1.63521003723  -2.70523530642  -1.67359763781  0.0156240593642  
5.37221121788  1.04292452335  -1.3208659331  1.63559389114  -2.70209724108  -1.67278319994  0.0157439019531  
5.38030219078  1.04516601562  -1.32122499148  1.63588142395  -2.69901925722  -1.67210036913  0.0158158075064  
5.38839101791  1.04738378525  -1.32150012652  1.63613367081  -2.69594127337  -1.67152530352  0.0158397760242  
5.3964600563  1.04970955849  -1.32188302675  1.63636159897  -2.69294673601  -1.67117768923  0.0159476324916  
5.404515028  1.05208277702  -1.3222544829  1.63651752472  -2.69007236162  -1.67081863085  0.0156839806587  
5.41258120537  1.05675768852  -1.32365495363  1.63660144806  -2.68511373201  -1.6702430884  0.0156719963998  
5.42064905167  1.05903553963  -1.32460004488  1.63675737381  -2.68270665804  -1.66988403002  0.0157678704709  
5.42874217033  1.06120538712  -1.32564193407  1.63691329956  -2.68032294909  -1.6693332831  0.015899695456  
5.43680715561  1.06306326389  -1.32679063479  1.63709259033  -2.67782003084  -1.66890174547  0.0158277917653  
5.44489407539  1.0647534132  -1.32803565661  1.63718891144  -2.67537671724  -1.66835099856  0.0159955695271  
5.45295619965  1.0661560297  -1.32935172716  1.63722515106  -2.67288571993  -1.66790754  0.0159356482327  
5.4610490799  1.06746268272  -1.33076459566  1.63738059998  -2.67028648058  -1.66741687456  0.0161637235433  
5.4691221714  1.06863713264  -1.3323319594  1.63759660721  -2.66781932512  -1.66702109972  0.0160554908216  
5.47721004486  1.06978797913  -1.33406764666  1.63794469833  -2.66530448595  -1.66655427614  0.0160554908216  
5.48527312279  1.07081902027  -1.33610183397  1.63831615448  -2.66290885607  -1.66619474093  0.015899695456  
5.49336409569  1.07177805901  -1.33835250536  1.63889217377  -2.66029817263  -1.66595536867  0.016007553786  
5.50146508217  1.07268893719  -1.34078246752  1.63943147659  -2.65775901476  -1.6656797568  0.0160315223038  
5.50959920883  1.07350456715  -1.34347469011  1.64009141922  -2.65509969393  -1.66536838213  0.0161637235433  
5.51772713661  1.07423555851  -1.34638291994  1.6407866478  -2.65259677569  -1.66517669359  0.0158757288009  
5.52579021454  1.07494270802  -1.34943515459  1.64162635803  -2.65021306673  -1.66508084932  0.016007553786  
5.53388118744  1.07563817501  -1.35252315203  1.6424779892  -2.64775830904  -1.66487723986  0.0157678704709  
5.54197502136  1.07638120651  -1.35565883318  1.64338922501  -2.64506322542  -1.66472179094  0.0158038232476  
5.55010414124  1.07702863216  -1.35882980028  1.64416885376  -2.64218885103  -1.66462594668  0.015648027882  
5.55816698074  1.07776010036  -1.36198980013  1.64509248734  -2.63926631609  -1.66460210482  0.0157439019531  
5.5662791729  1.0785150528  -1.36520940462  1.6461596489  -2.63608104387  -1.66448194185  0.0158158075064  
5.57439208031  1.07927012444  -1.36842900911  1.6472992897  -2.63287097612  -1.66450626055  0.0159835852683  
5.58248019218  1.08004951477  -1.37169582049  1.64837789536  -2.6296137015  -1.66430217425  0.0160798337311  
5.59060621262  1.0809366703  -1.37501079241  1.64954185486  -2.62618762652  -1.66429025332  0.0161397550255  
5.59870004654  1.08181190491  -1.37838584581  1.6507768631  -2.6225827376  -1.66419440905  0.0161757078022  
5.60679602623  1.08284258842  -1.38167697588  1.65207242966  -2.6189420859  -1.66409904162  0.0160435065627  
5.61489319801  1.08396947384  -1.38483697573  1.65327119827  -2.61528951326  -1.66409904162  0.0160918179899  
5.62298417091  1.08501243591  -1.38797265688  1.6544470787  -2.6113131682  -1.66382342974  0.0160554908216  
5.63107299805  1.08617532253  -1.39122754732  1.65563440323  -2.60708552996  -1.6637395064  0.0160195380449  
5.63916802406  1.08749353886  -1.39433938662  1.65712118149  -2.6028936545  -1.66345197359  0.015899695456  
5.64730715752  1.08892035484  -1.39752275149  1.65845251083  -2.59839040438  -1.66322452227  0.0156839806587  
5.65537214279  1.09040677547  -1.40063459078  1.6595916748  -2.59395915667  -1.66286498705  0.0156000908464  
5.6634349823  1.09176146984  -1.40375787417  1.66053962708  -2.58941966692  -1.66261369387  0.0153120951727  
5.67154502869  1.09315192699  -1.4064505736  1.66146326065  -2.58521634737  -1.6623023192  0.0150963785127  
5.67973208427  1.09456682205  -1.4096458594  1.66233825684  -2.58094054857  -1.66203862826  0.014772804454  
5.68783211708  1.09600496292  -1.41244632403  1.6630821228  -2.57660514513  -1.66167909304  0.0144967930391  
5.69592118263  1.09741985798  -1.41518718401  1.66366958618  -2.57252103487  -1.66117650667  0.0141009390354  
5.70401620865  1.09884631634  -1.41771203676  1.66420888901  -2.56847316424  -1.66076833407  0.0137174436823  
5.71211409569  1.10045266151  -1.42012912432  1.66462850571  -2.56452113787  -1.66031343142  0.0134654007852  
5.720236063  1.10196340084  -1.42260629336  1.66512060165  -2.5608680884  -1.65981036821  0.013081905432  
5.72836303711  1.10348534584  -1.42510730425  1.66552829742  -2.5572274367  -1.65913993517  0.0126984100789  
5.7364962101  1.1049002409  -1.42757255236  1.6659116745  -2.55371791521  -1.6584332625  0.0124707100913  
5.74468398094  1.10624289513  -1.43013412157  1.66628360748  -2.55012542406  -1.65765458742  0.0123388832435  
5.75278401375  1.10756146908  -1.43285018602  1.66677522659  -2.54670030275  -1.65688783327  0.0120988246053  
5.76088809967  1.10874831676  -1.43567496935  1.66733932495  -2.54335910479  -1.65596563021  0.0119669977576  
5.76895499229  1.10995912552  -1.43866664568  1.66813087463  -2.54018479982  -1.65499526659  0.0118351718411  
5.77702021599  1.11101412773  -1.4417775313  1.66894626617  -2.53702336947  -1.65403730074  0.0118231875822  
5.78510713577  1.11203312874  -1.44496089617  1.66986989975  -2.53369409243  -1.65321046511  0.0117153292522  
5.79317116737  1.11290800571  -1.4483593146  1.67085313797  -2.53036481539  -1.65240842501  0.0117512820289  
5.80125808716  1.11380755901  -1.45174628893  1.67170476913  -2.5270708243  -1.65172511736  0.0115831280127  
5.80937004089  1.11463439465  -1.45525247255  1.67266368866  -2.5239332358  -1.65104276339  0.0115831280127  
5.8175201416  1.11548566818  -1.458902661  1.67374372482  -2.52065164248  -1.65056354204  0.0114513020962  
5.82570004463  1.11640846729  -1.46271974245  1.67484664917  -2.51729852358  -1.64995271364  0.0116550335661  
5.83378911018  1.1173915863  -1.46662122408  1.67588996887  -2.51393300692  -1.6493657271  0.0116550335661  
5.84190416336  1.11841058731  -1.47053367296  1.67688512802  -2.5107477347  -1.64881498018  0.0118831079453  
5.85000610352  1.11941766739  -1.47449475924  1.67789316177  -2.50765735308  -1.64849120775  0.0116430493072  
5.85809206963  1.12049663067  -1.47851592699  1.67909240723  -2.50448400179  -1.64801246325  0.0116430493072  
5.86617803574  1.12153959274  -1.48252422014  1.68044757843  -2.50114280382  -1.64758092562  0.0116310650483  
5.87427020073  1.12260615826  -1.48660499254  1.68162250519  -2.49787360827  -1.64720994631  0.0114992382005  
5.88239407539  1.1236371994  -1.4906018416  1.68280982971  -2.49447232882  -1.64686233202  0.0112955067307  
5.89051008224  1.12469255924  -1.49459821383  1.68405723572  -2.49114257494  -1.64655095736  0.0110558224842  
5.89863419533  1.12577152252  -1.49852306048  1.6852440834  -2.4875257651  -1.64609557787  0.0109595740214  
5.90670013428  1.12690997124  -1.50236446062  1.68643188477  -2.48390895525  -1.64567643801  0.010707905516  
5.91478300095  1.12804889679  -1.506193463  1.68757104874  -2.48023254076  -1.64535314242  0.0104562360793  
5.92284607887  1.12919974327  -1.50996333758  1.68867444992  -2.47677117983  -1.6449936072  0.0100124459714  
5.93094015121  1.13035094738  -1.51368457476  1.68975353241  -2.47332221666  -1.64471847216  0.00950873363763  
5.93900609016  1.131513834  -1.51738197008  1.69088077545  -2.46977740923  -1.64435893694  0.00895708519965  
5.94710302353  1.13272464275  -1.52103168169  1.69203233719  -2.46622068087  -1.64402372042  0.00848932564259  
5.95519804955  1.13398337364  -1.52478868166  1.6931476593  -2.46261579195  -1.64355594317  0.00797400344163  
5.96330904961  1.13517010212  -1.52851039568  1.69432258606  -2.4591067473  -1.64322120348  0.0073624337092  
5.97140312195  1.13634502888  -1.53236323992  1.69554567337  -2.45563346544  -1.64277774492  0.00669094268233  
5.97949099541  1.13758015633  -1.53622800509  1.69684123993  -2.45204097429  -1.64231044451  0.00576740829274  
5.98758602142  1.13873100281  -1.54009324709  1.69819641113  -2.44842416445  -1.64190370241  0.00461617391557  
5.9956870079  1.13997769356  -1.54405385653  1.69962358475  -2.44490319887  -1.64148408571  0.00305747543462  
6.00377511978  1.14121210575  -1.54788285891  1.7010269165  -2.44157439867  -1.64106494585  0.0010793292895  
6.01183819771  1.14235138893  -1.55172378222  1.70240545273  -2.4382446448  -1.64074117342  -0.00136691728701  
6.01992917061  1.14355015755  -1.55560046831  1.70376062393  -2.43483144442  -1.64037019411  -0.00419694582094  
6.02804398537  1.1447609663  -1.55930978457  1.70509195328  -2.431538407  -1.64010650316  -0.00723058382143  
6.03613209724  1.14600765705  -1.56305534044  1.70629119873  -2.42825729052  -1.63977128664  -0.0103600660907  
6.04419708252  1.1472786665  -1.56681186358  1.70750284195  -2.42465192476  -1.63944799105  -0.0134661833393  
6.05235815048  1.1486093998  -1.57054549852  1.70870161057  -2.42108327547  -1.63913661638  -0.0164879004108  
6.06046104431  1.14997589588  -1.57421857515  1.70972108841  -2.41747838656  -1.6387890021  -0.0195096174823  
6.06864905357  1.15280532837  -1.58169681231  1.71189212799  -2.41029292742  -1.63814241091  -0.0257323423969  
6.0767261982  1.15417194366  -1.58550149599  1.71301937103  -2.40672427813  -1.63784295717  -0.0288623015033  
6.08478808403  1.15557444096  -1.58929521242  1.71402645111  -2.40284425417  -1.63738757769  -0.0318840185748  
6.09288406372  1.15700125694  -1.5930278937  1.71498584747  -2.39925128618  -1.63700467745  -0.0349901358234  
6.10097312927  1.15846407413  -1.59670097033  1.71589708328  -2.39564639727  -1.63656121889  -0.0381911436664  
6.10906815529  1.16005837917  -1.60036212603  1.7167725563  -2.39194614092  -1.63608199755  -0.04118901888  
6.11715507507  1.16162908077  -1.60403567949  1.71767234802  -2.38832933107  -1.63559133211  -0.0441392103778  
6.12524199486  1.16323566437  -1.60761338869  1.71846342087  -2.38486844698  -1.63502818743  -0.0469091574298  
6.13333010674  1.16490185261  -1.61109477678  1.71925497055  -2.3817670981  -1.63457280794  -0.049631420766  
6.14142417908  1.16650855541  -1.61473209063  1.72001028061  -2.3788207213  -1.63406974474  -0.052353207265  
6.14949417114  1.16818666458  -1.61840516726  1.7207660675  -2.37571889559  -1.63348323504  -0.0550749937641  
6.15763115883  1.16999709606  -1.62209016482  1.72147369385  -2.3728445212  -1.63284808794  -0.0576770941364  
6.16569304466  1.17195129395  -1.62587148348  1.72221708298  -2.36989909807  -1.63224965731  -0.0600035826312  
6.17375707626  1.17391741276  -1.62980777422  1.72305679321  -2.36735994021  -1.63161451021  -0.06231767336  
6.18184304237  1.17599141598  -1.63362437883  1.72387218475  -2.36423427263  -1.63099176088  -0.064560238515  
6.18993115425  1.17814934254  -1.63744098345  1.72471141815  -2.36115676561  -1.63039285341  -0.066790405904  
6.19802808762  1.18035519123  -1.64122182528  1.72570705414  -2.35780364672  -1.6297100226  -0.0689733664142  
6.20609116554  1.18262135983  -1.64495498339  1.7267742157  -2.35434276262  -1.62902719179  -0.071275536214  
6.2141520977  1.18483912945  -1.64867574373  1.72800922394  -2.35096580187  -1.62816507021  -0.0737341086017  
6.22223901749  1.1870213747  -1.65231305758  1.72913694382  -2.3474205176  -1.62736207644  -0.076311890279  
6.23036599159  1.18911933899  -1.65598565737  1.73027563095  -2.34385186831  -1.62643987337  -0.0793340841876  
6.2384660244  1.19110953808  -1.65964681307  1.73151111603  -2.34013921419  -1.62560111681  -0.0830028692829  
6.24652910233  1.19296777248  -1.66320020357  1.73284196854  -2.33641511599  -1.62469131151  -0.087379757558  
6.25459504128  1.1947542429  -1.66662198702  1.7340054512  -2.33265477816  -1.62384063402  -0.0925119558917  
6.26268315315  1.19640874863  -1.66985208193  1.73501300812  -2.32889444033  -1.62300187746  -0.0981958548175  
6.27074599266  1.1980394125  -1.67289144198  1.7359957695  -2.32515842119  -1.62224752108  -0.104407612477  
6.27880811691  1.19966995716  -1.67583448092  1.73702764511  -2.32151729265  -1.62155276934  -0.110427204763  
6.28689599037  1.20136010647  -1.67853862444  1.73817873001  -2.31820041338  -1.62091809908  -0.11645824114  
6.29498505592  1.20317089558  -1.68101531664  1.73911428452  -2.31507426897  -1.62033111254  -0.12250215212  
6.30307221413  1.20502877235  -1.68331224123  1.74000120163  -2.31204492251  -1.6196363608  -0.128485981618  
6.31113600731  1.20697104931  -1.68536979357  1.74081707001  -2.30914670626  -1.61901361147  -0.134613815938  
6.31922411919  1.20911729336  -1.68718845049  1.74158430099  -2.30642825762  -1.61836702028  -0.140237633382  
6.32732105255  1.21131157875  -1.68880397478  1.74226760864  -2.30409318606  -1.61761218706  -0.145441834127  
6.33542013168  1.21351742744  -1.69025117556  1.74287986755  -2.30190164248  -1.61677390734  -0.15062266985  
6.34352302551  1.2157715559  -1.6915195624  1.7432756424  -2.29997331301  -1.61589938799  -0.155647102986  
6.35158801079  1.21806132793  -1.69276410738  1.74369525909  -2.29820138613  -1.61506110827  -0.160671536122  
6.35967707634  1.2203514576  -1.69393664995  1.74399471283  -2.2964404265  -1.61411458651  -0.165899578725  
6.36770606041  1.22258126736  -1.69516879717  1.74419879913  -2.29477626482  -1.61309653917  -0.17093593279  
6.3758161068  1.22489535809  -1.69641286532  1.74442625046  -2.29324323336  -1.61197072664  -0.176032368337  
6.38394498825  1.22710156441  -1.69771653811  1.74464273453  -2.29167443911  -1.61080867449  -0.181680981313  
6.39200901985  1.2293792963  -1.69897300402  1.74484634399  -2.29010564486  -1.6096590201  -0.187520805989  
6.40017199516  1.23158586025  -1.70026523272  1.74507427216  -2.28863269487  -1.6085451285  -0.193708244954  
6.40827703476  1.23391151428  -1.70143729845  1.74526596069  -2.28717118899  -1.60745555559  -0.19993240038  
6.41637802124  1.23621368408  -1.70245486895  1.74538612366  -2.28575832049  -1.60628205935  -0.20597631136  
6.42446804047  1.23856365681  -1.70347148577  1.74543380737  -2.284201924  -1.6050956885  -0.212235752736  
6.4325671196  1.24103355408  -1.70435697237  1.7455534935  -2.28277665774  -1.60395795504  -0.2188428084  
6.44063019753  1.24355137348  -1.70519429842  1.74568557739  -2.28147155443  -1.6026523749  -0.22552282015  
6.44872117043  1.24609279633  -1.70603210131  1.745865345  -2.2800582091  -1.60147840181  -0.23214227358  
6.45683121681  1.24870681763  -1.7068212668  1.7458896637  -2.2787287871  -1.60035258928  -0.238114182149  
6.4649310112  1.25133252144  -1.70767099062  1.74594974518  -2.27730399767  -1.59927493731  -0.24399024645  
6.4730181694  1.25389826298  -1.70849639574  1.74591350555  -2.27584296862  -1.5981724898  -0.250093762075  
6.48110699654  1.25662016869  -1.70933372179  1.74591350555  -2.27458554903  -1.59717876116  -0.256353680287  
6.48917007446  1.25933015347  -1.71019536654  1.74592542648  -2.27326804796  -1.59611255327  -0.262745205556  
6.49726605415  1.26214754581  -1.71108085314  1.74597358704  -2.27186710039  -1.59510642687  -0.268945042287  
6.50528311729  1.26492893696  -1.71198970476  1.74602127075  -2.27045423189  -1.59419614473  -0.275468651448  
6.51337099075  1.26783061028  -1.71300679842  1.74608135223  -2.2691248099  -1.59332210222  -0.28256780306  
6.52150416374  1.27066040039  -1.71395188967  1.74620103836  -2.26755601565  -1.59254342714  -0.290542904531  
6.52959609032  1.27365803719  -1.71486074129  1.74629735947  -2.26599914232  -1.59170514742  -0.298697296773  
6.53769111633  1.27661955357  -1.71578199068  1.74654912949  -2.26419049898  -1.59092647234  -0.307319466268  
6.54578614235  1.27972495556  -1.71671563784  1.74688529968  -2.26234656969  -1.59008819262  -0.316733185445  
6.5538752079  1.28268659115  -1.71761304537  1.74712514877  -2.26057416597  -1.58929759661  -0.326602760945  
6.56198811531  1.28566014767  -1.71847421328  1.74741220474  -2.25883752504  -1.58837539354  -0.336471859609  
6.57005310059  1.28851354122  -1.71922761599  1.74773645401  -2.25712520281  -1.58751327196  -0.347097222005  
6.57814216614  1.291259408  -1.71993381182  1.74803590775  -2.25561649004  -1.58668643633  -0.358429733907  
6.58618211746  1.29405331612  -1.72060376803  1.74846792221  -2.2542031447  -1.58579999605  -0.369642559682  
6.59425520897  1.29678714275  -1.72116595904  1.74885177612  -2.25282603899  -1.58487826983  -0.381718460714  
6.60235118866  1.29920911789  -1.72164470354  1.74924707413  -2.25135308901  -1.58403951326  -0.393687073384  
6.61041402817  1.30218303204  -1.72200376192  1.74960708618  -2.25001174608  -1.58326131502  -0.40558272997  
6.61848020554  1.30508470535  -1.72233850161  1.7498831749  -2.24865895907  -1.58231479326  -0.4183066527  
6.62654709816  1.30815422535  -1.72251826922  1.75013446808  -2.24728137652  -1.58142882982  -0.430538479482  
6.63466501236  1.31136786938  -1.72266132036  1.75037479401  -2.24621564547  -1.58053046862  -0.443202320729  
6.64275598526  1.31480884552  -1.72282916704  1.75055456161  -2.24520951906  -1.57953626314  -0.455446545278  
6.65084218979  1.31805837154  -1.72290069262  1.7506980896  -2.24422771135  -1.5785539786  -0.467006985341  
6.65890312195  1.32135558128  -1.72303229967  1.75073432922  -2.24350959459  -1.577440087  -0.478927437459  
6.6669921875  1.32465350628  -1.7231276671  1.75080633163  -2.24292260805  -1.57630235354  -0.490211788808  
6.67505502701  1.32799863815  -1.7231519858  1.75078248978  -2.24239522616  -1.57514077822  -0.501581017171  
6.68314504623  1.33132004738  -1.72310382525  1.75075817108  -2.24202424685  -1.57390720049  -0.51327306429  
6.69123101234  1.33472549915  -1.72306806246  1.75079441071  -2.2417605559  -1.5724456946  -0.524090115224  
6.69930720329  1.33834660053  -1.72306806246  1.75072240829  -2.24147349993  -1.57098466555  -0.53496724764  
6.70739006996  1.34213626385  -1.72303229967  1.75071048737  -2.24118596712  -1.569607083  -0.545784298574  
6.71548104286  1.3458532095  -1.72303229967  1.75072240829  -2.24106675783  -1.56820613543  -0.555534187947  
6.72357916832  1.34954619408  -1.72298413912  1.75075817108  -2.24098283449  -1.56676894823  -0.565019909536  
6.73167705536  1.35316765308  -1.72305614153  1.75067424774  -2.24081498781  -1.56541520754  -0.57462531725  
6.73974013329  1.35687303543  -1.72302037874  1.75065040588  -2.24091083208  -1.56402570406  -0.583584133779  
6.74783205986  1.36070990562  -1.72300845781  1.7506980896  -2.24067098299  -1.56260043779  -0.592709843312  
6.75591921806  1.36458301544  -1.72299653689  1.75074625015  -2.24073106447  -1.56122333208  -0.601859871541  
6.76402211189  1.36862432957  -1.72302037874  1.75067424774  -2.24059898058  -1.55969030062  -0.610854450856  
6.77211904526  1.37274956703  -1.72298413912  1.75066232681  -2.24077874819  -1.55818111101  -0.619009319936  
6.7802491188  1.37701821327  -1.72299653689  1.75072240829  -2.2406352202  -1.55654031435  -0.62713987032  
6.78834319115  1.38132309914  -1.72293693224  1.7506980896  -2.24073106447  -1.55485135714  -0.635282341634  
6.79646515846  1.38549625874  -1.7230442206  1.75072240829  -2.24068290392  -1.55307895342  -0.642753903066  
6.8046309948  1.39354252815  -1.72305614153  1.75067424774  -2.24077874819  -1.54954606691  -0.65722877184  
6.81269407272  1.39763140678  -1.72306806246  1.75073432922  -2.24053937594  -1.54788095156  -0.665047470723  
6.82078504562  1.40175700188  -1.72299653689  1.75071048737  -2.24058705965  -1.54630023638  -0.672974411641  
6.82887220383  1.40598964691  -1.72292501131  1.75067424774  -2.24033576647  -1.54468328158  -0.680409733449  
6.83693313599  1.41039085388  -1.72293693224  1.75071048737  -2.24025184313  -1.54312593142  -0.687976662313  
6.84502410889  1.41479170322  -1.72290069262  1.75072240829  -2.23998815218  -1.5415690581  -0.695855442678  
6.85311102867  1.41918098927  -1.72291261355  1.75077056885  -2.24007207552  -1.54009658495  -0.703698460256  
6.86120200157  1.42367768288  -1.72298413912  1.75071048737  -2.23992854754  -1.53876668612  -0.711385075246  
6.86929011345  1.42833054066  -1.72293693224  1.75065040588  -2.23998815218  -1.53741342226  -0.719552342092  
6.87746500969  1.43306767941  -1.72286492983  1.75054264069  -2.23979646364  -1.53620368639  -0.728438679372  
6.88558602333  1.43791222572  -1.72278100649  1.75049448013  -2.23989230791  -1.53480226198  -0.737384621297  
6.8936882019  1.44279325008  -1.72263747851  1.75042247772  -2.23983270327  -1.5334127585  -0.746426884328  
6.90175199509  1.4475659132  -1.72254211107  1.75044679642  -2.24019223848  -1.53203565279  -0.756392304097  
6.90984320641  1.45214688778  -1.7224462668  1.75039863586  -2.2400243918  -1.53057462374  -0.766909424459  
6.91796398163  1.45669198036  -1.72230226198  1.75024271011  -2.24007207552  -1.52911311785  -0.777150456105  
6.92604804039  1.4611171484  -1.72224265734  1.75014686584  -2.23982078234  -1.52759248415  -0.787979427968  
6.93413305283  1.46573400497  -1.72213536898  1.75003862381  -2.23955709139  -1.52591544787  -0.799323860799  
6.94219613075  1.47030305862  -1.72193175951  1.74994277954  -2.23918563524  -1.52426273028  -0.81017667452  
6.9503030777  1.47500455379  -1.72174007097  1.74979877472  -2.23856336275  -1.52238256136  -0.821593586599  
6.95841813087  1.47956156731  -1.72146493593  1.74955892563  -2.23798829714  -1.520550553  -0.832829777394  
6.96650314331  1.48407065868  -1.72123796145  1.74930715561  -2.23734170595  -1.51881343523  -0.843814675008  
6.97456717491  1.48850822449  -1.72089034716  1.74909162521  -2.23674279848  -1.51719695727  -0.855590645467  
6.98265314102  1.49286150932  -1.72044831911  1.74871969223  -2.2361925284  -1.51559192339  -0.866467777883  
6.99074602127  1.49725067616  -1.71996957461  1.74831199646  -2.23556930224  -1.51387960116  -0.877271954213  
6.99881005287  1.5018440485  -1.71932346026  1.74780845642  -2.23489886919  -1.51204711596  -0.888448540364  
7.00690317154  1.50652086735  -1.71866542498  1.74728107452  -2.23431188265  -1.51022702852  -0.898677651082  
7.0150179863  1.51101863384  -1.71797162691  1.7468252182  -2.23376161257  -1.50834590593  -0.90882283846  
7.02314114571  1.51541984081  -1.71727782885  1.74633359909  -2.23315078417  -1.50647813479  -0.91870433489  
7.03120112419  1.51966524124  -1.716548268  1.74578142166  -2.23264772097  -1.50466949144  -0.927494351064  
7.03928112984  1.52398264408  -1.71584207216  1.74519395828  -2.23221618334  -1.50265771547  -0.935588661824  
7.04734420776  1.52831232548  -1.71500474611  1.74455881119  -2.23188096682  -1.50084907213  -0.94340688387  
7.05540800095  1.53273785114  -1.71428662935  1.74391078949  -2.23154575029  -1.4988248984  -0.950877968465  
7.06359004974  1.53731918335  -1.71349698702  1.74332332611  -2.23121053377  -1.49671727816  -0.957557503377  
7.0716509819  1.54173278809  -1.71268350283  1.74273586273  -2.23085099856  -1.49459726015  -0.963744942342  
7.07970809937  1.54602611065  -1.71194202105  1.74202823639  -2.23045617739  -1.49246579805  -0.970053021108  
7.08777809143  1.55036771297  -1.71117622057  1.74145269394  -2.23025209108  -1.49035770098  -0.976636234914  
7.09587311745  1.55479335785  -1.71037465731  1.74075698853  -2.22997695604  -1.48823815981  -0.983567063008  
7.10396909714  1.55933904648  -1.70960885683  1.74016952515  -2.22977334658  -1.48620206514  -0.990222756063  
7.11206221581  1.56407618523  -1.70875960985  1.73951005936  -2.22954589525  -1.48414260546  -0.997321907674  
7.12016201019  1.56904184818  -1.70785028139  1.73877859116  -2.22922259966  -1.48203450838  -1.00494844118  
7.1282889843  1.57398271561  -1.70686942736  1.73798656464  -2.22888738314  -1.47997457186  -1.01274282137  
7.13635110855  1.57876813412  -1.705828015  1.73708772659  -2.22837239901  -1.47792655626  -1.02034551302  
7.14445400238  1.58349370956  -1.70462018648  1.73609209061  -2.22791701952  -1.47596294085  -1.02784043947  
7.15264010429  1.58819520473  -1.70331603685  1.73498868942  -2.22741443316  -1.47402269045  -1.03547841707  
7.16071105003  1.59296870232  -1.70183211962  1.73384904861  -2.22682744661  -1.47208244005  -1.04310542742  
7.16877603531  1.59782636166  -1.70026523272  1.73261451721  -2.22628909746  -1.47010642687  -1.05025226275  
7.17688798904  1.60269570351  -1.69868594805  1.73142719269  -2.22591716448  -1.4680703322  -1.056787316  
7.18498206139  1.60755312443  -1.69707090059  1.73015594482  -2.22535449663  -1.46595126787  -1.06337052981  
7.1930680275  1.6123509407  -1.69544345537  1.72895669937  -2.22493535677  -1.46377164522  -1.06973821322  
7.2011551857  1.61701655388  -1.69385272661  1.72767353058  -2.22456390062  -1.4614961783  -1.07600957552  
7.20918607712  1.62183833122  -1.69217759768  1.72630643845  -2.2243364493  -1.45918447176  -1.08157331148  
7.21728920937  1.62688744068  -1.69051438967  1.7249751091  -2.2242286841  -1.45680171648  -1.08668166796  
7.22537708282  1.63196086884  -1.68888789812  1.72374010086  -2.22430068651  -1.4545138518  -1.09180194536  
7.23351621628  1.63691449165  -1.68724853197  1.72250509262  -2.2243364493  -1.45202285448  -1.09680253664  
7.24160718918  1.64179611206  -1.68557340304  1.72128200531  -2.22459966341  -1.44960385958  -1.10188657442  
7.24971914291  1.64640188217  -1.68386203447  1.71995067596  -2.22461206118  -1.44734031359  -1.1073067824  
7.25780510902  1.65104389191  -1.68228322664  1.71861934662  -2.22465974489  -1.44505292574  -1.11221105257  
7.26589417458  1.65552973747  -1.68057233492  1.71736049652  -2.22452813784  -1.44276553789  -1.11687547365  
7.27396607399  1.66018331051  -1.67880136171  1.71610116959  -2.22463590304  -1.4403942267  -1.12159949938  
7.28208112717  1.66484928131  -1.67693549791  1.7147102356  -2.22464782396  -1.43795138994  -1.12648088137  
7.29017615318  1.66974306107  -1.67504483858  1.71331882477  -2.22486335436  -1.43537646929  -1.13115722338  
7.29827904701  1.67467296124  -1.6730354468  1.71177196503  -2.22487527529  -1.43265802065  -1.13574964205  
7.30634403229  1.67972254753  -1.67101318041  1.71018886566  -2.22498351732  -1.42972404162  -1.1401980559  
7.3145031929  1.68489217758  -1.66884738604  1.70840167999  -2.22506744066  -1.42661077181  -1.14413148562  
7.32256913185  1.69015777111  -1.66674214998  1.70679473877  -2.22512704531  -1.42344886461  -1.14794427553  
7.33066916466  1.69536340237  -1.66448051134  1.70510387421  -2.22527057329  -1.42003614107  -1.15155393282  
7.33876800537  1.70038926601  -1.66223127047  1.70336532593  -2.22518664995  -1.41665870348  -1.15498334566  
7.34688806534  1.70524704456  -1.65983850161  1.70150661469  -2.22539025942  -1.41323405901  -1.15811282793  
7.35498905182  1.7099852562  -1.65733796755  1.69955205917  -2.22571403185  -1.4099167029  -1.16087037722  
7.36309599876  1.71479511261  -1.65463430086  1.69742918015  -2.22620517412  -1.40650350252  -1.16338855425  
7.37118911743  1.7197726965  -1.65182239214  1.69512653351  -2.22709066073  -1.40322286287  -1.16567927996  
7.37931704521  1.72487080097  -1.64884359041  1.69280004501  -2.22792941729  -1.3999894301  -1.16752607027  
7.38740301132  1.72988474369  -1.64573270479  1.69031715393  -2.22899562517  -1.39663631121  -1.1689046065  
7.39546608925  1.7348626852  -1.64254981676  1.68778657913  -2.23028833071  -1.39345103899  -1.17009193102  
7.40355920792  1.73960053921  -1.63921195665  1.68516016006  -2.23168927828  -1.39037305513  -1.17091876665  
7.41162610054  1.74417102337  -1.63596898714  1.68255805969  -2.2331383864  -1.38737899462  -1.17160255114  
7.41972112656  1.74869287014  -1.6328347365  1.6800994873  -2.2345755736  -1.38454133669  -1.17205840746  
7.42781019211  1.75298726559  -1.62985545794  1.67777299881  -2.23602468172  -1.38164359728  -1.17235833803  
7.43590712547  1.75716161728  -1.62711602846  1.67554235458  -2.23778516451  -1.37872153917  -1.17248994509  
