Ethan-CYM/ros_catkin_ws/test/伺服_gain2000_looktime003/ur_joint_actual_current.txt
time  shoulder_pan_joint  shoulder_lift_joint  elbow_joint  wrist_1_joint  wrist_2_joint  wrist_3_joint
0.152233123779  0.0224181059748  -2.19249081612  -1.02002382278  -0.340084195137  -0.233331307769  0.347709387541  
0.160119056702  0.0470780208707  -2.17679810524  -1.0088146925  -0.187580063939  -0.0533764399588  0.279082536697  
0.168206214905  0.0784633681178  -2.17231440544  -1.03795826435  -0.298908084631  -0.179954856634  0.323308736086  
0.17631316185  0.0493198335171  -2.17903995514  -1.03347468376  -0.125053375959  -0.230281218886  0.3461843431  
0.184432029724  0.0493198335171  -2.17679810524  -1.02450740337  -0.321783691645  0.183004945517  0.301958143711  
0.192562103271  0.0582870729268  -2.17231440544  -1.02674925327  -0.154029160738  -0.414811193943  0.147928997874  
0.200797080994  0.0425943993032  -2.17231440544  -1.03123283386  -0.120478250086  0.283657670021  0.160129323602  
0.208726167679  0.0515616424382  -2.17231440544  -1.03123283386  -0.248581707478  -0.132678583264  0.233331307769  
0.21682715416  0.0515616424382  -2.18800711632  -1.03347468376  -0.184529989958  -0.179954856634  0.210455685854  
0.224825143814  0.0448362119496  -2.17007255554  -1.00657296181  -0.207405596972  0.306533277035  0.210455685854  
0.23287320137  0.0717379376292  -2.18128156662  -1.0132983923  -0.0655767694116  -0.353809565306  0.335509061813  
0.240984201431  0.067254319787  -2.17679810524  -1.0132983923  -0.430061608553  0.0610016472638  0.202830478549  
0.249083995819  0.0605288855731  -2.18800711632  -1.00433111191  0.0716769322753  0.138778746128  0.161654368043  
0.257241010666  0.0358689688146  -2.18128156662  -1.0088146925  -0.51546394825  -0.390410542488  0.285182714462  
0.265267133713  0.0538034513593  -2.17455625534  -1.0110565424  0.0945525541902  0.333984017372  0.279082536697  
0.273330211639  0.0470780208707  -2.18576526642  -1.02226555347  -0.53376442194  -0.259256988764  0.22113096714  
0.281427145004  0.0336271598935  -2.17679810524  -1.03347468376  0.0884523913264  -0.150979071856  0.143353864551  
0.289664030075  0.0515616424382  -2.18576526642  -1.03795826435  -0.474287807941  0.228756174445  0.0930275097489  
0.297702074051  0.0538034513593  -2.17903995514  -1.02226555347  -0.0686268508434  -0.42701151967  0.183004945517  
0.305802106857  0.0874306112528  -2.94798088074  -1.64773070812  -0.097602635622  -0.0366009883583  0.256206929684  
0.313898086548  0.156926736236  -3.67208576202  -0.730830252171  -0.53376442194  0.240956500173  0.259256988764  
0.32196521759  0.816019058228  -4.26840734482  -0.672543168068  -0.468187630177  0.233331307769  0.277557492256  
0.330052137375  0.529067277908  -4.40067434311  -0.656850516796  -0.55206489563  0.195205271244  0.17385469377  
0.338407039642  0.708412110806  -3.91195940971  -0.710653960705  -0.422436416149  0.125053375959  0.114378087223  
0.346482038498  0.212972000241  -2.77760338783  -0.479747444391  -0.265357166529  0.295857995749  0.0671018138528  
0.354640007019  0.152443110943  -1.56926739216  -0.598563432693  -0.317208558321  0.218080893159  0.0442261956632  
0.362727165222  0.121057771146  -1.36974620819  -0.125541388988  -0.347709387541  0.187580063939  0.125053375959  
0.370812177658  0.00448362110183  -1.65893983841  -0.174861222506  -0.25163179636  0.335509061813  0.164704442024  
0.378875017166  0.152443110943  -2.18128156662  -0.479747444391  -0.253156840801  0.137253701687  0.138778746128  
0.386939048767  0.18382845819  -2.77536153793  -1.20385229588  -0.466662615538  0.381260305643  0.186055019498  
0.395007133484  -0.123299583793  -3.5084335804  -0.847404360771  -0.509363770485  0.181479901075  0.210455685854  
0.4031021595  0.311611652374  -3.45463013649  -1.15453243256  -0.375160127878  0.247056677938  0.259256988764  
0.411170005798  -0.0605288855731  -3.42997002602  -1.40113162994  -0.327883839607  0.303483188152  0.17385469377  
0.419313192368  0.318337112665  -3.29770326614  -1.34956991673  -0.396510720253  0.233331307769  0.311108410358  
0.427384138107  0.0896724238992  -2.86951756477  -1.188159585  -0.378210216761  0.207405596972  0.0655767694116  
0.435670137405  0.00896724220365  -2.45702433586  -1.11193799973  -0.443786978722  0.271457344294  0.210455685854  
0.443484067917  0.32057890296  -2.32475757599  -1.23299574852  -0.440736889839  0.308058321476  0.0503263585269  
0.451656103134  -0.311611652374  -2.44581532478  -1.63876354694  -0.448362112045  0.337034106255  -0.0793021395802  
0.459753036499  -0.105365097523  -3.06231331825  -1.58944368362  -0.314158469439  0.332458972931  0.373635083437  
0.467847108841  -0.656850516796  -3.60707306862  -1.57823467255  -0.125053375959  0.253156840801  -0.181479901075  
0.475917100906  -0.132266819477  -4.00387382507  -1.78448116779  -0.396510720253  0.179954856634  0.222656011581  
0.484045982361  -0.342997014523  -4.25943994522  -1.92571520805  -0.161654368043  0.122003294528  -0.15860427916  
0.492134094238  -0.123299583793  -3.45687198639  -1.87191176414  -0.0762520581484  0.0366009883583  0.228756174445  
0.500262022018  -0.0896724238992  -4.42309236526  -1.80465745926  -0.0335509069264  0.0366009883583  -0.208930641413  
0.508372068405  -0.0762215554714  -4.48362112045  -2.01762938499  -0.0777771025896  0.254681885242  0.20588055253  
0.516467094421  -0.107606902719  -4.02629184723  -2.05125665665  -0.138778746128  0.272982358932  -0.335509061813  
0.524818181992  -0.251082777977  -3.11611676216  -1.75982129574  -0.115903131664  0.0945525541902  0.0228756181896  
0.532778024673  -0.208488374949  -2.31130671501  -1.63427984715  -0.0350759476423  0.260782033205  -0.260782033205  
0.540796041489  -0.210730195045  -2.10730195045  -1.34508633614  0.163179412484  0.277557492256  0.292807906866  
0.548891067505  -0.208488374949  -1.47062766552  -1.31818461418  0.183004945517  0.0945525541902  -0.164704442024  
0.55698299408  -1.03795826435  -2.15437984467  -1.43251693249  0.128103464842  0.0884523913264  0.248581707478  
0.565065145493  -0.531309127808  -2.04228949547  -1.70377600193  0.0457512363791  0.280607581139  -0.244006589055  
0.573188066483  -0.979671239853  -2.69689798355  -1.70825958252  0.0396510697901  0.268407255411  0.349234431982  
0.581298112869  -0.5940797925  -2.96815705299  -1.67239069939  0.0213505774736  0.126578420401  -0.097602635622  
0.589423179626  -0.578387141228  -2.53324604034  -1.49977123737  0.00610016472638  0.111328005791  -0.161654368043  
0.597660064697  -0.423702180386  -2.43012261391  -1.43027508259  0.0305008236319  0.233331307769  0.125053375959  
0.605670213699  -0.724104821682  -2.71034884453  -1.59392726421  0.154029160738  0.298908084631  -0.0991276800632  
0.613727092743  -0.737555682659  -2.41442990303  -1.75533771515  0.22113096714  0.338559150696  0.0427011549473  
0.621816158295  -0.883273363113  -2.21266698837  -1.62979626656  0.0945525541902  0.242481544614  0.0701518952847  
0.62991809845  -0.883273363113  -2.04901480675  -1.56702554226  0.109802961349  0.137253701687  0.114378087223  
0.637975215912  -0.824986279011  -2.10281825066  -1.59168553352  0.169279575348  0.0777771025896  -0.0793021395802  
0.646081209183  -0.68375223875  -2.59153294563  -1.52443122864  0.120478250086  -0.0320258662105  0.0442261956632  
0.654153108597  -0.701686680317  -2.63861107826  -1.663423419  0.0640517324209  0.132678583264  0.120478250086  
0.662259101868  -0.836195349693  -2.88296842575  -1.76654672623  0.150979071856  0.0472762770951  -0.172329649329  
0.670406103134  -0.961736738682  -2.81123042107  -1.82259202003  -0.0549014806747  0.143353864551  0.288232773542  
0.678665161133  -0.975187599659  -2.98609161377  -1.63427984715  0.175379738212  0.097602635622  -0.309583365917  
0.686714172363  -1.03571653366  -2.86279201508  -1.84949374199  -0.0579515658319  0.242481544614  0.390410542488  
0.694730043411  -0.784633696079  -3.47032284737  -1.91898977757  0.102177761495  0.280607581139  -0.048801317811  
0.702865123749  -0.600805222988  -3.58689689636  -2.11402726173  -0.0610016472638  0.289757817984  0.108277924359  
0.711000204086  -1.0132983923  -4.14286613464  -2.03780579567  0.0594766065478  0.254681885242  -0.0838772654533  
0.719101190567  -0.943802237511  -4.19442749023  -1.9615842104  -0.0472762770951  0.276032447815  0.196730315685  
0.727183103561  -0.97294574976  -3.54206061363  -2.03108024597  0.0106752887368  0.254681885242  -0.239431470633  
0.735333204269  -0.562694430351  -4.06216049194  -1.78896486759  -0.0381260290742  0.324833780527  0.36143475771  
0.743432044983  -0.365415126085  -3.41427755356  -1.62307083607  -0.00152504118159  0.18910510838  -0.181479901075  
0.751616001129  -0.390075027943  -3.2080309391  -1.78448116779  0.0457512363791  0.120478250086  0.150979071856  
0.759745121002  -0.396800458431  -3.12284207344  -1.69480872154  -0.0671018138528  0.0549014806747  -0.134203627706  
0.767843008041  -0.360931485891  -3.23941636086  -1.6656652689  -0.0228756181896  0.0122003294528  0.201305434108  
0.775940179825  -0.385591417551  -2.91883730888  -1.91674804688  0.0289757829159  0.215030804276  -0.26688221097  
0.784023046494  -0.425944000483  -3.19233822823  -2.00642037392  -0.0259256996214  0.0991276800632  0.353809565306  
0.792110204697  -0.515616416931  -2.91883730888  -2.00417852402  0.0945525541902  0.00610016472638  -0.164704442024  
0.800213098526  -0.40352588892  -2.90314459801  -1.96830964088  -0.0640517324209  0.175379738212  0.0152504118159  
0.808338165283  -0.437153071165  -2.61843466759  -1.76206314564  0.0579515658319  0.137253701687  0.20588055253  
0.816428184509  -0.338513404131  -2.56238937378  -1.93692433834  0.100652717054  0.22113096714  -0.344659298658  
0.824525117874  -0.425944000483  -2.52203679085  -1.71274328232  -0.0549014806747  0.237906426191  0.36143475771  
0.83264708519  -0.212972000241  -2.72155809402  -1.90553891659  0.0427011549473  0.184529989958  -0.274507403374  
0.840711116791  -0.156926736236  -2.48616790771  -1.93244063854  0.00457512354478  0.335509061813  0.0427011549473  
0.848751068115  -0.114332340658  -2.90314459801  -2.11178565025  0.0106752887368  0.0945525541902  0.187580063939  
0.856842041016  -0.0650125071406  -2.5511803627  -1.98176050186  0.00152504118159  0.0915024727583  -0.335509061813  
0.864946126938  0.091914229095  -3.14301848412  -1.94364976883  0.0594766065478  0.311108410358  0.366009891033  
0.873002052307  0.18382845819  -2.87624287605  -2.29113030434  0.0106752887368  0.0945525541902  -0.318733602762  
0.881103992462  0.432669430971  -2.98609161377  -2.01314592361  -0.118953213096  0.298908084631  0.0366009883583  
0.889188051224  0.165893986821  -3.13405108452  -1.94813334942  -0.0244006589055  -0.0457512363791  0.216555848718  
0.89728307724  0.369898736477  -2.26198673248  -1.59168553352  0.120478250086  0.283657670021  -0.385835409164  
0.9054210186  0.443878501654  -3.42100286484  -2.00193691254  0.0930275097489  0.0213505774736  0.321783691645  
0.913537025452  0.414734959602  -2.76415252686  -2.16334724426  -0.0198255348951  0.196730315685  0.0213505774736  
0.921736001968  0.271259069443  -3.21923995018  -2.26647043228  -0.0289757829159  0.15860427916  -0.332458972931  
0.92976808548  0.239873722196  -3.49498271942  -1.61410355568  0.179954856634  0.196730315685  0.353809565306  
0.937846183777  0.215213805437  -2.75070142746  -1.57150924206  0.175379738212  0.279082536697  -0.20435552299  
0.945962190628  0.237631917  -2.64533638954  -2.05798196793  0.144878908992  0.390410542488  0.216555848718  
0.954052209854  0.289193570614  -2.3785610199  -1.88760447502  0.0640517324209  0.285182714462  -0.183004945517  
0.962113142014  0.298160791397  -2.69913983345  -1.62531268597  0.105227842927  0.186055019498  0.195205271244  
0.970256090164  0.221939250827  -2.5556640625  -1.86518633366  0.18910510838  0.0472762770951  -0.048801317811  
0.978366136551  0.269017279148  -3.28201055527  -1.73964500427  0.0549014806747  0.219605922699  0.0320258662105  
0.986420154572  0.336271584034  -2.98160791397  -1.79120659828  0.00305008236319  0.320258647203  -0.114378087223  
0.99449801445  1.02226555347  -3.5084335804  -1.75309586525  0.00762520590797  0.305008232594  0.0884523913264  
1.00270009041  0.661334097385  -2.97712445259  -1.75757944584  0.0625266879797  0.276032447815  -0.056426525116  
1.01077008247  0.860855221748  -2.62516021729  -1.6611815691  0.118953213096  0.199780389667  0.100652717054  
1.01886701584  0.638916015625  -2.53997135162  -1.52218937874  0.0747270211577  0.0854023098946  -0.198255360126  
1.02700400352  0.470780223608  -1.81138288975  -1.58720183372  0.0991276800632  0.114378087223  0.0899774283171  
1.03510308266  0.327304333448  -1.50873851776  -1.44596779346  0.103702798486  0.0305008236319  -0.301958143711  
1.04322218895  0.576145291328  -1.65669798851  -1.42130792141  0.231806263328  0.0808271840215  0.247056677938  
1.0513241291  0.571661710739  -1.78896486759  -1.46614408493  0.199780389667  0.193680226803  -0.0701518952847  
1.05939507484  0.784633696079  -1.99745321274  -1.7799975872  0.117428168654  0.0854023098946  -0.36143475771  
1.06749010086  0.728588402271  -2.8493411541  -1.82483375072  0.106752879918  0.23638138175  0.276032447815  
1.07553315163  0.748764753342  -2.97936630249  -1.99969506264  0.0167754534632  -0.00610016472638  -0.454462260008  
1.0837700367  0.818260848522  -3.17440366745  -2.0804002285  -0.0152504118159  0.140303790569  0.0640517324209  
1.09175610542  0.905691444874  -2.79329586029  -2.02659678459  0.0289757829159  0.100652717054  -0.317208558321  
1.09986019135  0.881031572819  -2.72155809402  -2.23060154915  0.0289757829159  0.285182714462  -0.0381260290742  
1.10796713829  0.827228069305  -2.42339730263  -2.17903995514  0.0533764399588  0.198255360126  0.112853050232  
1.11606907845  0.912416875362  -2.68120551109  -1.96606791019  0.152504116297  0.262307077646  -0.150979071856  
1.1241440773  0.376624166965  -1.38543891907  -1.75982129574  0.228756174445  0.292807906866  0.0686268508434  
1.13224720955  0.762215614319  -2.35838460922  -1.76430487633  0.233331307769  0.216555848718  -0.152504116297  
1.14030909538  0.665817737579  -2.35390114784  -1.99521136284  -0.0320258662105  0.196730315685  0.144878908992  
1.14845108986  1.05140912533  -3.42772841454  -2.20594167709  -0.102177761495  0.114378087223  -0.103702798486  
1.15667510033  0.919142305851  -3.19682192802  -1.95037519932  0.0106752887368  0.154029160738  -0.239431470633  
1.16473221779  0.97294574976  -3.55102801323  -2.11851096153  0.00457512354478  0.244006589055  0.224181056023  
1.17273020744  0.269017279148  -1.98848593235  -1.95037519932  -0.0198255348951  0.237906426191  -0.231806263328  
1.18080401421  0.19055390358  -1.24420487881  -1.66790699959  0.245531633496  0.128103464842  0.237906426191  
1.18886518478  1.16574144363  -2.00417852402  -1.78448116779  0.248581707478  0.0823522210121  -0.199780389667  
1.19697904587  0.869822502136  -1.70825958252  -2.10730195045  -0.0701518952847  0.253156840801  -0.056426525116  
1.20503902435  0.773424625397  -2.10954380035  -2.04901480675  -0.0259256996214  0.289757817984  0.218080893159  
1.21309804916  0.777908265591  -2.83140683174  -1.62531268597  0.154029160738  0.178429812193  -0.445312023163  
1.22122812271  0.42818582058  -2.00417852402  -2.11178565025  0.0472762770951  0.0640517324209  0.0884523913264  
1.2293241024  0.206246569753  -1.37647163868  -2.27767944336  -0.00152504118159  0.20588055253  -0.228756174445  
1.23737406731  0.892240583897  -1.76878857613  -2.10954380035  0.0213505774736  0.254681885242  -0.103702798486  
1.24549198151  0.80705177784  -1.40561521053  -1.8405264616  0.0167754534632  0.242481544614  0.0808271840215  
1.25366520882  0.670301377773  -1.32715189457  -1.52891480923  0.100652717054  0.192155182362  -0.0320258662105  
1.26176309586  0.647883236408  -2.01090407372  -1.51770579815  0.239431470633  0.311108410358  0.114378087223  
1.26984620094  0.302644431591  -2.40994644165  -2.2552614212  0.195205271244  0.0732019767165  0.0366009883583  
1.27796220779  0.385591417551  -2.58704948425  -2.36735200882  0.100652717054  0.353809565306  0.20588055253  
1.28601908684  0.719621181488  -2.44133162498  -1.91898977757  0.0152504118159  0.263832122087  0.00305008236319  
1.2941160202  1.02226555347  -2.5601477623  -1.87863719463  -0.00762520590797  0.122003294528  0.122003294528  
1.30217599869  1.04020011425  -2.34941744804  -2.23956871033  -0.00762520590797  0.352284520864  0.135728672147  
1.31026601791  0.605288863182  -2.06919121742  -2.27767944336  0.00457512354478  0.216555848718  0.0106752887368  
1.31835699081  0.295919001102  -1.67014884949  -1.5423656702  0.140303790569  0.0289757829159  0.30043309927  
1.32645106316  0.504407346249  -1.37647163868  -1.47511136532  0.265357166529  0.265357166529  0.160129323602  
1.3345811367  0.414734959602  -1.47286951542  -1.92347347736  0.0793021395802  0.175379738212  0.111328005791  
1.34269618988  0.625465154648  -1.95934247971  -2.16334724426  -0.0335509069264  0.048801317811  -0.0518513992429  
1.3507912159  0.833953499794  -1.901055336  -2.04453110695  0.0503263585269  0.298908084631  0.240956500173  
1.3588950634  0.733072042465  -2.10057640076  -1.75085401535  0.186055019498  0.222656011581  0.0945525541902  
1.36702513695  0.542518138885  -1.79120659828  -1.8988134861  0.0747270211577  0.0167754534632  -0.0335509069264  
1.37504220009  0.271259069443  -1.92347347736  -1.57823467255  0.248581707478  0.289757817984  0.150979071856  
1.3830871582  0.598563432693  -1.87415361404  -1.87863719463  0.0549014806747  0.250106751919  -0.0655767694116  
1.39116311073  1.07158541679  -2.01987123489  -2.01987123489  0.198255360126  0.0930275097489  0.0701518952847  
1.39930200577  1.02674925327  -2.09160923958  -1.87639546394  -0.0320258662105  0.298908084631  -0.0503263585269  
1.40741419792  1.33163547516  -2.13868737221  -1.81138288975  0.225706100464  0.292807906866  0.201305434108  
1.41547298431  0.878789722919  -2.10281825066  -1.9032971859  0.0762520581484  0.100652717054  -0.100652717054  
1.42373299599  0.560452640057  -1.86070275307  -2.18352341652  0.0686268508434  0.358384668827  0.0930275097489  
1.4317510128  0.571661710739  -1.79569029808  -2.21042513847  0.0793021395802  0.222656011581  0.118953213096  
1.43986320496  0.650125086308  -1.95037519932  -2.05349850655  -0.0594766065478  0.111328005791  -0.15860427916  
1.4479341507  0.724104821682  -1.69256699085  -2.12971997261  0.0671018138528  0.233331307769  0.340084195137  
1.45599412918  0.766699194908  -1.98176050186  -2.11851096153  -0.0167754534632  0.286707729101  -0.332458972931  
1.46412014961  0.578387141228  -1.86967003345  -2.24181056023  -0.0884523913264  0.134203627706  0.125053375959  
1.47222614288  0.334029763937  -1.81362473965  -2.34045028687  0.0884523913264  0.0320258662105  0.257731974125  
1.4802441597  0.506649196148  -1.87191176414  -2.27767944336  -0.048801317811  0.247056677938  0.140303790569  
1.48832821846  0.715137541294  -1.90778076649  -2.28888845444  0.0152504118159  0.250106751919  0.131153538823  
1.49641299248  0.793600916862  -1.901055336  -2.34493374825  0.0716769322753  0.125053375959  0.102177761495  
1.50451421738  0.955011308193  -1.89208805561  -2.32475757599  -0.0701518952847  0.0854023098946  0.260782033205  
1.5127081871  1.25541388988  -1.95261704922  -2.47495889664  0.115903131664  0.248581707478  0.0213505774736  
1.52073311806  1.11642169952  -1.95485877991  -2.42339730263  -0.0274507403374  0.288232773542  0.0823522210121  
1.5287861824  1.2464466095  -1.96606791019  -1.97055149078  0.111328005791  0.143353864551  -0.0274507403374  
1.53688621521  1.35405361652  -1.97279334068  -2.06470751762  -0.0259256996214  0.0594766065478  -0.0915024727583  
1.54496908188  1.21281945705  -2.00866222382  -2.03332209587  0.134203627706  0.323308736086  -0.0122003294528  
1.55307602882  1.06261825562  -1.94140791893  -2.24405241013  -0.0396510697901  0.234856337309  0.0259256996214  
1.56118798256  0.68375223875  -1.85397732258  -1.87639546394  0.0945525541902  0.167754530907  0.0503263585269  
1.5693321228  0.694961249828  -1.80689930916  -1.85621917248  -0.111328005791  0.298908084631  0.056426525116  
1.57743310928  0.363173305988  -1.68584156036  -1.80689930916  0.100652717054  -0.00610016472638  0.0625266879797  
1.58567619324  0.551485419273  -1.6611815691  -2.00642037392  0.0289757829159  0.333984017372  0.0671018138528  
1.59362101555  0.0358689688146  -1.56030011177  -1.71722686291  0.0930275097489  0.128103464842  0.0640517324209  
1.60172200203  1.27110660076  -1.68135786057  -2.05798196793  0.0305008236319  0.326358824968  -0.157079234719  
1.60976910591  0.981913030148  -1.72843599319  -2.10506010056  0.0213505774736  0.111328005791  0.0335509069264  
1.61782717705  1.33163547516  -1.83604288101  -2.42788076401  0.0320258662105  0.298908084631  -0.114378087223  
1.62588214874  1.36077904701  -1.88536262512  -2.09609293938  -0.0381260290742  0.115903131664  -0.199780389667  
1.63399910927  1.3069756031  -1.88536262512  -2.02211308479  0.0793021395802  0.364484846592  -0.0472762770951  
1.64206314087  0.647883236408  -1.87415361404  -2.03556394577  -0.0701518952847  0.161654368043  -0.225706100464  
1.65016698837  1.01778197289  -1.99521136284  -2.51306962967  -0.0274507403374  0.272982358932  -0.0381260290742  
1.65826416016  0.372140556574  -1.7822394371  -1.89208805561  0.0457512363791  0.26688221097  -0.350759476423  
1.66639018059  2.259745121  -2.05798196793  -2.91435360909  0.143353864551  0.260782033205  -0.105227842927  
1.67446804047  1.51546394825  -2.01314592361  -2.3718354702  -0.114378087223  0.150979071856  -0.106752879918  
1.68271803856  1.32715189457  -2.13868737221  -2.42115545273  -0.0106752887368  0.301958143711  -0.118953213096  
1.69062304497  0.394558668137  -2.01314592361  -1.90553891659  0.0411761105061  0.192155182362  -0.106752879918  
1.69878220558  0.159168556333  -1.88536262512  -2.00193691254  0.0396510697901  0.0655767694116  -0.178429812193  
1.70681118965  0.091914229095  -1.8427683115  -2.35390114784  0.0838772654533  0.230281218886  -0.256206929684  
1.71490120888  0.228664681315  -1.75982129574  -2.17679810524  0.144878908992  0.276032447815  -0.234856337309  
1.72300601006  0.840678930283  -1.71050143242  -1.97503507137  0.179954856634  0.105227842927  -0.00152504118159  
1.73105216026  1.37198805809  -1.70153415203  -1.86070275307  0.279082536697  0.271457344294  -0.190630152822  
1.73913216591  0.784633696079  -1.80241572857  -2.21042513847  0.167754530907  0.401085823774  -0.0549014806747  
1.74722218513  0.762215614319  -1.87863719463  -2.45029902458  -0.00762520590797  0.0701518952847  -0.199780389667  
1.75531411171  0.746522903442  -1.97055149078  -2.57359862328  -0.0411761105061  0.259256988764  -0.0152504118159  
1.76341509819  0.242115542293  -1.77327215672  -1.75982129574  0.0137253701687  0.240956500173  -0.292807906866  
1.77151918411  -0.0493198335171  -1.56702554226  -1.17919230461  0.309583365917  0.23638138175  -0.160129323602  
1.77969312668  2.17455625534  -1.89657175541  -3.40531015396  0.181479901075  0.0183004941791  -0.26688221097  
1.78770017624  1.58047640324  -1.81362473965  -3.03989505768  -0.169279575348  0.128103464842  -0.15860427916  
1.79581904411  1.46390223503  -2.18576526642  -2.23956871033  -0.0915024727583  0.23638138175  -0.149454042315  
1.80386519432  1.02674925327  -2.09160923958  -1.11417984962  -0.0305008236319  0.301958143711  -0.309583365917  
1.81192398071  0.495440125465  -1.86967003345  -1.70601785183  -0.0655767694116  0.186055019498  -0.120478250086  
1.82005906105  -0.600805222988  -1.72843599319  -2.64982008934  -0.0167754534632  0.137253701687  -0.0930275097489  
1.82815504074  -0.441636681557  -1.64997255802  -2.21939253807  0.0503263585269  0.362959802151  -0.245531633496  
1.83623814583  0.663575947285  -0.466296583414  -1.83604288101  0.0930275097489  0.207405596972  -0.176904782653  
1.84438514709  1.34060275555  -1.08727812767  -1.44148421288  0.183004945517  0.350759476423  -0.143353864551  
1.85242819786  1.24196302891  -0.784633696079  -1.67911612988  0.111328005791  0.0869273468852  -0.216555848718  
1.86067318916  0.629948735237  -1.41682422161  -2.44581532478  0.048801317811  0.0991276800632  -0.18910510838  
1.868694067  0.0448362119496  -1.70601785183  -2.45926618576  0.0991276800632  0.320258647203  -0.17385469377  
1.87668204308  0.63667422533  -1.53564023972  -2.32699942589  0.118953213096  0.131153538823  -0.306533277035  
1.88475108147  0.629948735237  -1.10072898865  -2.06246566772  0.208930641413  0.28213262558  -0.202830478549  
1.89282512665  0.894482433796  -0.809293627739  -2.36286830902  0.115903131664  0.259256988764  -0.134203627706  
1.90090298653  0.838437139988  -0.564936280251  -1.8405264616  0.0838772654533  0.184529989958  -0.271457344294  
1.90899014473  0.571661710739  -0.488714694977  -1.97279334068  0.138778746128  0.367534935474  -0.167754530907  
1.91712713242  0.42818582058  -0.885515153408  -2.15437984467  0.140303790569  0.112853050232  -0.103702798486  
1.9252140522  0.547001779079  -0.92586773634  -2.2575032711  0.0167754534632  0.350759476423  -0.239431470633  
1.93333816528  0.605288863182  -1.21954488754  -2.24853587151  -0.00457512354478  0.224181056023  -0.276032447815  
1.94149804115  0.638916015625  -1.01554012299  -2.56238937378  0.132678583264  0.172329649329  -0.048801317811  
1.94955205917  0.674784958363  -0.963978528976  -2.47047519684  0.0716769322753  0.349234431982  -0.163179412484  
1.95773720741  0.795842766762  -0.907933294773  -2.19024896622  0.0305008236319  0.163179412484  -0.272982358932  
1.96580719948  0.526825487614  -0.916900515556  -1.85621917248  0.172329649329  0.0228756181896  -0.0396510697901  
1.97385501862  0.365415126085  -1.03347468376  -2.3830447197  -0.0305008236319  0.250106751919  -0.117428168654  
1.98195719719  0.591838002205  -1.04020011425  -2.50186061859  0.0930275097489  0.201305434108  -0.190630152822  
1.98998904228  0.73531383276  -1.17695057392  -2.18352341652  -0.0427011549473  0.0549014806747  -0.192155182362  
1.99816918373  0.708412110806  -0.883273363113  -1.88536262512  0.155554205179  0.222656011581  -0.242481544614  
2.00620102882  0.452845722437  -0.587354362011  -1.95934247971  0.0  0.225706100464  -0.240956500173  
2.01432013512  0.295919001102  -0.414734959602  -2.06022381783  0.213505759835  0.0610016472638  -0.240956500173  
2.02241420746  0.293677181005  -0.168135792017  -1.85397732258  0.048801317811  0.186055019498  -0.102177761495  
2.03049015999  0.390075027943  -0.242115542293  -1.86967003345  0.0793021395802  0.294332951307  -0.216555848718  
2.03864407539  0.340755194426  -0.237631917  -1.91002261639  0.134203627706  0.18910510838  -0.277557492256  
2.04660105705  0.235390111804  -0.266775459051  -2.0804002285  0.00915024708956  0.0960775911808  -0.23638138175  
2.05464100838  0.396800458431  0.13675044477  -1.79793202877  0.141828835011  0.239431470633  -0.207405596972  
2.0627310276  0.538034558296  -0.347480624914  -2.01538777351  0.0594766065478  0.31568351388  -0.407186001539  
2.07083201408  0.605288863182  -0.587354362011  -2.13196182251  0.0228756181896  0.324833780527  -0.183004945517  
2.07891821861  0.43939486146  -0.61649787426  -2.08712553978  0.132678583264  0.208930641413  -0.289757817984  
2.08695721626  0.365415126085  -1.08503627777  -2.0736746788  0.132678583264  0.0594766065478  -0.234856337309  
2.09507608414  0.475263834  -0.768941044807  -2.11851096153  0.0320258662105  0.134203627706  -0.140303790569  
2.10315108299  0.354206055403  -0.824986279011  -2.08712553978  -0.0625266879797  0.289757817984  -0.295857995749  
2.11118817329  0.40352588892  -0.744281113148  -2.04677295685  0.0274507403374  0.33093392849  -0.337034106255  
2.11925005913  0.457329362631  -0.710653960705  -1.91898977757  0.0228756181896  0.256206929684  -0.20435552299  
2.12733912468  -0.0627706944942  -0.842920780182  -2.14541268349  0.0991276800632  0.123528338969  -0.0777771025896  
2.13565301895  -0.197279334068  -0.681510388851  -2.13196182251  0.0472762770951  0.143353864551  -0.0808271840215  
2.14364504814  -0.520100057125  -0.777908265591  -2.31354856491  0.0396510697901  0.187580063939  -0.0899774283171  
2.15162420273  -0.199521139264  -0.719621181488  -2.21490883827  0.0762520581484  0.268407255411  -0.199780389667  
2.15968203545  -0.360931485891  -1.06261825562  -1.89432990551  -0.0122003294528  0.31568351388  -0.181479901075  
2.16779303551  -0.0538034513593  -0.614256083965  -2.24405241013  -0.0259256996214  0.228756174445  -0.22113096714  
2.17587018013  -0.159168556333  -1.33836090565  -2.22387599945  -0.253156840801  0.120478250086  -0.22113096714  
2.18390512466  -0.311611652374  -0.943802237511  -2.29785585403  -0.317208558321  0.0457512363791  -0.105227842927  
2.19202899933  -0.215213805437  -1.49977123737  -2.29337215424  -0.30043309927  0.0442261956632  -0.254681885242  
2.20010900497  -0.174861222506  -0.928109586239  -2.23956871033  -0.157079234719  0.131153538823  0.048801317811  
2.20814108849  -0.132266819477  -0.939318597317  -2.18576526642  -0.359909713268  0.237906426191  -0.333984017372  
2.21625804901  -0.0807051807642  -0.551485419273  -2.14317083359  -0.308058321476  0.231806263328  -0.20435552299  
2.22433114052  -0.0515616424382  -0.609772443771  -2.0848839283  -0.18910510838  0.244006589055  0.0960775911808  
2.23241114616  -0.820502638817  0.0134508628398  -2.12971997261  -0.294332951307  0.100652717054  -0.362959802151  
2.24066615105  -0.524583697319  -0.0650125071406  -2.09833478928  -0.161654368043  0.0579515658319  0.163179412484  
2.24877119064  -0.818260848522  -0.632190585136  -2.20369982719  -0.279082536697  0.141828835011  -0.492588311434  
2.25671219826  -0.475263834  -0.5940797925  -1.88536262512  -0.268407255411  0.146403953433  0.237906426191  
2.26480507851  -0.493198335171  -0.912416875362  -2.27319598198  -0.271457344294  0.276032447815  -0.585615813732  
2.27288413048  -0.15468493104  -1.46614408493  -2.11402726173  -0.355334609747  0.298908084631  0.0594766065478  
2.28102707863  0.0313853472471  -1.41458249092  -2.16558909416  -0.396510720253  0.225706100464  -0.381260305643  
2.28912806511  -0.255566388369  -1.63203811646  -2.15662169456  -0.413286149502  0.109802961349  -0.102177761495  
2.29723310471  -0.587354362011  -1.81362473965  -2.36735200882  -0.33093392849  0.0350759476423  0.00915024708956  
2.30534100533  -0.804809987545  -1.57823467255  -2.3740773201  -0.26688221097  0.166229486465  -0.190630152822  
2.31345105171  -0.721862971783  -1.13435614109  -2.47944235802  -0.341609239578  0.285182714462  0.0350759476423  
2.32147598267  -0.737555682659  -1.09624540806  -2.15437984467  -0.353809565306  0.29738304019  -0.370584994555  
2.3296751976  -0.80705177784  -0.681510388851  -1.98176050186  -0.333984017372  0.227231130004  0.219605922699  
2.33767414093  -0.609772443771  -0.634432375431  -1.70601785183  -0.318733602762  0.167754530907  -0.120478250086  
2.34577703476  -0.739797472954  -0.889998793602  -1.85173547268  -0.384310364723  0.109802961349  0.112853050232  
2.35385203362  -0.733072042465  -0.959494888783  -2.13420367241  -0.417861282825  0.140303790569  -0.0610016472638  
2.36202001572  -0.672543168068  -1.35853719711  -2.27543759346  -0.477337896824  0.122003294528  0.0808271840215  
2.37006807327  -1.04468369484  -1.97727692127  -2.40770459175  -0.478862941265  0.157079234719  -0.128103464842  
2.37809300423  -0.910175085068  -1.93019890785  -2.33372473717  -0.462087482214  0.211980730295  0.0335509069264  
2.38621902466  -0.618739724159  -2.03332209587  -2.2530195713  -0.379735261202  0.20588055253  0.0457512363791  
2.39431118965  -0.531309127808  -1.77327215672  -2.34045028687  -0.382785350084  0.317208558321  -0.0884523913264  
2.40240621567  -0.21969743073  -2.62516021729  -1.82931745052  -0.532239377499  -0.00457512354478  -0.240956500173  
2.41049218178  -0.898966014385  -1.09400355816  -2.44805717468  -0.410236090422  0.208930641413  0.0518513992429  
2.41866517067  -0.842920780182  -1.7261941433  -2.63188552856  -0.385835409164  0.166229486465  -0.430061608553  
2.4266500473  -1.01778197289  -1.20833587646  -1.92571520805  -0.428536564112  0.324833780527  0.0137253701687  
2.43471813202  -1.04692554474  -0.997605681419  -2.06919121742  -0.292807906866  0.0213505774736  -0.0915024727583  
2.44282007217  -1.1859177351  -0.955011308193  -1.90553891659  -0.410236090422  0.256206929684  -0.28213262558  
2.4509100914  -1.25541388988  -0.905691444874  -2.06246566772  -0.387360453606  -0.161654368043  0.106752879918  
2.45900702477  -1.14332342148  -0.941560447216  -2.30682301521  -0.308058321476  -0.0320258662105  -0.303483188152  
2.46711921692  -1.00657296181  -1.52891480923  -1.91450619698  -0.443786978722  -0.0610016472638  0.244006589055  
2.47518801689  -0.92138415575  -1.81362473965  -1.95485877991  -0.466662615538  -0.15860427916  -0.305008232594  
2.48327612877  -1.09624540806  -1.65669798851  -2.28440499306  -0.30043309927  -0.198255360126  -0.0838772654533  
2.49134206772  -0.768941044807  -2.03556394577  -2.34493374825  -0.455987304449  -0.150979071856  -0.0244006589055  
2.49938702583  -1.1253888607  -2.0804002285  -2.06022381783  -0.430061608553  -0.0366009883583  -0.0472762770951  
2.50743603706  -0.896724224091  -2.12971997261  -2.19024896622  -0.428536564112  -0.0549014806747  0.0244006589055  
2.5156981945  -1.04916739464  -2.49737691879  -2.18800711632  -0.250106751919  -0.199780389667  0.0213505774736  
2.52362513542  -1.3069756031  -2.09160923958  -2.21042513847  -0.362959802151  -0.262307077646  -0.215030804276  
2.53169417381  -1.57150924206  -1.73291957378  -2.04004764557  -0.404135912657  -0.256206929684  -0.134203627706  
2.53978919983  -1.73516142368  -1.64773070812  -1.98400235176  -0.440736889839  -0.0503263585269  -0.369059979916  
2.54784202576  -1.80689930916  -1.70601785183  -2.00193691254  -0.314158469439  -0.268407255411  -0.0381260290742  
2.55592012405  -1.48183679581  -1.82483375072  -1.91226434708  -0.193680226803  -0.163179412484  -0.257731974125  
2.5640141964  -1.37422990799  -1.6656652689  -1.86518633366  -0.198255360126  -0.283657670021  -0.048801317811  
2.57212519646  -1.07158541679  -1.71946871281  -1.91002261639  -0.260782033205  -0.184529989958  -0.25163179636  
2.5802462101  -1.19488501549  -1.91226434708  -2.01538777351  -0.176904782653  -0.230281218886  0.0747270211577  
2.58828020096  -1.11193799973  -2.18128156662  -2.06022381783  -0.468187630177  -0.0823522210121  -0.271457344294  
2.59638619423  -1.16349971294  -2.29113030434  -1.94589149952  -0.195205271244  -0.22113096714  0.114378087223  
2.60453915596  -0.955011308193  -2.41442990303  -1.70601785183  -0.25163179636  -0.225706100464  -0.29738304019  
2.61262607574  -0.831711709499  -2.21939253807  -1.4280333519  -0.268407255411  -0.18910510838  -0.254681885242  
2.62071204185  -1.08279454708  -1.91898977757  -1.19264316559  -0.332458972931  -0.28213262558  0.112853050232  
2.62871408463  -1.91674804688  -1.83604288101  -1.17470872402  -0.18910510838  -0.245531633496  -0.333984017372  
2.6368060112  -1.3652626276  -1.88312089443  -1.75982129574  -0.387360453606  -0.150979071856  0.0579515658319  
2.64490818977  -1.07158541679  -1.95934247971  -1.37647163868  -0.201305434108  -0.179954856634  -0.233331307769  
2.6530380249  -0.533550918102  -2.14092898369  -2.32251572609  -0.108277924359  -0.25163179636  0.147928997874  
2.66109204292  -0.338513404131  -3.04886245728  -1.97279334068  -0.404135912657  -0.253156840801  -0.28213262558  
2.66918921471  -0.889998793602  -2.57808208466  -2.32699942589  -0.298908084631  -0.198255360126  0.155554205179  
2.67728614807  -1.29128289223  -3.07352232933  -2.28664684296  -0.373635083437  -0.147928997874  -0.178429812193  
2.68542718887  -0.914658725262  -3.29994511604  -2.07143306732  -0.481913000345  -0.193680226803  -0.112853050232  
2.69353413582  -0.768941044807  -2.99954247475  -2.2530195713  -0.230281218886  -0.181479901075  0.0777771025896  
2.70169615746  -0.768941044807  -3.23044896126  -2.16783070564  -0.420911371708  -0.164704442024  -0.118953213096  
2.70978713036  -1.08727812767  -2.88521027565  -2.10057640076  -0.0533764399588  -0.193680226803  0.0991276800632  
2.71781921387  -1.19936859608  -3.18112921715  -1.75085401535  -0.240956500173  -0.234856337309  -0.277557492256  
2.72592401505  -1.10521256924  -3.30667066574  -1.73964500427  -0.0503263585269  -0.274507403374  0.0228756181896  
2.73399019241  -0.690477669239  -3.73261451721  -1.9032971859  -0.0594766065478  -0.292807906866  0.00457512354478  
2.74209809303  -0.446120291948  -3.77969264984  -2.0804002285  -0.00610016472638  -0.28213262558  -0.280607581139  
2.75020003319  -0.542518138885  -3.81780338287  -1.36077904701  -0.00152504118159  -0.230281218886  0.187580063939  
2.75831913948  -0.605288863182  -3.60258960724  -1.40337336063  0.00915024708956  -0.17385469377  -0.340084195137  
2.76642298698  -0.150201305747  -3.87384867668  -1.21057772636  0.0396510697901  -0.152504116297  0.291282862425  
2.77477121353  -0.443878501654  -4.42309236526  -1.33836090565  -0.0122003294528  -0.20588055253  -0.176904782653  
2.78270721436  -0.138992249966  -4.12044763565  -1.39216434956  -0.115903131664  -0.311108410358  -0.149454042315  
2.79073810577  -0.742039263248  -3.8603978157  -1.26213932037  -0.163179412484  -0.224181056023  0.31568351388  
2.79879713058  -0.535792708397  -3.40082669258  -1.1253888607  -0.048801317811  -0.169279575348  -0.40871104598  
2.80690598488  -0.269017279148  -3.63845849037  -1.03571653366  0.0549014806747  -0.323308736086  0.298908084631  
2.81500720978  0.17261941731  -3.51515889168  -1.02002382278  -0.0274507403374  -0.247056677938  -0.218080893159  
2.8231241703  0.0717379376292  -3.43893742561  -1.12314713001  -0.129628494382  -0.0991276800632  -0.056426525116  
2.83123803139  -0.123299583793  -3.6765692234  -0.907933294773  0.0152504118159  -0.25163179636  0.195205271244  
2.83935809135  -0.663575947285  -3.47256445885  -0.903449654579  -0.128103464842  -0.141828835011  -0.253156840801  
2.84746313095  -0.851888000965  -2.8560667038  -0.943802237511  0.0366009883583  -0.247056677938  0.308058321476  
2.85549521446  -1.31370103359  -3.21475625038  -0.87430614233  0.0640517324209  -0.30043309927  0.245531633496  
2.8637201786  -0.96846216917  -2.91435360909  -0.717379391193  -0.0625266879797  -0.256206929684  0.268407255411  
2.87173199654  -0.793600916862  -2.60498380661  -0.645641446114  0.00610016472638  -0.283657670021  0.109802961349  
2.87979912758  -0.549243569374  -3.35150671005  -0.540276348591  0.0991276800632  -0.254681885242  -0.00305008236319  
2.88785099983  -0.504407346249  -2.74621796608  -0.587354362011  0.109802961349  -0.234856337309  0.112853050232  
2.8959581852  -0.881031572819  -3.71468019485  -0.697203099728  0.056426525116  -0.294332951307  0.254681885242  
2.90406799316  -0.629948735237  -3.56672048569  -0.865338861942  0.0777771025896  -0.097602635622  0.234856337309  
2.9121491909  -0.950527667999  -4.29979276657  -0.679268598557  0.0137253701687  -0.250106751919  0.224181056023  
2.92026805878  -0.533550918102  -4.03301715851  -0.872064292431  -0.0533764399588  -0.215030804276  0.0915024727583  
2.92833614349  -0.813777208328  -3.98818087578  -0.838437139988  -0.0442261956632  -0.0793021395802  0.129628494382  
2.93645501137  -0.620981514454  -3.49722456932  -0.977429389954  -0.0289757829159  -0.231806263328  0.120478250086  
2.9446849823  -0.896724224091  -3.64070034027  -0.721862971783  0.0411761105061  -0.118953213096  0.227231130004  
2.95267009735  -0.867580711842  -2.80002140999  -0.647883236408  0.0289757829159  -0.179954856634  0.272982358932  
2.96076202393  -0.670301377773  -2.73949241638  -0.623223304749  0.0579515658319  -0.208930641413  0.237906426191  
2.96878004074  -1.20833587646  -3.13853478432  -0.56941986084  0.106752879918  -0.056426525116  0.25163179636  
2.97687602043  -0.587354362011  -2.41218805313  -0.75549018383  0.17385469377  -0.260782033205  0.166229486465  
2.98496413231  -0.643399655819  -2.83589029312  -0.529067277908  0.211980730295  -0.118953213096  0.0793021395802  
2.99306702614  -0.614256083965  -2.54221320152  -0.64115780592  0.207405596972  -0.250106751919  0.0381260290742  
3.00118303299  -0.327304333448  -2.79105424881  -0.51785826683  0.0198255348951  -0.161654368043  0.0183004941791  
3.00927305222  -0.663575947285  -2.60946750641  -0.479747444391  0.0381260290742  -0.28213262558  -0.0457512363791  
3.01747012138  -0.694961249828  -2.63412737846  -0.809293627739  0.123528338969  -0.210455685854  -0.0854023098946  
3.02565217018  -1.02674925327  -3.09145665169  -0.737555682659  0.118953213096  -0.245531633496  -0.138778746128  
3.03367519379  -0.930351376534  -2.92556285858  -0.869822502136  -0.0457512363791  -0.15860427916  -0.100652717054  
3.04172110558  -1.27334845066  -3.06903862953  -0.654608666897  0.118953213096  -0.285182714462  -0.0274507403374  
3.04977321625  -1.0088146925  -2.97712445259  -0.643399655819  0.166229486465  -0.147928997874  -0.0701518952847  
3.05789709091  -1.0110565424  -2.61395120621  -0.777908265591  0.056426525116  -0.253156840801  -0.111328005791  
3.06596016884  -1.30249190331  -2.14317083359  -0.737555682659  0.172329649329  -0.125053375959  -0.137253701687  
3.07395911217  -1.10969626904  -1.95710062981  -0.412493139505  0.00305008236319  -0.237906426191  -0.131153538823  
3.08208107948  -1.19936859608  -2.13644552231  -0.48647287488  0.146403953433  -0.0732019767165  -0.0518513992429  
3.09014821053  -1.19488501549  -2.06694936752  -0.598563432693  -0.0549014806747  -0.230281218886  -0.0274507403374  
3.09824705124  -0.92586773634  -2.56238937378  -0.661334097385  0.109802961349  -0.23638138175  -0.0228756181896  
3.10633802414  -1.00208926201  -2.83813214302  -0.782391905785  -0.0472762770951  -0.269932299852  -0.0427011549473  
3.11445212364  -1.1904014349  -3.15422749519  -0.679268598557  0.140303790569  -0.265357166529  -0.0533764399588  
3.12252116203  -1.50649666786  -3.79090166092  -0.775666475296  -0.0427011549473  -0.0747270211577  -0.048801317811  
3.13066005707  -1.45493507385  -3.49498271942  -0.910175085068  0.100652717054  -0.239431470633  -0.0549014806747  
3.13872098923  -1.15004885197  -3.69226193428  -0.986396670341  0.0137253701687  -0.233331307769  -0.0640517324209  
3.14678001404  -0.712895750999  -3.53309345245  -0.912416875362  -0.0777771025896  -0.105227842927  -0.0503263585269  
3.15484499931  -0.423702180386  -3.47256445885  -0.692719459534  0.0625266879797  -0.210455685854  -0.0579515658319  
3.16298913956  -0.394558668137  -2.90090274811  -0.928109586239  -0.0808271840215  -0.283657670021  -0.0503263585269  
3.17107009888  -0.863097071648  -2.58256578445  -0.813777208328  0.125053375959  -0.20435552299  -0.0549014806747  
3.17922711372  -0.869822502136  -2.87175941467  -0.68375223875  0.0381260290742  -0.245531633496  -0.056426525116  
3.18735718727  -0.694961249828  -2.9121119976  -0.773424625397  0.00915024708956  -0.257731974125  -0.0579515658319  
3.19552516937  -0.42818582058  -2.97712445259  -0.816019058228  -0.0686268508434  -0.117428168654  -0.0533764399588  
3.20365810394  -0.349722445011  -3.46583914757  -1.14108157158  0.0305008236319  -0.147928997874  -0.056426525116  
3.21170020103  -0.412493139505  -3.16992020607  -1.02674925327  -0.122003294528  -0.256206929684  -0.0472762770951  
3.21973013878  -0.399042278528  -2.43460631371  -0.932593166828  -0.00305008236319  -0.172329649329  -0.0472762770951  
3.22785806656  -0.663575947285  -3.3290886879  -0.576145291328  0.0671018138528  -0.263832122087  0.0350759476423  
3.2358891964  -0.36765691638  -2.76863598824  -0.68375223875  0.0274507403374  -0.274507403374  0.0457512363791  
3.24395108223  -0.410251319408  -2.95470619202  -0.950527667999  -0.0549014806747  -0.22113096714  0.134203627706  
3.25204801559  -0.271259069443  -3.38289213181  -1.08055269718  -0.0884523913264  -0.311108410358  0.175379738212  
3.2601480484  -0.780150055885  -2.87175941467  -1.02226555347  -0.123528338969  -0.187580063939  0.154029160738  
3.26820707321  -0.901207864285  -2.70586538315  -0.981913030148  -0.0533764399588  -0.268407255411  0.247056677938  
3.27629208565  -1.04692554474  -2.48840975761  -0.937076807022  -0.0472762770951  -0.0945525541902  0.178429812193  
3.28443408012  -0.856371641159  -1.86070275307  -0.703928530216  0.0289757829159  -0.250106751919  0.0915024727583  
3.29248213768  -0.529067277908  -1.71946871281  -0.538034558296  0.048801317811  -0.0549014806747  0.149454042315  
3.30065107346  -0.197279334068  -1.79120659828  -0.721862971783  0.0457512363791  -0.201305434108  0.0686268508434  
3.30870318413  -0.316095292568  -2.5601477623  -0.773424625397  0.111328005791  -0.272982358932  0.0533764399588  
3.31680011749  -0.80256819725  -2.8538248539  -0.836195349693  0.109802961349  -0.195205271244  0.048801317811  
3.32485604286  -0.68823581934  -3.12508392334  -1.02450740337  0.100652717054  -0.260782033205  0.147928997874  
3.33295798302  -0.553727209568  -3.13180923462  -0.932593166828  -0.00610016472638  -0.190630152822  0.175379738212  
3.34110498428  -0.751006543636  -3.0242023468  -0.847404360771  -0.0823522210121  -0.279082536697  0.228756174445  
3.34917402267  -0.56941986084  -2.80674672127  -0.898966014385  0.0472762770951  -0.323308736086  0.129628494382  
3.35727000237  -0.578387141228  -2.20369982719  -0.576145291328  0.140303790569  -0.279082536697  0.0137253701687  
3.3653421402  -1.11866343021  -2.36959385872  -0.416976749897  0.0793021395802  -0.0732019767165  0.222656011581  
3.37346601486  -1.03795826435  -2.39425373077  -0.529067277908  0.0579515658319  -0.192155182362  0.262307077646  
3.38149809837  -0.863097071648  -1.90778076649  -0.838437139988  0.0991276800632  -0.233331307769  0.100652717054  
3.38971018791  -1.04916739464  -2.40097904205  -0.820502638817  0.20435552299  -0.233331307769  0.242481544614  
3.39771699905  -0.703928530216  -2.14989638329  -0.598563432693  0.167754530907  -0.0762520581484  0.320258647203  
3.40582299232  -0.549243569374  -1.71274328232  -0.692719459534  0.0823522210121  -0.15860427916  0.294332951307  
3.41394019127  -0.558210849762  -1.95037519932  -0.385591417551  0.0533764399588  -0.218080893159  0.157079234719  
3.42203903198  -0.948285877705  -1.59168553352  -0.538034558296  0.0167754534632  -0.225706100464  0.0793021395802  
3.43016219139  -1.04020011425  -2.14989638329  -0.919142305851  0.0930275097489  -0.0183004941791  0.131153538823  
3.43825721741  -0.614256083965  -1.99072778225  -0.986396670341  0.0152504118159  -0.183004945517  0.157079234719  
3.44643115997  -0.742039263248  -2.33372473717  -0.829469919205  0.0533764399588  -0.240956500173  0.160129323602  
3.45455002785  -0.652366876602  -2.56463122368  -0.73531383276  0.0869273468852  -0.0579515658319  0.233331307769  
3.46268606186  -0.490956515074  -2.56238937378  -0.867580711842  0.0381260290742  -0.265357166529  0.219605922699  
3.47075104713  -0.654608666897  -2.5579059124  -1.08055269718  0.0793021395802  -0.298908084631  0.225706100464  
3.4787940979  -0.547001779079  -2.46823334694  -0.92138415575  0.0655767694116  -0.122003294528  0.201305434108  
3.48688721657  -0.423702180386  -2.69241452217  -0.773424625397  0.097602635622  -0.250106751919  0.228756174445  
3.49496817589  -0.56941986084  -1.79120659828  -0.997605681419  0.0899774283171  -0.292807906866  0.157079234719  
3.50307798386  -0.605288863182  -2.11626911163  -0.818260848522  0.0732019767165  -0.26688221097  0.0930275097489  
3.51116919518  -0.80256819725  -1.4863203764  -0.692719459534  0.117428168654  -0.150979071856  0.207405596972  
3.51928806305  -0.838437139988  -1.66790699959  -0.784633696079  0.097602635622  -0.335509061813  0.114378087223  
3.52737402916  -0.856371641159  -1.28679931164  -0.782391905785  0.0366009883583  -0.362959802151  0.3126334548  
3.53544807434  -0.643399655819  -1.5423656702  -0.789117336273  0.0198255348951  -0.0899774283171  0.0244006589055  
3.54364609718  -0.692719459534  -1.53788208961  -0.679268598557  0.0930275097489  -0.129628494382  0.349234431982  
3.55165219307  -0.80256819725  -1.83155918121  -0.919142305851  0.0594766065478  -0.211980730295  0.0472762770951  
3.55969309807  -0.822744488716  -2.2552614212  -0.869822502136  0.00915024708956  -0.222656011581  0.0579515658319  
3.5677921772  -0.64115780592  -1.71050143242  -1.04244196415  0.0335509069264  -0.0427011549473  0.118953213096  
3.57587409019  -1.03347468376  -2.3808028698  -0.798084557056  -0.00762520590797  -0.211980730295  0.137253701687  
3.58398604393  -0.894482433796  -2.22163414955  -0.816019058228  0.0350759476423  -0.230281218886  0.234856337309  
3.59211921692  -0.827228069305  -1.86518633366  -0.751006543636  0.100652717054  -0.298908084631  0.231806263328  
3.60020399094  -0.665817737579  -2.10506010056  -0.677026808262  0.181479901075  -0.0335509069264  0.129628494382  
3.60829615593  -0.959494888783  -1.26438117027  -0.771182835102  0.126578420401  -0.0991276800632  0.0442261956632  
3.61644816399  -0.842920780182  -1.38768076897  -0.582870721817  0.0732019767165  -0.213505759835  0.120478250086  
3.62474799156  -1.19712686539  -1.34732818604  -0.674784958363  0.0411761105061  -0.218080893159  0.219605922699  
3.63276600838  -1.17695057392  -1.04916739464  -0.697203099728  -0.0274507403374  -0.100652717054  0.230281218886  
3.64083719254  -1.13435614109  -1.41458249092  -0.724104821682  0.0320258662105  -0.125053375959  0.216555848718  
3.64892911911  -1.27559018135  -1.88087904453  -0.701686680317  0.056426525116  -0.219605922699  0.0869273468852  
3.65701007843  -1.14556515217  -2.09385108948  -0.690477669239  0.120478250086  -0.20588055253  0.0442261956632  
3.66509604454  -0.986396670341  -2.08712553978  -0.869822502136  0.140303790569  -0.154029160738  0.108277924359  
3.67322301865  -1.17246687412  -2.63412737846  -0.885515153408  -0.0579515658319  -0.164704442024  -0.0350759476423  
3.68128204346  -0.914658725262  -2.47047519684  -0.96846216917  -0.0274507403374  -0.190630152822  0.170804619789  
3.68944001198  -0.858613431454  -2.23508501053  -0.963978528976  0.056426525116  -0.105227842927  -0.114378087223  
3.6976351738  -0.979671239853  -2.41442990303  -0.981913030148  0.135728672147  -0.208930641413  0.181479901075  
3.70568704605  -1.08727812767  -1.99745321274  -0.847404360771  0.0655767694116  -0.271457344294  0.0381260290742  
3.71372914314  -0.730830252171  -1.64100527763  -0.829469919205  0.20588055253  -0.0899774283171  0.172329649329  
3.72178316116  -0.943802237511  -1.75982129574  -0.957253098488  -0.0411761105061  -0.137253701687  -0.00457512354478  
3.72989416122  -1.19488501549  -1.53788208961  -0.679268598557  0.157079234719  -0.215030804276  0.0808271840215  
3.73795318604  -1.188159585  -1.87863719463  -0.771182835102  -0.00915024708956  -0.280607581139  0.0701518952847  
3.74601507187  -1.49752950668  -1.71722686291  -0.939318597317  0.0854023098946  -0.301958143711  0.279082536697  
3.75408220291  -1.10072898865  -1.61858725548  -0.737555682659  0.0274507403374  -0.128103464842  0.118953213096  
3.76213598251  -0.860855221748  -1.86518633366  -0.764457404613  -0.0671018138528  -0.125053375959  0.253156840801  
3.77020406723  -0.757731974125  -1.7777557373  -0.811535418034  0.097602635622  -0.187580063939  0.233331307769  
3.77834105492  -1.04244196415  -1.71946871281  -0.961736738682  -0.0899774283171  -0.222656011581  0.125053375959  
3.7864151001  -1.32042646408  -1.8427683115  -0.952769458294  0.144878908992  -0.303483188152  0.0396510697901  
3.79470014572  -1.34508633614  -1.55357468128  -0.845162570477  0.00610016472638  -0.259256988764  0.132678583264  
3.80270719528  -0.975187599659  -1.29352474213  -0.80705177784  0.0320258662105  -0.260782033205  0.276032447815  
3.81073403358  -0.995363891125  -1.78672301769  -0.995363891125  0.100652717054  -0.129628494382  0.250106751919  
3.81883311272  -0.782391905785  -1.41682422161  -1.12090528011  -0.0533764399588  -0.147928997874  0.106752879918  
3.82695603371  -0.858613431454  -1.17246687412  -0.804809987545  0.100652717054  -0.20435552299  0.192155182362  
3.83504199982  -0.717379391193  -1.38095533848  -0.697203099728  0.108277924359  -0.250106751919  0.256206929684  
3.84313201904  -0.416976749897  -1.56702554226  -0.892240583897  0.0396510697901  -0.305008232594  0.155554205179  
3.85128903389  -1.02002382278  -1.79120659828  -0.914658725262  -0.0427011549473  -0.179954856634  0.0671018138528  
3.85938620567  -0.894482433796  -1.55133295059  -0.916900515556  0.111328005791  -0.178429812193  0.265357166529  
3.86744618416  -0.68375223875  -1.28904104233  -0.847404360771  0.0945525541902  -0.28213262558  0.18910510838  
3.87560319901  -0.576145291328  -1.22851216793  -0.784633696079  0.0610016472638  -0.268407255411  0.132678583264  
3.88358998299  -0.858613431454  -1.47511136532  -0.724104821682  -0.0823522210121  -0.298908084631  0.320258647203  
3.89174103737  -0.907933294773  -1.53788208961  -1.02226555347  -0.00762520590797  -0.0716769322753  0.239431470633  
3.89975500107  -0.645641446114  -1.4840785265  -1.17919230461  -0.0213505774736  -0.143353864551  0.0305008236319  
3.90783500671  -0.851888000965  -1.28455746174  -0.928109586239  0.0869273468852  -0.215030804276  0.195205271244  
3.91591000557  -0.831711709499  -1.06485998631  -0.829469919205  0.0625266879797  -0.25163179636  0.256206929684  
3.92397117615  -0.780150055885  -1.02674925327  -0.932593166828  -0.102177761495  -0.33093392849  0.176904782653  
3.93208098412  0.0291435364634  -0.986396670341  -1.08279454708  -0.0686268508434  -0.224181056023  0.103702798486  
3.94018101692  -1.04468369484  -1.57823467255  -0.692719459534  0.0686268508434  -0.0808271840215  0.20435552299  
3.94825410843  -0.304886221886  -1.4840785265  -0.97294574976  -0.280607581139  -0.210455685854  0.29738304019  
3.95639109612  -0.576145291328  -1.14556515217  -1.00208926201  0.234856337309  -0.283657670021  0.274507403374  
3.96461415291  -2.15213823318  -0.813777208328  -0.860855221748  0.219605922699  -0.199780389667  0.0884523913264  
3.97253608704  -2.15213823318  -0.813777208328  -0.860855221748  0.219605922699  -0.199780389667  0.0884523913264  
3.98075413704  -0.576145291328  -0.188312083483  -0.620981514454  -0.0183004941791  -0.289757817984  0.303483188152  
3.98871421814  -0.80705177784  -0.289193570614  -0.533550918102  0.0899774283171  -0.260782033205  0.231806263328  
3.99679613113  -0.452845722437  -0.477505654097  -0.898966014385  -0.0335509069264  -0.291282862425  0.160129323602  
4.0048789978  -0.446120291948  -0.401284098625  -1.14780700207  -0.132678583264  -0.0549014806747  0.166229486465  
4.01296019554  -1.23523759842  -0.091914229095  -0.883273363113  0.0869273468852  -0.196730315685  0.218080893159  
4.0210211277  -1.44372594357  -0.067254319787  -0.659092307091  -0.259256988764  -0.292807906866  0.196730315685  
4.02910614014  -1.35853719711  0.425944000483  -0.912416875362  0.231806263328  -0.228756174445  0.111328005791  
4.03721499443  -1.03123283386  0.174861222506  -0.955011308193  -0.318733602762  -0.132678583264  0.233331307769  
4.04530906677  -0.5940797925  -0.242115542293  -0.87430614233  0.207405596972  -0.244006589055  0.190630152822  
4.05343413353  -0.643399655819  -0.618739724159  -0.809293627739  -0.271457344294  -0.23638138175  0.254681885242  
4.06166505814  -0.188312083483  -0.488714694977  -0.986396670341  0.0823522210121  -0.295857995749  0.343134254217  
4.06975317001  -0.800326347351  -0.587354362011  -1.47286951542  -0.333984017372  -0.147928997874  0.154029160738  
4.0777990818  -1.26662302017  -0.92138415575  -1.11866343021  -0.381260305643  -0.20588055253  0.446837067604  
4.08584499359  -0.963978528976  -0.860855221748  -1.82035017014  -0.350759476423  -0.3126334548  0.134203627706  
4.09393119812  -0.694961249828  -0.876547932625  -1.55357468128  -0.483438044786  -0.244006589055  0.31568351388  
4.10199403763  -0.726346611977  -0.425944000483  -1.99072778225  -0.382785350084  -0.240956500173  0.164704442024  
4.1100590229  -0.376624166965  0.091914229095  -1.85173547268  -0.306533277035  -0.343134254217  0.352284520864  
4.11821103096  -0.685994029045  0.48647287488  -1.80017387867  -0.17385469377  -0.122003294528  0.131153538823  
4.12625098228  -1.56030011177  0.520100057125  -1.73067772388  -0.277557492256  -0.288232773542  0.122003294528  
4.13438510895  -1.43700051308  0.405767709017  -1.94589149952  -0.329408884048  -0.102177761495  -0.0320258662105  
4.14244318008  -1.30249190331  0.40352588892  -1.99969506264  -0.323308736086  -0.30043309927  0.388885498047  
4.15051817894  -1.12314713001  0.0851887986064  -2.0848839283  -0.219605922699  -0.056426525116  -0.00915024708956  
4.15864109993  -0.466296583414  -0.690477669239  -2.00866222382  -0.362959802151  -0.239431470633  0.143353864551  
4.16679620743  -0.511132776737  -0.64115780592  -2.16110539436  -0.362959802151  -0.0762520581484  0.0686268508434  
4.1748239994  -0.907933294773  -0.739797472954  -2.0848839283  -0.323308736086  -0.233331307769  0.0152504118159  
4.18310713768  -0.513374626637  -0.818260848522  -2.22611784935  -0.393460631371  -0.0671018138528  0.0610016472638  
4.19106817245  -0.995363891125  -0.5940797925  -2.01538777351  -0.277557492256  -0.237906426191  0.106752879918  
4.19916820526  -1.28231561184  -0.0112090529874  -2.14765453339  -0.381260305643  -0.327883839607  -0.128103464842  
4.20725703239  -0.898966014385  -0.30936986208  -2.39425373077  -0.471237719059  -0.208930641413  -0.260782033205  
4.21534800529  -0.883273363113  0.17261941731  -2.43460631371  -0.321783691645  -0.268407255411  0.178429812193  
4.22345113754  -0.596321582794  -0.239873722196  -2.18128156662  -0.376685172319  -0.097602635622  -0.231806263328  
4.23155903816  -0.591838002205  -0.448362112045  -1.88984632492  -0.387360453606  -0.215030804276  0.257731974125  
4.23964309692  -0.811535418034  -0.325062543154  -2.12075281143  -0.272982358932  -0.196730315685  -0.140303790569  
4.24781608582  -0.742039263248  -0.589596152306  -2.41891360283  -0.269932299852  -0.103702798486  0.184529989958  
4.25583600998  -1.04468369484  -0.481989264488  -2.29113030434  -0.326358824968  -0.239431470633  -0.0259256996214  
4.26390719414  -0.733072042465  -0.75549018383  -2.02659678459  -0.431586652994  -0.169279575348  0.00457512354478  
4.27202510834  -0.632190585136  -0.614256083965  -2.42563891411  -0.558165073395  -0.216555848718  0.0457512363791  
4.28009605408  -0.412493139505  -0.632190585136  -2.24853587151  -0.433111697435  -0.317208558321  0.29738304019  
4.28819513321  -0.342997014523  -0.780150055885  -2.21715068817  -0.289757817984  -0.126578420401  -0.0945525541902  
4.29631400108  -0.150201305747  -0.459571152925  -2.39649558067  -0.446837067604  -0.265357166529  -0.0594766065478  
4.30436420441  -0.351964265108  -0.986396670341  -2.50634407997  -0.491063266993  -0.100652717054  0.20588055253  
4.31241798401  -0.724104821682  -0.351964265108  -2.33596658707  -0.292807906866  -0.277557492256  -0.0289757829159  
4.32050609589  -0.85412979126  -0.381107807159  -2.17903995514  -0.335509061813  -0.0655767694116  0.263832122087  
4.32860612869  -1.14108157158  0.152443110943  -2.26871228218  -0.398035734892  -0.256206929684  -0.123528338969  
4.33679413795  -0.84964621067  -0.0851887986064  -2.02883863449  -0.44226193428  -0.135728672147  0.250106751919  
4.34488511086  -0.623223304749  0.170377597213  -1.89657175541  -0.294332951307  -0.292807906866  -0.134203627706  
4.35296320915  -0.311611652374  0.43939486146  -1.95934247971  -0.379735261202  -0.347709387541  0.164704442024  
4.361079216  -0.668059527874  0.656850516796  -2.02435493469  -0.359909713268  -0.0625266879797  -0.117428168654  
4.36917901039  -0.629948735237  -0.20176294446  -1.71722686291  -0.222656011581  -0.337034106255  0.234856337309  
4.37725901604  -0.443878501654  0.600805222988  -2.14092898369  -0.215030804276  -0.301958143711  -0.175379738212  
4.38539099693  -0.390075027943  -0.210730195045  -2.32251572609  -0.40871104598  -0.138778746128  0.276032447815  
4.39348721504  -0.237631917  -1.04916739464  -2.29785585403  -0.446837067604  -0.30043309927  -0.157079234719  
4.4015610218  -0.188312083483  -0.697203099728  -2.26647043228  -0.454462260008  -0.337034106255  0.301958143711  
4.40963602066  -0.0627706944942  -0.168135792017  -2.61395120621  -0.396510720253  -0.294332951307  -0.257731974125  
4.41772913933  -0.540276348591  -0.307128041983  -2.5556640625  -0.366009891033  -0.152504116297  0.128103464842  
4.42584514618  -0.607530653477  0.235390111804  -1.95934247971  -0.30043309927  -0.0640517324209  0.169279575348  
4.43389201164  -0.596321582794  0.170377597213  -1.7777557373  -0.30043309927  -0.147928997874  -0.0335509069264  
4.44196915627  -0.174861222506  -0.0336271598935  -1.97279334068  -0.340084195137  -0.132678583264  0.198255360126  
4.45014715195  0.0515616424382  -0.121057771146  -2.26198673248  -0.492588311434  -0.152504116297  -0.146403953433  
4.45823311806  -0.0851887986064  -0.726346611977  -2.20145797729  -0.483438044786  -0.228756174445  0.0427011549473  
4.46628403664  0.141234070063  -0.663575947285  -2.0781583786  -0.425486475229  -0.247056677938  -0.0381260290742  
4.4743411541  0.313853472471  -1.10521256924  -2.21715068817  -0.410236090422  -0.234856337309  -0.154029160738  
4.48245716095  0.0762215554714  -1.1904014349  -2.24405241013  -0.495638370514  -0.211980730295  0.0213505774736  
4.49070906639  0.0694961249828  -1.30249190331  -2.39873719215  -0.542914688587  -0.309583365917  -0.102177761495  
4.49877405167  0.21969743073  -0.833953499794  -2.58929109573  -0.603916287422  -0.105227842927  -0.0411761105061  
4.50683903694  0.210730195045  -0.840678930283  -2.36959385872  -0.50326359272  -0.237906426191  0.0610016472638  
4.5148730278  0.224181056023  -0.896724224091  -1.8988134861  -0.420911371708  -0.178429812193  -0.253156840801  
4.5229780674  0.210730195045  -0.596321582794  -1.88312089443  -0.359909713268  -0.0686268508434  0.25163179636  
4.53106307983  0.18382845819  -0.479747444391  -2.28216314316  -0.308058321476  -0.234856337309  -0.210455685854  
4.53919219971  0.188312083483  -1.23972117901  -2.35838460922  -0.343134254217  0.0396510697901  0.344659298658  
4.54726004601  0.793600916862  -1.46838593483  -2.40097904205  -0.404135912657  0.0228756181896  -0.048801317811  
4.55537605286  0.51785826683  -1.37871348858  -2.259745121  -0.459037393332  -0.358384668827  0.253156840801  
4.56347513199  0.679268598557  -1.43924236298  -2.40322089195  -0.437686830759  0.23638138175  0.0991276800632  
4.57159805298  0.266775459051  -0.916900515556  -2.56687307358  -0.4727627635  -0.340084195137  0.198255360126  
4.57979917526  0.526825487614  -0.51785826683  -2.11851096153  -0.410236090422  -0.0167754534632  0.211980730295  
4.58788108826  0.401284098625  -0.773424625397  -1.95934247971  -0.335509061813  0.192155182362  0.160129323602  
4.59593820572  0.596321582794  -0.432669430971  -2.06919121742  -0.321783691645  -0.181479901075  0.0732019767165  
4.60399603844  0.56941986084  -0.39231684804  -2.23060154915  -0.387360453606  0.186055019498  0.103702798486  
4.61208200455  0.598563432693  -1.01554012299  -2.44133162498  -0.411761105061  -0.285182714462  0.0747270211577  
4.62017917633  0.580628931522  -0.883273363113  -2.30233955383  -0.494113355875  0.326358824968  -0.0655767694116  
4.62829899788  0.408009529114  -0.961736738682  -2.36511015892  -0.483438044786  -0.333984017372  0.00915024708956  
4.63639521599  0.329546153545  -1.43251693249  -2.259745121  -0.433111697435  0.263832122087  0.143353864551  
4.6444580555  0.204004764557  -0.930351376534  -2.17007255554  -0.350759476423  -0.0381260290742  -0.247056677938  
4.65251398087  1.03795826435  -1.02450740337  -2.17903995514  -0.292807906866  -0.166229486465  0.42701151967  
4.66068816185  1.07831084728  -0.800326347351  -2.5489385128  -0.439211845398  -0.29738304019  0.216555848718  
4.6687541008  0.614256083965  -0.694961249828  -2.1992161274  -0.40871104598  0.311108410358  -0.109802961349  
4.67676115036  0.555968999863  -1.04916739464  -2.03108024597  -0.393460631371  -0.0106752887368  0.326358824968  
4.68480110168  0.560452640057  -0.578387141228  -2.0804002285  -0.326358824968  0.175379738212  -0.115903131664  
4.6929371357  0.580628931522  -0.685994029045  -2.30233955383  -0.317208558321  0.135728672147  0.308058321476  
4.70095419884  0.703928530216  -1.15229058266  -1.99296963215  -0.272982358932  0.00305008236319  -0.0793021395802  
4.70901417732  0.863097071648  -0.889998793602  -2.12075281143  -0.324833780527  0.048801317811  0.0594766065478  
4.71709799767  0.894482433796  -1.34508633614  -2.29561400414  -0.362959802151  0.0320258662105  0.0533764399588  
4.72516703606  0.800326347351  -1.91898977757  -2.23508501053  -0.358384668827  0.135728672147  -0.225706100464  
4.73328304291  0.717379391193  -1.59841096401  -2.32251572609  -0.375160127878  0.230281218886  -0.00305008236319  
4.74139213562  0.87430614233  -2.10281825066  -2.0736746788  -0.376685172319  0.291282862425  0.0122003294528  
4.7495200634  0.952769458294  -1.44148421288  -2.43012261391  -0.402610868216  0.245531633496  0.0472762770951  
4.75762820244  0.966220319271  -1.82259202003  -2.30009770393  -0.407186001539  0.186055019498  -0.164704442024  
4.76576519012  0.892240583897  -1.07831084728  -2.19249081612  -0.379735261202  0.0899774283171  -0.0228756181896  
4.7737569809  0.997605681419  -1.28455746174  -1.92571520805  -0.317208558321  0.0167754534632  -0.231806263328  
4.78182506561  0.867580711842  -1.08503627777  -1.91002261639  -0.344659298658  0.0335509069264  -0.0213505774736  
4.78992319107  0.672543168068  -1.71498501301  -2.16558909416  -0.443786978722  0.118953213096  -0.131153538823  
4.79797816277  0.553727209568  -1.21506130695  -2.50410246849  -0.50326359272  0.199780389667  0.0823522210121  
4.80606007576  0.470780223608  -1.76878857613  -2.24629426003  -0.500213503838  0.242481544614  -0.0533764399588  
4.81416010857  0.650125086308  -1.4840785265  -2.0804002285  -0.475812852383  0.103702798486  -0.227231130004  
4.8222181797  0.87430614233  -1.70601785183  -2.26198673248  -0.352284520864  0.0411761105061  0.298908084631  
4.83031201363  0.804809987545  -1.99296963215  -2.23060154915  -0.398035734892  0.213505759835  -0.26688221097  
4.83843302727  0.838437139988  -1.33836090565  -2.23284339905  -0.462087482214  0.237906426191  0.244006589055  
4.84652519226  0.889998793602  -1.2464466095  -2.17679810524  -0.445312023163  0.0594766065478  -0.329408884048  
4.85474610329  0.851888000965  -1.16125786304  -2.10057640076  -0.265357166529  0.167754530907  0.103702798486  
4.86275100708  0.966220319271  -1.00657296181  -1.7799975872  -0.369059979916  0.295857995749  -0.201305434108  
4.87079405785  0.721862971783  -1.18143415451  -1.90778076649  -0.420911371708  0.129628494382  0.265357166529  
4.87887215614  0.712895750999  -1.42130792141  -2.26647043228  -0.33093392849  0.233331307769  -0.102177761495  
4.88692116737  0.549243569374  -1.10072898865  -2.0848839283  -0.489538222551  0.25163179636  -0.277557492256  
4.89498806  0.887757003307  -1.30025017262  -1.86518633366  -0.317208558321  0.0122003294528  0.295857995749  
4.90309119225  0.910175085068  -1.44820964336  -1.69929242134  -0.3461843431  0.283657670021  -0.353809565306  
4.91113901138  0.827228069305  -1.21730315685  -2.02435493469  -0.405660957098  0.108277924359  0.097602635622  
4.91919708252  0.975187599659  -1.65893983841  -2.16110539436  -0.320258647203  0.277557492256  -0.0838772654533  
4.92724704742  1.21506130695  -1.59168553352  -2.11178565025  -0.42396146059  0.0289757829159  -0.00762520590797  
4.93538618088  0.919142305851  -1.37198805809  -2.08936738968  -0.268407255411  0.167754530907  -0.128103464842  
4.94344711304  0.955011308193  -1.45269322395  -2.03108024597  -0.308058321476  0.132678583264  0.152504116297  
4.95155310631  0.948285877705  -1.16574144363  -2.28888845444  -0.355334609747  0.178429812193  -0.242481544614  
4.95959711075  0.710653960705  -1.21506130695  -2.0781583786  -0.42701151967  0.268407255411  -0.0411761105061  
4.96780514717  0.822744488716  -1.41009879112  -1.89208805561  -0.30043309927  0.126578420401  -0.332458972931  
4.97579503059  0.762215614319  -1.30921733379  -1.99745321274  -0.398035734892  0.224181056023  0.138778746128  
4.98388004303  0.68375223875  -1.00208926201  -2.04677295685  -0.396510720253  0.244006589055  -0.311108410358  
4.99194502831  0.928109586239  -1.53788208961  -1.91450619698  -0.254681885242  0.196730315685  0.228756174445  
5.00005102158  0.905691444874  -1.25989747047  -2.06022381783  -0.317208558321  0.359909713268  -0.152504116297  
5.00816106796  0.950527667999  -1.44148421288  -2.23956871033  -0.443786978722  0.0732019767165  -0.0762520581484  
5.01621699333  0.771182835102  -1.82035017014  -2.17903995514  -0.364484846592  0.228756174445  0.143353864551  
5.02428603172  0.412493139505  -1.21281945705  -2.19024896622  -0.352284520864  0.202830478549  -0.419386327267  
5.03239011765  0.910175085068  -1.43924236298  -2.11626911163  -0.301958143711  0.117428168654  0.224181056023  
5.04049110413  0.773424625397  -1.25541388988  -2.14541268349  -0.309583365917  0.341609239578  -0.0106752887368  
5.04860901833  1.37198805809  -1.41906607151  -2.15213823318  -0.295857995749  0.183004945517  -0.227231130004  
5.0567741394  1.08279454708  -1.80017387867  -2.00193691254  -0.309583365917  0.132678583264  0.244006589055  
5.0647881031  0.990880250931  -1.22851216793  -1.96606791019  -0.3126334548  0.265357166529  -0.370584994555  
5.07287311554  0.907933294773  -1.47959494591  -1.86742818356  -0.3126334548  0.318733602762  0.00762520590797  
5.08094215393  1.01778197289  -1.71498501301  -1.82483375072  -0.335509061813  0.0838772654533  0.20588055253  
5.08899712563  0.851888000965  -1.60961997509  -1.97727692127  -0.29738304019  0.111328005791  -0.0747270211577  
5.09710407257  0.762215614319  -2.3830447197  -2.2575032711  -0.366009891033  0.253156840801  0.224181056023  
5.10516905785  0.959494888783  -2.64309453964  -2.11626911163  -0.459037393332  0.303483188152  -0.420911371708  
5.11328005791  0.932593166828  -2.28440499306  -2.17231440544  -0.53376442194  0.160129323602  0.150979071856  
5.12135601044  1.03571653366  -2.33820843697  -2.23508501053  -0.425486475229  0.146403953433  0.0442261956632  
5.12946105003  0.706170320511  -2.57359862328  -2.30009770393  -0.492588311434  0.317208558321  -0.269932299852  
5.13758802414  0.941560447216  -2.79105424881  -2.11402726173  -0.555114984512  0.245531633496  0.225706100464  
5.14580512047  1.22178673744  -2.62740206718  -2.0736746788  -0.433111697435  0.147928997874  -0.433111697435  
5.15383815765  1.16574144363  -2.3740773201  -2.04004764557  -0.484963089228  0.341609239578  0.0793021395802  
5.16192007065  1.2509303093  -2.34717559814  -1.94364976883  -0.559690117836  0.131153538823  -0.0198255348951  
5.16999816895  0.937076807022  -2.26198673248  -1.84949374199  -0.317208558321  0.269932299852  -0.0472762770951  
5.17813801765  0.901207864285  -2.1947324276  -1.4840785265  -0.355334609747  0.192155182362  -0.00915024708956  
5.18617200851  0.538034558296  -2.45029902458  -1.33836090565  -0.414811193943  0.190630152822  0.0716769322753  
5.1942460537  0.632190585136  -2.60722565651  -0.865338861942  -0.471237719059  0.347709387541  0.0305008236319  
5.20232105255  0.728588402271  -2.71483254433  -1.16574144363  -0.333984017372  0.0991276800632  -0.102177761495  
5.21046614647  1.1276307106  -3.12956762314  -1.10297083855  -0.280607581139  0.385835409164  -0.106752879918  
5.21853208542  0.737555682659  -3.35823225975  -0.981913030148  -0.231806263328  0.126578420401  -0.192155182362  
5.22664308548  0.952769458294  -3.45463013649  -0.955011308193  -0.213505759835  0.181479901075  0.239431470633  
5.23482918739  0.930351376534  -3.60034775734  -0.824986279011  -0.216555848718  0.248581707478  -0.494113355875  
5.24278903008  0.795842766762  -3.58017134666  -0.793600916862  -0.311108410358  0.0823522210121  0.17385469377  
5.25089621544  0.457329362631  -3.42100286484  -0.869822502136  -0.0915024727583  0.320258647203  -0.163179412484  
5.25895118713  0.677026808262  -3.39858484268  -0.836195349693  -0.292807906866  0.144878908992  -0.257731974125  
5.26705503464  0.907933294773  -3.48153185844  -0.701686680317  0.0625266879797  0.20435552299  0.230281218886  
5.27514004707  0.863097071648  -4.04870986938  -0.668059527874  -0.0472762770951  0.382785350084  -0.48801317811  
5.28324317932  1.20609402657  -4.28634166718  -0.647883236408  -0.00457512354478  0.114378087223  0.167754530907  
5.29140114784  0.800326347351  -3.6765692234  -1.12314713001  0.0228756181896  0.366009891033  -0.28213262558  
5.29948115349  0.981913030148  -3.54430246353  -1.09176170826  -0.164704442024  0.160129323602  -0.271457344294  
5.30755805969  0.327304333448  -3.43445372581  -0.75549018383  -0.157079234719  0.318733602762  0.0549014806747  
5.31576299667  0.246599167585  -2.98833346367  -0.654608666897  0.0640517324209  0.0457512363791  -0.118953213096  
5.32374715805  -0.0381107777357  -2.36286830902  -0.800326347351  -0.0930275097489  0.272982358932  0.18910510838  
5.33188605309  -0.334029763937  -1.98176050186  -1.0088146925  0.0244006589055  0.114378087223  -0.388885498047  
5.33994102478  0.461812973022  -2.0736746788  -0.61649787426  -0.0838772654533  0.306533277035  0.15860427916  
5.34801316261  0.266775459051  -1.82707560062  -0.529067277908  0.00610016472638  0.216555848718  -0.0960775911808  
5.3560860157  0.820502638817  -1.99521136284  -0.685994029045  0.106752879918  0.056426525116  -0.286707729101  
5.36415505409  0.889998793602  -2.01314592361  -1.02226555347  0.140303790569  0.344659298658  0.216555848718  
5.37226819992  1.11866343021  -2.30906486511  -0.827228069305  0.131153538823  0.324833780527  -0.393460631371  
5.38036203384  0.856371641159  -2.62516021729  -0.842920780182  0.0823522210121  0.215030804276  -0.0335509069264  
5.38844609261  0.515616416931  -3.10042405128  -0.85412979126  -0.00762520590797  0.100652717054  -0.0411761105061  
5.39652299881  0.923625946045  -3.39410114288  -1.15229058266  -0.0732019767165  0.115903131664  -0.106752879918  
5.40463709831  0.937076807022  -4.02629184723  -0.892240583897  0.115903131664  0.216555848718  -0.359909713268  
5.41279315948  0.804809987545  -3.86712312698  -1.09400355816  0.109802961349  0.239431470633  0.163179412484  
5.42078113556  0.336271584034  -3.55551147461  -0.63667422533  0.00610016472638  0.277557492256  -0.355334609747  
5.42879915237  0.0717379376292  -3.25286722183  -0.876547932625  0.132678583264  0.259256988764  -0.175379738212  
5.43686914444  -0.0694961249828  -2.75518512726  -1.07831084728  0.149454042315  0.167754530907  0.143353864551  
5.44495105743  0.212972000241  -2.94573903084  -0.845162570477  -0.0762520581484  0.056426525116  -0.373635083437  
5.45301604271  0.186070278287  -3.3290886879  -0.838437139988  0.00457512354478  0.0442261956632  0.318733602762  
5.46115899086  0.68375223875  -3.63397479057  -0.605288863182  0.0915024727583  0.129628494382  0.0106752887368  
5.46919703484  0.952769458294  -3.27304339409  -0.912416875362  0.0671018138528  0.222656011581  0.097602635622  
5.4772901535  1.00433111191  -3.59586405754  -0.813777208328  -0.0625266879797  0.29738304019  -0.0579515658319  
5.48537611961  0.733072042465  -4.09578800201  -0.851888000965  0.0518513992429  0.285182714462  -0.122003294528  
5.49342608452  0.638916015625  -3.74830722809  -1.02226555347  0.0625266879797  0.268407255411  -0.0884523913264  
5.50156211853  0.327304333448  -3.95679569244  -0.946044027805  -0.0335509069264  0.230281218886  0.176904782653  
5.50974321365  0.638916015625  -4.07561159134  -0.963978528976  -0.0701518952847  0.132678583264  -0.25163179636  
5.51780200005  0.775666475296  -3.47929000854  -0.748764753342  0.0533764399588  0.0411761105061  0.234856337309  
5.52583813667  0.914658725262  -3.43893742561  -0.869822502136  0.115903131664  0.26688221097  -0.309583365917  
5.53393411636  0.748764753342  -2.80450510979  -0.865338861942  -0.0122003294528  0.0167754534632  0.111328005791  
5.54202604294  0.612014293671  -2.83589029312  -0.878789722919  -0.00305008236319  0.118953213096  -0.298908084631  
5.55017518997  0.587354362011  -2.50410246849  -0.578387141228  0.0350759476423  -0.0411761105061  0.0350759476423  
5.55822205544  0.551485419273  -2.98609161377  -0.448362112045  0.167754530907  0.224181056023  -0.367534935474  
5.56632709503  0.542518138885  -2.83589029312  -0.623223304749  0.114378087223  -0.0960775911808  -0.00457512354478  
5.57443714142  0.820502638817  -3.43669557571  -1.04468369484  0.0335509069264  0.262307077646  0.125053375959  
5.58253717422  0.907933294773  -3.14301848412  -0.896724224091  -0.00610016472638  -0.137253701687  0.00762520590797  
5.59076213837  0.928109586239  -3.16767835617  -0.652366876602  0.0320258662105  0.263832122087  0.23638138175  
5.59875416756  0.784633696079  -3.12284207344  -0.674784958363  0.0457512363791  -0.0777771025896  -0.160129323602  
5.60685300827  0.562694430351  -2.83140683174  -0.768941044807  0.0899774283171  0.0213505774736  0.097602635622  
5.61495018005  0.416976749897  -2.22835969925  -0.930351376534  0.125053375959  0.134203627706  -0.198255360126  
5.62306499481  0.596321582794  -2.69913983345  -0.61649787426  0.0640517324209  -0.0320258662105  0.262307077646  
5.63112401962  0.820502638817  -2.69241452217  -0.414734959602  0.0732019767165  0.245531633496  0.0533764399588  
5.63922715187  0.910175085068  -3.10939121246  -0.75997376442  -0.0381260290742  0.100652717054  -0.283657670021  
5.64738798141  0.710653960705  -3.06455492973  -1.14108157158  -0.00152504118159  0.33093392849  0.0472762770951  
5.65542912483  0.618739724159  -3.08921504021  -1.22627031803  0.0610016472638  0.268407255411  -0.414811193943  
5.6635081768  0.437153071165  -3.0354115963  -0.896724224091  0.0549014806747  0.239431470633  -0.131153538823  
5.67160916328  0.582870721817  -2.79329586029  -0.712895750999  0.103702798486  0.26688221097  -0.254681885242  
5.67986702919  0.560452640057  -2.36062645912  -0.80705177784  0.100652717054  0.138778746128  -0.294332951307  
5.68791508675  0.551485419273  -2.31130671501  -0.865338861942  0.141828835011  0.0366009883583  -0.143353864551  
5.69598698616  0.558210849762  -2.0826420784  -0.838437139988  0.111328005791  0.00915024708956  -0.0381260290742  
5.7040681839  0.977429389954  -2.735008955  -0.829469919205  0.0289757829159  0.0716769322753  -0.0716769322753  
5.71216821671  0.860855221748  -2.58704948425  -0.894482433796  0.0915024727583  0.097602635622  -0.106752879918  
5.72028517723  0.724104821682  -2.9121119976  -1.0693436861  0.111328005791  0.195205271244  -0.120478250086  
5.72841310501  0.531309127808  -2.94349718094  -1.13883972168  0.117428168654  0.225706100464  -0.233331307769  
5.73667311668  0.690477669239  -2.86727571487  -1.06037640572  0.0686268508434  0.141828835011  -0.131153538823  
5.74473619461  0.867580711842  -3.3851339817  -0.896724224091  0.0549014806747  0.0518513992429  -0.414811193943  
5.75286102295  0.721862971783  -2.88969373703  -0.831711709499  0.048801317811  0.114378087223  -0.224181056023  
5.76093816757  0.450603932142  -3.28649425507  -0.768941044807  0.0625266879797  0.263832122087  -0.370584994555  
5.76901817322  0.416976749897  -3.09594035149  -0.901207864285  -0.00610016472638  0.196730315685  -0.0991276800632  
5.77706813812  0.560452640057  -3.42548656464  -0.784633696079  0.0152504118159  0.0335509069264  -0.263832122087  
5.78515601158  0.535792708397  -3.16543650627  -0.934835016727  -0.0427011549473  0.213505759835  -0.222656011581  
5.79322099686  0.383349597454  -2.96143174171  -1.08503627777  -0.0396510697901  0.305008232594  -0.0671018138528  
5.80130600929  0.571661710739  -2.93453001976  -0.869822502136  -0.0503263585269  0.244006589055  -0.25163179636  
5.80941510201  0.685994029045  -3.17888736725  -0.876547932625  0.0442261956632  0.146403953433  -0.126578420401  
5.81757307053  0.878789722919  -2.93453001976  -0.730830252171  0.0183004941791  0.166229486465  -0.0106752887368  
5.8257791996  0.878789722919  -3.05334591866  -0.966220319271  -0.0274507403374  0.195205271244  -0.370584994555  
5.83384203911  0.916900515556  -3.21923995018  -1.09624540806  0.0167754534632  0.279082536697  0.262307077646  
5.84196400642  0.804809987545  -3.06679677963  -0.887757003307  0.0869273468852  0.305008232594  -0.254681885242  
5.85005021095  0.580628931522  -2.91659545898  -0.706170320511  0.118953213096  0.283657670021  -0.149454042315  
5.85814905167  0.515616416931  -2.66102910042  -0.784633696079  0.111328005791  0.169279575348  -0.0899774283171  
5.86623120308  0.434911251068  -2.47047519684  -0.840678930283  0.125053375959  0.0793021395802  -0.0899774283171  
5.87431907654  0.479747444391  -2.49289321899  -0.970703959465  0.15860427916  0.0472762770951  -0.224181056023  
5.88244199753  0.609772443771  -2.62067651749  -0.679268598557  0.100652717054  0.0442261956632  -0.247056677938  
5.89056921005  0.68375223875  -2.38528633118  -0.811535418034  0.134203627706  0.202830478549  -0.0884523913264  
5.89878606796  0.587354362011  -2.34717559814  -0.824986279011  0.0427011549473  0.242481544614  -0.160129323602  
5.9067530632  0.647883236408  -2.3740773201  -0.782391905785  0.103702798486  0.269932299852  0.0198255348951  
5.91485619545  0.578387141228  -2.35165929794  -0.737555682659  0.108277924359  0.263832122087  -0.184529989958  
5.92289304733  0.842920780182  -2.38752818108  -0.742039263248  0.178429812193  0.234856337309  -0.0472762770951  
5.9309990406  0.928109586239  -2.27767944336  -0.811535418034  0.190630152822  0.242481544614  -0.170804619789  
5.93905305862  0.923625946045  -2.75966882706  -0.92138415575  0.120478250086  0.097602635622  -0.277557492256  
5.94715309143  0.816019058228  -2.54221320152  -0.786875486374  0.0579515658319  0.105227842927  -0.318733602762  
5.95528101921  0.627706944942  -2.60722565651  -0.84964621067  0.120478250086  0.0899774283171  -0.224181056023  
5.96335911751  0.558210849762  -3.05782961845  -0.827228069305  0.0884523913264  0.20588055253  -0.0701518952847  
5.97145104408  0.988638460636  -2.74621796608  -0.92586773634  0.123528338969  0.233331307769  -0.0442261956632  
5.97958612442  0.816019058228  -2.71034884453  -0.791359126568  0.100652717054  0.289757817984  -0.201305434108  
5.98769903183  0.627706944942  -2.26422858238  -0.64115780592  0.0686268508434  0.311108410358  -0.172329649329  
5.99574804306  0.589596152306  -2.13644552231  -0.699444890022  0.0777771025896  0.215030804276  -0.0579515658319  
6.00385212898  0.654608666897  -2.29785585403  -0.824986279011  0.126578420401  0.157079234719  -0.196730315685  
6.01190900803  0.694961249828  -2.09160923958  -0.80256819725  0.144878908992  0.0686268508434  -0.0777771025896  
6.02000999451  0.856371641159  -2.53772950172  -0.858613431454  0.103702798486  -0.00762520590797  -0.056426525116  
6.0281021595  0.647883236408  -2.28888845444  -0.997605681419  0.184529989958  0.0838772654533  -0.0579515658319  
6.03619003296  0.533550918102  -2.45254063606  -0.742039263248  0.131153538823  0.106752879918  -0.138778746128  
6.04425501823  0.632190585136  -2.80002140999  -0.87430614233  0.0808271840215  0.132678583264  -0.239431470633  
6.05243206024  0.708412110806  -2.09833478928  -0.957253098488  0.0777771025896  0.242481544614  -0.283657670021  
6.0607521534  0.524583697319  -2.35614299774  -0.762215614319  0.0899774283171  0.271457344294  -0.250106751919  
6.0687391758  0.466296583414  -2.40994644165  -0.710653960705  0.0960775911808  0.195205271244  -0.276032447815  
6.07680010796  0.710653960705  -2.36959385872  -0.943802237511  0.0427011549473  0.18910510838  -0.15860427916  
6.08487010002  0.789117336273  -2.23956871033  -1.0110565424  -0.0350759476423  0.0335509069264  -0.163179412484  
6.09297013283  0.883273363113  -2.43460631371  -0.966220319271  0.0244006589055  0.0869273468852  -0.0915024727583  
6.10102820396  0.634432375431  -2.06470751762  -0.986396670341  0.00610016472638  0.122003294528  -0.157079234719  
6.10914921761  0.582870721817  -2.22163414955  -0.793600916862  0.0289757829159  0.20588055253  -0.225706100464  
6.11721420288  0.842920780182  -2.34717559814  -0.896724224091  0.0244006589055  0.286707729101  -0.253156840801  
6.12530016899  0.744281113148  -1.88536262512  -0.970703959465  -0.0259256996214  0.29738304019  -0.303483188152  
6.1334002018  0.708412110806  -2.57135677338  -0.786875486374  0.0152504118159  0.265357166529  -0.187580063939  
6.14150905609  0.898966014385  -2.40097904205  -0.898966014385  0.0671018138528  0.157079234719  -0.132678583264  
6.14954400063  1.24420487881  -2.69913983345  -0.946044027805  0.0396510697901  0.0122003294528  -0.154029160738  
6.15777206421  0.955011308193  -2.54221320152  -0.986396670341  0.167754530907  0.129628494382  -0.253156840801  
6.16576814651  0.753248333931  -2.53548765182  -0.836195349693  0.143353864551  0.303483188152  -0.317208558321  
6.17381906509  0.827228069305  -2.40770459175  -0.816019058228  0.0640517324209  0.305008232594  -0.0884523913264  
6.18190002441  0.571661710739  -1.67911612988  -0.728588402271  -0.00457512354478  0.254681885242  -0.239431470633  
6.19001913071  0.656850516796  -1.82707560062  -0.591838002205  -0.0549014806747  0.172329649329  -0.193680226803  
6.19807910919  0.701686680317  -1.92571520805  -0.591838002205  -0.0259256996214  0.141828835011  -0.129628494382  
6.20617008209  0.679268598557  -1.62755441666  -0.733072042465  -0.0167754534632  0.294332951307  -0.247056677938  
6.21419620514  0.369898736477  -2.04677295685  -1.15004885197  -0.00152504118159  0.317208558321  -0.0823522210121  
6.22229814529  0.473022013903  -2.13644552231  -0.92586773634  -0.0167754534632  0.269932299852  -0.0732019767165  
6.23043107986  0.560452640057  -2.11402726173  -0.719621181488  -0.00457512354478  0.0899774283171  -0.0655767694116  
6.23853898048  0.479747444391  -1.8988134861  -0.751006543636  -0.0320258662105  0.239431470633  -0.0350759476423  
6.24665498734  0.784633696079  -1.53788208961  -0.820502638817  0.0152504118159  0.323308736086  0.00915024708956  
6.25472903252  0.513374626637  -1.52218937874  -1.05140912533  0.0335509069264  0.231806263328  -0.0228756181896  
6.26275801659  0.558210849762  -1.1298725605  -0.75549018383  0.129628494382  0.125053375959  -0.0854023098946  
6.27080011368  0.694961249828  -1.31145918369  -0.603047013283  0.179954856634  0.242481544614  -0.111328005791  
6.27888011932  0.865338861942  -1.14108157158  -0.542518138885  0.132678583264  0.33093392849  -0.143353864551  
6.28695416451  0.710653960705  -1.61858725548  -0.829469919205  0.179954856634  0.259256988764  -0.239431470633  
6.29506802559  0.703928530216  -1.49080395699  -0.92138415575  0.161654368043  0.134203627706  -0.285182714462  
6.30313014984  0.820502638817  -1.24420487881  -0.85412979126  0.117428168654  0.00305008236319  -0.248581707478  
6.31119513512  0.775666475296  -1.30249190331  -0.981913030148  0.0869273468852  0.102177761495  -0.22113096714  
6.31933116913  0.589596152306  -1.10745441914  -0.789117336273  0.0945525541902  0.233331307769  -0.277557492256  
6.32740521431  0.531309127808  -1.07382726669  -0.979671239853  0.234856337309  0.199780389667  -0.289757817984  
6.33550000191  0.457329362631  -1.59392726421  -0.934835016727  0.0274507403374  0.097602635622  -0.320258647203  
6.34360408783  0.64115780592  -1.91002261639  -0.903449654579  0.106752879918  0.0533764399588  -0.247056677938  
6.3516960144  0.719621181488  -1.93244063854  -0.988638460636  0.0289757829159  0.245531633496  -0.234856337309  
6.35979199409  0.607530653477  -1.97951877117  -1.15901601315  0.0167754534632  0.234856337309  -0.22113096714  
6.36776900291  0.665817737579  -1.8988134861  -0.916900515556  0.00762520590797  0.0701518952847  -0.207405596972  
6.37589621544  0.928109586239  -2.04004764557  -0.99312210083  0.0503263585269  0.137253701687  -0.141828835011  
6.38399600983  0.818260848522  -2.0736746788  -0.912416875362  -0.0869273468852  0.263832122087  -0.131153538823  
6.39211821556  0.96846216917  -1.63203811646  -1.0132983923  0.0899774283171  0.143353864551  -0.167754530907  
6.40022206306  0.905691444874  -1.31594276428  -0.85412979126  -0.0152504118159  0.192155182362  -0.163179412484  
6.40833210945  0.499923765659  -1.13435614109  -0.883273363113  0.140303790569  0.321783691645  -0.224181056023  
6.41643714905  0.764457404613  -1.49304580688  -0.905691444874  0.0167754534632  0.164704442024  -0.218080893159  
6.42456698418  0.728588402271  -1.6611815691  -0.943802237511  0.0884523913264  0.190630152822  -0.178429812193  
6.4326171875  0.786875486374  -1.82707560062  -0.717379391193  0.0335509069264  0.303483188152  -0.207405596972  
6.44067406654  0.789117336273  -1.59616911411  -1.07158541679  -0.0579515658319  0.147928997874  -0.227231130004  
6.44877314568  0.643399655819  -1.61634540558  -1.04020011425  0.0716769322753  0.239431470633  -0.277557492256  
6.45688199997  0.674784958363  -1.56030011177  -1.21281945705  -0.0915024727583  0.301958143711  -0.308058321476  
6.46497607231  0.663575947285  -1.62979626656  -1.24420487881  0.00152504118159  0.125053375959  -0.294332951307  
6.47306418419  0.867580711842  -1.94813334942  -1.30921733379  0.0213505774736  0.0640517324209  -0.228756174445  
6.4811770916  0.990880250931  -1.99969506264  -1.47062766552  -0.0640517324209  0.288232773542  -0.167754530907  
6.4892179966  0.800326347351  -1.98848593235  -0.872064292431  0.125053375959  0.161654368043  -0.198255360126  
6.49733114243  1.03123283386  -1.62755441666  -1.58944368362  -0.00762520590797  0.0960775911808  -0.184529989958  
6.50533413887  0.656850516796  -1.7239522934  -0.48647287488  0.0167754534632  0.289757817984  -0.187580063939  
6.51349210739  0.932593166828  -1.38768076897  -1.32939362526  0.0808271840215  0.289757817984  -0.143353864551  
6.52160811424  0.719621181488  -1.57150924206  -0.587354362011  -0.0716769322753  0.140303790569  -0.0671018138528  
6.52967119217  0.822744488716  -1.75757944584  -0.979671239853  0.109802961349  0.0777771025896  -0.0808271840215  
6.53777217865  0.551485419273  -1.79344844818  -0.724104821682  -0.102177761495  0.254681885242  -0.0732019767165  
6.54585814476  0.822744488716  -1.71274328232  -1.08503627777  0.0701518952847  0.303483188152  -0.100652717054  
6.55394220352  0.625465154648  -1.64324712753  -0.984154820442  -0.100652717054  0.222656011581  -0.181479901075  
6.56207203865  0.629948735237  -1.38543891907  -0.827228069305  0.0625266879797  0.115903131664  -0.181479901075  
6.57012701035  0.587354362011  -1.26438117027  -0.798084557056  -0.0716769322753  0.286707729101  -0.108277924359  
6.57822203636  0.950527667999  -1.23075401783  -0.842920780182  0.103702798486  0.291282862425  -0.131153538823  
6.58625507355  0.795842766762  -1.22402858734  -0.84964621067  -0.0320258662105  0.218080893159  -0.195205271244  
6.59431099892  0.724104821682  -1.36077904701  -0.73531383276  0.154029160738  0.105227842927  -0.141828835011  
6.60243916512  0.798084557056  -1.31370103359  -0.800326347351  0.00152504118159  0.272982358932  -0.285182714462  
6.61048412323  0.791359126568  -1.50201308727  -0.804809987545  0.0625266879797  0.362959802151  -0.230281218886  
6.61867904663  0.847404360771  -1.43475878239  -0.923625946045  0.056426525116  0.186055019498  -0.256206929684  
6.62662220001  0.941560447216  -1.55581653118  -0.943802237511  -0.0396510697901  0.137253701687  -0.216555848718  
6.63475418091  0.860855221748  -1.81810832024  -0.811535418034  0.103702798486  0.280607581139  -0.260782033205  
6.64280509949  0.730830252171  -1.72843599319  -1.0110565424  0.117428168654  0.257731974125  -0.422436416149  
6.65089511871  0.92138415575  -1.77103030682  -1.08055269718  -0.0915024727583  0.0884523913264  -0.416336238384  
6.65895819664  0.703928530216  -1.68135786057  -1.14780700207  -0.0442261956632  0.0945525541902  -0.335509061813  
6.66704702377  0.869822502136  -1.37198805809  -1.02450740337  0.0472762770951  0.23638138175  -0.286707729101  
6.67510914803  0.840678930283  -1.3630207777  -1.13659799099  0.132678583264  0.0869273468852  -0.29738304019  
6.68321800232  0.896724224091  -1.11866343021  -1.31145918369  0.120478250086  0.176904782653  -0.29738304019  
6.69132304192  1.11193799973  -1.08951997757  -1.51546394825  0.0427011549473  0.196730315685  -0.356859624386  
6.69936513901  0.896724224091  -1.21954488754  -1.40337336063  -0.00152504118159  0.0213505774736  -0.30043309927  
6.70746207237  0.905691444874  -1.15677428246  -1.27783203125  0.00915024708956  0.318733602762  -0.352284520864  
6.71556019783  0.524583697319  -1.11193799973  -1.38768076897  -0.201305434108  0.190630152822  -0.364484846592  
6.7236700058  0.629948735237  -1.08951997757  -1.56254196167  0.0274507403374  0.30043309927  -0.437686830759  
6.73173499107  0.997605681419  -1.15901601315  -1.5401238203  -0.341609239578  0.269932299852  -0.367534935474  
6.73984718323  0.99312210083  -1.10072898865  -1.19936859608  0.0122003294528  0.0747270211577  -0.31568351388  
6.74791002274  1.16574144363  -1.08279454708  -1.24196302891  -0.329408884048  0.379735261202  -0.265357166529  
6.7559762001  0.932593166828  -1.10969626904  -1.39664793015  -0.102177761495  0.176904782653  -0.295857995749  
6.76407408714  1.05589282513  -1.10521256924  -1.38992249966  -0.308058321476  0.272982358932  -0.263832122087  
6.77219009399  0.847404360771  -1.15677428246  -1.3630207777  0.0198255348951  0.166229486465  -0.414811193943  
6.78030920029  0.744281113148  -1.1904014349  -1.34060275555  -0.451412200928  0.0945525541902  -0.321783691645  
6.78841209412  0.775666475296  -1.15901601315  -1.3069756031  0.0701518952847  0.166229486465  -0.335509061813  
6.79653120041  0.822744488716  -1.16574144363  -1.28455746174  -0.468187630177  0.134203627706  -0.358384668827  
6.80470013618  0.860855221748  -1.17246687412  -1.27783203125  -0.00457512354478  0.187580063939  -0.257731974125  
6.81276011467  0.842920780182  -1.05589282513  -1.16349971294  -0.446837067604  0.262307077646  -0.224181056023  
6.82084298134  0.858613431454  -1.02899098396  -1.24420487881  0.0137253701687  0.222656011581  -0.181479901075  
6.82895708084  1.11642169952  -1.26662302017  -1.21281945705  -0.445312023163  0.259256988764  -0.260782033205  
6.83702707291  1.03571653366  -1.34732818604  -1.21730315685  0.0472762770951  0.0686268508434  -0.268407255411  
6.84510803223  0.912416875362  -1.37647163868  -1.23523759842  -0.25163179636  0.30043309927  -0.242481544614  
6.85317420959  1.02002382278  -1.39888978004  -1.23523759842  -0.196730315685  0.117428168654  -0.254681885242  
6.8612651825  1.0088146925  -1.28231561184  -1.25317203999  -0.233331307769  0.341609239578  -0.196730315685  
6.86936998367  0.999847531319  -0.43939486146  -1.68808329105  -0.0305008236319  0.176904782653  -0.175379738212  
6.87753009796  0.771182835102  -0.907933294773  -1.56254196167  -0.26688221097  0.0915024727583  -0.144878908992  
6.88567304611  0.939318597317  -0.549243569374  -1.52218937874  0.0183004941791  0.239431470633  -0.176904782653  
6.89375114441  1.00208926201  -0.881031572819  -1.6028945446  -0.378210216761  0.0762520581484  -0.196730315685  
6.90181016922  0.717379391193  -1.05589282513  -1.66790699959  -0.131153538823  0.274507403374  -0.056426525116  
6.90996003151  0.643399655819  -0.564936280251  -2.35165929794  -0.247056677938  0.15860427916  -0.18910510838  
6.9180150032  0.589596152306  -0.939318597317  -1.5401238203  -0.231806263328  0.105227842927  -0.166229486465  
6.92609715462  0.948285877705  -0.679268598557  -1.87415361404  -0.298908084631  0.201305434108  -0.216555848718  
6.93418312073  0.990880250931  -0.412493139505  -1.62082898617  0.0808271840215  0.183004945517  -0.199780389667  
6.94225716591  0.963978528976  -0.775666475296  -1.92571520805  -0.00152504118159  0.253156840801  -0.219605922699  
6.95035505295  0.869822502136  -0.396800458431  -1.86294460297  0.00457512354478  0.0747270211577  -0.216555848718  
6.95858311653  0.910175085068  -0.378865987062  -1.93244063854  0.00457512354478  0.244006589055  -0.288232773542  
6.96657299995  0.468538403511  -0.390075027943  -1.84501004219  -0.114378087223  0.186055019498  -0.277557492256  
6.97463798523  0.61649787426  -0.067254319787  -1.99296963215  -0.126578420401  0.233331307769  -0.253156840801  
6.98269915581  0.791359126568  -0.107606902719  -2.10057640076  -0.0533764399588  0.0625266879797  -0.353809565306  
6.99083399773  1.19712686539  0.123299583793  -2.09833478928  0.0899774283171  0.22113096714  -0.263832122087  
6.99885821342  0.901207864285  -0.0560452640057  -2.04004764557  0.0747270211577  0.123528338969  -0.372110038996  
7.00703310966  0.946044027805  -0.192795708776  -2.11626911163  0.0274507403374  0.228756174445  -0.362959802151  
7.01506519318  0.647883236408  -0.410251319408  -2.22163414955  -0.0549014806747  0.125053375959  -0.42396146059  
7.02319312096  0.663575947285  -0.405767709017  -2.44133162498  -0.102177761495  0.192155182362  -0.402610868216  
7.03124499321  0.672543168068  -0.710653960705  -2.27543759346  0.0350759476423  0.358384668827  -0.481913000345  
7.03937602043  0.665817737579  -0.571661710739  -2.18576526642  0.0747270211577  0.17385469377  -0.445312023163  
7.04740405083  1.13211429119  -0.715137541294  -2.13868737221  0.0823522210121  0.372110038996  -0.381260305643  
7.05557203293  1.06485998631  -0.401284098625  -2.14092898369  0.0518513992429  0.128103464842  -0.416336238384  
7.06364703178  0.961736738682  -0.412493139505  -2.06246566772  0.0732019767165  0.294332951307  -0.390410542488  
7.07169318199  0.80705177784  -0.239873722196  -2.23284339905  -0.00152504118159  0.0732019767165  -0.359909713268  
7.07980012894  0.63667422533  -0.387833237648  -2.17007255554  -0.115903131664  0.123528338969  -0.294332951307  
7.08783102036  0.829469919205  -0.289193570614  -2.31579041481  -0.111328005791  0.355334609747  -0.20588055253  
7.09593105316  1.0132983923  -0.618739724159  -2.1992161274  -0.106752879918  0.0793021395802  -0.147928997874  
7.10402607918  1.13659799099  -0.533550918102  -2.17455625534  -0.0655767694116  0.329408884048  -0.181479901075  
7.11211800575  1.39664793015  -0.535792708397  -2.27767944336  -0.102177761495  0.308058321476  -0.125053375959  
7.12024307251  1.00208926201  -0.174861222506  -2.29337215424  -0.0320258662105  0.17385469377  -0.134203627706  
7.1283531189  0.562694430351  -0.174861222506  -2.24853587151  0.0610016472638  0.352284520864  -0.224181056023  
7.13640499115  0.578387141228  0.0582870729268  -2.20818328857  0.0442261956632  0.115903131664  -0.260782033205  
7.14464402199  0.56941986084  -0.123299583793  -2.24853587151  0.0823522210121  0.288232773542  -0.247056677938  
7.15274500847  0.768941044807  -0.304886221886  -2.18128156662  0.0137253701687  0.0442261956632  -0.285182714462  
7.16076421738  1.00208926201  0.0582870729268  -2.07143306732  -0.00610016472638  0.233331307769  -0.279082536697  
7.16886401176  1.14108157158  0.0246599167585  -2.17679810524  -0.00610016472638  0.247056677938  -0.333984017372  
7.1769361496  1.17022514343  -0.39231684804  -2.26422858238  0.0442261956632  0.132678583264  -0.364484846592  
7.18503713608  0.551485419273  -0.650125086308  -2.259745121  0.0259256996214  0.311108410358  -0.323308736086  
7.1931180954  0.481989264488  -0.443878501654  -2.33372473717  0.109802961349  0.190630152822  -0.305008232594  
