Ethan-CYM/ros_catkin_ws/test/伺服_gain2000_looktime003/ur_joint_target_velocity.txt
time  shoulder_pan_joint  shoulder_lift_joint  elbow_joint  wrist_1_joint  wrist_2_joint  wrist_3_joint
0.152283191681  -1.73115423987e-15  -3.52451907748e-13  -1.11319673665e-13  -0.00105188374717  -0.00510109286513  0.414494131337  
0.160187005997  -1.73115423987e-15  -3.52451907748e-13  -1.11319673665e-13  0.00503695843235  0.000348901944433  0.35424044372  
0.168259143829  -1.73115423987e-15  -3.52451907748e-13  -1.11319673665e-13  0.00815659679443  0.00358053030725  0.280699055638  
0.176393032074  -1.73115423987e-15  -3.52451907748e-13  -1.11319673665e-13  0.00916606619822  0.0051404551247  0.220301025366  
0.184517145157  -1.73115423987e-15  -3.52451907748e-13  -1.11319673665e-13  0.00880340950561  0.00553307550171  0.240929750009  
0.192704200745  -1.73115423987e-15  -3.52451907748e-13  -1.11319673665e-13  0.00765616111728  0.00518417289116  0.241243970861  
0.200847148895  -1.73115423987e-15  -3.52451907748e-13  -1.11319673665e-13  0.00615954099362  0.00442741197445  0.229312142789  
0.208833217621  -1.73115423987e-15  -3.52451907748e-13  -1.11319673665e-13  0.00461145797351  0.00350597369383  0.211296307893  
0.216890096664  -1.73115423987e-15  -3.52451907748e-13  -1.11319673665e-13  0.00319600943642  0.00258309088583  0.191534425428  
0.224860191345  -1.73115423987e-15  -3.52451907748e-13  -1.11319673665e-13  0.00200959452871  0.00175681029142  0.172812515298  
0.232906103134  -1.73115423987e-15  -3.52451907748e-13  -1.11319673665e-13  0.00108583690013  0.00107573015185  0.156691626435  
0.2410800457  -1.73115423987e-15  -3.52451907748e-13  -1.11319673665e-13  0.000417161310875  0.00055366078701  0.143833153663  
0.249176025391  -1.73115423987e-15  -3.52451907748e-13  -1.11319673665e-13  -2.79152785359e-05  0.000182090914716  0.120937453002  
0.257315158844  -1.73115423987e-15  -3.52451907748e-13  -1.11319673665e-13  -0.000291888898315  -5.99785805843e-05  0.107785675775  
0.265304088593  -1.73115423987e-15  -3.52451907748e-13  -1.11319673665e-13  -0.000419372163992  -0.000198818250006  0.0885211615844  
0.273365020752  -1.73115423987e-15  -3.52451907748e-13  -1.11319673665e-13  -0.000451535374803  -0.000261085521306  0.0676188298405  
0.281460046768  -1.73115423987e-15  -3.52451907748e-13  -1.11319673665e-13  -0.000423136276919  -0.000270854466493  0.0612911333156  
0.289792060852  -1.73115423987e-15  -3.52451907748e-13  -1.11319673665e-13  -0.000361415999166  -0.000248107326917  0.0643813867298  
0.297772169113  -1.73115423987e-15  -0.0199751084137  -0.0052976446467  -0.0169728776326  0.0248248208851  0.059441625701  
0.305865049362  -1.73115423987e-15  -0.06314856717  -0.00256414838907  -0.0418404059325  0.0789762827559  0.0635531678761  
0.313949108124  0.00671076439809  -0.109021929187  0.0100154665987  -0.0356534201621  0.144854180994  0.0726651542327  
0.322048187256  0.0100298582255  -0.138349169753  0.0165226940073  -0.0448591573426  0.202462222078  0.0838136675262  
0.330160140991  0.0109611045149  -0.147990152543  0.018686435627  -0.0623401608548  0.249024004213  0.0683025277561  
0.338457107544  0.0103619563109  -0.144803429487  0.0180167729407  -0.0829377935724  0.275698699358  0.0517800574301  
0.346571207047  0.00890827605693  -0.127602370387  0.0103929260567  -0.0865393990908  0.270934134932  0.0364025296317  
0.354745149612  0.00709564254044  -0.110469453801  0.0100493059621  -0.112939173574  0.264501205104  0.0366875011916  
0.362790107727  0.00525917501277  -0.0951900914646  0.00879069904736  -0.133549751731  0.257755211723  0.0329901945553  
0.370864152908  0.00360236876264  -0.0826344894515  0.00711370103198  -0.131813836819  0.234844179017  0.0272886446188  
0.378903150558  0.00222828963489  -0.066380571298  3.72419303818e-05  -0.116851503334  0.204648690018  0.0209872659516  
0.387004137039  0.00116888870845  -0.0629393465411  -0.00419760921431  -0.0955372251899  0.173275153302  0.0283434480926  
0.395074129105  0.000410093579943  -0.0608926551392  -0.00628778382161  -0.0893512578424  0.15285344979  0.0297681394302  
0.403158187866  -8.82831799706e-05  -0.0598967802968  -0.0121904354743  -0.0762128285775  0.132815761765  0.0274786514021  
0.41121506691  -0.000377846415179  -0.059634724293  -0.0144392618594  -0.0602843610398  0.106775697278  0.0365553697186  
0.419381141663  -0.000511598087058  -0.0598419870896  -0.0142536146103  -0.0610546534669  0.0882268815747  0.0247927401379  
0.427437067032  -0.000537780336368  -0.0603072651113  -0.0126306798465  -0.0550765360258  0.0761337706831  0.0284654066706  
0.435721158981  -0.000496685736591  -0.0608796964309  -0.0103171780083  -0.0456745285917  0.0608445992011  0.0143162608638  
0.443567991257  -0.000419583913807  -0.0614543780762  -0.0184727231163  -0.0352121169804  0.0535926902335  0.0043122581682  
0.451726198196  -0.00703979089991  -0.0752885192037  -0.0213961836444  -0.00852897863205  0.0435875233519  0.0112090907869  
0.45982003212  -0.010269830272  -0.0956184762172  -0.0261873576989  0.00838233215763  0.0329837993441  0.0141679170735  
0.467899084091  -0.011122324713  -0.117698557432  -0.0369177499099  0.0176391194653  0.0398307464839  0.00109419533516  
0.475948095322  -0.0104589205114  -0.151811970677  -0.0447443376003  0.038014322044  0.0480833267853  0.00648344303222  
0.484079122543  -0.00895646395043  -0.169570573472  -0.0553383777221  0.0462270482529  0.0563032661575  0.00903723044992  
0.49219417572  -0.00710948900346  -0.215585798686  -0.0664353744377  0.0796497014474  0.0803252413362  0.00961434098079  
0.500301122665  -0.00525096382527  -0.260391003661  -0.0766775600573  0.10798786408  0.0946037947826  -0.00440682685763  
0.508424043655  -0.00358179632876  -0.293074211984  -0.0800121934883  0.146965513683  0.0931795949452  -0.012356679057  
0.516508102417  -0.00220247659528  -0.315031040077  -0.0841688896633  0.188212325367  0.0991742291851  -0.00246747488058  
0.524919986725  -0.000386384068321  -0.328140071628  -0.0842402620935  0.283831187063  0.120068403485  0.00705337065553  
0.532855033875  0.000107977223674  -0.326733405781  -0.0813399069762  0.311643962733  0.114037813523  -0.00505055316314  
0.540875196457  0.000393052365165  -0.318033119292  -0.081623348896  0.345492502523  0.115065438288  0.00156925992107  
0.548918008804  -0.00618825038798  -0.305872769014  -0.0784694050745  0.362707442645  0.11188228123  -0.007971819536  
0.557039022446  -0.0094848951458  -0.28626535042  -0.0842295812087  0.368120636282  0.106505961589  -0.0128583612677  
0.565119028091  -0.0171694339045  -0.270917177725  -0.0840874851089  0.365881255625  0.100382165601  -0.00107904424906  
0.57324719429  -0.0199679556882  -0.253088167587  -0.0804248474529  0.375981820593  0.0944568452481  -0.0072461612186  
0.581351995468  -0.0195374110262  -0.235651089843  -0.0750345807919  0.375734529674  0.0892763463658  0.00316596089218  
0.589498996735  -0.0172157978728  -0.220292202304  -0.0638580740976  0.369296309833  0.0850896612415  0.00908244892648  
0.59775519371  -0.0207160189515  -0.201142352348  -0.055718001604  0.359828330036  0.0735962881934  -0.00168039961092  
0.605745077133  -0.0206305526026  -0.175078824957  -0.0555868797713  0.332853547944  0.0589307370061  -0.00796412141908  
0.613809108734  -0.0251111950842  -0.154277830624  -0.0549496804997  0.314910083103  0.0522549484373  0.00246037817907  
0.62184715271  -0.0318602752604  -0.138832981221  -0.0540705728601  0.304286062911  0.0510814498765  0.00845880997485  
0.629984140396  -0.0392554381718  -0.121572107323  -0.053148569196  0.299170592078  0.0366419956881  -0.0021890286585  
0.638033151627  -0.0462586001696  -0.111702816495  -0.0469694579868  0.281212354366  0.0407981523316  0.00500180330424  
0.646133184433  -0.0589977999822  -0.100651025197  -0.0436163156494  0.274130286348  0.0389899783795  0.00879252967231  
0.654182195663  -0.073833301692  -0.0967134363496  -0.0423084666179  0.257637225429  0.0337877260533  0.0101373025502  
0.662316083908  -0.0883607325831  -0.0908020871471  -0.0423715715512  0.237233965274  0.0270993988024  -0.00347870288044  
0.670548200607  -0.10116756453  -0.097646902187  -0.0379152185292  0.216640526946  0.0369159459382  0.00206825895666  
0.678762197495  -0.118300699858  -0.104766035699  -0.0418646913899  0.214794588313  0.0389124426185  0.00518294410035  
0.686811208725  -0.136222189634  -0.124611806816  -0.0397889667744  0.207708372717  0.0360001209323  -0.00684836075041  
0.694776058197  -0.152725284824  -0.143341118309  -0.044958919142  0.198219737923  0.0304514559041  4.85667534739e-06  
0.702912092209  -0.18005318832  -0.172736800093  -0.0486015448672  0.188292445343  0.0239077314133  0.00412085475829  
0.711067199707  -0.197573350997  -0.21209063033  -0.045612139072  0.195840259467  0.0174583515552  -0.00719776939877  
0.719139099121  -0.214065471915  -0.24660569456  -0.0496066751513  0.196386393605  0.0117466910746  0.000119756935117  
0.727234125137  -0.221493338453  -0.287886043167  -0.0413991022534  0.20936051475  0.0154255455639  0.00450207740292  
0.735357046127  -0.222695880578  -0.322212569466  -0.0320614848601  0.195046393372  0.0160067513312  0.00665476983899  
0.743462085724  -0.220037958484  -0.348740172999  -0.0283512307571  0.199241908863  0.00631992814213  -0.00610890299059  
0.751775026321  -0.20863479473  -0.374446771484  -0.0230846160919  0.214111178738  -0.000160991261891  0.000226994446816  
0.759769201279  -0.193189539489  -0.390291444586  -0.0174475899537  0.233808224017  -0.00403073360411  0.00400928743599  
0.76787519455  -0.176949821561  -0.398543512181  -0.022819498094  0.237633711613  -0.00592580215401  0.00585417574579  
0.776005983353  -0.155239579809  -0.408031554308  -0.0342284152596  0.24821827253  -0.00643647283093  0.00634231695153  
0.784056186676  -0.132538170401  -0.410601067525  -0.0480560352846  0.261746644261  -0.00606295717204  0.00596523398222  
0.792165994644  -0.111639902455  -0.40209049824  -0.0672025851481  0.258921988149  -0.0135434847297  0.00510908257512  
0.800248146057  -0.0940285909265  -0.401146227035  -0.0821876061571  0.263266881815  -0.00825854725787  0.00405604442692  
0.808372020721  -0.0735393285657  -0.391530162485  -0.103742951996  0.271463861101  0.00413207314116  0.00299614371464  
0.816473007202  -0.0601955158946  -0.391038211028  -0.110993495095  0.281105311419  0.00278579217516  0.00204406675366  
0.824666023254  -0.04583877981  -0.382759395791  -0.124865440399  0.30728138432  0.00168012157224  0.00125720576748  
0.832769155502  -0.0323875651753  -0.377337893231  -0.135925451884  0.340620319991  0.00918444344417  0.00065253112541  
0.840800046921  -0.0209000351793  -0.374205804664  -0.149447832371  0.374733950869  0.0127190093593  0.000220979058437  
0.848775148392  -0.011803402015  -0.366118126109  -0.163027622124  0.405706224958  0.00515061179492  -6.11701762109e-05  
0.856866121292  -0.00510136395239  -0.362568787486  -0.175201415963  0.448216310461  0.00840850635549  -0.000223920705436  
0.865000009537  -0.000543238369842  -0.362119286382  -0.201207658189  0.509850975085  0.00947834947908  -0.000297876706816  
0.873109102249  0.00224773962288  -0.363574740779  -0.216809317355  0.543077437601  0.00911891953503  -0.000310770019825  
0.881181001663  0.00368415783588  -0.372679867  -0.235145115194  0.572428099231  0.00794028461982  -0.000285681036813  
0.889222145081  0.00415651317945  -0.345461068158  -0.231955213584  0.562986357935  0.014739690989  -0.000240462987191  
0.897337198257  0.00400081260246  -0.365899346391  -0.253353008583  0.5980166442  0.0256096558444  0.0131612730352  
0.905510187149  0.00348489753824  -0.386159581677  -0.265998900368  0.605984581201  0.0377712545966  0.00646585701115  
0.913743019104  0.00280744155331  -0.397500936642  -0.27205950383  0.613543348901  0.0494246054366  0.00176109265608  
0.921850204468  0.00210465424697  -0.402290854184  -0.26821127799  0.58669024264  0.0511975483414  -0.00124644911252  
0.929864168167  0.00146089873392  -0.395989581864  -0.258830573404  0.558709095059  0.0635433998715  0.01043072513  
0.937924146652  0.000920534840961  -0.39701460285  -0.25774903518  0.533011629476  0.0642445868888  0.00298943821176  
0.946011066437  0.000499246594156  -0.402331589261  -0.251125251591  0.544780254057  0.0662248900907  0.0115537313279  
0.954117059708  0.000193864093316  -0.40966257188  -0.241872040428  0.527719196407  0.0687672261838  0.0154761994151  
0.962176084518  -9.75487981547e-06  -0.417425587905  -0.237335469405  0.511838658791  0.0797229753514  0.0161940981589  
0.970337152481  -0.000130839273163  -0.43128721309  -0.220144805938  0.515038024956  0.0778817162896  0.00156511164487  
0.978435993195  -0.00018963782657  -0.440686194671  -0.202501746703  0.512663658542  0.0685521469508  -0.00738000501522  
0.986483097076  0.00650587102176  -0.459730148259  -0.1811183319  0.523875831562  0.0640602995055  0.00138405917413  
0.994691133499  0.00983747619896  -0.469236382738  -0.15975996449  0.525373529739  0.0629497573071  0.00650038694356  
1.00276303291  0.010796544791  -0.472013726809  -0.135352931944  0.52087894088  0.0472946398102  -0.00446698334238  
1.01085400581  0.0169406487765  -0.470460732659  -0.111695771223  0.513262224629  0.0412517843521  -0.0105790846289  
1.01893210411  0.018839515821  -0.459816929868  -0.0963093589943  0.521270341384  0.0332750958764  -0.0131273524868  
1.02707719803  0.0179886078431  -0.438182669986  -0.0822006148597  0.5211185644  0.0249770208674  -0.0132691831019  
1.0351691246  0.0222892100321  -0.418898196705  -0.0703393691721  0.516084129083  0.0173625886416  0.0013963704467  
1.04334402084  0.0225176133184  -0.403062879921  -0.0610755831082  0.491963461723  0.0193071858551  -0.0032985629141  
1.05141615868  0.0269871788534  -0.377651301243  -0.0543634872244  0.475622281993  0.0184383805549  0.00757685935823  
1.05945205688  0.0335314877937  -0.369148972364  -0.04454938485  0.465683718788  0.0159700056269  -4.38349374051e-05  
1.0675740242  0.0406273437977  -0.365037352859  -0.0392375871978  0.4439448853  0.0128030273248  -0.00461600893405  
1.07576203346  0.0540168554068  -0.363989929067  -0.0318669856745  0.434103529545  0.00955155596081  -0.0068705283553  
1.08384919167  0.06976841685  -0.364889234219  -0.0293600372641  0.415758273836  0.00659281015359  -0.00749699420194  
1.091807127  0.0852745348863  -0.360204785382  -0.0353629264938  0.41093210494  0.012466949207  0.00626829118247  
1.09993600845  0.0989942511749  -0.352661575863  -0.0458379613467  0.414728356364  0.0230220427264  0.0138681255859  
1.10802507401  0.116904381872  -0.350859949245  -0.0525599862977  0.406608138078  0.0269248004989  0.00361204442642  
1.11613607407  0.115308662163  -0.319401401144  -0.0563560687281  0.35881142676  0.0264217570282  -0.00292673879676  
1.12422704697  0.129014974471  -0.320074154047  -0.0632661143528  0.359010327505  0.0400192838175  -0.00653908479022  
1.13229703903  0.14375459139  -0.333309045623  -0.0766452004438  0.388001677689  0.060643734733  0.00533433428882  
1.14039206505  0.157552376791  -0.359336073685  -0.0818453406228  0.38113263806  0.0749608791835  0.0118982166094  
1.14867305756  0.171936737915  -0.367730109527  -0.0860877371101  0.366113620275  0.0763951930884  0.00143942187861  
1.15674209595  0.188901113671  -0.383286797843  -0.092394610186  0.398477000428  0.0854768917767  0.00943406525115  
1.16483211517  0.19256244233  -0.37214222348  -0.0917242824583  0.375842373505  0.0902488977551  0.0132322631008  
1.17275905609  0.181136844702  -0.332823082644  -0.0869507629434  0.339263733516  0.0835833837014  0.0141126237006  
1.18084621429  0.208840313992  -0.353998557235  -0.106742977267  0.381639240219  0.0957914151799  -0.000199086392311  
1.18891406059  0.236976752488  -0.362643870416  -0.123278876824  0.400174923282  0.10135307619  0.00458158676247  
1.19702100754  0.242259237574  -0.342860625301  -0.125487573501  0.402420037173  0.102333234484  0.00697130175838  
1.20511102676  0.239978724941  -0.321426537434  -0.124172447383  0.394661346644  0.100462250266  -0.00568099791905  
1.21313118935  0.240117386265  -0.294613249201  -0.131533653411  0.381722581547  0.0970789753674  -0.0126753842774  
1.22127318382  0.241695510896  -0.26740407688  -0.138006592293  0.383730292276  0.101489352768  -0.0155313811618  
1.22939419746  0.257391713113  -0.249488950617  -0.159209484596  0.394500946065  0.118458431131  -0.0156038669281  
1.2374420166  0.259771454016  -0.225725786514  -0.176391476881  0.392699718052  0.132826308469  -0.000650165832138  
1.24563503265  0.247193127501  -0.194299246794  -0.178709624329  0.383537831915  0.144112678293  0.00839307563423  
1.25377011299  0.240390755186  -0.17491137087  -0.171851135243  0.370932327724  0.152357458002  0.0129300824738  
1.26183915138  0.237777322529  -0.171455279253  -0.181481858576  0.390972287736  0.166253772399  0.0142854369813  
1.26989102364  0.231241364812  -0.171262703857  -0.178726479737  0.378421207574  0.165386195329  0.0135895434682  
1.27801799774  0.216330810615  -0.159728773172  -0.168835952786  0.364312247176  0.155747869471  0.0117369681145  
1.28607821465  0.211389213924  -0.155920455871  -0.166335709651  0.350770349781  0.150210755926  0.00938636207138  
1.29415416718  0.219665403152  -0.150496249763  -0.17386401784  0.355688416462  0.147723652179  0.00698533104993  
1.30221605301  0.221576320715  -0.138013197992  -0.181302552317  0.371162950508  0.138983535428  0.00480763929757  
1.31032919884  0.212750737937  -0.122613480142  -0.177258673624  0.357957861474  0.135757184984  0.0163456063739  
1.3183991909  0.21183652854  -0.107089430903  -0.177389246463  0.345620984391  0.127837541929  0.0215453894763  
1.32651805878  0.215770052327  -0.0931319151661  -0.180016293929  0.33511277377  0.13462369215  0.00903661254074  
1.33464312553  0.222195433999  -0.0882457980142  -0.183853743183  0.32681416881  0.141177390526  0.000573919531647  
1.34277105331  0.222725899974  -0.0760020927942  -0.182707963134  0.320717154168  0.138550608531  0.00878977095131  
1.35084915161  0.219661753683  -0.0672902862271  -0.173364861876  0.299894727448  0.139036277051  -0.00055651533841  
1.35894799232  0.214767011685  -0.0549621531239  -0.17073639462  0.272432115205  0.14968461827  -0.00610943704999  
1.36709403992  0.195868352719  -0.0484233612671  -0.151132237365  0.227197975799  0.14027425028  -0.00879440676628  
1.37510299683  0.183983644069  -0.0393910262305  -0.139371884127  0.209451262663  0.136505535957  -0.00947583648712  
1.38313913345  0.197696176669  -0.0298139354225  -0.138886444766  0.210083067918  0.144871267451  -0.00888373253758  
1.39124298096  0.20519091034  -0.0209216086301  -0.134577872564  0.204980464508  0.15128844368  -0.00759039709505  
1.39938521385  0.21486603877  -0.013379095164  -0.128424766953  0.19696955125  0.147511929042  0.00733860813703  
1.40748906136  0.224830259702  -0.00744268143379  -0.12713626419  0.188060519293  0.146361644074  0.00217161250181  
1.41580700874  0.23391550397  -0.00309644280452  -0.128903853729  0.179553776332  0.138567096719  -0.00116302840211  
1.42384314537  0.241514086895  -0.000162885702806  -0.132317566767  0.172186717729  0.127606966102  -0.00304005297978  
1.43180704117  0.247418577795  0.00161363415842  -0.136356406434  0.166278097148  0.124249179394  -0.00384467556915  
1.43994116783  0.244972765174  0.0025086303511  -0.145664553807  0.161871271556  0.125810946059  -0.00392117708874  
1.44796299934  0.244484851365  0.00278043465663  -0.151832955747  0.158830524381  0.121813297204  -0.00355292925494  
1.45601820946  0.23851521713  0.00264979136424  -0.160783722243  0.156930186273  0.123244502332  0.0103948683771  
1.46417212486  0.229885264592  0.00229158926425  -0.175779822078  0.155914476423  0.119439603519  0.0176683629289  
1.47227406502  0.227282025831  0.00183474608609  -0.192820257838  0.172226237224  0.112890707179  0.0201644239198  
1.48031520844  0.221860629489  0.00136699433663  -0.209288589794  0.163835753803  0.105389381138  0.00618002472846  
1.4883620739  0.222029136305  0.00094210116648  -0.228992396073  0.174876830198  0.0981091012134  -0.00286594686608  
1.49662303925  0.23224624404  0.000587785462663  -0.253879169675  0.179735134296  0.100075112888  -0.00798832850333  
1.50475406647  0.247413938931  0.000313216934909  -0.279248517335  0.180364227352  0.0990379402701  -0.0102166589042  
1.51274299622  0.270657871313  0.000115472513168  -0.307547343913  0.195080196325  0.104649979081  -0.0104740240317  
1.52080917358  0.296293719512  -1.53144573291e-05  -0.323976560424  0.2000086769  0.113659518008  -0.00952217793919  
1.52882218361  0.320658127522  -9.21328005148e-05  -0.336867925936  0.215225257045  0.123756641374  -0.00794566932021  
1.53695416451  0.348395997169  -0.000128471982901  -0.340957717777  0.218326383676  0.133439625394  -0.00616103705645  
1.54502606392  0.368520083773  -0.000136697053673  -0.344655434053  0.23051558336  0.150194866738  -0.00444006901076  
1.55313920975  0.37524019943  -0.000127192814371  -0.337089733895  0.230186270145  0.161082732694  -0.0029390384178  
1.56123113632  0.379917817197  -0.00010805969932  -0.328883903642  0.23906560181  0.175642650908  -0.00172843742419  
1.5694861412  0.376170605811  -8.51726473528e-05  -0.315842465422  0.235848297744  0.190869592234  -0.000819868530326  
1.57746911049  0.367763311226  -6.24514499285e-05  -0.306595149562  0.225704881971  0.204889953755  -0.000188391478508  
1.58572912216  0.337317011034  -4.22293735492e-05  -0.279324890105  0.212482116481  0.200016312247  0.000210215448048  
1.59367513657  0.343832622101  -2.56417884353e-05  -0.276033514268  0.215498755395  0.201006176529  -0.0129221113372  
1.60175800323  0.351717796688  -1.29857508271e-05  -0.276845684788  0.227944095441  0.205417702341  -0.00609047003574  
1.60979819298  0.359583241123  -4.0241890472e-06  -0.280029406234  0.244726527196  0.211415358168  -0.0013436128345  
1.61788010597  0.380026051256  1.77525860412e-06  -0.284297599712  0.26234067354  0.209384435004  -0.0117040946303  
1.6259431839  0.392437881244  5.06582136194e-06  -0.283445996905  0.261903679141  0.202750558258  -0.0166879362601  
1.63404512405  0.398715930558  6.50422572833e-06  -0.279612831748  0.267368655481  0.194056816116  -0.0179143895324  
1.64211511612  0.434204434118  6.67993671655e-06  -0.295673990654  0.292490721168  0.201733999501  -0.030109728614  
1.65023803711  0.423087639777  6.07982603349e-06  -0.284741458423  0.293380332312  0.193393623766  -0.0342501015596  
1.65832400322  0.485818171659  5.07781794782e-06  -0.322595605429  0.346385516932  0.226383158006  -0.0331159151607  
1.6664390564  0.532579611698  3.94060846863e-06  -0.348501119477  0.391697805154  0.247321800445  -0.0422899500899  
1.67450213432  0.558088383764  2.84241994089e-06  -0.364488118059  0.410908022046  0.275493600695  -0.043331993483  
1.68278408051  0.561443403833  1.88361612821e-06  -0.372838335563  0.429116886479  0.288348059954  -0.0527322082244  
1.69074010849  0.551154718547  1.10966649056e-06  -0.375726719863  0.444807197364  0.298993867986  -0.0661587604489  
1.69885110855  0.533770229531  5.2831703275e-07  -0.375032918323  0.440643437125  0.298851587509  -0.0805820235661  
1.70686006546  0.520676984061  1.23872121926e-07  -0.377585031015  0.441693976983  0.308938486803  -0.107428922658  
1.71492910385  0.498121957417  -1.31764680473e-07  -0.376497464218  0.429076118705  0.299070005214  -0.138900237785  
1.7230629921  0.48568945884  -2.71159475882e-07  -0.373339355348  0.409588562752  0.286608637829  -0.16982113506  
1.73110699654  0.473936555886  -3.2611954322e-07  -0.374592432747  0.38803924287  0.273910881433  -0.197146285545  
1.73920416832  0.470539908148  -3.24637799574e-07  -0.37836126189  0.384215862528  0.262413961485  -0.219426568798  
1.74728012085  0.472516709142  -2.89463184853e-07  -0.388560200962  0.374748560904  0.261194701301  -0.236330776546  
1.75534820557  0.437246103628  -2.37797161757e-07  -0.364301995006  0.346198514864  0.241239125371  -0.221522089683  
1.76359915733  0.383341150063  -1.81697470613e-07  -0.321924363657  0.292521558216  0.212142262814  -0.202597130336  
1.77159714699  0.438029836604  -1.28863655462e-07  -0.374230509231  0.329571004909  0.255738027378  -0.236613133955  
1.77980518341  0.471600659204  -8.35684082172e-08  -0.403369732834  0.350411802528  0.279947946884  -0.258760040905  
1.78780007362  0.488921605696  -4.75779906139e-08  -0.415501219131  0.375987743614  0.298292582831  -0.271430134904  
1.79585313797  0.487958673132  -2.09689187329e-08  -0.416150000752  0.401707379505  0.311184790503  -0.277078653688  
1.8039522171  0.469416636013  -2.79631083328e-09  -0.404525997885  0.408110332665  0.302757388015  -0.27791709687  
1.81198811531  0.442288573631  8.3974957629e-09  -0.386765221468  0.418933870617  0.290770828644  -0.289136554167  
1.82012605667  0.412876364707  1.42237618785e-08  -0.36720141483  0.414580862289  0.269573423343  -0.292051598258  
1.82821011543  0.385199059918  0.00665937575172  -0.353948105774  0.401580803689  0.253433076131  -0.289669404581  
1.83630108833  0.36819757051  0.00995309153484  -0.335235104012  0.401457540009  0.233689464655  -0.284364437677  
1.84446501732  0.352685199172  0.0108772277053  -0.320539866337  0.409074868732  0.222209245943  -0.291218587613  
1.85250806808  0.339702452193  0.0102826752191  -0.309807233496  0.403843380646  0.208558056563  -0.304645010814  
1.86078310013  0.32231007818  0.0169921136124  -0.306193256879  0.401012839901  0.195506399038  -0.30982080253  
1.86875414848  0.317461767618  0.0160936209948  -0.304758251398  0.387781941279  0.186829835384  -0.300029268636  
1.87670516968  0.301173110493  0.0205144376153  -0.298333196373  0.372287937994  0.178592486901  -0.289177562059  
1.88480806351  0.293158562032  0.0276601780089  -0.30555119757  0.357073070608  0.179833334192  -0.29219689261  
1.89289617538  0.277537779805  0.0290276288803  -0.304229242502  0.326939747626  0.178285136072  -0.289870950437  
1.90097808838  0.258998538786  0.0334413803113  -0.303244636323  0.32441615596  0.175225252586  -0.297927642398  
1.90905308723  0.24066702036  0.0325598296948  -0.302561169095  0.322044008565  0.179926759989  -0.298017475449  
1.91717815399  0.231106838615  0.0352502034058  -0.302138262094  0.32000190102  0.172099311762  -0.293313362654  
1.92528414726  0.221110836409  0.0331440705671  -0.301910061894  0.301686877328  0.165922829061  -0.286231032933  
1.93341708183  0.211904317434  0.0350398883373  -0.312467738921  0.292228370864  0.153048069186  -0.291819637824  
1.94166207314  0.204143596008  0.0391372559957  -0.323066307393  0.272398822105  0.145856664336  -0.304426093579  
1.94973516464  0.19806958369  0.0441237607234  -0.332565882374  0.281814851433  0.142837297788  -0.306555717613  
1.95781517029  0.193648621902  0.0491153048162  -0.340403087913  0.274409665282  0.134292505619  -0.32887656502  
1.9659101963  0.190687497516  0.0535842546718  -0.351735015282  0.257685218768  0.131678705542  -0.334258877158  
1.97390508652  0.188913046831  0.0639240572905  -0.36397640055  0.237138131815  0.132902004103  -0.342250428938  
1.98201417923  0.181326962218  0.0700397500149  -0.364825354642  0.21646856476  0.127952483127  -0.364323537654  
1.99005007744  0.177764116709  0.0796307812821  -0.364071186947  0.214598146336  0.128164433393  -0.379162831689  
1.99826002121  0.170284522094  0.0902963844266  -0.357120026538  0.190828476763  0.131451991929  -0.374740860013  
2.00626206398  0.161241055273  0.100480005089  -0.347182357494  0.173108950823  0.136238405612  -0.359227944937  
2.01437401772  0.145505652814  0.115956844999  -0.33119155256  0.160897447451  0.13307339551  -0.338701917824  
2.02244615555  0.127415515458  0.132978418102  -0.318576165954  0.153275804914  0.12546990688  -0.317334705922  
2.03067111969  0.109823746628  0.155784942811  -0.314647227278  0.149214856465  0.107662782196  -0.311073880599  
2.03875517845  0.0943872234301  0.179658549206  -0.311025916821  0.164407847196  0.10230094322  -0.287837116074  
2.04664301872  0.0818751006045  0.201647633214  -0.307967381852  0.172861850801  0.0966340452266  -0.270212160927  
2.054666996  0.0724382473606  0.220185750139  -0.305570932126  0.159683651908  0.0913785898791  -0.244466515112  
2.06279921532  0.0658423539931  0.248013530223  -0.309158041834  0.134915731921  0.0785801190908  -0.229917427066  
2.07089114189  0.0549361483186  0.271820747587  -0.310630230055  0.139192263132  0.079295139088  -0.196922896802  
2.07897305489  0.0425934900701  0.290700674268  -0.310675950503  0.127072906156  0.0797023784994  -0.183041101257  
2.08699321747  0.037402057942  0.304630077323  -0.30986135887  0.106384115399  0.0798779185452  -0.155397512177  
2.09512901306  0.0303418029747  0.314119417867  -0.303297462892  0.099430675032  0.079895964193  -0.122407058027  
2.10319900513  0.0229031269419  0.326603110365  -0.299303369002  0.0680779718982  0.0798160949307  -0.103045918588  
2.1112511158  0.0160231245282  0.332908067726  -0.291947722297  0.0587665625411  0.0796874947566  -0.0939098850535  
2.11929607391  0.00349563691311  0.341497690949  -0.288675922024  0.0469840133656  0.0795432522383  -0.0785192774595  
2.12741303444  -0.00438985572671  0.343895786586  -0.282875846684  0.0349556418739  0.0710600541602  -0.0609965416767  
2.13570904732  -0.00865532996563  0.355639728617  -0.286823788742  0.0240501978187  0.0668124399418  -0.0573974734395  
2.14372706413  -0.0102993115544  0.365097026821  -0.285558007722  0.0149699542144  0.0655577090213  -0.0491836901752  
2.15176916122  -0.0101975016206  0.372180883324  -0.286614827034  0.00794331444443  0.0578855832182  -0.0390632701505  
2.15973114967  -0.0090594552959  0.383750981212  -0.294281178239  -0.0304888589753  0.063860588197  -0.0288682468148  
2.16784715652  -0.00742014813044  0.383475759845  -0.294451585636  -0.0503338837168  0.0690524467217  -0.0330544004124  
2.17594909668  -0.0056533561632  0.389436293603  -0.300756048621  -0.0736090742092  0.0648773909968  -0.0187313376215  
2.18399500847  -0.00399670500156  0.391855802202  -0.304753040151  -0.0964914674778  0.0638648742793  -0.0081566390453  
2.19210505486  -0.00258107154958  0.398550662239  -0.306947658756  -0.116721613718  0.0648616016679  -0.000953316941152  
2.20016407967  -0.0014594909089  0.407107314922  -0.313150520191  -0.133224583872  0.0586132439288  -0.00988183568903  
2.2081720829  -0.000632713576738  0.415875275718  -0.315783788532  -0.145749358013  0.0653652592759  -0.000850199574424  
2.21630311012  -7.00545824418e-05  0.430503298654  -0.321322732464  -0.171252040662  0.0625193917745  -0.00868655061739  
2.22439217567  -0.00643592170103  0.453761890431  -0.333349079813  -0.185166166176  0.0625546081421  0.000873842449572  
2.23244214058  -0.0095772599196  0.479743292208  -0.347996993496  -0.207342257203  0.0643180656302  -0.00682748090559  
2.24076914787  -0.0104497052204  0.504613648484  -0.362671662737  -0.248828977193  0.0585869385833  0.00261754730038  
2.24889206886  -0.00986930488007  0.519533264094  -0.370485377165  -0.280830667416  0.065650367219  -0.00533711877484  
2.25675106049  -0.00847889944587  0.526906218926  -0.378675957632  -0.287069464294  0.0629611522599  -0.00955061494069  
2.26486420631  -0.00674956133718  0.528974598587  -0.380910759246  -0.310569786857  0.0630436594627  -0.0110688706134  
2.27291107178  -0.00499959855112  0.527643262282  -0.37933510538  -0.32526712905  0.0647838281658  -0.010810384818  
2.28108620644  -0.00342208550262  0.51775430402  -0.3703134836  -0.333121563083  0.067334347881  -0.00951364823753  
2.28925418854  -0.00882530269564  0.510433619385  -0.363103692888  -0.336045738097  0.078446286796  0.00561798125381  
2.29726219177  -0.0178476735634  0.505428070649  -0.357744570687  -0.352393904735  0.0768336395408  0.000756813970744  
2.30539798737  -0.0280860932763  0.50900051016  -0.359388491819  -0.358381664568  0.0760966713941  -0.00224504545791  
2.31354212761  -0.0379740491957  0.510682442788  -0.354413193719  -0.374208162702  0.0759668154767  -0.00380821948587  
2.32150316238  -0.0533182301575  0.511051235091  -0.351309350526  -0.394271913554  0.0678699714369  0.00900569041155  
2.3297700882  -0.063605134639  0.503934216508  -0.344332682279  -0.398065130076  0.0558461685988  0.0157459356964  
2.33772206306  -0.0764815969684  0.49973550398  -0.341093204527  -0.391694821642  0.0510803974385  0.0181252312315  
2.34584617615  -0.0895529062194  0.491075899159  -0.335112595249  -0.396591616481  0.042831623923  0.0176378864174  
2.35391902924  -0.0946514243972  0.480650726967  -0.333436454084  -0.391043892936  0.0333610803826  0.0154828253485  
2.36210513115  -0.107846552029  0.470267738736  -0.329202060537  -0.396502753661  0.0241580273148  0.0125552012142  
2.37014913559  -0.117801292  0.454348841265  -0.323871785111  -0.374615014092  0.0244321550391  0.00947344942637  
2.37814903259  -0.124756484971  0.436787896606  -0.3131262914  -0.355311684174  0.0220203203016  0.00662473695426  
2.38626718521  -0.135888924845  0.420095288299  -0.305586349573  -0.339602085872  0.0182482591061  0.0042166442238  
2.39438509941  -0.134934289246  0.372395911248  -0.274133533175  -0.294330782262  0.00571402118325  -0.0110220506932  
2.40248513222  -0.153666211837  0.364389299952  -0.268943133106  -0.286164237096  0.0142789697176  -0.005654365909  
2.41060519218  -0.162107406407  0.361084279751  -0.269407347872  -0.267758233218  0.00957095040917  -0.0151806619707  
2.41876602173  -0.170186290574  0.354278758017  -0.262563482141  -0.245138841778  0.00573251353902  -0.00594792663609  
2.4267270565  -0.183908665204  0.359408055864  -0.268026495566  -0.222381492052  0.0028250920321  0.000223912771536  
2.43480420113  -0.192860473409  0.351181755889  -0.264321202984  -0.201941764763  -0.00756171454098  0.00390165035021  
2.44290304184  -0.204710115534  0.349123436747  -0.266155238839  -0.185053777391  -0.0213396521163  0.00569520426095  
2.45097613335  -0.217051043441  0.350988150334  -0.271122892277  -0.155389845648  -0.0273529548833  0.00616934987406  
2.45907306671  -0.228383244726  0.34169153017  -0.266790874065  -0.137878150305  -0.0364152313195  0.00580214184215  
2.46718215942  -0.237913663346  0.33333426774  -0.262661058221  -0.129512117842  -0.0463530699291  0.00496913775109  
2.47525000572  -0.252067674838  0.326427838055  -0.25909130046  -0.127514499039  -0.0557664374126  -0.0094044105287  
2.48339104652  -0.260792325526  0.314460018184  -0.250907274393  -0.112857540874  -0.0555262997442  -0.00368873234771  
2.49141001701  -0.278755956537  0.294061213991  -0.235490520145  -0.108837813518  -0.0578627805392  0.000135255326677  
2.49943208694  -0.293660700487  0.270755700361  -0.217361720241  -0.11163024287  -0.0698466684547  0.00241429883912  
2.50748801231  -0.318573350455  0.248169890355  -0.199522640662  -0.118213153383  -0.0780099896454  0.00352610931191  
2.51581001282  -0.346863488932  0.228399501338  -0.18373979544  -0.109684469881  -0.0913589963749  -0.00952868652185  
2.52373814583  -0.3809020701  0.205747808524  -0.165531388219  -0.109672004124  -0.106413820969  -0.016358173013  
2.53175902367  -0.421507211804  0.183757158634  -0.147787175453  -0.0814035134147  -0.129246470318  -0.0187263287108  
2.53984808922  -0.46847448679  0.164485448482  -0.126875991244  -0.0725312467174  -0.154334792703  -0.018168819718  
2.54792118073  -0.514300232809  0.142220350881  -0.106265144315  -0.0762479460646  -0.178127794305  -0.0159156064083  
2.55599999428  -0.554603142301  0.113850465573  -0.0826840276477  -0.0537428233926  -0.198629558859  -0.0128834110369  
2.56405520439  -0.580625127568  0.0848123443266  -0.0598094149137  -0.0345618253124  -0.2149938005  0.00364488435961  
2.57219719887  -0.608752344008  0.0584402698097  -0.0397743637462  -0.0194083879018  -0.235493195891  0.0131789126349  
2.58028912544  -0.635178148487  0.0364523144666  -0.0235582204906  -0.0249603474181  -0.256310099058  0.0041556461533  
2.58834409714  -0.657792671758  0.0194158237185  -0.0113449941594  -0.025662092077  -0.266775648443  -0.0017012917864  
2.59653115273  -0.675733100242  0.00714810802248  -0.00282227899569  -0.00668311307473  -0.269922288042  0.00831501880732  
2.60469913483  -0.714742662993  -0.00572725594797  0.00555791190535  -0.0128485804455  -0.297398384217  0.0151097282398  
2.61271905899  -0.731248524904  -0.00797898733985  0.00675261622362  -0.0124344068295  -0.306797454008  0.00115989053373  
2.62079119682  -0.757901405101  -0.00848671494701  0.00675594246475  -0.0108727833033  -0.321771386284  -0.00733523077686  
2.62874698639  -0.760990208366  -0.00789490304512  0.000725047266234  -0.0254775144635  -0.330166580352  -0.0116552437873  
2.63687515259  -0.763029014344  -0.00670617646522  -0.00297101678068  -0.0148642103788  -0.333727150363  0.00033405738292  
2.64496707916  -0.764229428262  -0.00528501214832  -0.0101947794342  -0.023610649338  -0.342355481832  0.00749562360341  
2.65309119225  -0.758089570158  -0.010532320666  -0.0134451764232  -0.0263707436926  -0.344772691483  0.0109989351896  
2.66113710403  -0.768323236904  -0.0125701894617  -0.0192938952847  -0.0252409396853  -0.359893559667  -0.00141084331141  
2.66921401024  -0.773885788007  -0.0124647686023  -0.0260873752771  -0.0218976011928  -0.37269959631  -0.00871085782148  
2.67731499672  -0.769342162732  -0.0177428809057  -0.0274012588479  -0.0175798579374  -0.374417535667  0.00118030388637  
2.68555808067  -0.76592487981  -0.0190376954935  -0.0306146647756  -0.0131337526715  -0.377643368171  0.00699419817643  
2.69372415543  -0.7702580087  -0.0244629288866  -0.0346242889819  0.00760934031921  -0.381436955614  0.00974223876543  
2.70181298256  -0.778783357847  -0.0251362522692  -0.0386941763315  0.0192540378483  -0.385171942373  0.0103613916416  
2.70984506607  -0.782213351516  -0.0362024524317  -0.0317176226983  0.0408937110966  -0.388475766587  -0.00371074352514  
2.71787405014  -0.782221977815  -0.0523393430977  -0.0241671935819  0.0328712767551  -0.39117208592  0.0015843437264  
2.72598314285  -0.780176268678  -0.0698129721248  -0.0170726549104  0.024580154625  -0.384876076433  0.00459920295547  
2.73404407501  -0.770405450556  -0.0862428304697  -0.0110007988823  0.0337013751876  -0.382191211083  0.005921544051  
2.74213600159  -0.757031877166  -0.106969285573  -0.000856381030877  0.0356205294801  -0.365271701457  0.00608918891509  
2.75022816658  -0.742908520556  -0.121429042343  0.00533454251405  0.049695954057  -0.358282036577  0.0055466319064  
2.75835299492  -0.723116423805  -0.137259420583  0.0138251435813  0.0528970169572  -0.341305965295  0.00463545246472  
2.76650714874  -0.715433014942  -0.158899412083  0.0174876849435  0.0492301533453  -0.336813470435  0.00359943450303  
2.77480220795  -0.688988369918  -0.168425839884  0.0178512847982  0.0585212797336  -0.331947149631  0.00259796509314  
2.78273510933  -0.660780940439  -0.182991895532  0.0162120365189  0.074610595496  -0.327364896076  0.00172298334846  
2.79082298279  -0.627789593159  -0.199048556355  0.0135447695046  0.0763881277624  -0.306748939636  0.00101626841544  
2.79886007309  -0.595410217543  -0.214303374089  0.0158636022726  0.102765705318  -0.295374278636  0.000485104999826  
2.80695915222  -0.560106850127  -0.227466202732  0.0156095173101  0.141127183345  -0.282408174912  0.00011532138283  
2.81503605843  -0.526775070392  -0.244642027295  0.0138428218163  0.165934634533  -0.278196129662  -0.000118625320989  
2.82319021225  -0.498145962558  -0.262413841239  0.0219974227254  0.196671635579  -0.271339838097  -0.000246399873022  
2.83129811287  -0.468651624862  -0.272008377284  0.0299173736554  0.211040308188  -0.263617714538  0.0264063029166  
2.83940815926  -0.441748494028  -0.275682216251  0.036857510407  0.230756314752  -0.247845552089  0.039614891331  
2.84750413895  -0.432662054767  -0.282075051002  0.0478042138791  0.268294798126  -0.237253552322  0.0567042009885  
2.85566401482  -0.428516284247  -0.289428215818  0.060001824775  0.295872855378  -0.222546216809  0.06097094969  
2.86378717422  -0.427768061892  -0.289921395606  0.0716520694268  0.314559669069  -0.206918418668  0.0704421176736  
2.87183904648  -0.429136445115  -0.299562204545  0.0870785570147  0.359316647942  -0.192390652555  0.0820408278771  
2.87983298302  -0.431631240113  -0.307018124812  0.103136921672  0.364932534575  -0.180056920664  0.0803388702266  
2.88788318634  -0.434536530672  -0.325690074121  0.123210081152  0.379835846949  -0.178686379518  0.084185019159  
2.89598917961  -0.430670483857  -0.342465351517  0.138248064263  0.365372479328  -0.175693250829  0.0776072285932  
2.90413713455  -0.42985918008  -0.369645262319  0.164649164015  0.368184247516  -0.172040553116  0.0654660559686  
2.91220498085  -0.424259756579  -0.39354178389  0.184438075757  0.381078990305  -0.168378070508  0.0646222923712  
2.92035102844  -0.423085965399  -0.4196014273  0.20349186359  0.381969306937  -0.16509652532  0.0572979380555  
2.92837119102  -0.431404298919  -0.437550082841  0.21476950284  0.375558004035  -0.162388454016  0.0602031029407  
2.93658518791  -0.444538513793  -0.455394815018  0.230836427211  0.398820873004  -0.16865664738  0.0555937860108  
2.94478821754  -0.452466204226  -0.464636564998  0.237435922484  0.40406368544  -0.171305461906  0.0469580545998  
2.9527220726  -0.456429279215  -0.467739568415  0.242976244906  0.414615656948  -0.171498212387  0.0501713111922  
2.96082615852  -0.464306816844  -0.473492638937  0.25262601573  0.4105590584  -0.178543982436  0.0468062534318  
2.96881008148  -0.460281939057  -0.466913625073  0.253069517909  0.398161535365  -0.180614897051  0.0398448086101  
2.97691512108  -0.449537345497  -0.466944106382  0.258593991443  0.382071117401  -0.18782264703  0.0314617509016  
2.98499417305  -0.435899116684  -0.457624742221  0.261252534582  0.348772683767  -0.197355532438  0.0231114804343  
2.99316620827  -0.421964329935  -0.456991245044  0.26724382241  0.325355355058  -0.198931282106  0.0156627698617  
3.00123906136  -0.41603406439  -0.45498415296  0.274595937771  0.310345395171  -0.203907622708  0.00954142465686  
3.00930213928  -0.415533927087  -0.45236040218  0.276668323132  0.318652311882  -0.210403501782  0.00486262266421  
3.01770019531  -0.418343177007  -0.44964392913  0.280672194603  0.306691622976  -0.208779859227  0.00154308730659  
3.02576208115  -0.422842001735  -0.440500977359  0.280087052934  0.300515307075  -0.219142090166  -0.000610680344781  
3.03373908997  -0.434586534707  -0.435124002093  0.287457002555  0.281779042431  -0.218918416597  -0.0018378459708  
3.04179501534  -0.449440987492  -0.425918982127  0.293497570345  0.257480811787  -0.220704702503  -0.00237970360618  
3.04980516434  -0.464591705333  -0.415387065126  0.292779351851  0.249102701877  -0.223513447474  -0.00245333993239  
3.05793404579  -0.478319987998  -0.398512364643  0.288074728867  0.251162243988  -0.226638744424  -0.00223839679077  
3.06600618362  -0.489745321086  -0.38627196076  0.286801827586  0.242577526241  -0.237967028434  -0.00187308703312  
3.0739941597  -0.512002661924  -0.378106896733  0.287725639699  0.228507587202  -0.24467933583  -0.00145618057807  
3.08211803436  -0.531703072081  -0.366588918816  0.284542157868  0.229323551829  -0.247908736386  -0.00105236117643  
3.09020805359  -0.547784529529  -0.360932586718  0.284556159188  0.222299485621  -0.248709850885  -0.000699038920623  
3.09828019142  -0.566709445042  -0.359392300071  0.286487371157  0.211307127017  -0.247970062085  -0.000413316306144  
3.10637116432  -0.585342705491  -0.360483169879  0.289365970741  0.199092719763  -0.254727505456  -0.000198310675306  
3.11468315125  -0.621965170232  -0.376352318172  0.297842092286  0.187438533806  -0.265273228764  -4.84229376893e-05  
3.12267398834  -0.652096992873  -0.392758741587  0.308774849245  0.177351159188  -0.276975545861  4.65820953828e-05  
3.1307091713  -0.681857935618  -0.407749787695  0.314708453352  0.169268792802  -0.279792367463  9.86390133105e-05  
3.13876819611  -0.701545970607  -0.420308752073  0.317013093384  0.17993201441  -0.293666708636  0.000119441126159  
3.14681220055  -0.713110418464  -0.436742073516  0.322225107594  0.184029952931  -0.29602748421  0.00011930207867  
3.15487408638  -0.718581618829  -0.447107350248  0.31798642266  0.18374946128  -0.299568916631  0.000106618845906  
3.16303014755  -0.719820736416  -0.459394790434  0.313847904648  0.180869640596  -0.295105326991  8.77521051234e-05  
3.17112612724  -0.711680239985  -0.471540590295  0.310210742467  0.193427738821  -0.286306662083  6.71695516098e-05  
3.17933917046  -0.698770991714  -0.482318691898  0.301937468876  0.213926290939  -0.284183733989  4.7731771683e-05  
3.18741202354  -0.684366758972  -0.49113669191  0.291756494983  0.22033245967  -0.286291191012  3.10334184508e-05  
3.19562220573  -0.663874995127  -0.497849436998  0.27618575771  0.234288671467  -0.290714683134  1.77415212533e-05  
3.20372915268  -0.641894821709  -0.50259066296  0.259024488472  0.267999791726  -0.287713651936  7.89634632781e-06  
3.21175813675  -0.60121138689  -0.485672397874  0.232061285484  0.293316795757  -0.272229561242  0.013352764761  
3.21978402138  -0.573729908208  -0.490834789995  0.218057444591  0.327603985568  -0.250890280368  0.0333040411736  
3.22791814804  -0.543656991979  -0.502051453681  0.213304772979  0.346971497193  -0.236636427714  0.0417585574916  
3.23594403267  -0.515199350583  -0.509053301313  0.203955667894  0.355337596832  -0.228142956381  0.0424186717656  
3.24402117729  -0.490715919808  -0.51278463605  0.192832074434  0.37291187159  -0.224001132692  0.0383345964067  
3.25210499763  -0.471203233173  -0.514160495731  0.18181907691  0.39415760529  -0.231249725815  0.0451882623849  
3.2601981163  -0.456730846938  -0.513976860865  0.166716161776  0.415364479975  -0.22788003148  0.0445327303612  
3.26824617386  -0.440099037359  -0.506219598108  0.150745070229  0.434305218978  -0.235177874928  0.0394363613296  
3.27632117271  -0.423925371266  -0.494737777871  0.13594006426  0.433200103351  -0.239767618965  0.0455665706015  
3.28462100029  -0.381495172302  -0.470437783106  0.113539195214  0.451278400643  -0.243190012024  0.0390667684305  
3.29268407822  -0.355149962518  -0.453652267509  0.101002152378  0.469023636973  -0.226431274413  0.0317200396491  
3.30072808266  -0.328696217418  -0.442304483963  0.0935074654484  0.463543146145  -0.217505062883  0.0239639996333  
3.30874300003  -0.304969682568  -0.44207581442  0.0951581150169  0.478071820671  -0.197536133914  0.0301332737165  
3.31682419777  -0.278676985687  -0.441885225954  0.0967946040333  0.486396207443  -0.173046874935  0.0440089021359  
3.32494521141  -0.260327930282  -0.448393604334  0.103574254633  0.506798692672  -0.1567778201  0.0610382735689  
3.33303403854  -0.24868408624  -0.458235444461  0.112725003735  0.515611804512  -0.138816214861  0.0781630195891  
3.34121918678  -0.242291244459  -0.462377696706  0.117005732748  0.533221843176  -0.121732375136  0.0935363219567  
3.34922218323  -0.246431823213  -0.469320304139  0.128555992702  0.537569639047  -0.10697922488  0.10623565018  
3.35732412338  -0.263167790382  -0.483870186793  0.14857852888  0.550182698036  -0.103525167574  0.115990124516  
3.36537313461  -0.27898106892  -0.494791221738  0.166242949317  0.549742411985  -0.0988731653533  0.122948307082  
3.37359309196  -0.285858450968  -0.489062174585  0.175291550481  0.524822423713  -0.0939898878425  0.127494618377  
3.38170099258  -0.300068436723  -0.487261650838  0.183548114962  0.504531393901  -0.106173165752  0.116762708458  
3.38978600502  -0.310469644793  -0.481357738064  0.195773464014  0.489170866702  -0.110623709046  0.0979948964867  
3.39777708054  -0.31748635804  -0.466952281858  0.198443977487  0.47838642899  -0.109956861656  0.0897390162929  
3.4058470726  -0.321732260998  -0.462286526904  0.20574962304  0.471488459292  -0.122982503568  0.0886684505708  
3.41399598122  -0.323866470018  -0.457300414442  0.215062567654  0.467649805839  -0.126162949616  0.0786685238109  
3.42206907272  -0.317799738552  -0.445987703957  0.213949271255  0.449358674281  -0.131439566902  0.0643629364098  
3.4301841259  -0.314162774396  -0.432070690717  0.212014761373  0.441016169851  -0.129075423281  0.0489860050181  
3.43831920624  -0.305659781186  -0.424722501481  0.20980249185  0.456215867193  -0.130717677188  0.0479421844308  
3.44651007652  -0.301842317278  -0.422091605003  0.207657291961  0.450561449572  -0.134594924153  0.042259519211  
3.45460319519  -0.294532273711  -0.422567628174  0.205778876068  0.449670430376  -0.131058302076  0.0343883493547  
3.46277809143  -0.285896346538  -0.424858221213  0.198937930896  0.435049030066  -0.131789532835  0.026035982608  
3.47082614899  -0.277377323484  -0.427992023615  0.195160043688  0.447105025642  -0.126662462241  0.0182771493824  
3.47884511948  -0.263117464102  -0.431303658212  0.193622339688  0.457217000726  -0.126902566859  0.0116937042109  
3.48697018623  -0.253628046159  -0.421053577246  0.18293625477  0.465083722155  -0.121997083798  0.00651046182668  
3.49502801895  -0.241296007053  -0.410405450482  0.178533453361  0.470776199547  -0.122864359253  0.00271436904402  
3.50312399864  -0.23526581695  -0.393987198024  0.173043594602  0.45787402803  -0.127106247443  -0.0132005159503  
3.51121807098  -0.226947640888  -0.375840691889  0.162158040311  0.468550462458  -0.124579212079  -0.00800591844686  
3.51936721802  -0.218130917015  -0.358572664175  0.154504481542  0.475570172923  -0.118253877257  0.00931316619512  
3.52746701241  -0.209946362279  -0.343655205238  0.149598631851  0.479644064138  -0.110320211658  0.0187228654192  
3.53549909592  -0.203005327938  -0.331724466521  0.146858763798  0.464834631436  -0.110604646817  0.0223886917327  
3.54377317429  -0.197543122912  -0.316185664145  0.135060761971  0.440256204835  -0.107447023684  0.0355742432171  
3.55174708366  -0.200255346608  -0.306778554785  0.129719154226  0.412414897973  -0.110899201288  0.0530830743684  
3.55971598625  -0.200876191587  -0.295387838453  0.118170997831  0.402243564727  -0.117953430975  0.0579839032608  
3.56784510612  -0.206886094392  -0.29066494573  0.114763004309  0.403754958681  -0.109734923275  0.0681507974518  
3.57593202591  -0.215493444494  -0.290444567621  0.116600526378  0.378734110809  -0.109906183462  0.0804087689688  
3.58401012421  -0.231461710086  -0.286288416921  0.121383607153  0.373803069418  -0.0984097034627  0.0926237007046  
3.59222507477  -0.243450708878  -0.280205962947  0.127428045864  0.364771362047  -0.0978111800935  0.0901736623195  
3.60025405884  -0.258494375626  -0.266954455831  0.1282634456  0.370915440082  -0.103819936024  0.0791808176932  
3.60836601257  -0.273782979321  -0.257457468475  0.136530467083  0.368827585843  -0.0964671183695  0.0775772574256  
3.61664819717  -0.294316019694  -0.244559170654  0.143059469813  0.378707652562  -0.0985572441272  0.0684290680124  
3.62486815453  -0.322538162589  -0.23097993709  0.147853940139  0.394730008692  -0.106099647124  0.0690673105097  
3.63282608986  -0.352394353492  -0.225087333476  0.15643050316  0.379361750876  -0.116115325976  0.0621623406052  
3.64089918137  -0.386787979978  -0.224427116191  0.166370576765  0.36346689632  -0.134899690915  0.038104529068  
3.64897799492  -0.420273743711  -0.226976157934  0.176078576752  0.36563275967  -0.148619927836  0.0463487344935  
3.65705919266  -0.449678513516  -0.231180651798  0.184622107051  0.328341123084  -0.17453939664  0.0330596757147  
3.66521310806  -0.486950061352  -0.24925095631  0.202217677342  0.338054326906  -0.205044354399  0.0349433343208  
3.67328619957  -0.511590067485  -0.260418032474  0.212737803438  0.324899463205  -0.235079168764  0.0323892025592  
3.68134212494  -0.532754763265  -0.272916802818  0.223222271037  0.299394453112  -0.270003156384  0.0140851264347  
3.68953299522  -0.556315538156  -0.284897511189  0.232582272175  0.285865942998  -0.295830281528  0.0149651234866  
3.69767999649  -0.578826766862  -0.288644463991  0.234952240194  0.264267624269  -0.313471531827  0.0139190322087  
3.70575904846  -0.598331082833  -0.293713703942  0.238204303129  0.240099281276  -0.324338834333  0.0118216389059  
3.71377921104  -0.620682837943  -0.292383038936  0.236317448113  0.233634731766  -0.329997479954  0.0226668560184  
3.72183799744  -0.642384981731  -0.294012277211  0.236872417035  0.205099624155  -0.340277944798  0.0134321379581  
3.72997307777  -0.661407069395  -0.297246335551  0.238835849478  0.199704311812  -0.335560696351  0.0198201871088  
3.73801803589  -0.683520436312  -0.29444353684  0.236109475803  0.192083433482  -0.339026794641  0.0215646405709  
3.74608421326  -0.705157160531  -0.294972289317  0.2361829311  0.167234871896  -0.347042894756  0.0203333233347  
3.75413918495  -0.717512258692  -0.290785673059  0.23792418292  0.184735842698  -0.340253193207  0.0441506084347  
3.76218104362  -0.729703409149  -0.28421153686  0.235160844051  0.175746078341  -0.350325550967  0.053784821473  
3.77025818825  -0.740512045942  -0.276899866974  0.229985189778  0.185172644541  -0.361116000443  0.0672338835671  
3.77841806412  -0.749350027646  -0.269918088664  0.223909432908  0.171286018341  -0.362847026495  0.0682054859857  
3.7865819931  -0.756072759537  -0.263871519481  0.217935543097  0.178246866485  -0.367302673247  0.0882854960537  
3.79480910301  -0.760815366376  -0.252365113103  0.207326537599  0.163612949065  -0.372927486496  0.0910171725182  
3.80275917053  -0.763871123964  -0.238797776494  0.195057093953  0.154246516314  -0.378657866328  0.0963944135218  
3.81080198288  -0.758881859601  -0.218766487153  0.17775897806  0.165723038664  -0.367158424303  0.116148622866  
3.81888508797  -0.749591396374  -0.203631711397  0.164597981515  0.155119950231  -0.354875216545  0.115742208209  
3.82701802254  -0.738702602622  -0.186375941231  0.149982057328  0.132378377884  -0.351769700593  0.116626189122  
3.83507609367  -0.70787484582  -0.163009526983  0.130708977841  0.121448377607  -0.337809361473  0.118197361656  
3.84318113327  -0.701886715777  -0.145100632964  0.116002850263  0.118764727163  -0.335496235795  0.133363821266  
3.85134410858  -0.691312689101  -0.132357915467  0.105589887276  0.104620539082  -0.340419282553  0.128387888201  
3.8594660759  -0.665675338957  -0.117403078198  0.0988451467264  0.101778162976  -0.332474156973  0.138547466764  
3.86755204201  -0.64712485902  -0.102696123955  0.0896933039443  0.0893327851091  -0.325985655468  0.143372925471  
3.87574505806  -0.628081313426  -0.0896910738437  0.0853811063685  0.089123805566  -0.32940490463  0.131131505145  
3.88368821144  -0.624169704278  -0.0724224546342  0.0791023083811  0.0629047176342  -0.34675540162  0.123292464792  
3.8917901516  -0.609622475567  -0.0544173391587  0.0723045552632  0.0572181391812  -0.345596735379  0.132279787877  
3.8997900486  -0.596932236662  -0.0378721030104  0.0659135037284  0.0477731461535  -0.350138603445  0.123712586098  
3.90787005424  -0.579990187809  -0.0239497788216  0.0604428937933  0.0370633160615  -0.35762631827  0.118858098079  
3.91594910622  -0.548862875157  -0.0130708495063  0.0561005043688  0.0100365535746  -0.357745183289  0.103400484156  
3.92400813103  -0.499089334087  -0.00516606617891  0.047574002206  0.00944914968601  -0.336740138731  0.0965613697546  
3.93213319778  -0.497065352022  0.000120209394109  0.053395627893  0.0081072672387  -0.355343551222  0.0956199360791  
3.94029211998  -0.463525696629  0.00327780945093  0.0512557023046  0.00644627890015  -0.337349701361  0.0849633191404  
3.94831418991  -0.441438452976  0.00482531272595  0.0498784213539  0.00476933751963  -0.315968305104  0.0829506690667  
3.95649409294  -0.48895834029  0.0119015064159  0.0491004099747  0.00325993537308  -0.336543954381  0.099692816275  
3.96472406387  -0.553478556939  0.0217698679215  0.0487371583268  0.0177382091978  -0.349645167681  0.101806074751  
3.97268104553  -0.558347382665  0.023599049144  0.0488920806475  0.00861600456153  -0.33950471689  0.092612868996  
3.98081207275  -0.562713329688  0.0288629780903  0.0491371356099  0.0189163762503  -0.330958665714  0.0906699714569  
3.98879408836  -0.573033954604  0.0356326386374  0.0494088047615  0.00641480427169  -0.315929268487  0.0799355382336  
3.9968380928  -0.579130006111  0.042590355402  0.0496692987705  -0.00176850340241  -0.315285813998  0.0650556394901  
4.00494718552  -0.58204530832  0.0555853207759  0.0498893549756  -0.0064894363729  -0.31499994622  0.0492611229014  
4.01299118996  -0.582744373697  0.0641741195848  0.0553859252164  0.00805415414257  -0.314954544465  0.0479352704328  
4.02108120918  -0.582040482501  0.082527048674  0.0528179628638  -0.000755470552614  -0.331749176039  0.0287351529463  
4.02913713455  -0.580569547482  0.0981448121  0.0510049654597  -0.00596736517143  -0.34018674839  0.0141789337374  
4.03726601601  -0.578793949219  0.110467908985  0.0445195395439  -0.00846282247678  -0.334369757434  0.0173008451275  
4.04536008835  -0.577023163887  0.119515199546  0.0359142364212  -0.00906562008539  -0.328957340108  0.017352616609  
4.05364012718  -0.568732413795  0.125642407307  0.0269464271378  -0.00846968481279  -0.324364909728  0.0155510052412  
4.06172418594  -0.564113615984  0.129371265077  0.0133889917728  -0.0405967136667  -0.320747707963  0.0128281527416  
4.06981515884  -0.548767618716  0.124610230733  0.00915313571266  -0.0389037172111  -0.309754218205  0.0231919571893  
4.07788014412  -0.535312943439  0.121914846289  0.000315425636218  -0.0504607614507  -0.295492325251  0.0136131005604  
4.08590817451  -0.524416884078  0.120746279753  -0.00503473486336  -0.0520708293184  -0.280778094071  0.00642404226678  
4.0939810276  -0.516206047366  0.127274527933  -0.0183736393213  -0.0642265358178  -0.267346598867  0.0147857197747  
4.10205721855  -0.503762122364  0.137732593677  -0.0244583544437  -0.0647417928137  -0.247756639864  0.0182455286856  
4.11011815071  -0.496800265189  0.156102239647  -0.0361910742649  -0.0749026989812  -0.234884372436  0.0183934894976  
4.11827516556  -0.500575393823  0.177279899972  -0.044759453203  -0.0897804403968  -0.227404511696  0.0031880612262  
4.1263461113  -0.503684523038  0.197904954762  -0.055841849218  -0.105918801757  -0.223947009459  0.00707721370337  
4.13445019722  -0.506063289548  0.216020328501  -0.0672626222269  -0.121108767482  -0.214923786311  0.0220204435063  
4.14248609543  -0.50775125731  0.230717374521  -0.0776817021899  -0.117436243628  -0.21185619512  0.028663276843  
4.15055918694  -0.502136799994  0.235152889603  -0.0810725380326  -0.136209889043  -0.212686930745  0.029619919285  
4.1587870121  -0.506153023192  0.246281127194  -0.0852209384637  -0.149789529472  -0.224114127356  0.027065393966  
4.1668419838  -0.515527539977  0.253593685759  -0.0840610977887  -0.175498005731  -0.240692023414  0.0226749347154  
4.17486405373  -0.5069958781  0.25784381455  -0.0851585044908  -0.205776743234  -0.241920166387  0.0176471144427  
4.18319320679  -0.502035400266  0.259808469211  -0.0821755067577  -0.218909087517  -0.250492550963  0.0127680572687  
4.19114303589  -0.493037393463  0.26685271158  -0.082384893398  -0.237052506043  -0.254229279722  -0.00485806190688  
4.19923710823  -0.482565710892  0.276204226442  -0.0898102726071  -0.239603910105  -0.25466712932  -0.00157088588201  
4.20735907555  -0.479026041745  0.292609553194  -0.100786362889  -0.265902407003  -0.253078769572  0.000573107055091  
4.21540498734  -0.466600347125  0.304856646206  -0.112728010036  -0.286995494176  -0.250444554178  0.0151499476977  
4.223539114  -0.463570817797  0.313314720844  -0.118666637319  -0.302730712854  -0.255804494524  0.02229866722  
4.23181819916  -0.459793200224  0.318604044347  -0.131015483786  -0.330277198525  -0.257053641835  0.0108793184582  
4.23980021477  -0.449252674082  0.321437488306  -0.140588928462  -0.345319927538  -0.264044515236  0.0162267567055  
4.24788308144  -0.435765354035  0.322497284338  -0.147485711856  -0.35126680235  -0.273746243453  0.00437511030205  
4.25590419769  -0.421935989095  0.322383012039  -0.152047297879  -0.351130626278  -0.26735965345  -0.00320134953052  
4.26397800446  -0.402652189144  0.328234422002  -0.165373101691  -0.330668129331  -0.260333846672  0.00594454930201  
4.272108078  -0.375419854929  0.323730372343  -0.166580956306  -0.333550230003  -0.253672445191  0.0108084247062  
4.28013300896  -0.346293327368  0.320145767829  -0.171032280026  -0.316766064549  -0.247931559898  -0.000767674889054  
4.28825712204  -0.319106168312  0.32415066795  -0.182289567653  -0.306632929337  -0.235005871061  0.0057158229204  
4.29636907578  -0.295954183007  0.3256313625  -0.191116741391  -0.301564015595  -0.227476953452  0.00900715556473  
4.30440616608  -0.277667328483  0.332096240824  -0.202877145  -0.300070680821  -0.21563765704  0.0100297688854  
4.3125  -0.264230305621  0.340870811272  -0.209837960994  -0.317568863471  -0.210805804271  -0.00376778227027  
4.32065820694  -0.255120178696  0.356761573349  -0.218509651173  -0.311238129521  -0.202346242024  -0.0116512538116  
4.32872319221  -0.23614585573  0.368587420157  -0.221967108144  -0.291268520847  -0.184255589611  -0.00179706217917  
4.33684301376  -0.219963590479  0.383380869229  -0.22193742969  -0.281914757865  -0.170638542748  0.00430920972569  
4.34495019913  -0.200458348135  0.405054299986  -0.225145134972  -0.296616363352  -0.16114829595  -0.00583539242992  
4.35300707817  -0.181017657057  0.435225882712  -0.235286939397  -0.307510762789  -0.155135275258  0.00204181429004  
4.36115121841  -0.156956672347  0.447336100731  -0.232535950397  -0.314959815978  -0.143497954713  -0.00679454792019  
4.3692522049  -0.125953493543  0.48061722871  -0.248970948711  -0.336248456556  -0.138057199261  0.00196853638285  
4.37734103203  -0.100768530268  0.5097798173  -0.264535609529  -0.346907589643  -0.128565187734  -0.00632880441774  
4.38552308083  -0.075025468552  0.5200687911  -0.272595793139  -0.350054736991  -0.117643391838  0.0027083524614  
4.39354300499  -0.0516631310706  0.531264064661  -0.280636332339  -0.365056952891  -0.107017605597  0.00784880421954  
4.40175318718  -0.0321959298417  0.561800360544  -0.303796810085  -0.402282312402  -0.0976915626011  -0.00324884474592  
4.40977311134  -0.0238313508957  0.587405455881  -0.322934362571  -0.415530297439  -0.0817852348008  0.00378361913111  
4.41782307625  -0.0163014020387  0.60734228532  -0.337632755148  -0.429675146109  -0.0719530051303  0.00760825164915  
4.4259121418  -0.0100638875547  0.621772588713  -0.348116546214  -0.442869259083  -0.0584614293185  -0.00425311622138  
4.43397498131  -0.00526023627532  0.631378036747  -0.349646194311  -0.437413400481  -0.0441959542822  0.00242738956687  
4.44204711914  -0.00182383180298  0.65039089846  -0.356294288347  -0.454719440455  -0.0393176907972  -0.00716737255448  
4.45018219948  0.000429676032668  0.653071116945  -0.354656364929  -0.467172777054  -0.0405885459238  -0.0121713060358  
4.45829105377  0.00173577519893  0.645661629948  -0.348215207104  -0.458705896694  -0.0370682270165  -0.0272383824927  
4.46638321877  0.00233575157284  0.639642937461  -0.344900822546  -0.438578525673  -0.0310421325118  -0.0200528753235  
4.47441411018  0.00244888527501  0.628438056153  -0.338487241458  -0.413583809813  -0.0241497020354  -0.000267463365067  
4.48249316216  0.00225810028748  0.615302935378  -0.330891239191  -0.404996124214  -0.017465639995  -0.00171830738762  
4.49081206322  0.00190519788795  0.615715998622  -0.334039456942  -0.407166567433  -0.0199556242724  -0.00241364681751  
4.49892115593  0.00149234112122  0.610898724727  -0.332652975573  -0.398867128414  -0.0193455466612  -0.00257574512143  
4.50692415237  0.00108713137651  0.596787496458  -0.323359344677  -0.385159917944  -0.0169365311899  0.0109506230701  
4.51494717598  0.000729303078211  0.578591013715  -0.315621797498  -0.369657206581  -0.0137030758917  0.00456132187946  
4.52301502228  0.000437681749671  0.566524016391  -0.309646664748  -0.35471497929  -0.0103166802352  0.0135926182911  
4.53108501434  0.000216565166619  0.552753065601  -0.305351765169  -0.375062725442  0.00114694894137  0.0175800452517  
4.53925204277  0.00677171675767  0.532751982608  -0.297189466114  -0.381066703053  -0.000438154219939  0.0181147146962  
4.54737401009  0.00999118085168  0.517782849187  -0.287576503661  -0.377817523883  -0.00969141127475  0.016522221088  
4.55540704727  0.0108667676179  0.507415769385  -0.288747457873  -0.38604849253  -0.00587673974454  0.0138222085153  
4.56352305412  0.0102442060592  0.50090353998  -0.290948121606  -0.383617141506  -0.00296414020765  0.0107431483369  
4.57175803185  0.0154995534546  0.497390924917  -0.293529674777  -0.375039750273  -0.000904338483071  0.00776195324634  
4.57985806465  0.0170177254726  0.496046666115  -0.296068566139  -0.380368639189  -0.00791823313302  0.00515430252954  
4.58795809746  0.016130916343  0.496146345173  -0.298313733569  -0.376796714311  -0.0112925520856  0.00304607606975  
4.59599614143  0.0138954452136  0.497101459244  -0.305464956031  -0.368255620741  -0.012123567268  0.00146002119992  
4.6040520668  0.0110872460985  0.498467168162  -0.314805863744  -0.357636455988  -0.00299682880366  0.000354631969388  
4.61214709282  0.00823215123883  0.499936439092  -0.32447345439  -0.363578857456  -0.00554733077059  -0.013697291982  
4.62020611763  0.00565046666509  0.501312645466  -0.333314386047  -0.362148089116  -0.00649525325434  -0.00733310762845  
4.62835717201  0.00350541135702  0.495828421453  -0.335401841071  -0.356438177969  -0.00637776116741  -0.00273517544996  
4.63645601273  0.00184875769086  0.493464970882  -0.338541495478  -0.348761897617  -0.00563372503855  0.000311176007541  
4.64456009865  0.00990479626751  0.490992803481  -0.342607881991  -0.341563379497  0.00486165862042  0.0163104107989  
4.65270900726  0.0170900966558  0.50174785429  -0.352634882465  -0.36274954529  0.00167757406127  -0.00358938027621  
4.66081118584  0.0263083533849  0.508503436164  -0.358721389501  -0.370556792623  -0.000413366500192  -0.00180654451828  
4.66884708405  0.0290616248604  0.512145175466  -0.361799200932  -0.369499057666  0.00672101629453  -0.000539821837108  
4.67683315277  0.0343533914243  0.520192575369  -0.36807467999  -0.37992281245  0.0186371926338  0.000276871951463  
4.68484306335  0.0406128279007  0.523377876882  -0.370280677178  -0.379453485655  0.0321641707572  0.000737420085345  
4.69301819801  0.0467907428537  0.516649795041  -0.364483346866  -0.405871334777  0.0368838521364  0.000935739978236  
4.70098400116  0.0522672999985  0.51133981422  -0.359822938404  -0.428948235575  0.0358189411827  -0.0123956872207  
4.7090420723  0.0500349940404  0.500786740939  -0.351012144492  -0.430889568782  0.0480867658928  -0.00573688313825  
4.71715712547  0.0501225191024  0.481542742541  -0.335314574311  -0.41994199973  0.0587185861768  -0.0144823739639  
4.72522616386  0.0515954345903  0.465773376737  -0.322467582277  -0.435796590445  0.058897491237  -0.0182044395948  
4.73336410522  0.0537420843916  0.433783488032  -0.302029202112  -0.416002265869  0.0527844531425  -0.00516248641846  
4.74142718315  0.0560676293141  0.422065123684  -0.295178819767  -0.4102726366  0.0518883191122  0.00321101348011  
4.74969220161  0.058254855001  0.410439643823  -0.286554796723  -0.413596743145  0.0542197254552  -0.00545787203618  
4.75775408745  0.060128128472  0.400090960159  -0.283093400058  -0.422002618601  0.0498958269625  -0.010087101004  
4.7658560276  0.0683243447535  0.384941685372  -0.272448412605  -0.399189554323  0.0503761984987  -0.0117980249325  
4.77380299568  0.0727412567756  0.368511548253  -0.263935026215  -0.376735742937  0.0536928243483  -0.0115780810598  
4.78187417984  0.0811316189143  0.353046927593  -0.257601812618  -0.373563502218  0.0583601373605  -0.0102233818288  
4.78999304771  0.0910221988804  0.34645387768  -0.258572068349  -0.365611989199  0.0716892639807  0.00502031412969  
4.79801607132  0.0940572966742  0.332562438527  -0.253168385358  -0.372311908731  0.072120142547  0.000287285093414  
4.80609512329  0.0993677056321  0.315757507207  -0.244507438061  -0.353723726848  0.0897958493431  0.010763242751  
4.81422901154  0.112195827925  0.298976995544  -0.234807744339  -0.338605443676  0.0992685361168  0.00256437023622  
4.82225608826  0.121469657028  0.283984921083  -0.225509503546  -0.327173233926  0.111159098058  0.0107212932569  
4.83035898209  0.134340479759  0.278308034542  -0.22276113823  -0.319159032386  0.123248125205  0.0011360765717  
4.8384912014  0.148011780999  0.272159760491  -0.218906725742  -0.31403797633  0.13417941994  -0.00473910700398  
4.84656906128  0.154008659341  0.273035584966  -0.220120482902  -0.31119596413  0.134917209329  -0.00776207451839  
4.85485601425  0.168189085325  0.271375512414  -0.213601811124  -0.293331495305  0.137802745373  -0.00875524057101  
4.86279320717  0.179074322374  0.268366572966  -0.208448236119  -0.285025430499  0.141677346765  0.00492532937153  
4.87082505226  0.186830355673  0.271524179348  -0.209987406935  -0.26664488103  0.15408060739  -0.000735100484103  
4.87894010544  0.191891377522  0.27139216604  -0.204734077143  -0.260847757463  0.170291403339  0.00929264258069  
4.88697218895  0.201510697615  0.269297879019  -0.195956583008  -0.263217864126  0.187075150237  0.000980288972257  
4.8950650692  0.206141348287  0.266247956511  -0.18067171033  -0.253546325234  0.194085229682  -0.004115080556  
4.90314698219  0.213998362808  0.26294547292  -0.168416687501  -0.254355564228  0.202832403867  -0.00673628155382  
4.91119813919  0.229674503779  0.259841863018  -0.15927570498  -0.244680799715  0.211703303924  0.00575468865559  
4.9192481041  0.241677112611  0.263844567313  -0.152973911752  -0.26311381424  0.219709968843  -0.000706755620173  
4.92731618881  0.250204829091  0.26502888992  -0.149034171752  -0.263094971323  0.226354281741  -0.00451392206172  
4.93543219566  0.262459336591  0.264396082017  -0.141607773837  -0.302060368722  0.231479838014  -0.0196719597303  
4.94351220131  0.268946639628  0.269399596655  -0.14351684837  -0.310250420001  0.24349638027  -0.0133401756855  
4.95160007477  0.277998089848  0.270599002286  -0.140183502945  -0.299093571484  0.258382265813  -0.00812723177882  
4.9596362114  0.280924135324  0.269385409405  -0.134052833304  -0.294201659872  0.265070566249  -0.00414257350163  
4.96789598465  0.286574064936  0.266854414199  -0.132209784179  -0.293592042672  0.274478263854  0.0120361449862  
4.97587013245  0.29326502854  0.270459911554  -0.133144787918  -0.295611883557  0.276181230091  0.00712292991547  
4.98396110535  0.299872894124  0.270707357248  -0.130320010236  -0.298998458839  0.256391591149  0.00341735237894  
4.99198412895  0.305732270165  0.275572226029  -0.130861592844  -0.302847030981  0.250828064762  0.000834118885694  
5.00012421608  0.31052549107  0.28269428028  -0.133367547291  -0.323252495094  0.254394917142  -0.000803197341097  
5.00821709633  0.314173090288  0.290419394129  -0.13678847458  -0.351443954557  0.246372918292  -0.00170030435684  
5.01625800133  0.316747623388  0.297688749727  -0.140395282191  -0.381327470585  0.257272158818  -0.00205874544176  
5.0243229866  0.325117327728  0.303917039076  -0.14373419674  -0.392377164262  0.270037289556  0.0112952373314  
5.03246617317  0.329372127622  0.308864746952  -0.146558262223  -0.407648879712  0.274222809642  0.00476622176618  
5.04058408737  0.337415437718  0.312520364828  -0.148775302987  -0.423848177282  0.289507632898  0.00034050802149  
5.04866909981  0.346885491872  0.308357303637  -0.145068609641  -0.422200411033  0.301496861349  0.0110018634525  
5.05683898926  0.349500421625  0.306599219263  -0.143523645256  -0.426707458477  0.310240772462  0.00288900638248  
5.06482410431  0.354434458287  0.299814789903  -0.138115436569  -0.417748726882  0.316113370028  0.0110631996792  
5.07295012474  0.360243163559  0.284069850331  -0.125631744427  -0.418338268661  0.319645310924  0.00145226021171  
5.0809841156  0.365962176052  0.271269854848  -0.115546013149  -0.407914015334  0.32139893428  -0.00447175744539  
5.08905816078  0.37102261831  0.254933514374  -0.107960040663  -0.375287661495  0.313557718291  -0.00755224778181  
5.09718203545  0.37515443159  0.231539054111  -0.0920279931946  -0.349472927719  0.309129317413  -0.00860207222522  
5.10524916649  0.378292953434  0.206379072097  -0.0780887370477  -0.313788689603  0.307221126034  0.00502832674765  
5.11333298683  0.38050430824  0.182817484047  -0.0668178991061  -0.292632040727  0.307024334459  -0.00067303982462  
5.12142300606  0.381925294875  0.156043637052  -0.0583314900962  -0.265744485892  0.299531554771  -0.00402794305365  
5.12952113152  0.389432819044  0.12350992182  -0.0470841412828  -0.238251215741  0.288448768996  -0.00561455081148  
5.13775420189  0.39980185479  0.0909544973968  -0.0353661668859  -0.213298326394  0.276385016401  -0.00597310628685  
5.14593505859  0.404081287036  0.0618243235774  -0.0246035161347  -0.19250430496  0.265005487635  -0.00555730340869  
5.15387821198  0.410963127883  0.0378248685325  -0.0155504681098  -0.159711183056  0.255239682756  0.00863049527713  
5.16196417809  0.411971660358  0.0194370698403  -0.00847882481256  -0.139866250283  0.247473059029  0.0162344939942  
5.17007708549  0.416059322651  0.00635669364803  -0.00334233022338  -0.129890952578  0.241724087558  0.00572870182666  
5.17819809914  0.421564513739  -0.00215924769315  9.11329257315e-05  -0.110198834665  0.237793867682  -0.0011836317729  
5.18625020981  0.427339187539  -0.013696102128  0.00746772534575  -0.0867506236632  0.243712609263  -0.00520410556666  
5.19431805611  0.432664818937  -0.0191718940781  0.0111056389025  -0.0802124972518  0.246573983979  -0.00706565305552  
5.20237517357  0.437158694393  -0.0270903055178  0.017441571434  -0.0678284093238  0.247295370313  -0.00743584106869  
5.21058011055  0.433969303554  -0.0356391365104  0.0247275485345  -0.0532378466528  0.255000302593  -0.00687253097554  
5.21856617928  0.433215366081  -0.0436647335609  0.0318153514867  -0.0388649622735  0.266085459922  -0.0058088740291  
5.22684311867  0.42729521156  -0.0571866281306  0.0433628348585  -0.0261405851584  0.26968083561  -0.00455748372541  
5.23498106003  0.425608443566  -0.0725800576326  0.0563664644876  -0.0324380869952  0.268402038586  -0.00332566839193  
5.24286317825  0.413222406956  -0.087470145012  0.0688715831006  -0.0161080313624  0.264333593468  -0.00223568808494  
5.2509701252  0.409140778294  -0.107143479849  0.0850825686448  -0.00460487362892  0.259023369659  -0.00134588528916  
5.25897502899  0.410477350919  -0.127612603732  0.101808208473  0.00278016020955  0.253529251988  -0.0140216114775  
5.26709318161  0.414922180571  -0.153053319331  0.117080725742  0.0236017692952  0.240158855731  -0.00679791913185  
5.27519011497  0.420761670422  -0.17879366867  0.135191223847  0.0336047484334  0.248508355294  -0.00174100515103  
5.28334116936  0.413401182787  -0.188678257209  0.137118669105  0.0360546662479  0.235635874473  0.00147561139609  
5.29145216942  0.405603996281  -0.201320060637  0.139783308768  0.0670948436384  0.236411203286  0.016600346125  
5.29954314232  0.391662738404  -0.21428703171  0.147933341947  0.095330522372  0.228614400213  0.010573035405  
5.30769920349  0.375505723166  -0.219420283482  0.147868634345  0.135583152694  0.224834821751  0.00583491564075  
5.31584811211  0.353015648747  -0.212652275845  0.142871026445  0.178799872613  0.207180045433  0.00237711768501  
5.32387304306  0.315678124718  -0.192800540439  0.130117322442  0.202537503347  0.183060125245  5.23450265661e-05  
5.33193612099  0.313634867248  -0.173853122626  0.119383461952  0.262148855908  0.174299654195  -0.00134740131892  
5.34002017975  0.306153677607  -0.150793254912  0.100349324053  0.320314744228  0.158994889045  -0.00204455760649  
5.34805607796  0.296187756421  -0.127700660688  0.0836630451775  0.338080396256  0.149716419635  -0.00224672632755  
5.35615205765  0.292494821845  -0.100368064155  0.0648227203601  0.3631057837  0.128348395034  -0.00213068835326  
5.36423301697  0.286245194562  -0.0800336366047  0.0520047362316  0.373169536402  0.110322962379  -0.00183606981798  
5.37236213684  0.285831065068  -0.0660486714123  0.0388340623426  0.373186036258  0.0878654174124  0.0118860284941  
5.3804090023  0.28896375117  -0.06400474937  0.0321688135455  0.36717834274  0.0734620952404  0.00551542770771  
5.38852000237  0.293891133811  -0.0626852371341  0.0247830041187  0.358192296976  0.0570697909186  0.0011055726247  
5.39659309387  0.287875537987  -0.0782166725065  0.0169926624476  0.322391959115  0.0398208008966  -0.00313710053265  
5.4047601223  0.281454077256  -0.0890507014669  0.0147604313265  0.306148231435  0.0381212745903  -0.0036941044537  
5.41288018227  0.268021689152  -0.0994669043789  0.0171961412261  0.297468967117  0.049769525477  -0.00363800742809  
5.42087507248  0.251801479278  -0.115190134787  0.0221845542497  0.310932283679  0.0598505242324  0.0101313483934  
5.42883014679  0.228910252658  -0.125781216484  0.017529095672  0.302882840544  0.0595795712637  0.00397441264082  
5.43696212769  0.211143076968  -0.138831753278  0.0182242194508  0.299451169183  0.0614693888895  -0.000144555162082  
5.44502210617  0.191619704113  -0.151980795452  0.0167408848144  0.315852235276  0.0644597093935  0.010751966228  
5.45308113098  0.179810665125  -0.170459452324  0.0194305727625  0.309045020224  0.0594495311022  0.0161580763108  
5.46132016182  0.167168067954  -0.190186191228  0.0243431059421  0.305707534173  0.0585108624529  0.00434225114767  
5.46927905083  0.155358941773  -0.215235726739  0.0353954329546  0.304814974928  0.0517726565835  -0.00320932945869  
5.47734808922  0.138586259819  -0.240835286179  0.048965364303  0.305482960252  0.0422637488556  -0.00739923486662  
5.48543906212  0.12731387615  -0.264062622535  0.0572926968532  0.323705646528  0.0404421292545  0.00422092813744  
5.49346899986  0.113825008227  -0.290070313555  0.0669208408541  0.317158371122  0.0350826883493  0.010750785925  
5.50171613693  0.107137105784  -0.315003632013  0.0763134003841  0.313123011333  0.0365080080234  0.000179979016935  
5.50984406471  0.0985285793811  -0.336659348656  0.0898935590832  0.311028754222  0.0251666466713  -0.00618534954419  
5.51788115501  0.0963845812548  -0.354062293556  0.0992342714145  0.3103198002  0.0240475028537  -0.00934952735659  
5.52589201927  0.0916351850805  -0.367076782615  0.105041740132  0.310513405574  0.0208408359167  -0.0102597258383  
5.53399014473  0.0858230221648  -0.369425675907  0.102791372032  0.327920311301  0.0250613428859  -0.00972203391539  
5.54207611084  0.0866963781813  -0.378443653558  0.106597673129  0.353820493689  0.0166052346387  -0.00837279688727  
5.55023312569  0.0914919115712  -0.390517128366  0.113638148642  0.348700193053  0.00977595870681  -0.00667935480203  
5.55827713013  0.0914210372258  -0.396487140921  0.121868440803  0.375564986712  0.0129924976837  0.00839315016612  
5.56637215614  0.0951479051998  -0.398164437876  0.124623763344  0.385424506651  0.0135535881732  0.0165528190547  
5.57447218895  0.100762165016  -0.403747840847  0.134446756555  0.400713593411  0.0124586544153  0.00634668205348  
5.5827460289  0.106913842062  -0.404429836161  0.142150831142  0.417655769489  0.0104862048813  0.0129002501684  
5.5907971859  0.112739679967  -0.408756184237  0.147775572829  0.433800031415  0.00819580540375  0.00212343352778  
5.59888911247  0.117753266413  -0.401496109724  0.151543688764  0.447757613418  0.0143012929627  -0.00457070267821  
5.60691404343  0.121750227876  -0.388047395512  0.148482630829  0.45893280643  0.0164567265698  -0.0081026013157  
5.61502814293  0.131427520987  -0.392283740818  0.152305385314  0.483945329632  0.024354463928  0.00398645941415  
5.62312602997  0.143491241114  -0.400029698511  0.159850413635  0.497937005165  0.0265230062693  -0.0025291841734  
5.63118100166  0.155712071074  -0.402401311734  0.158186091592  0.520519292819  0.0250223610221  -0.0195279056019  
5.63933420181  0.160025849841  -0.394636716751  0.15116130429  0.545880168371  0.0298243808749  -0.0143153219763  
5.64745306969  0.165850749414  -0.38826911117  0.141671410721  0.536850308729  0.0295586606894  -0.0230220377373  
5.65548610687  0.165257972839  -0.383415193267  0.131703839555  0.541507847887  0.034622200901  -0.0258190082077  
5.66362404823  0.16758616556  -0.373324019649  0.122497827849  0.537212849488  0.0340066098213  -0.0381210747271  
5.67176699638  0.171423649844  -0.361152766402  0.109398398632  0.527990834663  0.0300458932801  -0.0414796071982  
5.67994308472  0.175762558977  -0.349019482058  0.0953463202309  0.533480391758  0.0411866726771  -0.0391130175075  
5.68795609474  0.179942384119  -0.338190398531  0.0822069967102  0.513839726751  0.0518713551279  -0.0469118579558  
5.69604706764  0.190295955165  -0.329288719436  0.0710027532804  0.497877706364  0.0528051590357  -0.0466412860399  
5.70409607887  0.189840807993  -0.322481523655  0.0621423320684  0.48581612409  0.0561329515359  -0.0415531019578  
5.71219205856  0.189655277294  -0.317650918867  0.0556233272944  0.460675128994  0.0605492542264  -0.0474645403216  
5.72031617165  0.189656001508  -0.314514338191  0.0511970126536  0.447029297039  0.0734950551858  -0.0460036835472  
5.72844219208  0.183056200204  -0.312724964019  0.0484932065831  0.441727027111  0.0818500721248  -0.0269175239079  
5.73678708076  0.179902123448  -0.318591758635  0.05243506314  0.441985453332  0.0865652573705  -0.0259729809923  
5.74486112595  0.172442007545  -0.328433904579  0.0599473126645  0.428865236273  0.0969442378315  -0.0226702234438  
5.75291919708  0.156473343686  -0.346278382734  0.0741360515477  0.409098730353  0.109626454466  -0.0182952203829  
5.76099610329  0.143794035193  -0.360383136443  0.0855043917968  0.404120113301  0.114007457775  -0.0137392238946  
5.76905918121  0.134429933651  -0.377409748512  0.0993065602006  0.40854752338  0.112943107219  -0.00955585304436  
5.77710318565  0.128044561101  -0.394395376977  0.107792519842  0.418148349368  0.108725464935  -0.00603777156277  
5.78520107269  0.117409383761  -0.402903291614  0.106864221587  0.413145374342  0.103062159858  -0.00329023338933  
5.7932510376  0.112054339175  -0.418740361658  0.116358766011  0.399907177702  0.0887853100167  -0.0146464525603  
5.80134320259  0.110436436713  -0.43064938312  0.120464680647  0.399817589336  0.0791909652789  -0.00656549772986  
5.80946803093  0.111229097909  -0.445600771983  0.126225385323  0.40762835046  0.0734223517665  -0.00101897895185  
5.81773710251  0.11338371227  -0.460801065078  0.12705195632  0.402665993513  0.0705573543648  0.00241500995316  
5.82583713531  0.116129121973  -0.467886051313  0.124823189679  0.407248244039  0.069734744747  0.0175708623336  
5.83387804031  0.118938895373  -0.476011689762  0.126324528391  0.400386711452  0.0618807702382  0.011459781709  
5.84202718735  0.121488964928  -0.483906646131  0.13522789505  0.387381374607  0.0506351656529  -0.00677372726277  
5.85008120537  0.12361551984  -0.490829449149  0.142311969465  0.405443646299  0.0552325311348  -0.00364870374164  
5.85819101334  0.125261936715  -0.496436537419  0.147554098502  0.406865464671  0.0521649026336  -0.00138241600293  
5.86629104614  0.126446520624  -0.494004703446  0.145810859845  0.398143600471  0.044815896924  -0.0132287372284  
5.87436008453  0.127230582038  -0.493664427359  0.15070610817  0.417635022307  0.0440200647823  -0.0189429105084  
5.88258600235  0.127690078786  -0.48796015353  0.148424651611  0.418629483952  0.0472426130669  -0.0203692151622  
5.89073419571  0.127907953593  -0.479636470741  0.147395548956  0.441787543749  0.0525347320259  -0.019073352792  
5.89886617661  0.134666946087  -0.477280189174  0.14723512972  0.442427047459  0.0501644418996  -0.0296332568567  
5.90682411194  0.1379277822  -0.472095701221  0.142285549971  0.446169577714  0.0434449199672  -0.0328434120791  
5.91495013237  0.14545348381  -0.472418466549  0.14031090604  0.434696975737  0.0431713945368  -0.0446513931137  
5.9229581356  0.148036493279  -0.46935412386  0.140323875203  0.43198888665  0.0384521515025  -0.0603753982043  
5.93106198311  0.147379046097  -0.464578701162  0.136209750095  0.43483468631  0.0399055377428  -0.0634358195687  
5.93908405304  0.151556691234  -0.465940682878  0.140697122312  0.440710726654  0.0449099831351  -0.0585715903973  
5.94718313217  0.151485664012  -0.464183719317  0.139228133429  0.431091053351  0.0515171005829  -0.062819949641  
5.95538401604  0.148872254288  -0.467397653608  0.144983071907  0.42987814753  0.0500429217454  -0.072091448247  
5.96341013908  0.151719162268  -0.466597473589  0.14914091312  0.4338435651  0.0522183113379  -0.0833937613637  
5.97150015831  0.150832903914  -0.470130288917  0.157227735736  0.440492628374  0.0563569285307  -0.108074269182  
5.97979402542  0.147799521689  -0.4758919791  0.166817941864  0.448052019323  0.0528911879995  -0.138178207063  
5.98777914047  0.150507856335  -0.475722637374  0.170971395174  0.438669671123  0.053571379151  -0.181706788224  
5.99582600594  0.149666422654  -0.478670046403  0.171427604975  0.420106266232  0.0483257330439  -0.228693565868  
6.00391101837  0.146783118221  -0.476519518383  0.16961364684  0.41468973428  0.0400759868839  -0.286145840441  
6.01195216179  0.149688802422  -0.471535374844  0.166628236521  0.417735121112  0.0392405502996  -0.317108216476  
6.02005720139  0.149053783351  -0.465379793948  0.157937842039  0.408847475977  0.0429441246458  -0.34225433009  
6.0281701088  0.153068003162  -0.465827901096  0.157385954794  0.410422786567  0.0406340443932  -0.374612302897  
6.03626298904  0.159449940718  -0.470194009466  0.151140040958  0.434801295759  0.0433002637895  -0.381184381171  
6.04431700706  0.159867252724  -0.463131814498  0.142117957512  0.436913702463  0.0403304454601  -0.384935812181  
6.05249118805  0.163372093596  -0.463271783107  0.137718634693  0.442121838158  0.0426346246878  -0.386603760441  
6.06083106995  0.167000717186  -0.464336787285  0.137454747599  0.455263255813  0.0418199164724  -0.372862495471  
6.06883215904  0.168684970973  -0.463895278825  0.134176163437  0.444556757987  0.0387879726284  -0.378512648051  
6.0768430233  0.172021780877  -0.461269354577  0.128733033773  0.457956098823  0.0495624519794  -0.368655477723  
6.08492708206  0.175995700721  -0.45761227453  0.122566641471  0.451038616713  0.0507982282348  -0.377226124395  
6.09303116798  0.179932012331  -0.453721466115  0.116617742031  0.44933643836  0.0545190639182  -0.369256364136  
6.10107016563  0.183430044752  -0.45675907418  0.11675462767  0.450953384358  0.0593415312263  -0.365546475328  
6.10919809341  0.193006377301  -0.456978279251  0.109883195749  0.437700808808  0.0559707044175  -0.364787464375  
6.11725711823  0.198511014885  -0.44882145471  0.0995227767701  0.433607973581  0.0647256730234  -0.352529376235  
6.12537908554  0.200987428913  -0.44981630208  0.0988167055917  0.402073704891  0.0631488759937  -0.348014262836  
6.13344717026  0.208095233303  -0.449542108479  0.093334208159  0.374084900784  0.0555339084132  -0.348623966103  
6.14171600342  0.21723644524  -0.455190074579  0.0908862865231  0.384562371701  0.0701359080453  -0.338893800028  
6.1495821476  0.22662859798  -0.457140478223  0.0905132905708  0.366954599397  0.0798432270727  -0.323983355927  
6.1578040123  0.23518086916  -0.463321657356  0.0967526890967  0.367716155469  0.0772367171615  -0.294189492776  
6.16581606865  0.242326216395  -0.464731487233  0.100972822203  0.362741501495  0.0758610031149  -0.285309924373  
6.17387318611  0.247873159926  -0.463127539332  0.103533538832  0.371529777532  0.0753729739436  -0.276575649758  
6.18199014664  0.258586257425  -0.466544782609  0.110155689756  0.387655461913  0.075468851496  -0.268844056044  
6.19006800652  0.26455901676  -0.465956615858  0.118509126681  0.406478479007  0.0842478791308  -0.262530444816  
6.19814109802  0.267054665858  -0.46302503553  0.127020177642  0.40823878439  0.0889683724705  -0.271082919045  
6.20623111725  0.260490861526  -0.458999225947  0.1294060362  0.416264182695  0.0990967204264  -0.30100833074  
6.21423101425  0.255894276356  -0.454740803913  0.138503915373  0.443894016379  0.103058206  -0.327244031294  
6.22236418724  0.252966358809  -0.450792621932  0.145350879332  0.446996039213  0.102898644287  -0.388543644953  
6.23050999641  0.244637825231  -0.447449032619  0.150123633306  0.451732835448  0.108627541875  -0.45106930776  
6.23874211311  0.240657174401  -0.4381603791  0.153139036449  0.456955180139  0.108944001906  -0.534420344903  
6.24677205086  0.226286721816  -0.419627828206  0.144137251647  0.461920284023  0.105976821276  -0.608120007439  
6.25481200218  0.220617281044  -0.404163046104  0.139520110219  0.466206738221  0.101353739501  -0.668241182435  
6.26284909248  0.21406107048  -0.385515528791  0.132698535131  0.452941079489  0.096225832903  -0.713871901838  
6.27083921432  0.214372616046  -0.366926826247  0.130593478506  0.447233932223  0.0829920967239  -0.745990655343  
6.27894115448  0.218773432143  -0.343675823718  0.126213439375  0.413292476097  0.0829797970144  -0.753262606638  
6.28701806068  0.225161893697  -0.320082493046  0.120930465921  0.399361352586  0.0742172167874  -0.74485834973  
6.29512906075  0.232067688101  -0.292117953451  0.115656151285  0.382233040611  0.0778115517891  -0.727942843134  
6.30316901207  0.245264975633  -0.264480357738  0.10562477669  0.364987751228  0.0801024305716  -0.721058425097  
6.31125617027  0.254134461618  -0.239957719286  0.0991164945213  0.332804339238  0.0813653912125  -0.707572264917  
6.31939005852  0.259468310012  -0.213235430543  0.084764816148  0.295052654627  0.0902231466753  -0.678195402554  
6.32744717598  0.262118434527  -0.194671995917  0.0725466239622  0.274634787827  0.0943597965071  -0.642381947623  
6.33554506302  0.269588202022  -0.182963990099  0.0629010489962  0.250091134609  0.103567036523  -0.619844522801  
6.34381198883  0.272453922839  -0.169946190513  0.0504899621936  0.225656754374  0.106503995156  -0.607653563588  
6.35193800926  0.27225240959  -0.164171985607  0.0377346085509  0.220557777558  0.113710726856  -0.616306640781  
6.35994911194  0.276943264395  -0.163356714574  0.0367615986451  0.210912433107  0.131065921371  -0.623204323063  
6.36779808998  0.277365622014  -0.158942313492  0.0323150227604  0.199550674939  0.135987868202  -0.655014243921  
6.3759560585  0.281890605497  -0.15948990971  0.0315765094125  0.205045664814  0.141271167778  -0.698418898819  
6.3840200901  0.28168942845  -0.156301234491  0.0278154599263  0.203392038282  0.137872816592  -0.717490080535  
6.39218902588  0.285383813918  -0.151205195962  0.0279555017338  0.197617343306  0.137967171443  -0.733291631307  
6.40029001236  0.284317138067  -0.138844257877  0.0250959812911  0.189981032022  0.140150479946  -0.745470093772  
6.40836405754  0.287214945194  -0.130087682252  0.0207446164644  0.182034759241  0.143354439668  -0.767543735851  
6.41663599014  0.298896743541  -0.124422489657  0.0159596786973  0.191427993702  0.146833683484  -0.793224584236  
6.42463803291  0.30119659211  -0.121208030303  0.0167377931624  0.176861152896  0.141765928565  -0.805005220522  
6.43264508247  0.304330693995  -0.113143601683  0.0154456730275  0.166135580532  0.148792581607  -0.807198576495  
6.440721035  0.307635989411  -0.109678055583  0.0130535090602  0.175544272852  0.14564811376  -0.790059075243  
6.44882321358  0.310696427683  -0.109338416951  0.0102542709443  0.162664231149  0.136728914818  -0.763130881988  
6.45694112778  0.313286799204  -0.104253221855  0.00750031145474  0.171138924234  0.133633101059  -0.7465255126  
6.46501517296  0.322030700481  -0.103513326838  0.00507058161788  0.174853284805  0.134360926673  -0.751222649763  
6.47308707237  0.326835960308  -0.105460952882  0.00309191322485  0.15862267071  0.128960368212  -0.754854629584  
6.48123216629  0.335477215786  -0.108814651896  0.00691200853716  0.182200952037  0.128793662973  -0.770809289371  
6.48926711082  0.345511365045  -0.105999752927  0.0031642394477  0.160434965315  0.12344460799  -0.792477896728  
6.49745321274  0.348609004027  -0.113094607098  0.0112385064193  0.180496730376  0.115548242401  -0.815282473386  
6.50538110733  0.35392820498  -0.112073195203  0.00958785160287  0.173491079654  0.106958153901  -0.863060524822  
6.51360011101  0.360019828457  -0.112944551862  0.0129158853377  0.184345316292  0.107203884611  -0.934136863255  
6.52167105675  0.365931337449  -0.114862424575  0.018883713352  0.204781259081  0.104382334438  -0.9983348664  
6.52976107597  0.364401483629  -0.117205364854  0.0258059632597  0.21211288501  0.100013433273  -1.07832381474  
6.53783106804  0.36527602957  -0.112898126557  0.0272409090849  0.210805815899  0.103524154649  -1.13264304263  
6.54590010643  0.360794604729  -0.111711775566  0.0305593352006  0.221145243984  0.103049320465  -1.17917131372  
6.55399513245  0.360281515104  -0.105866578814  0.0346502478842  0.22069663127  0.108574773682  -1.22947113393  
6.56213402748  0.355493823376  -0.0978412867042  0.0387739372414  0.213817026137  0.108774810701  -1.29007652883  
6.57019019127  0.355356887447  -0.0893576714323  0.0424817702223  0.187117912308  0.105755678634  -1.35046853999  
6.57827115059  0.351314887624  -0.0814936117351  0.0455486103813  0.18471924505  0.109467875921  -1.40435674961  
6.58631420135  0.352066508467  -0.0748332138074  0.0479071353066  0.180478358888  0.108486139607  -1.44865086867  
6.59437608719  0.348904902785  -0.0629388912528  0.0442647194505  0.175572003435  0.104788758798  -1.46916401223  
6.6024980545  0.350439040641  -0.0558161039105  0.0427308638979  0.170784724632  0.0998532350932  -1.48659104377  
6.61053800583  0.354629177376  -0.0456529245574  0.0373007792362  0.166574456402  0.111384135022  -1.50033591604  
6.61875915527  0.373390778307  -0.0347363061509  0.0301047976033  0.163154892411  0.114893343714  -1.53712114225  
6.6267311573  0.385495489746  -0.031179977579  0.0279368119652  0.143881414368  0.113212602006  -1.5438015107  
6.63478803635  0.392324187015  -0.025757574246  0.0236888667325  0.117126965069  0.116941470499  -1.50499557193  
6.64282917976  0.395265986562  -0.0197853086609  0.018639432077  0.122090149549  0.123525061464  -1.45634940649  
6.65093517303  0.402276599508  -0.0141140254991  0.0136426106493  0.0955002387345  0.13112382685  -1.43364891789  
6.65903615952  0.410990398621  -0.00922220797899  0.00920507049663  0.0861483440057  0.138530444464  -1.41556595056  
6.66714501381  0.419806905288  -0.00531449181679  0.0055716046857  0.0714499877425  0.145039594472  -1.41550937998  
6.67517900467  0.421041752053  -0.00240966805364  0.00280410067279  0.0550890230087  0.158667695344  -1.39957037309  
6.68332004547  0.431016982413  -0.000413087903318  0.000848217180413  0.0394588804229  0.166783978124  -1.37577910515  
6.69142413139  0.438476817687  0.000827933734373  -0.000414352938852  0.0426039196418  0.170734797062  -1.34979132111  
6.69942712784  0.443636822437  0.00148476216057  -0.00112778387139  0.0399991035874  0.171770237167  -1.3118766674  
6.70772409439  0.446872604726  0.00172186725929  -0.0014365362235  0.0175263741441  0.170947902999  -1.25745786564  
6.71581315994  0.441903639793  0.00168221346471  -0.00146998549609  0.0188755590386  0.16909671229  -1.18553053476  
6.72374010086  0.45937459326  0.00148076904313  -0.00133479661228  0.0176997470765  0.16682555781  -1.16409770598  
6.73179721832  0.468341737727  0.00120357021409  -0.00111274927494  0.0151252675611  0.172887034533  -1.14853554965  
6.73990821838  0.477962158312  0.000910215474719  -0.000862061980351  0.0119838732401  0.174963700862  -1.1381248242  
6.7479660511  0.486961763864  0.000638153662337  -0.00062067442226  0.00883425847723  0.174428542677  -1.11855116135  
6.75603604317  0.49463857988  0.000407594888426  -0.000410357723337  0.00601235311195  0.180728162949  -1.09554266219  
6.76411318779  0.500709763506  0.000226276365573  -0.000240887040754  0.00368501159297  0.190464155597  -1.0595523325  
6.77226305008  0.511888936682  9.36378785208e-05  -0.000113810898718  0.00190006807799  0.192889701638  -1.01957147577  
6.78038215637  0.511533140944  4.20222257792e-06  -2.55805795744e-05  0.00062892566657  0.207359816776  -0.981419119046  
6.78858613968  0.51042229564  -7.70436440191e-05  6.02165102637e-05  0.016013505069  0.224051081812  -0.921930445677  
6.79676508904  0.509877159847  -8.51986030471e-05  7.19575508513e-05  -0.00932105621363  0.216671456314  -0.928900112635  
6.80475616455  0.509409621852  -8.1091260839e-05  7.13992864725e-05  0.00982793243727  0.206054441976  -0.941846660671  
6.8128631115  0.509037999089  -7.00637263395e-05  6.35238100802e-05  0.00360192493088  0.202967644587  -0.957003513187  
6.82091403008  0.515472151357  -5.60506435676e-05  5.2091786309e-05  0.0161683296108  0.196382548756  -0.958534089537  
6.82903599739  0.525313350161  -4.1727019567e-05  3.97341875628e-05  0.0220056663466  0.196733703182  -0.951723405499  
6.83709216118  0.536156920931  -2.87299138041e-05  2.81266200804e-05  0.0231823713252  0.184524183362  -0.95398144007  
6.8451590538  0.553168533317  -1.79010106788e-05  1.8194770058e-05  0.00475046546946  0.182751912399  -0.961446562686  
6.85326600075  0.565373945106  -9.51609766672e-06  1.03168154071e-05  0.00987541086711  0.170745583224  -0.984597948243  
6.861328125  0.573406035703  0.00665572051084  -0.00532254848118  0.0119145504479  0.162204184194  -1.01471773256  
6.86953306198  0.578085444781  0.00995350212393  -0.00796139320525  0.0118791406902  0.156648699418  -1.05918512177  
6.87759804726  0.580261525245  0.0108800401747  -0.00870314388907  0.0106033163848  0.170159912612  -1.09421809319  
6.88574910164  0.580706481956  0.0102866355043  -0.00822882596493  -0.00797091560885  0.168652039212  -1.14658920306  
6.89383816719  0.580064695297  0.00884435779754  -0.00707529812594  -0.0182770386659  0.174974084227  -1.20383870171  
6.90187001228  0.578840500411  0.0137029600116  -0.0109617537777  -0.00583832182287  0.176988163823  -1.25796993946  
6.91006016731  0.57068575579  0.0151729843767  -0.0121375822674  0.00224662587172  0.184544729676  -1.2911607216  
6.9182062149  0.572651962603  0.0144521313337  -0.0115608703275  0.0235473238901  0.194633019383  -1.32163423365  
6.92613720894  0.567067607264  0.0191526916375  -0.0153210777842  0.0338435062745  0.205174190549  -1.34726426734  
6.93421602249  0.564248455795  0.0199523753058  -0.0159607937432  0.0364440560609  0.206527505915  -1.36728503338  
6.94232416153  0.563387286945  0.024982383574  -0.0199858323925  0.0675331930302  0.218914241873  -1.38182812669  
6.95039200783  0.56379287065  0.0320231550424  -0.0256187655956  0.0623735872529  0.219929101778  -1.39154708815  
6.9587161541  0.558204764459  0.032867032715  -0.0262940315913  0.0693724821883  0.214006682296  -1.38399693616  
6.96673321724  0.55631783563  0.0432172359695  -0.0345745608969  0.0662518328274  0.204550857198  -1.39358202596  
6.97472214699  0.550144316281  0.0515262360459  -0.0412215882413  0.0740725125605  0.202319244377  -1.37239245108  
6.98272299767  0.555468142929  0.0643877690436  -0.0515112700931  0.0709483245281  0.213003190826  -1.36166686872  
6.99089121819  0.553712263083  0.0719654383564  -0.057572945102  0.0782708716501  0.221965752928  -1.33166109396  
6.99891114235  0.55459962839  0.0755720925054  -0.0604576179362  0.0744045433874  0.220598941233  -1.30659734927  
7.0071041584  0.550271383022  0.0764147747831  -0.0611323131599  0.0642277534689  0.221523609964  -1.26044998101  
7.01510810852  0.549977886486  0.0821700398871  -0.0657358693586  0.0680304710035  0.232073780281  -1.1931672397  
