Ethan-CYM/ros_catkin_ws/test/伺服_gain2000_looktime003/ur_joint_target_degree.txt
time  shoulder_pan_joint  shoulder_lift_joint  elbow_joint  wrist_1_joint  wrist_2_joint  wrist_3_joint
0.152265071869  1.57000005245  -1.22109806538  2.09333586693  -3.1526234354  -1.57099014074  0.0350943555637  
0.160133123398  1.57000005245  -1.22109806538  2.09333586693  -3.15259927423  -1.57100214913  0.0381226871497  
0.16823220253  1.57000005245  -1.22109806538  2.09333586693  -3.15254180817  -1.57098199014  0.0405925445152  
0.176366090775  1.57000005245  -1.22109806538  2.09333586693  -3.15247043764  -1.57094466874  0.0425382271023  
0.18446803093  1.57000005245  -1.22109806538  2.09333586693  -3.15239826597  -1.57090099631  0.0444300913644  
0.192670106888  1.57000005245  -1.22109806538  2.09333586693  -3.15233323611  -1.57085812741  0.0463799195276  
0.200820207596  1.57000005245  -1.22109806538  2.09333586693  -3.15227935735  -1.57082026793  0.0482665881961  
0.208759069443  1.57000005245  -1.22109806538  2.09333586693  -3.15223785645  -1.57078941116  0.0500241346061  
0.216859102249  1.57000005245  -1.22109806538  2.09333586693  -3.15220816184  -1.57076601295  0.0516266363697  
0.224842071533  1.57000005245  -1.22109806538  2.09333586693  -3.15218868387  -1.57074955894  0.0530749218983  
0.232886075974  1.57000005245  -1.22109806538  2.09333586693  -3.15217739015  -1.57073900728  0.0543857755247  
0.241051197052  1.57000005245  -1.22109806538  2.09333586693  -3.15217219747  -1.57073310977  0.0555837776509  
0.249138116837  1.57000005245  -1.22109806538  2.09333586693  -3.15217121212  -1.57073062632  0.0566239848448  
0.257284164429  1.57000005245  -1.22109806538  2.09333586693  -3.15217285407  -1.57073045263  0.0575313031033  
0.265288114548  1.57000005245  -1.22109806538  2.09333586693  -3.15217589825  -1.5707316825  0.0582995097278  
0.273343086243  1.57000005245  -1.22109806538  2.09333586693  -3.15217946188  -1.57073362422  0.0589031554737  
0.281440019608  1.57000005245  -1.22109806538  2.09333586693  -3.15218296065  -1.57073578778  0.0594159476347  
0.289704084396  1.57000005245  -1.22109806538  2.09333586693  -3.15218605103  -1.57073785589  0.0599281011521  
0.297744989395  1.57000005245  -1.2212051883  2.09330745661  -3.15227805759  -1.57060540039  0.0604221907994  
0.305827140808  1.57000005245  -1.22159826139  2.09327927304  -3.15254867931  -1.57011423359  0.060924868321  
0.313925981522  1.57003604108  -1.22235493719  2.09332600561  -3.1528538466  -1.56912228244  0.0614876194793  
0.322010993958  1.5701081117  -1.22339380662  2.09344190261  -3.15319149445  -1.56764198847  0.0621349766792  
0.330121040344  1.57019420986  -1.22456421529  2.09358711455  -3.15364797736  -1.56575513599  0.0627295105699  
0.338433980942  1.57027962753  -1.22574376062  2.09373462137  -3.15426253343  -1.56359845854  0.0631931653433  
0.346504211426  1.57035561588  -1.2268223654  2.09383941564  -3.15495249582  -1.56139472349  0.0635293611203  
0.354711055756  1.57041792389  -1.22776223238  2.09392159818  -3.15579382019  -1.55923850249  0.0638252135647  
0.362770080566  1.57046544698  -1.22857350598  2.09399610498  -3.1568175922  -1.55713597812  0.0641020346709  
0.370843172073  1.57049908417  -1.2292758428  2.09405818994  -3.15788816987  -1.55517469126  0.0643382063448  
0.378885984421  1.57052084117  -1.22985682743  2.0940777581  -3.15887375088  -1.55343774555  0.0645250568701  
0.386958122253  1.57053317555  -1.23037509298  2.09405533915  -3.15970426731  -1.55195128252  0.0647341977755  
0.395045995712  1.5705385563  -1.23087302894  2.09401018321  -3.16044356222  -1.55065976928  0.0649710280035  
0.403115034103  1.57053919854  -1.23136005288  2.09392768369  -3.16109557367  -1.54953130849  0.0651994517297  
0.41118311882  1.57053693116  -1.23184296107  2.09381704613  -3.16162637843  -1.54859705808  0.0654703130447  
0.419359207153  1.5705331583  -1.23232626816  2.09370128542  -3.16211793712  -1.54783319679  0.0657028245109  
0.427408218384  1.57052888102  -1.23281263545  2.09359473694  -3.16257955582  -1.54718468732  0.0659229745584  
0.435703992844  1.57052475297  -1.23330333987  2.09350501651  -3.16297446589  -1.54665109198  0.0660772664294  
0.443497180939  1.57052115039  -1.23379868509  2.09337785998  -3.16328766172  -1.54619802406  0.0661393568858  
0.451694011688  1.57048225486  -1.23436978512  2.09321280403  -3.16342927014  -1.54581834841  0.0662111982887  
0.459792137146  1.57040800149  -1.23508759897  2.0930141002  -3.16340750648  -1.54552278637  0.066317709787  
0.467871189117  1.57032038542  -1.23597919144  2.09274480238  -3.16329006365  -1.54521938024  0.0663621610254  
0.475929021835  1.57023400884  -1.23711385441  2.09240430521  -3.16303815616  -1.5448530497  0.0663998927627  
0.484061002731  1.57015749812  -1.23843666052  2.09198568614  -3.16268670878  -1.54442016345  0.0664660193634  
0.492146015167  1.57009498469  -1.24005457298  2.0914787046  -3.16213367465  -1.54383606886  0.0665421911303  
0.500279188156  1.57004746798  -1.2420381047  2.09088657823  -3.16133762467  -1.54310996809  0.0665447388431  
0.508385181427  1.57001396349  -1.2443189138  2.09024868039  -3.16025538644  -1.54235263728  0.0664664539052  
0.516489028931  1.56999240096  -1.24680645397  2.08957941985  -3.15884579863  -1.54156705722  0.0664195634325  
0.524855136871  1.56997509537  -1.25207814686  2.08822682742  -3.15484491161  -1.53977178042  0.066480854749  
0.532804012299  1.5699746233  -1.25472388603  2.08756122796  -3.15240069403  -1.53883325469  0.0664729803716  
0.540849208832  1.56997702584  -1.25731913509  2.08690201155  -3.14969923555  -1.53790566198  0.066467627302  
0.548902988434  1.56994491008  -1.25982546985  2.08625893312  -3.14681327863  -1.53699233237  0.0664291577997  
0.557000160217  1.56987718498  -1.26219353634  2.08559355672  -3.14385143729  -1.5361165083  0.0663384808415  
0.565077066422  1.56975927669  -1.26442589239  2.08491324554  -3.14088688073  -1.53528816768  0.066297674201  
0.573215007782  1.56960542956  -1.26652084717  2.08425297114  -3.13787426472  -1.5345082796  0.0662558917299  
0.581320047379  1.56944627742  -1.26847373829  2.08363158179  -3.1348354546  -1.53377230802  0.0662531306304  
0.589472055435  1.56930075229  -1.27029678172  2.08308480998  -3.13183185852  -1.53307289443  0.0663104728177  
0.597710132599  1.56914278042  -1.27197530842  2.08261213326  -3.12889657697  -1.5324465167  0.0663262005978  
0.605713129044  1.56897572804  -1.27346191103  2.08216232124  -3.12613174152  -1.53193009383  0.0662789005299  
0.613747119904  1.5687848843  -1.27476598137  2.08171627285  -3.12353660933  -1.53148941064  0.0662704003563  
0.621828079224  1.56854563962  -1.27593058949  2.08127667472  -3.12104730009  -1.53107318838  0.066322476789  
0.629962205887  1.56824835526  -1.27696058135  2.08084441527  -3.11861434383  -1.53073759036  0.0663337788314  
0.637992143631  1.56789337628  -1.27789064207  2.0804478039  -3.11629161641  -1.53041904005  0.0663546277032  
0.646103143692  1.56745101021  -1.2787345697  2.08008600757  -3.11405578631  -1.53009884475  0.0664154098708  
0.654165029526  1.56689438756  -1.27952728503  2.07974035189  -3.11192767553  -1.52981147973  0.0664937214915  
0.662290096283  1.566219457  -1.28027758622  2.07939791638  -3.10995390686  -1.52957415322  0.0665026716758  
0.670458078384  1.56543628785  -1.28104849554  2.07907920579  -3.10814614042  -1.52930239683  0.0665042727708  
0.678730010986  1.56452636606  -1.28187623883  2.07875145564  -3.10640434989  -1.52899318116  0.0665377071599  
0.686741113663  1.56347367523  -1.28282979704  2.07842407159  -3.10470556309  -1.52869415759  0.0665150980709  
0.694741010666  1.56228367993  -1.28393785415  2.07807462229  -3.10307696485  -1.52843282723  0.0664964599922  
0.702891111374  1.56090219402  -1.28525455339  2.07769155084  -3.10152744565  -1.52822170219  0.0665185816498  
0.711041212082  1.5593523222  -1.28686235868  2.07731459409  -3.09996448174  -1.52806298393  0.0664912079975  
0.719117164612  1.55766631162  -1.28876243591  2.0769243644  -3.09837801306  -1.52795245784  0.0664722355958  
0.72719502449  1.55589555985  -1.29097787036  2.07656726389  -3.09672048883  -1.52783775474  0.0664967151655  
0.735344171524  1.55409814489  -1.2934898074  2.07628260475  -3.09510438326  -1.52770990472  0.066544668443  
0.743445158005  1.55231171754  -1.29623746934  2.07604327097  -3.09350479169  -1.52763242474  0.0665300314796  
0.751740217209  1.55059368584  -1.29919521559  2.07584227665  -3.09181401012  -1.52761609166  0.0665145972505  
0.759757995605  1.54898954664  -1.30230793218  2.07568585576  -3.08997709371  -1.52763815466  0.0665367247918  
0.767855167389  1.54751456096  -1.30550803526  2.07551597658  -3.08806602016  -1.52768091447  0.0665790419677  
0.775953054428  1.54620022518  -1.30878148134  2.07527027122  -3.08608778783  -1.5277315706  0.0666289980495  
0.784038066864  1.54506675728  -1.31209454497  2.07491933634  -3.08400817457  -1.52778161237  0.06667825933  
0.792122125626  1.54410718038  -1.31536895574  2.07442806617  -3.08190686748  -1.52787075249  0.066721901288  
0.800231218338  1.54329895351  -1.31861511344  2.07380429081  -3.07978997284  -1.52795193054  0.0667575640572  
0.808355093002  1.54264855812  -1.32180714082  2.07302411936  -3.07761727867  -1.52795225222  0.0667846750825  
0.81645321846  1.54212551947  -1.32497033373  2.07214636033  -3.07537055366  -1.52792604443  0.0668037941662  
0.824546098709  1.54171579917  -1.32808780147  2.07117448437  -3.07295719574  -1.52790945029  0.0668161010873  
0.832679986954  1.54141731012  -1.33115364105  2.07010551338  -3.07029374777  -1.52785562238  0.0668230228378  
0.840754032135  1.54121705317  -1.33418792477  2.06893391162  -3.06735656304  -1.52776239346  0.0668259839595  
0.848762989044  1.54109685784  -1.33717031015  2.06765265914  -3.06416038697  -1.52770013294  0.0668262570747  
0.856855154037  1.54103737138  -1.34011163164  2.06626914288  -3.06065190372  -1.52764102459  0.0668248892906  
0.864970207214  1.54102057585  -1.34304088363  2.06471301265  -3.05669711479  -1.52756729321  0.0668226818803  
0.873030185699  1.54103115683  -1.34597672104  2.06300237992  -3.05239628107  -1.52749257908  0.0668202040595  
0.881142139435  1.54105703858  -1.34896535319  2.06115094609  -3.04784760689  -1.52742516637  0.0668178257581  
0.889200210571  1.54108936308  -1.3518328199  2.05926668667  -3.04326964954  -1.52732450032  0.0668157583204  
0.897294044495  1.54112213755  -1.35473572748  2.05727638985  -3.03852959323  -1.5271470153  0.0668856848925  
0.905466079712  1.54115172045  -1.35780300378  2.05515997633  -3.03365135923  -1.52687470549  0.0669562162112  
0.913563013077  1.54117626497  -1.36098627031  2.05297663759  -3.02871092811  -1.52650678306  0.0669832583848  
0.921809196472  1.54119519564  -1.36422609515  2.05079744169  -3.02389392271  -1.52609762103  0.066981363185  
0.929789066315  1.54120876024  -1.36744516187  2.04867904459  -3.0193001419  -1.525617436  0.0670339029894  
0.937898159027  1.5412176741  -1.37065255236  2.04659199877  -3.01492036625  -1.52509985859  0.067078353348  
0.945989131927  1.54122285738  -1.37389125766  2.04454340903  -3.0105474496  -1.5245697673  0.0671484441306  
0.95408821106  1.54122525593  -1.37718376151  2.04256248649  -3.00623393205  -1.52402064787  0.0672629123424  
0.962135076523  1.54122573111  -1.38053786196  2.04063109287  -3.00205207459  -1.52340585136  0.0673919053049  
0.970282077789  1.54122500261  -1.38398743897  2.03880423626  -2.99789630107  -1.52277108522  0.0674443965522  
0.978407144547  1.54122362918  -1.38752517445  2.03711882323  -2.99374452355  -1.52219138247  0.0674090614892  
0.986457109451  1.5412580024  -1.39119062655  2.03559612823  -2.98953909027  -1.52166118318  0.0673963761237  
0.994520187378  1.54132848333  -1.39495892862  2.03424620639  -2.98529507609  -1.52114916448  0.067435016856  
1.00272107124  1.54141317514  -1.39876799807  2.03308533387  -2.98107110013  -1.52072412057  0.067428768826  
1.01081514359  1.54153342495  -1.40257629296  2.03211779494  -2.97690021791  -1.52037413187  0.0673598570597  
1.01889014244  1.54168059544  -1.4063232727  2.03129718828  -2.97270713444  -1.52008336261  0.0672606424976  
1.02704501152  1.54182836771  -1.40992523686  2.03059413057  -2.96849303788  -1.51985881755  0.0671537330568  
1.03514099121  1.54199688254  -1.41336485705  2.02999309911  -2.96430636412  -1.51969770344  0.0671250889933  
1.04325699806  1.54217833975  -1.41666704665  2.02947404295  -2.96026276  -1.51954689424  0.0671112212967  
1.05137515068  1.54238438286  -1.4197898437  2.02901620448  -2.95637249686  -1.51939543639  0.0671428661368  
1.05941915512  1.54263769815  -1.42279783537  2.02862927087  -2.95258001934  -1.51925958545  0.0671632774946  
1.06753802299  1.54294689015  -1.42576064764  2.02829755154  -2.94893117725  -1.51914744195  0.0671383932862  
1.07555913925  1.54334721031  -1.42870665256  2.02801981743  -2.94539432345  -1.51906136011  0.0670889724579  
1.0838060379  1.54386847125  -1.43165463217  2.02777560066  -2.94198263399  -1.51899999939  0.0670300559802  
1.09178113937  1.54451578339  -1.43457994144  2.02750601165  -2.93864679223  -1.51891519321  0.0670432561926  
1.0998980999  1.54527889482  -1.43745203472  2.02716388984  -2.93530371579  -1.51875777505  0.0671347151317  
1.10799217224  1.5461754114  -1.44029392207  2.02675718943  -2.93199383767  -1.51855067918  0.0671918591685  
1.11609816551  1.54711214583  -1.44296220543  2.02631183214  -2.92896241095  -1.51833566254  0.0671859857351  
1.12419009209  1.54811801327  -1.44554839468  2.02581908475  -2.92606012207  -1.51804910082  0.0671429396909  
1.13227510452  1.54924026928  -1.44820743458  2.02523576767  -2.92300175314  -1.51761488921  0.067153735717  
1.14035105705  1.55047665773  -1.45104210773  2.02458812308  -2.91990123894  -1.5170477274  0.0672320847321  
1.14859414101  1.55319692975  -1.45704083857  2.02320074384  -2.91377213675  -1.51582232878  0.0671741561672  
1.15671610832  1.55467815968  -1.46009765415  2.02247083229  -2.91063827625  -1.51515590649  0.0672286867422  
1.16479706764  1.55622523814  -1.46313709799  2.02172733227  -2.90753760354  -1.51443915212  0.0673253484924  
1.1727449894  1.5577209957  -1.46593529889  2.02101126625  -2.90469480243  -1.51374515494  0.0674370684653  
1.18082499504  1.55933418893  -1.46873995482  2.02020206258  -2.90172437351  -1.51300385422  0.067474431077  
1.18889212608  1.56117376145  -1.47164871567  2.01925025285  -2.8985390468  -1.51219945953  0.0674984400264  
1.1970012188  1.56311827977  -1.47447490784  2.01824157493  -2.89529123854  -1.51137467273  0.0675483078368  
1.20507216454  1.56506492215  -1.47713224527  2.01723395445  -2.89207894666  -1.51055725672  0.0675368280737  
1.21311020851  1.56700608819  -1.47958742075  2.01619044318  -2.88895718313  -1.50976308305  0.0674533662657  
1.22125411034  1.56895609818  -1.48182365853  2.01509216254  -2.88585989223  -1.50895447221  0.0673355499437  
1.22936201096  1.57099458282  -1.48388972927  2.0138625504  -2.88269935362  -1.5080428398  0.0672095734267  
1.2374022007  1.57308858954  -1.48577959203  2.01248303908  -2.87951913415  -1.50700793142  0.0671635967997  
1.24550414085  1.57512160371  -1.48743620519  2.01104431427  -2.87639296949  -1.50587337588  0.0672068565777  
1.25373721123  1.5770838671  -1.48890325956  2.00963607748  -2.87335936342  -1.50466387627  0.0672990645381  
1.26181507111  1.57901359981  -1.49029900183  2.00819488124  -2.87025261702  -1.50335740689  0.0674108894059  
1.26986408234  1.58090117065  -1.4916843215  2.0067422148  -2.86715856653  -1.5020177425  0.0675226687872  
1.27799201012  1.58269097648  -1.49300726707  2.00535010865  -2.86417439983  -1.50073214852  0.0676226155281  
1.28603100777  1.58441366848  -1.49427836706  2.00399835251  -2.86130127669  -1.49950250606  0.0677049103016  
1.29412698746  1.58616730107  -1.49551001829  2.00261302204  -2.8584386533  -1.4983012737  0.067767927411  
1.3021941185  1.58795373544  -1.49665995309  2.00116728711  -2.85547962662  -1.49715368115  0.067812727864  
1.31028819084  1.58969803508  -1.49769330129  1.9997229834  -2.85254926433  -1.49604719879  0.0679134743631  
1.31837105751  1.59141338535  -1.49860145947  1.99828900635  -2.84972105819  -1.49499196593  0.0680735427341  
1.32650399208  1.59314735139  -1.49939249376  1.99684057989  -2.84698279794  -1.4939219121  0.0681806799278  
1.334608078  1.59492649296  -1.50011932012  1.99536441715  -2.84431765313  -1.49279821367  0.0682083480897  
1.3427541256  1.59672597915  -1.5007671931  1.99388394787  -2.84170779978  -1.49167075649  0.0682570373066  
1.35082912445  1.59851046959  -1.50133499667  1.99245671029  -2.83922621213  -1.49054785981  0.0682779986357  
1.3589220047  1.60026036202  -1.50181296924  1.99106902113  -2.83694862044  -1.48936653171  0.0682437071634  
1.3670501709  1.60189557397  -1.5022223009  1.98979361335  -2.83498840031  -1.48820666007  0.0681799010303  
1.37508702278  1.60341557038  -1.50256539642  1.98863467927  -2.83324654986  -1.48709265073  0.0681051330835  
1.38311600685  1.60497675104  -1.50283253335  1.98751036191  -2.8315495995  -1.48594403258  0.0680316875725  
1.39120912552  1.60661549815  -1.50302590314  1.98641045736  -2.82987826842  -1.48473820413  0.0679667919586  
1.39934420586  1.60832653104  -1.50315461083  1.9853552881  -2.82826380039  -1.48353515673  0.067985480134  
1.40745806694  1.61011734855  -1.50323094606  1.9843237864  -2.82671892746  -1.48234857523  0.0680171292157  
1.41562414169  1.61198402159  -1.50326781041  1.98328630765  -2.8252439352  -1.48120692298  0.0680167986319  
1.42380309105  1.61391618248  -1.50327710988  1.98222570461  -2.82383161453  -1.48014528125  0.0679973240717  
1.43176317215  1.61590069713  -1.50326889594  1.98113414429  -2.82247103978  -1.47913149567  0.0679684252264  
1.43990802765  1.6178881713  -1.50325104635  1.97998166764  -2.82115018534  -1.47811846793  0.0679369265304  
1.44794607162  1.61986635772  -1.50322930319  1.97877075772  -2.81985763574  -1.47712261941  0.0679071953213  
1.45600605011  1.62181120429  -1.50320752134  1.97749505418  -2.81858355549  -1.47612998882  0.0679532664827  
1.46414518356  1.62369350743  -1.50318801673  1.9761145528  -2.81732009544  -1.47515385861  0.0680763423107  
1.47225499153  1.62553834673  -1.50317193777  1.97460182424  -2.8159719236  -1.47422321658  0.068232601075  
1.48029112816  1.62734703156  -1.5031596114  1.9729543751  -2.81462430745  -1.4733506391  0.0683206550454  
1.48834514618  1.62914185362  -1.50315083736  1.97115641558  -2.81324036097  -1.47253753185  0.0683220953991  
1.49657511711  1.63099193411  -1.50314512038  1.96917133514  -2.81180026924  -1.4717337055  0.0682714395907  
1.50470304489  1.63295119063  -1.50314184058  1.96698242984  -2.81034358274  -1.47093007543  0.068194890511  
1.51272821426  1.63507640812  -1.50314036879  1.96457268172  -2.80880627029  -1.4700991775  0.0681108972621  
1.52078318596  1.63740241  -1.50314013674  1.96199776455  -2.80720243651  -1.4692046727  0.0680313103673  
1.52880501747  1.6399288835  -1.50314067271  1.95930899222  -2.80550359216  -1.46823148136  0.0679627714708  
1.53691101074  1.64267045271  -1.50314161266  1.95656318823  -2.80374666804  -1.46717886598  0.0679080968965  
1.54500412941  1.64559547884  -1.50314269562  1.95378642927  -2.8019159476  -1.4660100293  0.067867511401  
1.55309700966  1.64861133203  -1.50314374997  1.951040175  -2.80005378937  -1.46473716874  0.0678396617855  
1.56120014191  1.65167055152  -1.50314467581  1.94835854354  -2.79814492667  -1.46335658625  0.0678223914326  
1.56937718391  1.65472241017  -1.50314542679  1.94576919611  -2.79622912659  -1.46185469286  0.0678132896647  
1.57745504379  1.65771896728  -1.50314599361  1.94326495885  -2.79437650043  -1.46023614688  0.0678100480377  
1.58570098877  1.66052934796  -1.5031463901  1.94093214175  -2.79262241523  -1.45860556074  0.0678106632209  
1.59364318848  1.66329173444  -1.50314664258  1.9386912577  -2.79088816271  -1.45698296252  0.0677419377426  
1.60174107552  1.666114199  -1.50314678202  1.93645494872  -2.78907893248  -1.45533400298  0.0676740709091  
1.60978102684  1.66900031766  -1.50314683894  1.9341993491  -2.78714580002  -1.45364086201  0.0676502899255  
1.61785912514  1.67201748451  -1.50314684037  1.93191218755  -2.78507250172  -1.45194227845  0.0675838710699  
1.62589406967  1.67515689668  -1.50314680836  1.92961796903  -2.78295358174  -1.45028481191  0.0674624927724  
1.63401508331  1.67836376386  -1.50314675968  1.92734663272  -2.78080656835  -1.44869203846  0.0673209732476  
1.64208698273  1.68177803522  -1.50314670614  1.92499960583  -2.77850994165  -1.44708177017  0.0671107181522  
1.65018010139  1.68522936544  -1.50314665535  1.92266744589  -2.77614010944  -1.4454953023  0.0668450360667  
1.65827608109  1.68898677177  -1.50314661156  1.92016208841  -2.77348363214  -1.44375465151  0.0665741727143  
1.66641712189  1.69316586593  -1.50314657661  1.91741466174  -2.77043975005  -1.44181182428  0.0662572065333  
1.67448616028  1.69760907007  -1.50314655063  1.91451097449  -2.76716947079  -1.43966091723  0.0659096570317  
1.68276500702  1.70213969958  -1.50314653279  1.91151898681  -2.76374926602  -1.43736435185  0.0655088696124  
1.69063711166  1.70662425946  -1.50314652171  1.90848878156  -2.76019533539  -1.43497571257  0.0650104702178  
1.69880700111  1.71098755543  -1.50314651586  1.9054544391  -2.75662101202  -1.43255885024  0.0643981556077  
1.70682311058  1.71523328703  -1.50314651376  1.90240830427  -2.75305241947  -1.43008829597  0.0636025905593  
1.71491312981  1.7193224133  -1.50314651413  1.89936104797  -2.74954862603  -1.42764318341  0.062565129974  
1.72302913666  1.72328343584  -1.50314651594  1.89633369426  -2.74618371726  -1.42529179736  0.0612761435488  
1.7310731411  1.72714758945  -1.50314651843  1.89330822303  -2.74298744734  -1.42304244286  0.0597564201877  
1.73917198181  1.7309615248  -1.50314652106  1.89025912234  -2.73987036391  -1.42088932065  0.0580428098305  
1.74723410606  1.73477682322  -1.50314652349  1.88714506099  -2.73681443905  -1.41877404212  0.0561778825028  
1.75532603264  1.73840836341  -1.50314652556  1.88413331015  -2.73393740911  -1.41676908721  0.0543463470565  
1.76346206665  1.7416547302  -1.50314652718  1.88141492328  -2.73142600521  -1.41497453724  0.0526566690297  
1.77154517174  1.74504756941  -1.50314652837  1.87853145087  -2.72886211197  -1.41302543738  0.0508361099089  
1.77974700928  1.74876950641  -1.50314652916  1.87534915271  -2.72608544557  -1.41082769469  0.0488040839784  
1.78776502609  1.75267571837  -1.50314652965  1.87202247968  -2.72311489243  -1.40846567507  0.0466438200176  
1.79583907127  1.75662391039  -1.50314652989  1.86865931547  -2.71993675985  -1.40598457196  0.0444187757197  
1.80390810966  1.76047001913  -1.50314652996  1.86535673684  -2.7166542537  -1.40351356429  0.0421738632365  
1.8119661808  1.76412013187  -1.50314652992  1.86218107435  -2.71329629365  -1.40112981454  0.0398665066628  
1.82010316849  1.7675386311  -1.50314652982  1.85915869978  -2.70993219885  -1.39889238639  0.0375129523622  
1.82818007469  1.77072860931  -1.50311081707  1.8562606753  -2.70664969417  -1.39679924914  0.0351642465314  
1.83626317978  1.77375204805  -1.50303929819  1.85349908536  -2.70340326189  -1.39485593658  0.0328504839428  
1.84441518784  1.77664601585  -1.50295385894  1.85086726637  -2.70011629804  -1.39302795747  0.0305144137108  
1.85247802734  1.77942812117  -1.50286909483  1.84833301454  -2.69683663676  -1.39130443673  0.0280876601889  
1.86072206497  1.78474674319  -1.50262465012  1.84335764701  -2.69028626381  -1.3880435379  0.0232202201788  
1.86872506142  1.7873268748  -1.50249207134  1.84088952091  -2.68711470941  -1.38650924903  0.0207675529324  
1.87669420242  1.78980645514  -1.50233823457  1.83845975813  -2.68406228237  -1.38504276296  0.0183997781704  
1.88476920128  1.79219868515  -1.50213403162  1.8360087893  -2.68113364315  -1.38359205265  0.0160453625897  
1.89286613464  1.79448533154  -1.50190303347  1.83354523658  -2.67840803252  -1.38214625339  0.0136951801553  
1.90095305443  1.79663000987  -1.50164464949  1.83109057526  -2.67577802988  -1.38072108315  0.0113081323642  
1.90900206566  1.79862589328  -1.50137897012  1.8286422599  -2.67316758344  -1.37927903406  0.00889865013816  
1.91715502739  1.80052059023  -1.50110127048  1.82619807322  -2.67057454765  -1.37786614893  0.00651416103712  
1.92522716522  1.8023356598  -1.50082753474  1.82375626157  -2.66808529143  -1.37650771818  0.00418046879471  
1.93335008621  1.8040741367  -1.50054937369  1.82125845269  -2.66569665356  -1.37523514846  0.0018360948973  
1.94164013863  1.80574592587  -1.50024407165  1.8186750426  -2.66344010111  -1.3740362122  -0.000591119525833  
1.94962215424  1.80736401059  -1.49990086784  1.81601182799  -2.66118706348  -1.37287304306  -0.00306409205589  
1.95779013634  1.80894184911  -1.49951731583  1.81328071789  -2.65894805865  -1.37176391398  -0.00566255115429  
1.96583008766  1.81049177151  -1.49909620564  1.8104674984  -2.65681893039  -1.37069207743  -0.00835068223544  
1.97387909889  1.81202411659  -1.498607477  1.80755776908  -2.65484554543  -1.36962079019  -0.011096303776  
1.98199319839  1.81351094893  -1.49805778762  1.80461015187  -2.65303896248  -1.36857270984  -0.0139820631843  
1.9900290966  1.81495800945  -1.49744001608  1.80166428259  -2.65129869466  -1.36753697893  -0.0170075273858  
1.99820113182  1.81635526222  -1.49673892584  1.79875774655  -2.64969096612  -1.36648303355  -0.0200496760854  
2.00622010231  1.81768364439  -1.49595417877  1.7959234406  -2.6482430187  -1.36539446344  -0.0229965655763  
2.01434612274  1.81890301332  -1.49505870312  1.79320195442  -2.64690880185  -1.36430983086  -0.0257911214166  
2.02243113518  1.81998251175  -1.49402979338  1.79059167356  -2.64564870331  -1.36327460316  -0.0284151896861  
2.03053307533  1.82091840606  -1.49283222484  1.78803681055  -2.64443113069  -1.36235558157  -0.030947497388  
2.03872513771  1.82172361521  -1.49144451657  1.78551205487  -2.64314313505  -1.36151381771  -0.0333381634314  
2.04662013054  1.82241969316  -1.48987387543  1.78301356202  -2.64176840543  -1.36071702801  -0.035571013215  
2.05465221405  1.82303109619  -1.48814394375  1.78053624858  -2.6404413357  -1.35996385378  -0.0376178089392  
2.06276798248  1.82358143403  -1.48621430252  1.77804622311  -2.63928300447  -1.35929362508  -0.0395164635976  
2.07085704803  1.82405532727  -1.48408119974  1.77553852672  -2.63816919917  -1.35865442297  -0.0411985733819  
2.07894706726  1.82443332575  -1.48178202535  1.77302657913  -2.63710870295  -1.35801107178  -0.0427163676632  
2.08696913719  1.82474987213  -1.47935674636  1.77051887742  -2.63619217953  -1.35736567069  -0.0440481406092  
2.09510111809  1.82501442904  -1.47684265435  1.76804859567  -2.63536929401  -1.35671969513  -0.0451277000133  
2.1031730175  1.82521986611  -1.47423578119  1.76561761488  -2.63473346181  -1.35607409897  -0.046013588147  
2.11120009422  1.8253681509  -1.47156109822  1.76323695339  -2.63423297243  -1.35542941008  -0.0467977786708  
2.11926317215  1.82543051985  -1.46882319065  1.76089387215  -2.63382099601  -1.35478584498  -0.0474745687654  
2.12736916542  1.82541648012  -1.46604902957  1.75859079916  -2.63350561279  -1.35418816607  -0.0480154706749  
2.13568210602  1.82535809925  -1.46320536667  1.75628235165  -2.63328146716  -1.35363637752  -0.0484893533488  
2.14367413521  1.8252792918  -1.46027899456  1.75396992867  -2.63313571137  -1.35310287862  -0.0489094056547  
2.15173816681  1.82519655719  -1.45728888371  1.75165529202  -2.63305236137  -1.35261393619  -0.0492528117446  
2.15970802307  1.82512020523  -1.45421743861  1.74929666166  -2.63319424516  -1.3521138515  -0.049513983299  
2.16781711578  1.82505574484  -1.45111595739  1.74691623266  -2.63354724828  -1.35156963551  -0.0497698424433  
2.17590403557  1.82500522393  -1.44798327659  1.74450154036  -2.63407908492  -1.35103367267  -0.0499603088589  
2.18393421173  1.8249683985  -1.44482138129  1.7420482375  -2.63479701871  -1.35051452121  -0.0500550383007  
2.19207715988  1.82494367579  -1.44161699935  1.73957228448  -2.63568575154  -1.34999277743  -0.0500823475525  
2.2001349926  1.82492882237  -1.4383484939  1.73705709334  -2.63671807018  -1.34950182525  -0.0501379277506  
2.20815300941  1.8249214565  -1.4350096652  1.73451088448  -2.63786248976  -1.34899168802  -0.0501694079897  
2.21628308296  1.82491935901  -1.43156851397  1.73192780584  -2.63917777449  -1.3484784089  -0.0502182948939  
2.22436499596  1.8248846547  -1.42796279165  1.72926514602  -2.6406371401  -1.34797270327  -0.0502372732174  
2.23242807388  1.82481576021  -1.42415439118  1.72649117578  -2.6422533042  -1.34745744088  -0.0502714949915  
2.24073815346  1.82473363727  -1.42014186439  1.72359861815  -2.64415234954  -1.34696810883  -0.0502760597098  
2.24884915352  1.82465225421  -1.4159816053  1.72062419739  -2.64633600902  -1.34645651359  -0.0502975409644  
2.25673317909  1.82457990997  -1.41174119315  1.71758458452  -2.64864025551  -1.34594008862  -0.050363302596  
2.26483011246  1.824520627  -1.4074696219  1.71451068299  -2.65108748259  -1.34543055719  -0.050448674844  
2.27289605141  1.82447543821  -1.40319956509  1.7114391538  -2.65367754399  -1.34491146526  -0.0505367915842  
2.28105115891  1.82444347452  -1.39898617024  1.70842030111  -2.65634973676  -1.34437395469  -0.0506172479834  
2.28919100761  1.82438683012  -1.39483897421  1.70546468922  -2.6590589901  -1.34376990718  -0.0506130246348  
2.29724502563  1.82426707827  -1.39073855296  1.70255744728  -2.66186387079  -1.34314423791  -0.0505936475885  
2.30537509918  1.82406784691  -1.38663260091  1.69965598015  -2.66474539749  -1.34252692925  -0.0506036329075  
2.31351709366  1.82378770736  -1.38250788957  1.69677670844  -2.66772808898  -1.3419123226  -0.0506301728924  
2.32148814201  1.82339835564  -1.37837662304  1.69392763883  -2.67086148725  -1.34134149014  -0.0505922496905  
2.3297162056  1.82291204724  -1.37428252087  1.69112443285  -2.67406986818  -1.34085719734  -0.0504832677897  
2.33770298958  1.82232868041  -1.37023032553  1.68835760252  -2.677254394  -1.34043120907  -0.0503431803544  
2.3458211422  1.82164014842  -1.36623599899  1.68563166102  -2.68044781973  -1.3400624247  -0.0501992333095  
2.35389304161  1.82088868005  -1.36232116676  1.68293099754  -2.6836248438  -1.33976689517  -0.0500681742502  
2.36207818985  1.82005257655  -1.35849040676  1.68025760054  -2.68681602154  -1.33954650991  -0.0499586859327  
2.37011098862  1.81912714615  -1.3547732894  1.67762432248  -2.68990470032  -1.33934971472  -0.0498736974435  
2.37812304497  1.81813731371  -1.35119370274  1.67506318602  -2.69283022157  -1.33916509441  -0.0498123779192  
2.38624405861  1.81706884531  -1.34775145624  1.6725717524  -2.69561893536  -1.33900727394  -0.049771729323  
2.39434504509  1.8159751764  -1.3446104637  1.67026951994  -2.69812209681  -1.3389269449  -0.0498193589054  
2.40244817734  1.81478366859  -1.34164233888  1.66808080257  -2.70045814661  -1.33883482748  -0.0498797161338  
2.41050505638  1.813495858  -1.33871368724  1.66590369423  -2.70267330138  -1.33874460673  -0.0499765162743  
2.41874217987  1.81214175026  -1.33583052544  1.66376201618  -2.70471701936  -1.33868780867  -0.0500497643043  
2.42670106888  1.81069205394  -1.33293839309  1.66160968748  -2.70657709551  -1.33865705353  -0.0500647476997  
2.43476200104  1.80915697677  -1.33007639289  1.65946233665  -2.70826558848  -1.33868991613  -0.0500432060917  
2.44286298752  1.80753398293  -1.32724784969  1.65731525244  -2.70980785971  -1.33882496043  -0.0500020347217  
2.45095300674  1.80581253649  -1.32441490313  1.65513652628  -2.71114506826  -1.33902977539  -0.0499534391895  
2.45904612541  1.80399671241  -1.32162672904  1.6529675002  -2.71230757184  -1.33929955329  -0.0499055235453  
2.46714115143  1.80209892208  -1.31890870321  1.65083243019  -2.71337754127  -1.33964730664  -0.0498630761585  
2.47521305084  1.80009927774  -1.31625047099  1.6487277494  -2.71441402899  -1.34007260414  -0.0498999794946  
2.48335313797  1.7980142967  -1.31367522395  1.64667667746  -2.71536648398  -1.34052224638  -0.0499453894372  
2.49138402939  1.79580923067  -1.31124196663  1.64473057361  -2.71625745324  -1.34098375168  -0.0499547010711  
2.49941205978  1.79347530558  -1.30898924967  1.64292368061  -2.71715246592  -1.34151588946  -0.0499413803379  
2.50745105743  1.79096719764  -1.30692112121  1.64126182377  -2.71809039424  -1.34212445103  -0.0499158933262  
2.51575708389  1.78823952441  -1.30502051817  1.63973318306  -2.71900051617  -1.34282682413  -0.049957389958  
2.52369999886  1.78525227022  -1.30329522287  1.63834516451  -2.71988732672  -1.34364628975  -0.0500710795977  
2.531717062  1.78195456365  -1.30174954395  1.63710188977  -2.72062251795  -1.34462919878  -0.0502160578476  
2.53981113434  1.77829440387  -1.30036709559  1.63601907459  -2.72123311432  -1.34580883558  -0.0503644889713  
2.54788303375  1.77426058835  -1.29915652393  1.6351037371  -2.72183950872  -1.34718438858  -0.050499314606  
2.55597400665  1.76988585324  -1.29815872631  1.63437098362  -2.72233535157  -1.34873467567  -0.0506117413982  
2.56403517723  1.76526182852  -1.29739391427  1.63382511799  -2.72266701319  -1.35042854341  -0.0506272731625  
2.57217407227  1.76041612412  -1.29684960281  1.63344898355  -2.722865184  -1.35227689968  -0.0505466504409  
2.58027005196  1.75535210954  -1.29649501666  1.63321436526  -2.72305187011  -1.35429271864  -0.0504884648112  
2.58832216263  1.7500948619  -1.29629166181  1.63308939601  -2.72325746574  -1.35642134804  -0.0504862844419  
2.59643101692  1.74467982844  -1.29620048054  1.63304338404  -2.72336318626  -1.35859533659  -0.0504463337123  
2.60458302498  1.73338152867  -1.29621955203  1.63308644159  -2.72354144905  -1.36323002089  -0.0502338833933  
2.61266207695  1.72751370589  -1.29627794347  1.63313779276  -2.72364312136  -1.3656851521  -0.0501865160741  
2.62074518204  1.72145800725  -1.29634518596  1.63319241264  -2.72373528858  -1.36824617507  -0.0502227133811  
2.62873315811  1.71531315274  -1.29641063496  1.63321469781  -2.72390152331  -1.37089300196  -0.0503052033023  
2.63682603836  1.70914898536  -1.29646809608  1.63320073124  -2.72405063312  -1.37358177514  -0.0503351557349  
2.6449201107  1.70297283005  -1.29651469807  1.63313796395  -2.72421771307  -1.37632650906  -0.0502940327932  
2.65306806564  1.69682633357  -1.2965855698  1.63303809002  -2.724423438  -1.37910770826  -0.0502146275232  
2.66110420227  1.69064168573  -1.29668166788  1.63289800519  -2.72463061194  -1.38197657069  -0.0501922378861  
2.66920113564  1.68439931826  -1.29678274557  1.63270555865  -2.72481677463  -1.38495530099  -0.0502428105514  
2.67729711533  1.67816617617  -1.29691183846  1.63248756566  -2.72497067522  -1.38797811283  -0.0502602110261  
2.68552207947  1.67196374635  -1.29706225507  1.63224876959  -2.72508897364  -1.39102288711  -0.0502194755372  
2.6935801506  1.66574738308  -1.29724528632  1.63197971801  -2.72508392489  -1.39409679164  -0.0501481768445  
2.7017660141  1.65947349067  -1.29744670733  1.63167792109  -2.72495992165  -1.39720105694  -0.0500660788013  
2.70981812477  1.65315798329  -1.29770930063  1.63140245495  -2.72468817327  -1.40033321037  -0.0500577628841  
2.7178401947  1.6468330964  -1.29808858005  1.6311864924  -2.7244005072  -1.40348881944  -0.0500593900586  
2.72594809532  1.64051916125  -1.29860551487  1.6310291372  -2.72417918998  -1.40661800608  -0.0500304042772  
2.73400211334  1.6342631979  -1.29925814262  1.63092366215  -2.72393153569  -1.40971563784  -0.0499861205157  
2.7421131134  1.62810557069  -1.30006665937  1.63088912177  -2.72364872822  -1.41271522839  -0.0499373391622  
2.75021219254  1.62206010554  -1.3010091656  1.63091541123  -2.72328522158  -1.41563124284  -0.0498910124484  
2.75833511353  1.61615924031  -1.30207593264  1.63100408662  -2.72286620362  -1.418437199  -0.0498510505365  
2.76643610001  1.61035348229  -1.30330185856  1.63113552695  -2.72245814803  -1.42117282243  -0.0498191262305  
2.77478909492  1.60471044628  -1.30463780746  1.63127888404  -2.72201026093  -1.42387013247  -0.0497953938716  
2.7827231884  1.59929071556  -1.30607779522  1.63141443593  -2.72145077305  -1.42652961717  -0.0497790808461  
2.79079604149  1.59412472231  -1.307643562  1.63153121745  -2.72083793111  -1.42906606637  -0.0497689402229  
2.79881501198  1.58922221574  -1.30933486196  1.63165316971  -2.720078812  -1.43148535573  -0.0497635723046  
2.80692219734  1.58459720275  -1.31113828974  1.63178008047  -2.71904210882  -1.4338041496  -0.049761633603  
2.81502199173  1.58024707724  -1.3130696676  1.63189682154  -2.71776789225  -1.43606504549  -0.0497619562292  
2.82316803932  1.57614124462  -1.31514312762  1.63205248072  -2.71626130677  -1.43827771495  -0.0497636009492  
2.83125805855  1.57227153545  -1.3173164355  1.63227283155  -2.71459395855  -1.44043029886  -0.0496226619452  
2.83938503265  1.56862641738  -1.31953556086  1.63255196685  -2.71278177357  -1.44247727164  -0.0493382751637  
2.84748506546  1.56510328338  -1.32179896549  1.6329087037  -2.710714584  -1.44442448257  -0.0489262929865  
2.85560417175  1.56162710114  -1.3241192151  1.63336066731  -2.70839725618  -1.44626398602  -0.0484448885513  
2.86374115944  1.55816621404  -1.32646213405  1.6339083249  -2.70590463205  -1.44797962685  -0.0479010913227  
2.87178015709  1.55470002155  -1.32885808785  1.63457043452  -2.70312111424  -1.44957480208  -0.0472692954585  
2.87981319427  1.55121672106  -1.33132029084  1.63536067362  -2.70018556785  -1.45106427593  -0.0466150396617  
2.88786220551  1.54771104522  -1.33390292672  1.63630228889  -2.69715485925  -1.45251281714  -0.0459448104982  
2.89597010612  1.54421819008  -1.33662638439  1.63737921518  -2.69416111841  -1.45394158968  -0.045299375432  
2.90410614014  1.54074022247  -1.33954127866  1.63863866649  -2.69119172338  -1.45534262103  -0.044736976227  
2.91216111183  1.53729448822  -1.34265835085  1.64007614823  -2.68814549722  -1.45671406397  -0.0442121708104  
2.92032718658  1.53387030287  -1.34598024181  1.64166968831  -2.6850593695  -1.45805793558  -0.0437289263638  
2.92835307121  1.53040469883  -1.34946935213  1.64337559144  -2.68200521572  -1.45937834911  -0.0432500558564  
2.93646717072  1.52684599515  -1.35310302377  1.64519835669  -2.67884377766  -1.46072500379  -0.0427879790839  
2.94470906258  1.52320900531  -1.356834849  1.64710027132  -2.675590837  -1.46210294429  -0.0423847751699  
2.95270609856  1.51952918184  -1.36060846925  1.64904985541  -2.67226705665  -1.46348912649  -0.0419878606505  
2.96079611778  1.51579632678  -1.36442138313  1.65106627401  -2.6689362897  -1.46491361487  -0.0416002260788  
2.96879315376  1.51206359962  -1.36821468517  1.65311135367  -2.66568307359  -1.46636840448  -0.041259096123  
2.9768910408  1.50839946903  -1.37199021879  1.65518725486  -2.66254991689  -1.46786747989  -0.0409818837374  
2.98497605324  1.50483774416  -1.37571586707  1.65729246359  -2.65963915142  -1.4694373119  -0.0407722813272  
2.99309921265  1.50138788981  -1.37941272802  1.65943703757  -2.65694466455  -1.4710415562  -0.0406253628191  
3.00119400024  1.4980077839  -1.38309711213  1.66163735827  -2.65439442612  -1.47267676745  -0.0405315537087  
3.00928521156  1.4946464979  -1.38676195841  1.66386881488  -2.65184050193  -1.47436036996  -0.040479502917  
3.01763010025  1.49127150123  -1.39040509143  1.66612737933  -2.6493280678  -1.47605295619  -0.040457992736  
3.02569103241  1.48786472427  -1.39399179591  1.66839371131  -2.646881353  -1.47779668  -0.0404570701781  
3.03371405602  1.48438271156  -1.39752475938  1.67069796677  -2.6445519266  -1.47956743776  -0.0404685919002  
3.04174900055  1.48078904722  -1.40099372191  1.67305469594  -2.64240384256  -1.48134715148  -0.0404863598852  
3.04978513718  1.47707367949  -1.40438113333  1.67542402067  -2.64036686177  -1.48314679469  -0.0405059973611  
3.05791902542  1.47324343355  -1.40764936913  1.67776615085  -2.63834162899  -1.48497084785  -0.0405246820398  
3.06598210335  1.46931453524  -1.41080600308  1.68008863831  -2.63635681136  -1.48686416246  -0.0405408219613  
3.07397699356  1.46523516772  -1.41388552456  1.68241261836  -2.63447083837  -1.48882433235  -0.040553731152  
3.0820991993  1.46098952888  -1.41688104953  1.68472204482  -2.63261881065  -1.49082009259  -0.0405633394254  
3.09018921852  1.45660400704  -1.41981487212  1.68702287191  -2.63080220905  -1.49282893822  -0.0405699533087  
3.09826016426  1.45207320965  -1.4227250398  1.68933409803  -2.62906369428  -1.49483599478  -0.0405740728794  
3.10635399818  1.44739094906  -1.42563686874  1.69166602274  -2.62742062061  -1.49687727311  -0.0405762614765  
3.11448812485  1.44246155244  -1.42863677375  1.69405124257  -2.62587330776  -1.49899351655  -0.0405770608823  
3.12256598473  1.43727081647  -1.43176789505  1.69651818062  -2.62441182539  -1.50120123842  -0.0405769427324  
3.13068413734  1.43183843778  -1.43502408614  1.69904671316  -2.62302115328  -1.50345593413  -0.0405762867824  
3.13874721527  1.42621943631  -1.43838844758  1.70160375582  -2.62159530346  -1.50579269263  -0.0405753775787  
3.14679217339  1.42048481921  -1.44187513237  1.70419501993  -2.62011841526  -1.50817990734  -0.040574412517  
3.15486001968  1.41468938152  -1.44546215796  1.70677774983  -2.6186318811  -1.51059252681  -0.040573515879  
3.16300821304  1.40887240846  -1.44914329511  1.70932673086  -2.61716156038  -1.51299085448  -0.0405727549727  
3.17108201981  1.4030957222  -1.4529230293  1.71184493736  -2.61563173949  -1.51532983171  -0.0405721558293  
3.17924904823  1.39741044473  -1.45679363742  1.71430887289  -2.61395777271  -1.51763345884  -0.0405717169759  
3.18738603592  1.39183757277  -1.46074088196  1.71669567547  -2.61219362126  -1.51994261579  -0.0405714206005  
3.19558620453  1.38641381862  -1.46474813468  1.71897125012  -2.61033720095  -1.52228123925  -0.0405712409733  
3.20368909836  1.38116374733  -1.46879908985  1.72111238573  -2.6082619828  -1.52461581768  -0.0405711503336  
3.21173715591  1.37619170627  -1.47277222507  1.72306219118  -2.60595917129  -1.52685917701  -0.0404995215955  
3.21975398064  1.3714778509  -1.47672694551  1.72486346132  -2.60340355781  -1.5289459181  -0.0402845422286  
3.22789406776  1.36700008507  -1.48075590542  1.726601128  -2.60065070236  -1.53089810294  -0.0399698855261  
3.23592305183  1.36275682462  -1.4848529665  1.72827572854  -2.59780026253  -1.53276593467  -0.0396286819657  
3.24397516251  1.35872235271  -1.48898909866  1.72986521158  -2.59483280989  -1.53458843423  -0.0393075931828  
3.25208210945  1.35485918724  -1.4931427655  1.73136534195  -2.59170355336  -1.53643853333  -0.0389608777897  
3.26017618179  1.35112676135  -1.49729919096  1.73275449027  -2.58840271112  -1.53829031568  -0.0385989998622  
3.2682261467  1.34752293012  -1.50141351417  1.73401685783  -2.58494254667  -1.54017204399  -0.0382662476194  
3.27630519867  1.34405112671  -1.50544512951  1.73515633827  -2.58143673436  -1.54209827299  -0.0379145046342  
3.28454017639  1.33759214396  -1.51321439371  1.73713313187  -2.57416957404  -1.5460140847  -0.0372216002759  
3.29262804985  1.33464875461  -1.51692823606  1.73798394311  -2.57042545918  -1.54789060371  -0.0369451192499  
3.30067205429  1.3319189764  -1.52053550807  1.73876041923  -2.56666238561  -1.54967359432  -0.0367302402353  
3.30872106552  1.32938847323  -1.52411066008  1.73952534543  -2.56283635413  -1.55132520077  -0.0365033980738  
3.31681203842  1.32706357644  -1.52768418238  1.74030355494  -2.5589260912  -1.55279108584  -0.0361853263597  
3.32491898537  1.32490868154  -1.53129208837  1.74112257812  -2.55488375571  -1.55410303178  -0.0357381357517  
3.33301520348  1.32286618479  -1.53497050543  1.74200914285  -2.55073858369  -1.55527436356  -0.0351527330096  
3.34115600586  1.3208896693  -1.53869794101  1.7429435855  -2.54647499068  -1.55630516599  -0.0344382550703  
3.34918999672  1.31890835024  -1.54247387988  1.74395161922  -2.54214011593  -1.55721033162  -0.0336138135658  
3.35730314255  1.31682599135  -1.54634675491  1.74509849058  -2.53772577936  -1.55805680304  -0.0327024836665  
3.3653550148  1.31461323954  -1.55031782744  1.74639462607  -2.53327944617  -1.55886893664  -0.031727280594  
3.37347817421  1.31232054644  -1.55428791077  1.7477873854  -2.52896796862  -1.55964221311  -0.0307087529121  
3.3815100193  1.30993293348  -1.55823271506  1.74924905091  -2.52483319892  -1.56046752716  -0.0297354007181  
3.38975119591  1.30745083664  -1.56214096064  1.75079875991  -2.5208360516  -1.56134990762  -0.0288919398205  
3.39773011208  1.3049027928  -1.56595587126  1.75239608632  -2.51693855974  -1.56224082071  -0.0281438703508  
3.40583515167  1.30231287678  -1.56970652177  1.75403984997  -2.51310742063  -1.56319976387  -0.0274240093237  
3.41395115852  1.29969995734  -1.57341774104  1.75575345661  -2.50931564573  -1.56421125153  -0.0267606806386  
3.42205500603  1.29711376331  -1.57705471529  1.75748645572  -2.50563240995  -1.56525968351  -0.0262013117144  
3.43017315865  1.29456360472  -1.58058624229  1.75920603483  -2.50204374084  -1.56630980884  -0.0257633663178  
3.43826913834  1.29206894583  -1.58404046208  1.76090848119  -2.49839626394  -1.56736229295  -0.0253728929655  
3.44648218155  1.28961792001  -1.58746057218  1.76259339884  -2.49473768793  -1.56844004711  -0.0250157171419  
3.45457601547  1.28721648488  -1.59087607727  1.76426240156  -2.49109931605  -1.56950939651  -0.0247162329556  
3.46273112297  1.28488127252  -1.59430516662  1.76588960346  -2.48754177451  -1.57057302666  -0.0244829771051  
3.4707942009  1.28261526358  -1.59775730164  1.76747791031  -2.48395941419  -1.57161115877  -0.0243140746677  
3.47882008553  1.28044892424  -1.60123573081  1.76904768749  -2.48028996033  -1.57263660903  -0.0242016046597  
3.48693919182  1.27837231278  -1.60466820982  1.7705559739  -2.4765507862  -1.57363641367  -0.0241348567004  
3.49500513077  1.27638766873  -1.60801565552  1.77201153764  -2.47275966612  -1.57462750417  -0.0241025787013  
3.50310301781  1.27446894812  -1.61124605831  1.77342568009  -2.46902223853  -1.57564371223  -0.0241659830102  
3.51118898392  1.2726112478  -1.61433443013  1.77476649545  -2.46526271537  -1.57665792416  -0.0242448844115  
3.51932907104  1.27082348342  -1.61728078129  1.77603661716  -2.46143644247  -1.57763132455  -0.0242167343743  
3.52741909027  1.26910362  -1.62010011295  1.77725959318  -2.45756921206  -1.57854494925  -0.024090944738  
3.53547811508  1.26744326589  -1.62281484488  1.77845452065  -2.45377031086  -1.57943849296  -0.0239198835052  
3.54372906685  1.26583110349  -1.62541376206  1.77957872078  -2.45014357002  -1.58031588892  -0.023668137265  
3.55169010162  1.26421926833  -1.62791991295  1.78064213594  -2.44673307702  -1.58120319474  -0.0232865776059  
3.55970406532  1.262596707  -1.63033937046  1.78162908463  -2.44345294911  -1.58213773999  -0.0228310520186  
3.56780409813  1.26094022849  -1.63270247967  1.78256630199  -2.4401923896  -1.58304742598  -0.0223076759304  
3.57588911057  1.25922121832  -1.63505155519  1.78350410421  -2.43706187828  -1.58393562981  -0.0216908711775  
3.58399915695  1.25739313266  -1.63737774845  1.7844725676  -2.43402598108  -1.58476265904  -0.0209751786791  
3.59216499329  1.2554572602  -1.63966000026  1.78548647442  -2.4310519188  -1.58555515663  -0.0202393626043  
3.60021519661  1.25340807099  -1.64185462224  1.78652132257  -2.42806950742  -1.58637826244  -0.0195691896555  
3.60830807686  1.25123592376  -1.64396221964  1.78760277221  -2.42508154104  -1.5871783086  -0.0189375623761  
3.61647510529  1.24891203092  -1.64597479097  1.78874175708  -2.42204628732  -1.58796952288  -0.0183593481309  
3.62478208542  1.24638087008  -1.64787941273  1.78992423009  -2.41889818958  -1.58880688937  -0.0178026328869  
3.63279008865  1.24361273678  -1.64971545556  1.79116575025  -2.41578886857  -1.58971851324  -0.0172811957269  
3.64087414742  1.24057885659  -1.65153192211  1.79248393618  -2.41280667914  -1.59075814937  -0.0169075869428  
3.64895820618  1.23727173827  -1.6533602677  1.79388125303  -2.40985615883  -1.59192252688  -0.0165553020451  
3.65703701973  1.23371574663  -1.65521810645  1.79535082196  -2.4070997005  -1.59326325782  -0.0162517888386  
3.66517210007  1.22987981166  -1.65718430259  1.79693801424  -2.40439275566  -1.5948381761  -0.0159743908804  
3.67326211929  1.22581023442  -1.65925961071  1.79862954979  -2.40172984262  -1.59665723687  -0.0157055399655  
3.68132019043  1.22156007687  -1.66143234587  1.80040594831  -2.39923955882  -1.59874537225  -0.0155418097717  
3.68947315216  1.2171259407  -1.66370336739  1.80226109209  -2.39689129412  -1.60106711939  -0.0154232257207  
3.69766020775  1.21250692157  -1.66602710675  1.80415443205  -2.39469567826  -1.60355378908  -0.0153078291431  
3.70573019981  1.20772200741  -1.66838822314  1.80607165605  -2.39268849574  -1.60614676482  -0.0152065315307  
3.71375918388  1.20276411902  -1.67075600942  1.8079876183  -2.39078179717  -1.60879966985  -0.0150527869901  
3.72182416916  1.19762897823  -1.67312890059  1.80990141159  -2.38904570374  -1.61152310806  -0.014919015317  
3.72992515564  1.19233273115  -1.6755235757  1.81182724876  -2.38741627795  -1.6142492501  -0.0147761608026  
3.73799419403  1.18686610095  -1.67791202906  1.81374381372  -2.38584238126  -1.61698111385  -0.014606534696  
3.74605512619  1.18122321802  -1.68029567744  1.81565334201  -2.38442249573  -1.61976541531  -0.0144387677829  
3.75411605835  1.17545515984  -1.68265831858  1.81757241197  -2.38297644626  -1.62253514044  -0.0141466327057  
3.76216316223  1.16958809243  -1.6849742975  1.81948140682  -2.38153089168  -1.62534037148  -0.0137379410576  
3.77021718025  1.16362986386  -1.68723316074  1.82135511513  -2.38005930131  -1.62823091962  -0.0132309103049  
3.77836918831  1.15759480857  -1.68943467125  1.82318214377  -2.37863648627  -1.63116013526  -0.0126820406986  
3.78647017479  1.15149963715  -1.69158474409  1.82496059002  -2.37721418873  -1.63411794668  -0.0120228590239  
3.79475617409  1.14536072867  -1.69365664722  1.82666587584  -2.37585138512  -1.63711805925  -0.0112943221333  
3.8027369976  1.13919252113  -1.69562445204  1.82827646842  -2.3745786901  -1.64016422074  -0.0105295336324  
3.81077814102  1.13304275071  -1.69744788677  1.82976088296  -2.37326994846  -1.64316431864  -0.0096441626345  
3.81884503365  1.12695639961  -1.69913560193  1.83112760742  -2.37198678793  -1.64606720759  -0.00870715871246  
3.82696819305  1.12095374674  -1.70068957245  1.83238011775  -2.37085448724  -1.64891999301  -0.00776654841876  
3.83505821228  1.11514606769  -1.70207124348  1.83348946945  -2.36984274524  -1.65168946902  -0.00681510344097  
3.84314417839  1.10945447572  -1.70329323673  1.83446746744  -2.36887514237  -1.6544085101  -0.00577804576015  
3.85131716728  1.10383586169  -1.70439813407  1.83534958358  -2.36799068731  -1.65714766901  -0.00472635412882  
3.85943698883  1.09838353377  -1.7053881402  1.83616717985  -2.36716000686  -1.65985763637  -0.00363375708883  
3.86749911308  1.09310052047  -1.70625855056  1.83691733579  -2.36640379204  -1.66251115481  -0.00248759626394  
3.87567520142  1.08797013748  -1.70701917034  1.83761944192  -2.36568260112  -1.66516534277  -0.00139394961334  
3.88364911079  1.08291258965  -1.7076517717  1.8382761407  -2.3651025679  -1.66792190084  -0.000375699409182  
3.89175701141  1.0779436855  -1.70814078676  1.83887928459  -2.36462446303  -1.67071951159  0.000669406605834  
3.89976716042  1.07308246358  -1.70849204365  1.8394296434  -2.36421246608  -1.67353829865  0.00169306561508  
3.90784716606  1.0683466513  -1.70872358668  1.83993326195  -2.3638836277  -1.6764096159  0.00266733807201  
3.91592621803  1.06382390651  -1.70885888076  1.84039869772  -2.36372889167  -1.67930196447  0.00354550164912  
3.92398715019  1.05965286504  -1.70892216342  1.84080658509  -2.36365092481  -1.68208198281  0.00434488182162  
3.93211317062  1.05562824188  -1.70893557579  1.84122246782  -2.36358171762  -1.68490453791  0.00512060143804  
3.94023108482  1.05178892847  -1.70891766332  1.84164274723  -2.36352507296  -1.68768131044  0.00583661715795  
3.94829106331  1.04815943765  -1.70888285645  1.84204980258  -2.36348194474  -1.69029437169  0.00651280722852  
3.95642399788  1.04433524213  -1.70880589021  1.84244893624  -2.36345147751  -1.69295954554  0.00727331159977  
3.96468305588  1.03578022816  -1.70853631097  1.84323835041  -2.36333122342  -1.69855484357  0.00889302267795  
3.97258901596  1.03127875482  -1.70835046508  1.8436332609  -2.36323669376  -1.70132763404  0.0096669110331  
3.98078012466  1.02674064029  -1.70813141611  1.84402990768  -2.36311180093  -1.70402696321  0.0104053300064  
3.9887650013  1.02213529103  -1.70786172451  1.84442867877  -2.36302587475  -1.70662242449  0.0110809025569  
3.99682211876  1.01746913812  -1.70753628413  1.84482958663  -2.36301790752  -1.70917349951  0.0116474355589  
4.00491809845  1.01277075684  -1.7071222087  1.84523238392  -2.36305753542  -1.71172130893  0.0120887419594  
4.01297211647  1.00806069232  -1.7066266791  1.84566525688  -2.36303202129  -1.71426809688  0.0124799266938  
4.02105116844  1.00335250195  -1.70600934594  1.84609933359  -2.36301412044  -1.71690482614  0.0127645561911  
4.02911710739  0.998654118469  -1.70525826892  1.84651668388  -2.3630481909  -1.71963256024  0.0129188165236  
4.03722715378  0.993969263571  -1.70439858159  1.84689431881  -2.36310983141  -1.72235206462  0.0130501868259  
4.0453209877  0.98929874045  -1.70345682362  1.84720813912  -2.36318149626  -1.72502668404  0.0131903601893  
4.05346703529  0.984677500201  -1.70245757492  1.84745043164  -2.3632516042  -1.72766193755  0.0133210088296  
4.06169605255  0.980103614756  -1.70142164836  1.84759559881  -2.36349237536  -1.73026528849  0.0134321471045  
4.06977510452  0.975624597819  -1.70040110296  1.84768112562  -2.36381159773  -1.73279983589  0.0135914474642  
4.07785010338  0.97125953785  -1.69940798853  1.84770773644  -2.36418814068  -1.73522795442  0.0137276189748  
4.08587813377  0.966989546247  -1.6984284778  1.84768158355  -2.36460480722  -1.73753832369  0.0137991261689  
4.09394907951  0.962793254656  -1.69741713809  1.84756933377  -2.36509103199  -1.7397365947  0.0138959011629  
4.10203504562  0.958686051511  -1.69633192724  1.8473881192  -2.36561313573  -1.74179323685  0.0140340211097  
4.11009311676  0.954650074762  -1.69511972161  1.84712742609  -2.36619111656  -1.74372749475  0.0141823492907  
4.11824917793  0.950612803611  -1.69374391306  1.84678882606  -2.36687656476  -1.74558659688  0.0142495337312  
4.12630915642  0.94654856438  -1.69219982549  1.8463674661  -2.36768907839  -1.74740679628  0.0142961474129  
4.13442516327  0.942463102941  -1.69050242693  1.84585467787  -2.3686269996  -1.74916919714  0.0144335138219  
4.14246606827  0.938362112783  -1.68867688567  1.84525491469  -2.36958658894  -1.75089056854  0.0146472109905  
4.15054011345  0.934286635682  -1.68678754096  1.84460859647  -2.37063682922  -1.75260804964  0.0148841162258  
4.15866398811  0.930204919596  -1.68482645446  1.84393080757  -2.37181104651  -1.75438907885  0.0151099196077  
4.16682100296  0.926061981016  -1.68279584026  1.84324794093  -2.37316010245  -1.75629014237  0.015305217219  
4.1748380661  0.921939259937  -1.68072252616  1.84256235486  -2.37474155789  -1.75824294265  0.0154615939051  
4.18313908577  0.917866397587  -1.67862710679  1.84188977425  -2.37647589695  -1.76024503745  0.015578113463  
4.19110703468  0.913855291914  -1.67648856442  1.84122419939  -2.37834327118  -1.76229052485  0.0155868234339  
4.19920611382  0.90992485087  -1.67428068346  1.84051822993  -2.38027374137  -1.76434852925  0.0155651461005  
4.20728111267  0.90604190966  -1.67195935728  1.83973316899  -2.38235216889  -1.76639920357  0.0155639462903  
4.21537899971  0.90223523316  -1.66952767036  1.83885417457  -2.38461535863  -1.76843142333  0.0156467544228  
4.22347712517  0.898478651913  -1.66701728075  1.83791081324  -2.38702036344  -1.77048521211  0.0158076104328  
4.2316160202  0.894750565821  -1.66445549892  1.83688506541  -2.38961593325  -1.77256030636  0.0159266846196  
4.2396709919  0.891089293305  -1.66186412306  1.83577434196  -2.39236720116  -1.77467628648  0.0160433138681  
4.24785804749  0.887529061548  -1.65925935139  1.83460056731  -2.39519130642  -1.77686333886  0.0161109709856  
4.25587701797  0.88407972409  -1.656652309  1.83338355315  -2.39803086306  -1.77904256457  0.016105700885  
4.26395201683  0.880771459275  -1.65401420006  1.8320826582  -2.40076030643  -1.78116669959  0.016128851681  
4.27205920219  0.877661752738  -1.65138430273  1.83073898615  -2.40344945599  -1.78323597855  0.0162030141932  
4.28011608124  0.874782410687  -1.64878590776  1.82936817044  -2.40605647742  -1.78525633158  0.0162283366858  
4.28823399544  0.872128182726  -1.64617579581  1.82792485941  -2.40856342572  -1.78719173622  0.0162568825994  
4.29633712769  0.869672143082  -1.64354682714  1.82640354668  -2.41101560632  -1.78905155753  0.0163207589697  
4.30438613892  0.867377210417  -1.64087916066  1.82479513237  -2.41344598226  -1.79082739353  0.0163990776285  
4.3124461174  0.865204127089  -1.63814682738  1.82311736031  -2.41596613393  -1.79254507204  0.0164061858567  
4.32054114342  0.863116482619  -1.63530537945  1.82137413604  -2.41850001147  -1.79420423636  0.0163334247642  
4.32869720459  0.861155393703  -1.63235723091  1.81958875408  -2.42090952618  -1.79574334467  0.0162920491033  
4.33681702614  0.859332768214  -1.62929755198  1.81779412333  -2.42321448119  -1.7971601527  0.0163102779247  
4.34490799904  0.857658805824  -1.62608135667  1.81598237622  -2.42557281945  -1.79848899268  0.016290727365  
4.35298514366  0.856142217611  -1.62264433163  1.81410750234  -2.42802964819  -1.79975974919  0.0162857726133  
4.36112308502  0.854807600368  -1.61906019064  1.8122197543  -2.43055608547  -1.8009517289  0.0162549064405  
4.36920404434  0.853704770979  -1.61526462032  1.81025137935  -2.43321696715  -1.80208283394  0.0162469486042  
4.37730002403  0.852821435782  -1.61122200243  1.80815475515  -2.43599300102  -1.80314822888  0.0162183817416  
4.38542318344  0.852144726507  -1.60704480024  1.80597252337  -2.43881492366  -1.80412920012  0.0162156603188  
4.39351606369  0.851663404566  -1.60277956892  1.80372523404  -2.44172585834  -1.80502344519  0.0162651385773  
4.40157318115  0.851350094515  -1.59832009352  1.80133184688  -2.44487729023  -1.80583874263  0.016269096333  
4.40966415405  0.851134647415  -1.59364012532  1.79877274138  -2.44820116667  -1.80654334515  0.0162805245122  
4.41775918007  0.850982343712  -1.58878352295  1.79608270452  -2.45163694065  -1.80715189654  0.0163316381063  
4.42587900162  0.850883993729  -1.58379525262  1.79329642684  -2.45518199001  -1.80766133072  0.0163295534213  
4.43394517899  0.850828388007  -1.57871618325  1.79047340322  -2.45873370922  -1.8080575193  0.0163309727521  
4.44200515747  0.850804289644  -1.57350900357  1.78761057476  -2.46236335282  -1.80838869952  0.0162991556002  
4.45016407967  0.850801632037  -1.56823566342  1.78473841938  -2.46610693749  -1.80871342366  0.0162143538733  
4.45826506615  0.850812113603  -1.56299478183  1.78190527754  -2.46983902226  -1.80902273853  0.0160351320549  
4.46632814407  0.850829368033  -1.5578063674  1.77910745637  -2.47344008519  -1.80929014449  0.0158534005313  
4.47438216209  0.850848862011  -1.55269442902  1.77635305046  -2.4768522839  -1.80950417526  0.0157973695161  
4.48246908188  0.85086764028  -1.54768344963  1.77365684879  -2.48015035907  -1.80966359133  0.0157874535114  
4.4907450676  0.850884006096  -1.54270602637  1.77096445071  -2.48343671074  -1.80981815913  0.0157698287068  
4.49888014793  0.85089719667  -1.53775329328  1.7682709002  -2.48668448022  -1.80997624839  0.0157494421702  
4.50688004494  0.850907089887  -1.53288935953  1.76563097031  -2.48983612743  -1.81011975328  0.0158011526284  
4.51491808891  0.850913960756  -1.52816144724  1.76305785305  -2.49286730455  -1.81023935564  0.0158554520469  
4.52299499512  0.850918293402  -1.52354780344  1.76053784675  -2.49577613285  -1.81033199158  0.0159407573079  
4.53107404709  0.850920646238  -1.51904086053  1.75805714131  -2.49875339088  -1.81035392987  0.0160720604044  
4.53922915459  0.850957550262  -1.51467867958  1.75563190098  -2.50181830422  -1.81035314057  0.0162170821266  
4.54733109474  0.851029579067  -1.51045124748  1.75328044426  -2.50488212316  -1.81040630789  0.0163550150546  
4.5553882122  0.851115065814  -1.50632016676  1.75094888741  -2.5079812216  -1.81046422665  0.0164741291861  
4.56350016594  0.851199595087  -1.5022522337  1.74860232566  -2.51108971118  -1.81049612029  0.0165693772857  
4.57163214684  0.851310609766  -1.49822086607  1.74623592577  -2.51414556742  -1.81050903773  0.0166402529743  
4.57983016968  0.851444084973  -1.49420626849  1.74384888018  -2.51720663503  -1.81055396053  0.0166890266049  
4.5879240036  0.851576933559  -1.49019479399  1.74144288079  -2.52026307784  -1.81063609092  0.0167193940197  
4.59597206116  0.851695375829  -1.48617792411  1.73899241819  -2.52326397844  -1.8107318615  0.0167355156302  
4.60401511192  0.851792669287  -1.4821511283  1.7364723828  -2.52618466648  -1.81078094775  0.016741391067  
4.61209917068  0.851867003895  -1.4781127337  1.73387506368  -2.52910830152  -1.81081884458  0.0166689010175  
4.62019109726  0.851919718882  -1.47406295778  1.73120400688  -2.53204046842  -1.81086878618  0.016592257093  
4.6283121109  0.851953900723  -1.47003884457  1.72849768183  -2.53493810859  -1.81092067683  0.0165576289249  
4.63641119003  0.851973357785  -1.46604234947  1.72576884465  -2.53777902859  -1.81096825604  0.0165518557164  
4.64450907707  0.852017907783  -1.46208927875  1.72304156678  -2.54064541718  -1.8110082246  0.0165639971913  
4.6525490284  0.852209722828  -1.45410350456  1.71746346881  -2.54632581011  -1.81097240948  0.0166823863361  
4.66076207161  0.852397354621  -1.45001022132  1.71457947455  -2.54930083276  -1.81097006234  0.0166628967581  
4.66879200935  0.852624856659  -1.44587901774  1.71166240601  -2.55229142492  -1.81093514819  0.0166550848617  
4.67679619789  0.852888225416  -1.44169474585  1.70870330691  -2.55533502385  -1.81081689085  0.0166551013665  
4.68482518196  0.853199575208  -1.43747147203  1.7057152844  -2.55840450694  -1.81059363675  0.0166598109938  
4.69296908379  0.853561101796  -1.43327561143  1.70275234949  -2.56161436755  -1.81030823452  0.0166668377937  
4.70096611977  0.853968820591  -1.42912656164  1.69983020475  -2.56501995843  -1.81001570282  0.0166029120984  
4.70902919769  0.854379480681  -1.42504856246  1.69696799884  -2.56849879696  -1.80966029052  0.0165383736156  
4.71711015701  0.854784520696  -1.42110250733  1.69421397266  -2.57192418469  -1.80921443794  0.0164450961117  
4.72518205643  0.855197701015  -1.4172934342  1.69157159684  -2.57540476614  -1.80873867632  0.0163080220649  
4.73330998421  0.855626405975  -1.41369884994  1.6890738057  -2.57882240792  -1.80829522413  0.0162307590495  
4.74140405655  0.856073428628  -1.41025424258  1.68666841786  -2.58215537199  -1.80787323287  0.0162339384309  
4.74955105782  0.856538513689  -1.40690386182  1.68432791376  -2.58549057892  -1.80744117216  0.0162134251203  
4.75771999359  0.857019600436  -1.40364063539  1.68202945886  -2.58887992827  -1.80702594596  0.0161444568067  
4.76578807831  0.857549741604  -1.40048682878  1.67979750839  -2.59216983578  -1.80661992739  0.0160537128919  
4.77378106117  0.858125897343  -1.39746239184  1.67764021008  -2.59527716479  -1.80619480811  0.0159594933882  
4.78185200691  0.858759070556  -1.39456562996  1.67554005495  -2.5983063378  -1.80573562402  0.0158731402858  
4.78996801376  0.859468137323  -1.39174633545  1.67345193988  -2.60128425742  -1.80519224853  0.0158722248028  
4.79800009727  0.860220415802  -1.38901947785  1.67139015085  -2.60427644691  -1.80461025345  0.0158874573484  
4.80607819557  0.861009427867  -1.386420578  1.66938953142  -2.60718721888  -1.80393231363  0.0159459529561  
4.81419014931  0.861881697111  -1.38395743277  1.66746451774  -2.60996626348  -1.80315541778  0.0159890290239  
4.82223701477  0.862838641967  -1.3816203808  1.66561578256  -2.61264283643  -1.80228897254  0.0160534957257  
4.83034300804  0.863889857913  -1.37935459518  1.66380710581  -2.61524530538  -1.80132531478  0.0160887949062  
4.83846402168  0.865049442594  -1.37713722692  1.66202657422  -2.61779849267  -1.80027011567  0.0160664611353  
4.84654116631  0.866278416532  -1.37493190516  1.66025003127  -2.62032249778  -1.7991811942  0.0160119223363  
4.85483002663  0.86759975529  -1.3727330912  1.65850513366  -2.62274296547  -1.79807480342  0.0159438294639  
4.86276602745  0.869018094555  -1.37055493731  1.65680563487  -2.62507022236  -1.79693977375  0.015946399307  
4.87080621719  0.870507664391  -1.36836804582  1.65511191404  -2.62727630489  -1.79572767698  0.0159558883517  
4.87891602516  0.872045491306  -1.3661732552  1.65344216454  -2.62940123267  -1.79439485946  0.0160037122088  
4.88694119453  0.873648681672  -1.36399005958  1.65183380079  -2.63152310148  -1.79292788668  0.0160342881248  
4.89501404762  0.875302905727  -1.36182892544  1.65033131201  -2.63359957032  -1.79137761585  0.0160148783245  
4.90311598778  0.877011867443  -1.35969380812  1.64893617472  -2.63565402532  -1.78976136078  0.0159675409033  
4.91117620468  0.878826295381  -1.35758432793  1.64762342553  -2.6376588158  -1.78807371178  0.0159800539833  
4.9192340374  0.880747788471  -1.35546183384  1.64636935871  -2.63973609635  -1.78631896878  0.0159919518768  
4.92725920677  0.882747692658  -1.35332207893  1.6451535762  -2.64186351018  -1.78450679241  0.0159658117029  
4.93541002274  0.884836531165  -1.35118249636  1.64398834427  -2.64419980602  -1.78264903783  0.0158480201336  
4.94348311424  0.886993534833  -1.34901780731  1.64283310252  -2.64668618429  -1.78071288694  0.0157228907711  
4.95158004761  0.889216736379  -1.34683305321  1.6416905249  -2.64913499237  -1.7786641757  0.0156429886096  
4.95961618423  0.891480281256  -1.3446515463  1.64058990844  -2.65152715848  -1.77653905698  0.015598648899  
4.96786117554  0.893782084465  -1.3424869204  1.63951587418  -2.65390274266  -1.77434528595  0.0156519194576  
4.97583508492  0.896135158424  -1.34030985347  1.63844183879  -2.65628750439  -1.77211676022  0.015722915772  
4.98391509056  0.898541890069  -1.33812163285  1.6373804018  -2.65869593113  -1.76998973302  0.0157606319  
4.99196410179  0.900998037665  -1.33590665433  1.63632375792  -2.66113422049  -1.76794646074  0.0157744058531  
5.00008916855  0.903495844614  -1.3336402285  1.63525219599  -2.6636924185  -1.76589919131  0.0157723664455  
5.00819921494  0.906026263595  -1.33131297796  1.63415546199  -2.66645738779  -1.76388521563  0.0157610588012  
5.01623916626  0.908580420305  -1.32892570683  1.63303006894  -2.66945939263  -1.76183465192  0.0157453870215  
5.02430605888  0.911186470325  -1.32648524058  1.63187694828  -2.67260203275  -1.75968592679  0.0158003529055  
5.03242015839  0.91383813731  -1.32400128231  1.63069959111  -2.67585663405  -1.75747999226  0.0158566895086  
5.04053020477  0.916544518677  -1.3214842486  1.62950265506  -2.67923969973  -1.7551807043  0.0158714856608  
5.04864311218  0.919323593121  -1.31897958703  1.6283195603  -2.68265804327  -1.75277548401  0.0159314061904  
5.05681419373  0.92214248085  -1.31649570086  1.62715485268  -2.68609604496  -1.75029072916  0.015976873315  
5.06480908394  0.924994939582  -1.31405298155  1.62602335168  -2.68949828575  -1.74775067504  0.0160440576104  
5.07290005684  0.927891987765  -1.31171317905  1.62497352925  -2.69287927359  -1.74517569231  0.0160819835545  
5.08096504211  0.930835524262  -1.30948490678  1.6240117979  -2.69620597817  -1.74258169071  0.0160619444861  
5.08903503418  0.933821771807  -1.30737909308  1.62311820922  -2.69932931649  -1.74002496604  0.0160092588919  
5.09714412689  0.936843956306  -1.30544322723  1.6223307131  -2.70222534208  -1.73751335539  0.0159425587232  
5.10521316528  0.939894221903  -1.30370600225  1.62166136536  -2.70485971705  -1.73502403223  0.0159460978264  
5.11330413818  0.942964891543  -1.30216364699  1.62109041527  -2.70728344894  -1.73254095721  0.0159562001694  
5.12137699127  0.946049202022  -1.30082903042  1.62059566344  -2.70950539915  -1.73009859703  0.0159327590066  
5.12948107719  0.949177641316  -1.29974179489  1.62018433331  -2.71150668544  -1.72773608412  0.0158916767436  
5.13772320747  0.952382138761  -1.29891774528  1.61986647476  -2.71329928864  -1.72546845011  0.0158443535333  
5.14585208893  0.955637825715  -1.29833856432  1.61963824314  -2.71491243353  -1.72329469344  0.0157982854254  
5.15385818481  0.958942062819  -1.29796740549  1.61948786697  -2.71629310039  -1.72120429472  0.0158294351077  
5.16194319725  0.962270452195  -1.29776020129  1.6194000641  -2.71747802844  -1.71918213733  0.0159400169314  
5.17001104355  0.965623500626  -1.29767320774  1.61935906093  -2.71855543945  -1.71721195667  0.0160149574398  
5.17817020416  0.969017207104  -1.29766749485  1.61935045505  -2.71950009758  -1.715278505  0.0160241956503  
5.18619799614  0.972456874621  -1.29774683413  1.61939075486  -2.72026537285  -1.71332401316  0.0159930550552  
5.19427013397  0.975940827374  -1.29788695899  1.61947065657  -2.7209317282  -1.71133804556  0.0159409872364  
5.20235300064  0.979463381137  -1.29808445069  1.61959443719  -2.72151389084  -1.70934042168  0.0158818679238  
5.21050715446  0.982981067607  -1.29834935328  1.61977454747  -2.72198407739  -1.70729951734  0.01582476343  
5.21854400635  0.986486015185  -1.29868057506  1.62001250937  -2.72233745167  -1.70517817572  0.0157748982342  
5.22679209709  0.98995716523  -1.29910616441  1.62033169742  -2.72258345017  -1.70300736212  0.0157346410101  
5.23494005203  0.993403141109  -1.29965113326  1.62075207124  -2.72282857195  -1.70083362585  0.0157043975794  
5.24281716347  0.996778107347  -1.30031787384  1.62127491864  -2.72300329638  -1.69868519636  0.0156833537377  
5.25092601776  1.00009744139  -1.30113066314  1.62191875273  -2.72307183285  -1.69657632665  0.0156700495938  
5.25896310806  1.00341283958  -1.3021068015  1.62269643086  -2.72306944771  -1.69451138229  0.0155911925913  
5.26707220078  1.00675572103  -1.30327511145  1.62360155749  -2.72293529841  -1.69253310043  0.0155165372066  
5.27516317368  1.01014202591  -1.30465074397  1.62464539198  -2.7226907876  -1.69054646348  0.0154886989864  
5.28329610825  1.01350476271  -1.30614947948  1.62574888425  -2.72240591401  -1.68860609042  0.0154918781367  
5.29143619537  1.0168056239  -1.30774290408  1.6268718925  -2.72194792133  -1.68669664252  0.0155849229288  
5.29952120781  1.02001048932  -1.30944029552  1.62804586386  -2.72125394372  -1.68482687608  0.0156868486565  
5.30767607689  1.0230907375  -1.31120052632  1.62924168955  -2.72026721872  -1.68299862194  0.0157469229992  
5.31579709053  1.02600637794  -1.31293843042  1.63041052723  -2.71893910648  -1.68127533122  0.0157755535127  
5.32376813889  1.02866053726  -1.31455142967  1.63149735506  -2.71736600757  -1.67972948325  0.0157823027112  
5.33191514015  1.03120204303  -1.31600874299  1.63249187986  -2.71540861886  -1.67829630585  0.015775216395  
5.33999609947  1.03369791429  -1.3172907986  1.63335510389  -2.71297692592  -1.67696903763  0.0157605810176  
5.3480360508  1.03611996174  -1.31838621525  1.63407700074  -2.71029156922  -1.67573321295  0.0157429639829  
5.35612821579  1.03849506308  -1.31927217174  1.63465242729  -2.70742368699  -1.67463723611  0.0157254193661  
5.36421108246  1.04082660201  -1.31997464491  1.63510780726  -2.70443367828  -1.67369612863  0.0157097711162  
5.37229013443  1.04313889787  -1.32054675735  1.63545766036  -2.70141619658  -1.67292453472  0.0157685123464  
5.38038301468  1.04546687357  -1.32106983446  1.63573590374  -2.69843090101  -1.67229134241  0.0158304761262  
5.38849306107  1.04782980882  -1.32158028604  1.635956398  -2.69551016274  -1.67178526779  0.0158514154988  
5.39654517174  1.05019959132  -1.32211883123  1.63611906391  -2.69266657738  -1.67136412677  0.0158455401525  
5.40472602844  1.05483360632  -1.32341563828  1.63638394431  -2.68746939393  -1.670702786  0.0157958488582  
5.41285204887  1.05703734937  -1.32419155913  1.63651635321  -2.68504050272  -1.67033208123  0.0157662790797  
5.42081403732  1.05911752081  -1.32508016265  1.63668215252  -2.68256303692  -1.6698755771  0.0158107032514  
5.42881202698  1.06103076044  -1.32606838664  1.63683657394  -2.68009204426  -1.66939307604  0.0158596249119  
5.43693518639  1.0627863752  -1.32715543027  1.63698203222  -2.67766140408  -1.66890119268  0.0158696641506  
5.44499516487  1.06438891709  -1.32834852975  1.63712143621  -2.6751521492  -1.66838812399  0.0159269239305  
5.45305800438  1.06587496352  -1.32967653096  1.63727122171  -2.67263470905  -1.66789377854  0.0160428684827  
5.46129417419  1.06726106482  -1.33116064752  1.63745468164  -2.67015373585  -1.6674181214  0.0161101629178  
5.46923899651  1.06854940891  -1.33283281686  1.63771079206  -2.66768663285  -1.66698114945  0.0161047607017  
5.4773170948  1.06971564991  -1.33471048901  1.63806977906  -2.66521837487  -1.66661352771  0.0160563312221  
5.4853990078  1.07077575948  -1.33678243374  1.63851037921  -2.66265057373  -1.66628157277  0.0160588115434  
5.49344801903  1.07173284402  -1.33905709719  1.63902528118  -2.66006823589  -1.6659833086  0.0161279746087  
5.50165319443  1.07261732827  -1.34153629631  1.63961677296  -2.65752540178  -1.66569200043  0.0161582248741  
5.50981521606  1.07343744513  -1.34419952345  1.64030666755  -2.65500478389  -1.66545762133  0.0161255304852  
5.51784014702  1.07422261942  -1.34701504399  1.64108363986  -2.6524936682  -1.66526014577  0.0160585397252  
5.52587509155  1.07497649483  -1.34994774185  1.64191718599  -2.64998344295  -1.66508289993  0.0159780557457  
5.53394603729  1.07568626465  -1.35292847046  1.64275447397  -2.64737934203  -1.66489175613  0.0158979797184  
5.54205203056  1.07638488907  -1.35596394104  1.64360603457  -2.64458892185  -1.66473445614  0.015826605402  
5.55021214485  1.07711161779  -1.35908872409  1.64450572435  -2.64175541802  -1.66463682404  0.0157679877369  
5.55824303627  1.07785103085  -1.36227840446  1.64546872713  -2.63879183388  -1.66454053771  0.0157948106817  
5.56634616852  1.07861023009  -1.36549332844  1.64646891979  -2.63570217522  -1.66443246942  0.0159064544278  
5.57445216179  1.07940969076  -1.36874275589  1.64752928538  -2.63250370096  -1.66432874861  0.0159855767255  
5.58270716667  1.08025743187  -1.37201105054  1.64865772459  -2.62917272956  -1.66423858934  0.0160720252106  
5.5907831192  1.08115316767  -1.3753043963  1.64983730383  -2.62570904355  -1.66416608518  0.0161185509661  
5.59885001183  1.08209165383  -1.37857059517  1.65105240437  -2.62212654557  -1.66406707699  0.0160998074281  
5.60687208176  1.08306522598  -1.38174488689  1.65226134815  -2.61844611321  -1.66393987213  0.0160438999913  
5.61500406265  1.08410157705  -1.38490526508  1.65348244682  -2.6146011194  -1.66376445032  0.0160432084156  
5.62310099602  1.08522898233  -1.38811874285  1.65475442635  -2.61061296084  -1.66355588462  0.0160405177712  
5.63114404678  1.08645477841  -1.39136603707  1.65603803217  -2.60646561501  -1.66334946899  0.0159289000296  
5.63929009438  1.08773698729  -1.39457814333  1.65727942156  -2.60212076055  -1.66312139338  0.0157989308021  
5.64742898941  1.08906216926  -1.39773494408  1.65845078291  -2.59775526448  -1.66288165733  0.0156364959286  
5.65544819832  1.09040003662  -1.40084837687  1.65954284574  -2.59338942898  -1.6626154979  0.0154353328161  
5.66353702545  1.09174876615  -1.4038944783  1.66055839597  -2.58903392389  -1.66233884346  0.0151605896012  
5.67172598839  1.09312441886  -1.4068478224  1.66147863012  -2.58473958161  -1.66208511316  0.0148343220718  
5.67991805077  1.09453379179  -1.40970295276  1.66228783063  -2.58044092063  -1.66178242906  0.0145116122788  
5.68794107437  1.09597739591  -1.41246696967  1.66298830213  -2.57623261634  -1.66139208771  0.0141535325621  
5.69600009918  1.09748790473  -1.41515376243  1.66359290994  -2.5721634303  -1.6609676432  0.0137756522442  
5.7040810585  1.09902417575  -1.41777981251  1.6641194941  -2.56820238839  -1.66052282349  0.0134258060537  
5.71218013763  1.10055819744  -1.42036142355  1.66458699399  -2.56440900908  -1.66004525526  0.0130581215163  
5.72029805183  1.10209171816  -1.42291306239  1.66501300803  -2.56075728874  -1.65948623543  0.0126821580011  
5.72842502594  1.1035898487  -1.42544656637  1.66541247181  -2.55717114656  -1.65884714524  0.0124125352073  
5.73671221733  1.10505308354  -1.42800666099  1.66582571386  -2.55359804594  -1.65816002344  0.0121999768073  
5.74482798576  1.10646772812  -1.43063552242  1.66628998497  -2.55009459302  -1.65740440763  0.012007676962  
5.75289511681  1.10777641728  -1.43338688477  1.66685080732  -2.54673288793  -1.65655251005  0.011847835947  
5.76096200943  1.1089736147  -1.43626249047  1.66751124159  -2.54345171808  -1.65564257974  0.0117243424739  
5.76903915405  1.11008607244  -1.43926780828  1.66827664598  -2.54016034273  -1.65472643846  0.0116356899252  
5.77708005905  1.11113879227  -1.44241058434  1.66912514653  -2.53680541197  -1.65383582084  0.011577295102  
5.78516817093  1.11211709509  -1.44564523996  1.66999177027  -2.53345115859  -1.65298706322  0.0115432137546  
5.7932331562  1.11303771346  -1.44898798091  1.67090676895  -2.53018154115  -1.65223029142  0.0114557139601  
5.80131816864  1.11393508022  -1.45243772285  1.67186965586  -2.52694846535  -1.65156386087  0.0113806050608  
5.80944705009  1.11483229709  -1.45600006859  1.672874609  -2.52367372896  -1.65095448586  0.0113572728878  
5.81759309769  1.11574323027  -1.45968464746  1.67389968441  -2.52040432301  -1.65037617842  0.0113674565545  
5.8258061409  1.11667475537  -1.46344861387  1.67491505179  -2.5171238751  -1.6498100802  0.0114682640821  
5.83385920525  1.11762882532  -1.46727543755  1.67593239678  -2.5138677317  -1.64928833733  0.0115775882163  
5.84201002121  1.11860422195  -1.47116672799  1.67700158092  -2.51070003226  -1.64884829807  0.0115724615609  
5.85006213188  1.11959796645  -1.47511664193  1.67813301005  -2.50747089552  -1.64841423314  0.0115344236092  
5.8581700325  1.12060633047  -1.47911547529  1.67931183945  -2.50418490443  -1.64798407747  0.0115170785108  
5.86624312401  1.1216255298  -1.48311653481  1.68049559312  -2.50094183682  -1.64760169619  0.0114423760898  
5.8743391037  1.12265215895  -1.48710913611  1.68170084146  -2.49761800881  -1.64724360119  0.0113047515111  
5.88248705864  1.12368338679  -1.49107022369  1.68290719495  -2.49423573034  -1.64687038292  0.0111439260152  
5.89060211182  1.12471703386  -1.49497113318  1.68410180699  -2.49072658103  -1.64646000379  0.0109861716345  
5.89884114265  1.12578751996  -1.49883673634  1.68529275807  -2.48715090825  -1.64604792149  0.0107753208823  
5.9067800045  1.1268939077  -1.50266812866  1.68645673068  -2.48355345537  -1.6456783389  0.0105184823729  
5.91488409042  1.12804952805  -1.50648712967  1.68759662879  -2.4800073301  -1.64532852755  0.0101895902805  
5.92293906212  1.12923949983  -1.51029058428  1.68873122328  -2.47650699028  -1.64500475974  0.00974420891375  
5.93103313446  1.13043297307  -1.51406008058  1.68984379326  -2.47299875189  -1.6446860554  0.00923959103583  
5.93906521797  1.1316470547  -1.51782387403  1.69096921822  -2.46945124513  -1.64433654764  0.00875274178239  
5.94716501236  1.13287213857  -1.52158196292  1.69209899732  -2.46593931957  -1.6439379754  0.00825636720726  
5.955327034  1.13408300836  -1.52535249814  1.69325562952  -2.4624601159  -1.64352931413  0.00769869126625  
5.96339321136  1.1353020248  -1.52912750126  1.69445024043  -2.45896293841  -1.64311301267  0.00705515024312  
5.97147798538  1.13652404874  -1.532919265  1.69569953836  -2.4554192987  -1.64266858827  0.00624847557837  
5.9797501564  1.13772738713  -1.53675155307  1.69702229236  -2.45181701045  -1.6422314765  0.00521313651073  
5.98774409294  1.13893698595  -1.54059862618  1.69839343771  -2.44824444958  -1.64180016547  0.00386238361674  
5.99579906464  1.14014945568  -1.5444610358  1.69977833256  -2.44479701082  -1.64139512691  0.0021411031189  
6.00387406349  1.14134416699  -1.54831994353  1.70115473703  -2.44142918305  -1.6410486218  -1.62311073009e-05  
6.01193118095  1.14254660587  -1.55214625976  1.70251018894  -2.43805975589  -1.64072906647  -0.00249607237099  
6.02003717422  1.14375356008  -1.55592598921  1.703810906  -2.43472968512  -1.64039191497  -0.00519504231863  
6.02814221382  1.14498030691  -1.55969135735  1.70508499011  -2.4314153857  -1.64005705983  -0.0081360055566  
6.03624105453  1.14625221564  -1.56348136879  1.70632408805  -2.42796604879  -1.63971420581  -0.0112003388538  
6.04428815842  1.14754374467  -1.56724540331  1.70749778721  -2.42443896526  -1.63938001037  -0.0143026508442  
6.05247020721  1.14885519702  -1.57099094099  1.70862332183  -2.42087823085  -1.63904155361  -0.0174241193348  
6.06080698967  1.15155699364  -1.57847065347  1.71083959373  -2.41360519366  -1.63838165315  -0.0236044226241  
6.068775177  1.15291636022  -1.5822228304  1.7119334464  -2.40998142638  -1.63805976118  -0.0266495990283  
6.07682299614  1.15429821164  -1.58595971798  1.71298917557  -2.40631498301  -1.63768835351  -0.0296573286158  
6.08490014076  1.15571046276  -1.58966984008  1.71399701102  -2.40264911338  -1.63728095886  -0.0326841551222  
6.09300613403  1.15715464545  -1.59334913688  1.71495615151  -2.39901123765  -1.63685025874  -0.035691607659  
6.10104703903  1.15862830603  -1.59703412758  1.71589982647  -2.39536931892  -1.63638356153  -0.0386574393745  
6.10917615891  1.16016284613  -1.60072857535  1.71680703365  -2.39179406109  -1.63592180688  -0.0416091040294  
6.11723518372  1.16175299208  -1.60437987405  1.71763995983  -2.38827686141  -1.63542229326  -0.0444929701899  
6.12534213066  1.16337140258  -1.60801428364  1.71844088151  -2.3849399013  -1.63490737727  -0.0473192265329  
6.13342499733  1.16503466914  -1.61164994469  1.71921049321  -2.38183894644  -1.63443760582  -0.0501364677936  
6.14154219627  1.16676631892  -1.61531514526  1.71995204114  -2.37875801826  -1.63391027446  -0.0529031971602  
6.14956307411  1.16857323135  -1.61900619376  1.72068492693  -2.37574292871  -1.6332910916  -0.0555634559278  
6.1577911377  1.17045158332  -1.62273569581  1.72145025947  -2.37277174334  -1.63265945857  -0.0580233301222  
6.1657910347  1.17239154135  -1.62648959658  1.72225522322  -2.36982513584  -1.63204231808  -0.0603544317856  
6.17385721207  1.17438070171  -1.63023872855  1.72308540851  -2.36684495489  -1.6314315393  -0.0626145431424  
6.18195104599  1.17644241557  -1.63400181392  1.72395807696  -2.36375434664  -1.63082157414  -0.0648094079913  
6.19004321098  1.17856534  -1.63777105789  1.72489358076  -2.36051887416  -1.63016426836  -0.0669493621372  
6.19812107086  1.18071790598  -1.64152297361  1.72589747651  -2.35722269964  -1.62945772939  -0.0691179889389  
6.20620918274  1.18284206395  -1.64524531392  1.72693734407  -2.35387871794  -1.6286840267  -0.0714704053031  
6.21420812607  1.18492368512  -1.64893385335  1.72803248882  -2.35036470429  -1.6278614912  -0.0740450360261  
6.22231912613  1.18697709036  -1.65258962335  1.72918913581  -2.34675878741  -1.62702903212  -0.0770198334114  
6.23045301437  1.1889778618  -1.65621671173  1.7303900197  -2.34311905558  -1.6261662913  -0.0804969114996  
6.23856711388  1.19093459887  -1.65978488411  1.73162006826  -2.3394384168  -1.62528624442  -0.0845912408074  
6.24673509598  1.19280343851  -1.6632283703  1.73281005262  -2.33571692995  -1.62442125519  -0.0893078030662  
6.25477814674  1.19460272725  -1.66653844425  1.73395074676  -2.33195893592  -1.62358914257  -0.0945474570479  
6.26280617714  1.19635143064  -1.6697064093  1.7350422921  -2.32826040889  -1.62279712081  -0.100195513675  
6.27082014084  1.19808394974  -1.67272390501  1.73610396934  -2.32462863638  -1.62209003162  -0.10614005187  
6.27892017365  1.19984092673  -1.67556609387  1.73713643217  -2.32119441044  -1.6214190575  -0.112211033242  
6.28698921204  1.20164415258  -1.67821843723  1.73812863354  -2.31792735997  -1.62079508898  -0.118256713984  
6.29510307312  1.20350181135  -1.68065656771  1.73907816297  -2.31479007143  -1.62017571964  -0.124188775013  
6.303150177  1.20544904873  -1.68287032939  1.73995953495  -2.31179191098  -1.61953425995  -0.130037841623  
6.31122207642  1.20747979723  -1.6848773235  1.74077868154  -2.30901330047  -1.61887979081  -0.135795853371  
6.31935715675  1.20956329639  -1.68667424059  1.74150314707  -2.30652480032  -1.61817438297  -0.141359593424  
6.32742714882  1.2116755273  -1.68829883614  1.74212299781  -2.30424860608  -1.61742265997  -0.146651258541  
6.33552312851  1.21383502885  -1.68981010573  1.74265785352  -2.30215960781  -1.61661030368  -0.151724528285  
6.34367704391  1.21603024643  -1.69121969217  1.74309989009  -2.30026848466  -1.61575711751  -0.156671067374  
6.35188913345  1.21823218084  -1.69256286202  1.74343972293  -2.29847124457  -1.61485729518  -0.161630825858  
6.35983204842  1.22045871754  -1.69388594573  1.74373960223  -2.29673958742  -1.6138447722  -0.166651166942  
6.36778402328  1.22270030004  -1.69518314342  1.74401300291  -2.29509513154  -1.61275857915  -0.171860873979  
6.37593221664  1.22496729256  -1.69647125141  1.74427032954  -2.29345215062  -1.61163066768  -0.177390002927  
6.38400816917  1.2272455343  -1.69774375784  1.74450548111  -2.29180305016  -1.6105065924  -0.18313961848  
6.39214706421  1.22954303323  -1.69898024756  1.74473113743  -2.29018943033  -1.60939127754  -0.189025872316  
6.40023517609  1.23184487789  -1.70013657007  1.744941846  -2.28863249248  -1.60826399261  -0.195020460693  
6.40834403038  1.23415935102  -1.70121226311  1.74512142865  -2.28713896521  -1.60711357758  -0.20116658092  
6.41659808159  1.23654436605  -1.70223373508  1.74526349982  -2.28561670512  -1.60593577828  -0.20751054231  
6.42459917068  1.23897353823  -1.70322254604  1.74539671285  -2.28414695792  -1.60477568044  -0.213987617553  
6.43262910843  1.24142576726  -1.70415936032  1.74552512342  -2.28277442951  -1.60359171363  -0.220508516434  
6.44068598747  1.24390425726  -1.70505562249  1.74563718413  -2.28138064818  -1.60240545771  -0.226943462153  
6.4487850666  1.24640816041  -1.70594063238  1.74572771775  -2.28003028804  -1.60127560925  -0.233187301092  
6.45692110062  1.24893428854  -1.70679745172  1.7457958595  -2.2786695871  -1.60018665915  -0.23926874755  
6.46499800682  1.25151436035  -1.70763644874  1.74584347204  -2.27726585953  -1.59910222836  -0.245330177843  
6.47307610512  1.25414402079  -1.70848388132  1.74587385757  -2.27593906239  -1.59804477142  -0.251423905905  
6.48119902611  1.25683310117  -1.70935460602  1.74591934118  -2.27453005056  -1.59700292372  -0.25761308186  
6.48923015594  1.25959952801  -1.71021937018  1.74595513782  -2.27317349801  -1.59599020767  -0.263961923082  
6.49735212326  1.26240989312  -1.71111450728  1.7460240173  -2.2717686978  -1.59503441057  -0.27049207228  
6.50535511971  1.26525720889  -1.71202350136  1.74610604915  -2.27034677602  -1.5941461857  -0.277340539882  
6.51357412338  1.26815168001  -1.71293437539  1.74620141939  -2.2688857625  -1.59328003646  -0.284700306487  
6.52163600922  1.27109444204  -1.71385790975  1.74633786265  -2.2672855757  -1.59242833666  -0.292597929435  
6.52972412109  1.27404509793  -1.71479923259  1.74652768252  -2.26559040791  -1.59160775352  -0.301099316568  
6.53779911995  1.27699626722  -1.71572383821  1.74674404938  -2.2638823023  -1.5907802432  -0.310109844185  
6.54588007927  1.27992578923  -1.71663034318  1.74698211168  -2.26212232167  -1.5899457079  -0.319517771054  
6.55397200584  1.28284034849  -1.71750227626  1.74725115134  -2.26033657434  -1.58908284031  -0.32932213126  
6.56210112572  1.28572784146  -1.71831524867  1.74755344618  -2.25858895643  -1.58820384478  -0.339588476441  
6.57016205788  1.28860155634  -1.71906086922  1.74788685436  -2.25700325918  -1.5873405024  -0.350343735425  
6.57824921608  1.29145322908  -1.71974121468  1.74824680539  -2.25550315945  -1.58646547906  -0.361552435038  
6.58628320694  1.2942979199  -1.72036442848  1.74862775499  -2.25403230014  -1.58558560201  -0.373145405962  
6.59435009956  1.2971277097  -1.72090572168  1.74899559343  -2.25259930307  -1.58472823261  -0.384968989009  
6.60247302055  1.29995711139  -1.72137642028  1.74934527902  -2.25120534023  -1.58390740301  -0.396941854637  
6.61051011086  1.30281316748  -1.72177322755  1.74966167109  -2.24984699197  -1.58303817967  -0.409035881612  
6.61871409416  1.30578124914  -1.72208381262  1.74992468125  -2.2485184461  -1.58211871397  -0.421364598527  
6.62670612335  1.3088653555  -1.72234559738  1.75015646684  -2.24730256759  -1.58119871641  -0.433829345019  
6.63477301598  1.31201903571  -1.72256862954  1.75035957549  -2.24628267048  -1.58026330656  -0.446104139929  
6.64281702042  1.31520708016  -1.72274486587  1.75052403507  -2.24530902562  -1.57928242946  -0.458012324538  
6.6509141922  1.31844072552  -1.72287442488  1.7506479469  -2.24446441238  -1.57824287071  -0.469666288522  
6.65897798538  1.32174019657  -1.72296230736  1.75073445467  -2.24374240325  -1.57714289878  -0.481161498825  
6.66710805893  1.3251106789  -1.72301591398  1.75078939405  -2.24312465873  -1.5759878514  -0.492607168761  
6.67515802383  1.32851179243  -1.72304330305  1.75081959886  -2.24263468575  -1.5747419973  -0.503967234954  
6.68325710297  1.33196975144  -1.72305207622  1.75083177977  -2.24227308763  -1.57341549681  -0.515156290485  
6.691395998  1.33549489137  -1.72304875846  1.75083186489  -2.24193718674  -1.57204571507  -0.526141184286  
6.69939208031  1.33906801347  -1.7230385399  1.75082468689  -2.24160666374  -1.57065962763  -0.536851983465  
6.70768499374  1.34267253632  -1.72302526197  1.75081391113  -2.24140375484  -1.56927513442  -0.547167689844  
6.715747118  1.34625922148  -1.7230115516  1.75080211576  -2.24125483609  -1.56790281041  -0.556949461523  
6.723706007  1.34992605376  -1.72299902986  1.75079095466  -2.24110851543  -1.56654770832  -0.566420400645  
6.73177599907  1.3536885815  -1.72298854344  1.75078135269  -2.24097920621  -1.56516628623  -0.575749590596  
6.73988413811  1.35752710725  -1.72298038513  1.75077369986  -2.24087375584  -1.56375720957  -0.584980581184  
6.74793314934  1.36144009362  -1.72297448467  1.75076802421  -2.24079375107  -1.56234535317  -0.59407826247  
6.75601005554  1.3654187546  -1.72297056146  1.75076413374  -2.24073745612  -1.56090117531  -0.602999242307  
6.76409316063  1.36945087662  -1.72296823839  1.75076172476  -2.24070132594  -1.55938762243  -0.611664558409  
6.77224111557  1.37355947902  -1.7229671203  1.75076045869  -2.24068110485  -1.55783454448  -0.620017445727  
6.78036212921  1.37769662361  -1.72296684296  1.75076001176  -2.2406725604  -1.55619727385  -0.628056855376  
6.78844308853  1.38182992856  -1.72296709912  1.75076010329  -2.24067192109  -1.55450190328  -0.635815267597  
6.79668521881  1.39008293506  -1.72296831491  1.75076105798  -2.24059294684  -1.55095415347  -0.650833734167  
6.80472207069  1.39420319718  -1.72296898179  1.75076163684  -2.2405656619  -1.5492591344  -0.658414081564  
6.81279921532  1.39832019333  -1.72296957834  1.75076217192  -2.24051955601  -1.54760958535  -0.666110973608  
6.82088708878  1.40247068148  -1.7229700697  1.75076262425  -2.24042305146  -1.54600374507  -0.673857351703  
6.82899808884  1.40669147512  -1.72297044608  1.75076297917  -2.24026099648  -1.54441395909  -0.681571355745  
6.83705615997  1.41099722292  -1.72297071376  1.75076323819  -2.24007674447  -1.54288868209  -0.689278910255  
6.84513616562  1.41542372797  -1.72297088798  1.75076341234  -2.23998813774  -1.54140617558  -0.697032659058  
6.85319399834  1.41996202051  -1.72297098774  1.75076351719  -2.23992226904  -1.53999286602  -0.704930896024  
6.86129999161  1.42457661706  -1.7229353216  1.75073500252  -2.23983147605  -1.53865807059  -0.713053721415  
6.86939620972  1.42923817461  -1.72286381067  1.75067780685  -2.2397353243  -1.53737632215  -0.72149704001  
6.87755703926  1.4339241399  -1.72277835527  1.75060945113  -2.23964611362  -1.53603724284  -0.730249340382  
6.8857011795  1.43861841371  -1.72269356223  1.7505416217  -2.23965998538  -1.53466942931  -0.739377875195  
6.89379620552  1.44331045515  -1.72261812165  1.75048127156  -2.23977973038  -1.53327184036  -0.748956057981  
6.90184903145  1.44799418247  -1.72252055508  1.75040322211  -2.23986082545  -1.53184622354  -0.75898043411  
6.91001415253  1.45263084451  -1.72240186558  1.7503082765  -2.23986465919  -1.53037460509  -0.769330205259  
6.9180700779  1.45725583386  -1.72228304331  1.75021322535  -2.23973225476  -1.5288283013  -0.779933749818  
6.92610907555  1.46185624501  -1.72214097986  1.75009958263  -2.23948661138  -1.52719799334  -0.790757719917  
6.93419909477  1.46642632026  -1.72198181986  1.7499722635  -2.2391989991  -1.52553172174  -0.801758842495  
6.94229412079  1.47098410414  -1.72179351366  1.74982162195  -2.23873759685  -1.52379535241  -0.812892466701  
6.9503672123  1.4755417206  -1.72155374691  1.74962980745  -2.23821916175  -1.52201979378  -0.824117805984  
6.95867109299  1.48007047648  -1.72129027852  1.74941902991  -2.23767729566  -1.52027324702  -0.835329116674  
6.96671009064  1.48457388756  -1.72096901667  1.74916201519  -2.23713308797  -1.51859354578  -0.846571243696  
6.9746670723  1.48903905916  -1.72057499792  1.74884679487  -2.23655545335  -1.51695156687  -0.857725865407  
6.98271203041  1.49351596262  -1.72008938358  1.74845829611  -2.23597325994  -1.51525836117  -0.868765223456  
6.99086403847  1.4979979639  -1.71952810225  1.74800926498  -2.23536032168  -1.51348798016  -0.879614479004  
6.99887013435  1.50247993224  -1.71892685172  1.74752826324  -2.23474816163  -1.51170052438  -0.890247588729  
7.00707316399  1.50694111007  -1.71831126612  1.74703579227  -2.23420112017  -1.50991184652  -0.900564981484  
7.01508116722  1.51138892  -1.71766252636  1.74651679999  -2.23366140851  -1.50806407097  -0.910395865166  
7.02322912216  1.51584753152  -1.71699038802  1.74597909432  -2.2331375756  -1.50615072838  -0.919652776087  
7.03125619888  1.52025833097  -1.71628562838  1.74541529188  -2.23267858895  -1.50424236721  -0.928272288752  
7.0394179821  1.52462658393  -1.71556371449  1.74483775893  -2.23230696689  -1.50235877646  -0.936318866282  
7.04743814468  1.52899653755  -1.71481818533  1.74424133217  -2.23193750627  -1.5003969598  -0.943856488209  
7.0556101799  1.53335856629  -1.71406520881  1.74363894446  -2.23156285261  -1.49834739412  -0.950940869741  
7.06366014481  1.53772542267  -1.71329771909  1.7430249475  -2.23122465275  -1.49625914481  -0.957653288394  
7.07170510292  1.54212253855  -1.71253055169  1.74241121395  -2.23085453549  -1.49412096983  -0.964153364442  
7.07985019684  1.54656197431  -1.71175502524  1.74179079395  -2.23054834594  -1.49199814721  -0.970667265764  
7.08787417412  1.55104648921  -1.71098436066  1.74117426378  -2.23026885259  -1.48988421995  -0.977293989036  
7.09594321251  1.55557298122  -1.71020843721  1.74055352573  -2.22998937005  -1.4877736116  -0.984116172709  
7.1040430069  1.56020712463  -1.70940357876  1.73990963495  -2.22973941089  -1.485685382  -0.991270743565  
7.11213111877  1.5649415727  -1.70852293557  1.73920511227  -2.22944405871  -1.48362859404  -0.998697935582  
7.12026119232  1.56972471766  -1.70756395076  1.73843791803  -2.22910715865  -1.48160537065  -1.00626028703  
7.1283659935  1.57452047025  -1.70651582439  1.73759941395  -2.2286914246  -1.47961343606  -1.01393268094  
7.13642215729  1.57930585129  -1.70536334044  1.73667742617  -2.2282268012  -1.47764812503  -1.02165324894  
7.14475107193  1.58410416513  -1.70410838664  1.73567346231  -2.22769243018  -1.475659075  -1.02927178965  
7.1527671814  1.58891033406  -1.70276292131  1.73459708837  -2.22712714867  -1.47368532415  -1.0367441825  
7.16080498695  1.59370218524  -1.70134367122  1.73346169294  -2.22660303034  -1.47170469707  -1.04402421088  
7.1688990593  1.59850391515  -1.69986846449  1.73228153889  -2.22615895206  -1.469703848  -1.05106807296  
7.17695021629  1.60331131189  -1.69835390701  1.73106989873  -2.22572027825  -1.46761017411  -1.05780284563  
7.18505120277  1.60810294475  -1.69681410532  1.7298380617  -2.2252856575  -1.46543391326  -1.06425261796  
7.19313406944  1.61293960223  -1.69522447905  1.72856636872  -2.22489936893  -1.46319070046  -1.07042675317  
7.20124912262  1.61781761356  -1.69359310166  1.7272897938  -2.22458286325  -1.46091896925  -1.07625196766  
7.2093000412  1.62272978729  -1.6919473865  1.72603034267  -2.22434163496  -1.45862279513  -1.08182793331  
7.21737003326  1.62765052707  -1.69030527991  1.72478490083  -2.22426052665  -1.4562844408  -1.08717038726  
7.22560811043  1.63254527957  -1.68867715933  1.72355011255  -2.22432952966  -1.45389772768  -1.09231221164  
7.23361420631  1.63739605864  -1.68703207739  1.72229427747  -2.22448127027  -1.45150880234  -1.09740231294  
7.24166417122  1.64219672581  -1.6853708142  1.72101464919  -2.22457710715  -1.44916833651  -1.1025002731  
7.24978208542  1.64691291044  -1.68371369605  1.71975514738  -2.22458377801  -1.44685684833  -1.10753298933  
7.25789809227  1.65155059756  -1.68203676886  1.7184974018  -2.22453626944  -1.44453683893  -1.11249870222  
7.26595902443  1.6561759591  -1.68030960103  1.7172011735  -2.22455078333  -1.44218671525  -1.11743983389  
7.27402901649  1.66084827967  -1.67855495868  1.71587496132  -2.22464647837  -1.43979671198  -1.12231282542  
7.28217315674  1.66563413586  -1.67673613778  1.71448442413  -2.22478075299  -1.43727568276  -1.1270623409  
7.29024004936  1.67054378056  -1.67483729887  1.71301526944  -2.22492398355  -1.43462678698  -1.13166823477  
7.29836702347  1.6755519952  -1.67283984103  1.71145319078  -2.22505745823  -1.43182144816  -1.13606199716  
7.30647015572  1.6806332413  -1.67076056847  1.70984198517  -2.22517098546  -1.42885827338  -1.14026012795  
7.31465220451  1.68576448556  -1.66860065964  1.70818505174  -2.22526055985  -1.42573111098  -1.14432959701  
7.32266712189  1.69085467037  -1.66638688183  1.70648878878  -2.22532630898  -1.42247558495  -1.14818096331  
7.33072900772  1.69585290865  -1.66412343291  1.70474714927  -2.22537082561  -1.41914936718  -1.15178239107  
7.33883118629  1.70079267276  -1.66179991011  1.70294677015  -2.22548740462  -1.41583926363  -1.15510600134  
7.346971035  1.70568253281  -1.65938072115  1.70105727419  -2.22568040665  -1.41252889755  -1.15805640582  
7.35506510735  1.7106225505  -1.65680075154  1.69902676807  -2.22607785284  -1.4091629574  -1.16072259254  
7.36316800117  1.71561438235  -1.65409118582  1.69688162322  -2.22673646658  -1.40580363003  -1.16311758076  
7.3712542057  1.72059865136  -1.65124932462  1.69462169076  -2.2275276683  -1.40248828511  -1.16513339731  
7.37938117981  1.72554054241  -1.6482869033  1.69225850941  -2.22849380337  -1.39921192594  -1.1667805165  
7.38746905327  1.73042365583  -1.6452061482  1.68979586977  -2.22964333847  -1.39601219135  -1.16814057252  
7.39552807808  1.73524436826  -1.64203843635  1.68726058301  -2.23091647255  -1.3928815761  -1.16922124445  
7.40382909775  1.74000708871  -1.63886562907  1.68471949222  -2.23226428794  -1.38983026071  -1.17009182703  
7.4116961956  1.74464861828  -1.63575552484  1.68222782657  -2.23364956031  -1.38687873863  -1.17078088308  
7.41981911659  1.74907127671  -1.63277787649  1.67984205506  -2.23504600944  -1.38398400797  -1.17128830049  
7.42787098885  1.75336522749  -1.62990726013  1.67754225507  -2.23661567226  -1.38104677809  -1.17163319535  
