Ethan-CYM/ros_catkin_ws/test/伺服_gain2000_looktime003/ur_joint_target_current.txt
time  shoulder_pan_joint  shoulder_lift_joint  elbow_joint  wrist_1_joint  wrist_2_joint  wrist_3_joint
0.152350187302  0.000728335467605  -2.1579771006  -1.01306107648  -0.147254408661  -0.0593082494433  0.140748661874  
0.160228013992  0.000531955702609  -2.1612171365  -1.01423265531  -0.0458293090555  0.0232717933043  0.090183457528  
0.168285131454  0.000357968833711  -2.16370853279  -1.01513497298  0.00302900315033  0.0733745007278  0.0272653984235  
0.17641711235  0.000215796912111  -2.16548107958  -1.01577832687  0.0149881596756  0.0957117070625  0.0517400359353  
0.184660196304  0.000107703052188  -2.16663530597  -1.01619848016  0.00349662911843  0.0989933643863  0.313054833975  
0.1927921772  3.147098672e-05  -2.16729679958  -1.01644036649  -0.02083527232  0.0904907147567  0.249074484045  
0.200878143311  -1.75876393091e-05  -2.16759291939  -1.01654974345  -0.0502714056392  0.0758231118986  0.207111135021  
0.208904981613  -4.51573359504e-05  -2.1676386376  -1.0165680599  -0.079638561574  0.0590142753156  0.182896618653  
0.21691608429  -5.69216952973e-05  -2.16752935433  -1.01652980927  -0.10585205996  0.0427014837947  0.171901827405  
0.224896192551  -5.79625088684e-05  -2.16733865509  -1.01646166648  -0.127403291233  0.0284112705845  0.170007287001  
0.232930183411  -5.24622412053e-05  -2.16711926997  -1.01638279392  -0.143884274438  0.0168435824744  0.173774250976  
0.241120100021  -4.36209000461e-05  -2.16690585198  -1.0163058198  -0.155587120664  0.00812972365397  0.180537737994  
0.249233007431  -3.37105253959e-05  -2.16671855286  -1.01623811705  -0.163189795044  0.00204682454937  0.142632543378  
0.25736618042  -2.42063544982e-05  -2.16656669931  -1.01618312723  -0.167521711267  -0.00175684206397  0.169789694457  
0.265321016312  -1.59499208541e-05  -2.16645214106  -1.01614157052  -0.169448529312  -0.00374363191397  0.145298241519  
0.27339720726  -9.31391369774e-06  -2.16637204845  -1.01611245936  -0.169729089811  -0.00453964681777  0.134505641705  
0.281586170197  -4.35058249646e-06  -2.16632108443  -1.01609388664  -0.168992643381  -0.00453739481716  0.178773976425  
0.289833068848  -9.14557065449e-07  -2.16629297188  -1.01608359546  -0.167724090727  -0.00405663350792  0.209305277451  
0.297832012177  0.05405944372  -3.41808079669  -1.55382406983  -0.431948209102  0.260079143974  0.182655629051  
0.305891990662  0.130009165212  -4.25392873955  -1.24292082322  -0.490320321003  0.367566368182  0.212304083728  
0.313987016678  0.694045024622  -4.34750394506  -0.227884731119  -0.383443103728  0.426045732318  0.230521454034  
0.322074174881  0.702427198747  -3.81085104031  -0.343816252323  -0.421415553399  0.416861668355  0.239945779234  
0.330185174942  0.569810458528  -3.13704371965  -0.4037702724  -0.433767454055  0.396003490998  0.151692124236  
0.33847618103  0.480551692765  -2.68685946818  -0.445102558826  -0.436931712373  0.341504861953  0.144074993353  
0.346715211868  0.346467420654  -2.18102744855  -0.598474832147  -0.367426470964  0.241050003216  0.143582084357  
0.354773044586  0.252926293106  -2.16088410263  -0.405188629251  -0.449433661887  0.233773313309  0.193054831884  
0.362812995911  0.163454423471  -2.20894415165  -0.506374908055  -0.438625406464  0.230739942013  0.179511048704  
0.370886087418  0.0878768272794  -2.27538635449  -0.618338341743  -0.36581475162  0.172922105837  0.171673891426  
0.378921985626  0.010307943795  -2.13649958706  -1.16191231313  -0.314423657118  0.140799903469  0.168109119751  
0.38702917099  0.0036162193761  -2.57039423757  -1.3788300825  -0.299646436694  0.127636582557  0.213136062327  
0.395093202591  -0.0154138544931  -2.62327508187  -1.45559566693  -0.349411428651  0.155946803469  0.19480789256  
0.403202056885  -0.0335269552575  -2.6655750282  -1.79198530628  -0.324544654352  0.151168467748  0.18248544033  
0.41126203537  -0.03737328687  -2.67671158532  -1.69483495652  -0.309529445766  0.12452022472  0.220747302985  
0.419396162033  -0.032591831224  -2.69903906668  -1.63395879462  -0.365579982496  0.142561414755  0.151895293797  
0.427460193634  -0.0277845410782  -2.69758847319  -1.59167483249  -0.340630337248  0.159260790626  0.201551299916  
0.435754060745  -0.0235778369147  -2.695915875  -1.5699227665  -0.325966831865  0.144682900476  0.141590434306  
0.443744182587  -0.0273077065534  -2.72845292072  -1.86923695312  -0.323293045231  0.16780729549  0.0481608379694  
0.451748132706  -0.533121032784  -3.15874671484  -1.77236898763  -0.245204766392  0.154522821102  0.207143332059  
0.459855079651  -0.560298142642  -3.42763920433  -1.85055371785  0.0314700726871  0.150434055034  0.195506768093  
0.467933177948  -0.482953701574  -3.53936128684  -2.03319621486  0.0339219108984  0.207939255451  -0.0210199615375  
0.475966215134  -0.399974014422  -3.97765416194  -1.99612465976  0.064923068485  0.215265347951  0.136897840322  
0.484125137329  -0.365665036077  -3.43586242822  -2.03538489804  0.0437023944976  0.217755909191  0.17527397041  
0.492228031158  -0.184084783993  -4.45323072634  -2.14636231037  0.106587519683  0.274832381082  0.179740129192  
0.50036406517  -0.0928622816829  -4.44963111015  -2.13276779552  0.0997379663076  0.248532075383  -0.123304102323  
0.508444070816  -0.0442120138197  -4.01586454073  -1.90438511002  0.164082561961  0.198644519761  -0.205343457524  
0.516599178314  0.012070175043  -3.32162203183  -1.722343026  0.271739550815  0.238457380408  0.0884939993983  
0.524964094162  0.00364078486723  -2.86517373547  -1.75145174094  0.250647970656  0.245623122101  0.140936917204  
0.532883167267  0.0183011006848  -2.80896043105  -1.63833213854  0.219343527384  0.190020163319  -0.128819250686  
0.540899991989  0.00355802659126  -2.5428246186  -1.70497153  0.257528091348  0.212415276774  0.0498685419691  
0.548936128616  -0.548442881218  -2.38809617232  -1.60979396613  0.21321579093  0.196476775603  -0.173235585169  
0.55705499649  -0.641187886431  -2.15043808362  -1.84300563978  0.179564999335  0.188805746172  -0.195820156465  
0.565139055252  -0.792308447915  -2.25767257102  -1.70273434905  0.151231893207  0.183545426978  0.0177963893255  
0.573271036148  -0.646594755022  -2.1407804734  -1.58748753847  0.199828508257  0.183614785439  -0.149548885453  
0.581381082535  -0.54183543493  -2.14669941908  -1.53816449171  0.164767981846  0.185266766173  0.0913463728086  
0.589686155319  -0.469370297879  -2.19370134176  -1.37523845359  0.141718391523  0.187656673071  0.186717658746  
0.5977871418  -0.668609623604  -2.03499700416  -1.44722755415  0.132293759389  0.159755243139  -0.0640865620746  
0.605818033218  -0.582543463621  -1.81502967853  -1.65126989206  0.0686886208734  0.146331114453  -0.162824023999  
0.61386013031  -0.712868401555  -1.95836355372  -1.65754062657  0.0881818964538  0.168314520435  0.0783391365113  
0.621865034103  -0.773403072329  -2.1188880784  -1.66937646269  0.103705552609  0.18471675461  0.175415860478  
0.63000702858  -0.807476299243  -2.03052300096  -1.66154206817  0.122827094631  0.138564746995  -0.0728507486591  
0.638069152832  -0.770409919348  -2.27658147308  -1.53892671298  0.0675305946402  0.198416794256  0.115150103535  
0.646153211594  -0.967308011121  -2.20749533422  -1.61302567899  0.102767373873  0.177647472785  0.174638832363  
0.654200077057  -1.02594277715  -2.46391678958  -1.69868451303  0.0569595837915  0.165004497577  0.18934951964  
0.662350177765  -1.03435627977  -2.39622876649  -1.73236051807  0.0389431325486  0.15843269848  -0.105360823615  
0.670654058456  -0.947428384464  -2.84335023135  -1.64453010931  0.0189122257896  0.21376553257  0.0557075914372  
0.678810119629  -1.10578097347  -2.85822047473  -1.88225629583  0.0779719750362  0.188668575452  0.105647173942  
0.686851024628  -1.10325133997  -3.30773922903  -1.75890514715  0.0461685592338  0.172320019753  -0.160893250411  
0.694799184799  -1.08163775423  -3.31336202839  -1.96281645059  0.0329107394409  0.16278089323  0.0216138756218  
0.702930212021  -1.40857706923  -3.68103978146  -1.97134457328  0.0180085497615  0.155055109277  0.089151738759  
0.711097002029  -1.08312489233  -4.05707644157  -1.80358526555  0.0695392864839  0.156040068393  -0.164925987028  
0.719166994095  -1.08216909485  -3.9454500492  -1.98842927718  0.0483347680922  0.156933185543  0.0252899571871  
0.727281093597  -0.773483411728  -4.19208290877  -1.65200793725  0.0908978727221  0.189887827039  0.0970449818605  
0.735374212265  -0.59611460104  -4.00767243129  -1.59226629817  0.00229976657646  0.18192835412  0.129863184504  
0.743650197983  -0.503916745757  -3.76277068867  -1.71064902851  0.0721135417892  0.0835618180127  -0.149914100981  
0.751803159714  -0.223895227371  -3.76062173155  -1.64974548329  0.113427691921  -0.0185228505787  0.0241746786358  
0.759788036346  -0.113914281298  -3.42349672959  -1.59732688889  0.147059835865  -0.0738765041678  0.0860353082577  
0.76792216301  -0.106509337056  -3.20747537006  -1.89146628147  0.0984150497326  -0.0991166669214  0.114067798253  
0.776041030884  0.0772091261981  -3.283586214  -2.07190385811  0.119659373315  -0.101892014334  0.118827177722  
0.784071207047  0.102637657566  -3.04192742814  -2.13195426087  0.140625536669  -0.0927152751927  0.109116249566  
0.792187213898  0.0255322089003  -2.66091678487  -2.27381135543  0.0952071925023  -0.184795975432  0.0917567799857  
0.800266027451  -0.0358785399448  -2.89318214747  -2.20406590852  0.114367470678  -0.115304461891  0.0716504875587  
0.808441162109  0.0380983320777  -2.59780636478  -2.38076101551  0.136534189729  0.118371766737  0.0520252872727  
0.816487073898  -0.136546087795  -2.84479593932  -2.03095642652  0.141643809754  0.0496421159271  0.0347635626168  
0.824726104736  -0.124780905359  -2.56578388546  -2.2009764318  0.211503583317  0.0310193561103  0.0207426786277  
0.832862138748  -0.13121426483  -2.63846864785  -2.14679401876  0.244404784168  0.190646078009  0.0101455910494  
0.840826034546  -0.17950328118  -2.71397119419  -2.24348226218  0.254323810375  0.192970798985  0.00272019744808  
0.848829984665  -0.262839622941  -2.52063469901  -2.24993250125  0.259751278239  0.0707007958155  -0.00198680359503  
0.856888055801  -0.0715587424329  -2.6524584472  -2.24185666751  0.308054587176  0.161827317406  -0.00452892323631  
0.865023136139  0.0876196076262  -2.78439903474  -2.66602409307  0.379720484477  0.173415355952  -0.00557522072677  
0.873153209686  0.189584043549  -2.83260206835  -2.41584896864  0.288779075058  0.162153759441  -0.00561387377823  
0.881206035614  0.240749399012  -3.11971555754  -2.54632100475  0.267030568676  0.13844224799  -0.00504412820474  
0.889268159866  0.149573829016  -1.74437520747  -1.83308662592  0.189309728671  0.200809435478  -0.00416969534367  
0.897356987  0.241137783849  -3.51245527738  -2.70126900764  0.272691464828  0.217158378491  0.228175381671  
0.905660152435  0.214444632968  -3.5128859581  -2.48528350166  0.186291996609  0.224766157554  0.0984592066324  
0.91378903389  0.154688484786  -3.17549658475  -2.28087004281  0.199142339546  0.226482204217  0.0176980367014  
0.921871185303  0.10866871347  -2.93317488572  -1.99393036054  0.0944610958446  0.195941560938  -0.0318420010684  
0.929901123047  0.051317967833  -2.50316262849  -1.79362769909  0.105242607983  0.232721051688  0.222013769996  
0.937957048416  0.0406146976192  -2.78968881044  -2.05469484112  0.0985419746683  0.196492736656  0.0317754919739  
0.946043014526  0.0372336574069  -2.88953053048  -1.89779593386  0.223534064259  0.201095225343  0.212493416462  
0.954153060913  0.0366598224315  -2.97799926969  -1.83699263871  0.124450489844  0.203744257432  0.198892438751  
0.96221113205  0.0294129921096  -3.01084099105  -1.96911340598  0.12456850957  0.233516711065  0.188975966555  
0.970360040665  0.0493889985442  -3.17191259617  -1.61519520321  0.188883944319  0.192782541432  -0.0172231990952  
0.978466033936  0.0340883987351  -3.01442637336  -1.57243470207  0.175813383712  0.166453457703  -0.160716213686  
0.986646175385  0.606690479799  -3.36598784546  -1.47358064317  0.212139530321  0.182114519447  0.0532087079332  
0.994719982147  0.643691559391  -3.01895242929  -1.42512100991  0.191625780762  0.191463524677  0.13635087998  
1.00278615952  0.559144907363  -2.75417433318  -1.29577572504  0.181618705172  0.140427246755  -0.11475329842  
1.01087903976  0.709212638125  -2.60710983412  -1.27607430021  0.175069333328  0.170102438136  -0.199059195707  
1.01895809174  0.544888926508  -2.26245334344  -1.45702863349  0.235371844612  0.160465551984  -0.188519563901  
1.02709698677  0.425766823584  -1.83827053588  -1.4453451972  0.220948973974  0.156187820491  -0.180969052041  
1.03520798683  0.5909932542  -1.92506457997  -1.50692110009  0.19956475632  0.157440692313  0.0720484950371  
1.04338312149  0.479855864701  -2.04098273682  -1.5977867827  0.126612815138  0.187125256807  -0.0739912746482  
1.05145907402  0.578066787749  -1.67850833368  -1.6227478468  0.157140478702  0.178962303006  0.17445376412  
1.05949401855  0.699604011783  -2.26418064583  -1.58936739119  0.156661531935  0.173926854162  -0.0248204477616  
1.06759905815  0.732992367053  -2.44147286202  -1.73436178095  0.101836307601  0.17104297493  -0.0972603888061  
1.07579803467  0.942776300234  -2.54513420544  -1.67374729283  0.135472298166  0.163571089201  -0.130457369088  
1.08387804031  1.0293129749  -2.6428999857  -1.81953965121  0.0953478157537  0.112698670976  -0.13658371089  
1.09182715416  1.0103296907  -2.44933252099  -2.0397998531  0.141095557858  0.201434514326  0.159330252755  
1.09996819496  0.954811513402  -2.33625776212  -2.16540792936  0.172353814165  0.218763801994  0.210064328303  
1.10805702209  1.11514649754  -2.54568061743  -2.09447801742  0.124213481424  0.200150340264  0.0344125222991  
1.11616921425  0.438313367983  -1.39755287322  -1.93561312905  0.0153173391497  0.18096726969  -0.0731317948719  
1.12425708771  1.00644549427  -2.57519548835  -2.12584141114  0.134390422175  0.233458197327  -0.12878285111  
1.13231515884  1.08305845043  -3.04018090427  -2.35897461  0.221402257395  0.262062590773  0.136072838219  
1.14041805267  1.11401617375  -3.51963782262  -2.2034576528  0.0877326207887  0.246520485879  0.20627562923  
1.14872002602  0.680048757642  -2.18633384218  -1.91948618353  0.0842291284135  0.201089364474  0.0693647357628  
1.15681505203  1.19381096936  -3.12064853376  -2.19251094344  0.237218239394  0.233784825572  0.199790969939  
1.16485905647  0.722316334664  -2.11257105741  -1.9279331928  0.0830272415185  0.218101410383  0.197906259164  
1.17280602455  0.174043047834  -0.99281616355  -1.71670577654  0.0633312545051  0.176045799861  0.188937000503  
1.18089413643  1.53848294872  -3.35707899085  -2.60662156852  0.248988804079  0.249554166375  -0.0487069459875  
1.18894720078  1.53640021893  -2.91440922612  -2.49652942691  0.191603606287  0.230311875611  0.09977252844  
1.1970500946  0.777512147068  -1.74001334514  -2.00927341457  0.184048208937  0.210094272609  0.136473329281  
1.20513606071  0.547845868976  -1.62402380715  -1.91493292072  0.153159885397  0.198711196848  -0.141874384544  
1.21318101883  0.59759764871  -1.444501472  -2.14926997416  0.132383426784  0.193551993588  -0.202417655847  
1.22129321098  0.641213406219  -1.38759862318  -2.12475125288  0.184313440542  0.219695327742  -0.190150996798  
1.22943520546  1.09667431445  -1.8029454204  -2.58860908195  0.194606790821  0.268007757159  -0.181392213097  
1.2374830246  0.687655031226  -1.51666916804  -2.48767399356  0.163060690027  0.260850799673  0.0355009763754  
1.24566602707  0.217668570388  -1.1028178915  -2.05676986308  0.156269521216  0.250739128793  0.183800346356  
1.25381803513  0.428330829459  -1.5056886713  -1.84015281263  0.131101862823  0.245311947784  0.200156337587  
1.26185917854  0.590765125678  -2.13231919001  -2.36268498449  0.216862115421  0.268674120081  0.190480813637  
1.26992511749  0.487506696952  -2.21501429935  -2.04458885269  0.107479834335  0.22117344246  0.183827257545  
1.27805709839  0.192291456268  -1.73135235267  -1.79466087381  0.11751773337  0.188388961089  0.179688886622  
1.2861020565  0.505766447326  -2.06979192566  -2.02704718881  0.0994870307745  0.20228385519  0.166279322069  
1.29424214363  0.892416849006  -2.07112031421  -2.29575513624  0.156929819918  0.214391774343  0.121623996097  
1.30224609375  0.68000467279  -1.76845039901  -2.27271081473  0.207061646463  0.19038079789  0.082010094619  
1.31035709381  0.35526452312  -1.58919525472  -1.95529161303  0.11870761988  0.204060551783  0.223140754759  
1.3184170723  0.585547560154  -1.61108439611  -2.06893392926  0.114081505142  0.188930498471  0.204529888145  
1.32653021812  0.739040351205  -1.67953723672  -2.14642419717  0.11260213945  0.238467691366  0.127757763351  
1.33466005325  0.84735016477  -2.01851920425  -2.22133922794  0.10501912228  0.240569518886  -0.016089433725  
1.34278202057  0.64960530638  -1.69407173075  -2.05273442513  0.123750854831  0.209298545814  0.18854378178  
1.35086321831  0.558712374233  -1.78249520159  -1.83723317015  0.0691012516138  0.218427303847  -0.0394572921492  
1.35900712013  0.487156182022  -1.66593497207  -2.01392868507  0.0382745837485  0.253178508319  -0.127182221737  
1.36711716652  0.0824327824399  -1.77045172232  -1.55685527201  -0.0295401528488  0.183902284328  -0.166404750404  
1.37514710426  0.266412637171  -1.70060588917  -1.73780987176  0.054593175127  0.202152592802  -0.172342775465  
1.38317108154  1.03004240317  -1.78741179072  -2.02970898997  0.106387124868  0.249211455287  -0.157675962145  
1.3912820816  0.856299290671  -1.77347730144  -1.92738320513  0.0880168004955  0.243539102676  -0.132208135831  
1.39941501617  0.932988580784  -1.81877855835  -1.87534479269  0.0750343026291  0.210965766191  0.182824120501  
1.4076821804  0.953123396061  -1.76738401974  -2.01875769213  0.0638692785538  0.219065326021  0.0238280548368  
1.41585612297  0.936968889434  -1.61545182657  -2.11439058934  0.0586477078623  0.195708590226  -0.0313770654907  
1.42386698723  0.902307435562  -1.52108457526  -2.17134047012  0.057509563442  0.182153234876  -0.0604634371127  
1.43182611465  0.861763215015  -1.47719454042  -2.19918189977  0.0588918140989  0.204663675708  -0.0715267353983  
1.4399971962  0.612407837617  -1.46242377304  -2.36617783935  0.0589591330281  0.218620520416  -0.0706040060436  
1.44797921181  0.672932177743  -1.46545460516  -2.28602395463  0.0637439914248  0.200440787967  -0.0625895066488  
1.45603609085  0.505718108851  -1.48020075094  -2.37923634473  0.0652884826077  0.216632193225  0.229165441747  
1.46419620514  0.415905385508  -1.52272029701  -2.5688364215  0.0638961940368  0.198468069624  0.210041879686  
1.47229719162  0.590315012581  -1.56189923135  -2.63430680346  0.125005906083  0.189349414659  0.195636477278  
1.48033809662  0.504696555958  -1.5967244204  -2.65158033985  0.0398504606929  0.183532999186  0.0701780821706  
1.48843312263  0.667823138088  -1.63142065199  -2.75245715065  0.105837677322  0.183405482789  -0.0799478319103  
1.49664998055  0.975477384904  -1.7097629782  -2.92484143958  0.0815514769607  0.215677353972  -0.159596600686  
1.50478601456  1.1356248181  -1.74501650796  -2.96716687901  0.066530791351  0.207229421767  -0.186710916366  
1.51280498505  1.39480058966  -1.78172515353  -3.07102987792  0.115442178148  0.231837498819  -0.180565506218  
1.52083611488  1.49619310082  -1.75369717243  -2.75985044791  0.0918610304788  0.245778587961  -0.168025344922  
1.52883815765  1.48047082445  -1.72928219593  -2.67128140978  0.133915398796  0.251878413319  -0.137702434002  
1.53698420525  1.61095492648  -1.71606143811  -2.43344088317  0.0997173423661  0.254352277336  -0.104968038002  
1.5450501442  1.40174424473  -1.6824602799  -2.42724379207  0.135450337517  0.279741338865  -0.0742530918977  
1.55317115784  1.01278650345  -1.59901294138  -2.115869984  0.102934321529  0.261214213344  -0.0479963762571  
1.5612680912  0.955679192908  -1.58063881074  -2.08624431005  0.13757557787  0.276663816783  -0.0271862813295  
1.56960916519  0.703861638384  -1.54121988941  -1.94723223055  0.100441282913  0.281338638922  -0.0118389256409  
1.57757019997  0.555360736883  -1.54877771419  -2.05131612562  0.0720343222015  0.280804677948  -0.00138688930089  
1.58578515053  -0.12566989243  -1.39268915869  -1.52646483466  0.0735788561323  0.214181606045  0.0051395760822  
1.59370708466  0.974390835756  -1.61245436608  -2.17338946124  0.107417387952  0.242509260128  -0.221843471307  
1.60177302361  1.01994228424  -1.62820761268  -2.285682325  0.139995783995  0.255016420086  -0.0877826116783  
1.60986113548  1.02495528758  -1.63624688989  -2.35513575204  0.158159677814  0.261904781719  -0.00912910225901  
1.61789512634  1.4178535749  -1.68522330569  -2.38488659286  0.163980545386  0.239304672483  -0.212766876852  
1.62596511841  1.19115496309  -1.65318099047  -2.25409496483  0.107694240693  0.220846901256  -0.197179966008  
1.63407421112  1.01291794869  -1.61423949259  -2.16672666949  0.132291485226  0.210113410646  -0.185667251574  
1.64214015007  1.91299280717  -1.7919813302  -2.72273029505  0.188028994288  0.271563709817  -0.223622792355  
1.65026211739  0.515432110128  -1.52983892908  -1.98521205805  0.132398893111  0.206620931436  -0.199362602014  
1.65836310387  2.77039798026  -1.96904107512  -3.34294476261  0.279238976978  0.365935598135  -0.182414092578  
1.66649699211  2.32773358579  -1.87087399518  -3.04759420011  0.278204068926  0.330475973396  -0.217462620369  
1.6745300293  1.71321706193  -1.78081475466  -2.81130069847  0.206067647798  0.356679828937  -0.192104408594  
1.6828250885  1.04958945729  -1.67181211301  -2.61766263991  0.217083334637  0.306902523111  -0.221072662611  
1.69082021713  0.634982389651  -1.60267508771  -2.47630504109  0.219485476193  0.299824950417  -0.237507606871  
1.6988761425  0.412114179443  -1.58059939536  -2.39024193648  0.154867092314  0.264206307596  -0.244680053777  
1.70687603951  0.533489708259  -1.60751807663  -2.48212374426  0.169771702706  0.300708035173  -0.29140298391  
1.71494603157  0.232916105975  -1.57030156419  -2.39157892971  0.123760374328  0.232570950627  -0.314896184653  
1.72308802605  0.528160143425  -1.60215881425  -2.33046584887  0.0945338138486  0.223169974777  -0.321985298227  
1.73113298416  0.536305713753  -1.62940123753  -2.45922509386  0.0773474512944  0.218778057862  -0.318503328217  
1.7392270565  0.783075011369  -1.65511892279  -2.52289379556  0.132897348008  0.221085945098  -0.309041631151  
1.74731612206  0.947181912531  -1.71405431847  -2.71898744518  0.105191424997  0.254609494661  -0.297004083353  
1.75536417961  -0.197925402156  -1.42893580212  -1.74542863539  0.0629052931323  0.179443500284  -0.192677817466  
1.7636551857  -0.801605199789  -1.29375666641  -1.20858256137  -0.0222186479039  0.136740550559  -0.174212684465  
1.77174520493  2.49903639921  -2.06937245934  -3.85070237268  0.208807785421  0.407949061961  -0.351054084373  
1.77983808517  1.89785486449  -1.8992884029  -3.24820369468  0.180879277158  0.348918652277  -0.32009669676  
1.78783607483  1.4268959588  -1.75482326148  -2.78683100576  0.219942488608  0.33175460152  -0.293929683886  
1.79586815834  0.875555747159  -1.63379384753  -2.47190068673  0.239899652676  0.313790571097  -0.273447694572  
1.80397701263  0.328349792114  -1.52732717157  -2.13081613391  0.188852886258  0.239546764744  -0.258524570423  
1.81201100349  0.0445920836738  -1.45989378237  -1.93939089558  0.213345071897  0.222241493976  -0.294575183835  
1.82015013695  -0.0507818462461  -1.45579573242  -1.87696294981  0.162755587602  0.186186532839  -0.269246207982  
1.8282430172  -0.0464758070126  -0.932812888534  -2.01095928778  0.133426979225  0.197401332963  -0.251835372642  
1.83634209633  0.27465871667  -0.903188852894  -1.84264252279  0.175215020714  0.182687355884  -0.24105065359  
1.8446290493  0.383801132212  -1.11388785762  -2.06453494319  0.146917465152  0.195615951254  -0.306127383521  
1.85262799263  0.439950281293  -0.931426817488  -2.27604591376  0.180950091696  0.221283646726  -0.22669089596  
1.86082601547  0.5323799146  -1.09823843322  -2.30584477801  0.134587542686  0.211422582707  -0.315549519355  
1.86877918243  0.611464189482  -1.21003531123  -2.32902207067  0.105929601475  0.207131831517  -0.231533387075  
1.87674999237  0.232242707911  -0.933606690503  -2.1582624286  0.10598900616  0.202641113584  -0.224978625941  
1.88482904434  0.464966688843  -0.924762910602  -2.53591058755  0.0938532982467  0.235195930593  -0.269618077101  
1.89292407036  0.243986699152  -1.0924364834  -2.336753506  0.0338938993583  0.224250552086  -0.252072347273  
1.90099215508  0.125161233788  -0.933617721631  -2.31434361953  0.130511682188  0.217420294005  -0.287201052064  
1.90907216072  0.135911938197  -1.14606212725  -2.35242474316  0.12275246539  0.243643540044  -0.262101547085  
1.9172141552  0.380443424128  -1.03617347692  -2.33689800019  0.126807129204  0.204010724817  -0.245589880847  
1.92530417442  0.377409520634  -1.24441466474  -2.37968788065  0.0594940260099  0.207668685269  -0.235996203292  
1.93344116211  0.373674499885  -1.14064013643  -2.67032795  0.0832162664413  0.182917919657  -0.277609567793  
1.94171118736  0.40582354327  -1.0682470034  -2.67784519414  0.0447288003161  0.198968288026  -0.303476403169  
1.94976615906  0.447607978979  -1.00105300772  -2.63553126951  0.14813611291  0.211273921805  -0.271066187543  
1.95784115791  0.495768839516  -1.01165657192  -2.6074708029  0.0902674280992  0.191900210236  -0.341389521493  
1.96595716476  0.540932056399  -1.06527242003  -2.72849943239  0.0498504122254  0.210377792558  -0.289575876779  
1.97393202782  0.556008478497  -0.839193995758  -2.73753736005  0.0377295098218  0.222851228141  -0.300195906263  
1.98204016685  0.389020259773  -0.917324919098  -2.44227969622  0.0351666918204  0.200385289348  -0.35123547678  
1.99006319046  0.496797898732  -0.758742725396  -2.36416187976  0.103581895155  0.217301985931  -0.33289814938  
1.99830317497  0.371149810268  -0.680794117562  -2.18924699089  0.0295065847974  0.22691142869  -0.270815615603  
2.00628113747  0.317708975214  -0.663236065398  -2.0933464625  0.0465556895222  0.232556421787  -0.231162094701  
2.01441001892  0.0793349498183  -0.37451600004  -1.87157785026  0.0747781155567  0.204285162774  -0.209194096316  
2.02245903015  -0.0165316802572  -0.304778830575  -1.9418896409  0.0878963659321  0.187375161765  -0.200164828339  
2.03071713448  -0.0419668353917  -0.102814162349  -2.14708592962  0.0998833011864  0.149928636646  -0.245945937176  
2.03877902031  0.00798874939767  -0.0305080474523  -2.1329063809  0.170428725416  0.187735557673  -0.185522228593  
2.04667305946  0.0947690248638  -0.108934424067  -2.15903696851  0.146935917956  0.186060638177  -0.198026036322  
2.05470514297  0.196121700938  -0.270704960768  -2.20706334873  0.0642427540248  0.187063693744  -0.164868172514  
2.06282520294  0.242932488438  0.0662299887009  -2.33055642111  0.0254665344588  0.15998530702  -0.195937513217  
2.07091212273  0.11500421505  -0.0199208824219  -2.27916714261  0.121332359353  0.201412328351  -0.128200901092  
2.07899808884  0.079458874825  -0.208757581465  -2.27762203203  0.0568513571089  0.200631673119  -0.184480194404  
2.08703017235  0.315772333389  -0.430221133112  -2.28420099697  0.0144709781878  0.202269782858  -0.133157410757  
2.0951499939  0.267797530206  -0.551649297516  -2.13211304422  0.0573639405435  0.20126356119  -0.106916813075  
2.10323214531  0.240422558534  -0.466191873701  -2.19662882597  -0.0322290347106  0.200968452053  -0.144435923005  
2.11131310463  0.272750321627  -0.67588245118  -2.11639131924  0.0332348672538  0.201017957293  -0.174114917082  
2.11931109428  -0.245400177722  -0.590959685583  -2.217373873  0.0219833465973  0.199401274419  -0.150075042715  
2.12744402885  -0.475077846453  -0.848272715  -2.17505839296  0.0102914960931  0.172268569091  -0.138460619771  
2.13574004173  -0.613653683544  -0.539312106789  -2.39636723825  0.0155152797881  0.184958696239  -0.181371944142  
2.14375901222  -0.589783194595  -0.607166964663  -2.2583515912  0.0195774997574  0.194683679298  -0.164535841029  
2.15179014206  -0.528561241353  -0.723380886343  -2.3373879553  -0.0193104123303  0.172940199799  -0.155717771989  
2.15975117683  -0.460008248615  -0.617532462608  -2.52393887767  -0.468232147243  0.218129091328  -0.152664704595  
2.16787409782  -0.318250073947  -1.04392542006  -2.37296369381  -0.4223887414  0.217757176672  -0.199176537087  
2.17597913742  -0.250345735613  -0.836471643658  -2.51654124847  -0.43713556251  0.186936519694  -0.136851574677  
2.18402218819  -0.155991292746  -0.973048788605  -2.47699537928  -0.44601752013  0.196725360385  -0.113117025339  
2.19214320183  -0.106532476102  -0.788027807244  -2.39937120664  -0.435724418113  0.202900314395  0.00561986494898  
2.20018911362  -0.0690183286342  -0.733475024614  -2.5051352391  -0.428691463808  0.17816492766  -0.205656687018  
2.20818901062  -0.03393946714  -0.699545802999  -2.40251165989  -0.415995468233  0.220780372824  0.0132357730728  
2.21633410454  -0.0363603509839  -0.486842054588  -2.46048689754  -0.461449405608  0.189532155199  -0.180711575205  
2.22443413734  -0.612523764656  -0.125783910264  -2.59669967715  -0.41854348106  0.196137255856  0.0462929831608  
2.23245620728  -0.678113460878  -0.0357027716403  -2.67179899771  -0.451820993973  0.202964831261  -0.14686194973  
2.24082112312  -0.622774259249  -0.0980529852741  -2.70433746362  -0.531687699877  0.178627326246  0.0781557814547  
2.24891400337  -0.529600822031  -0.463110160458  -2.57436724072  -0.518847037639  0.221726592912  -0.120880927861  
2.2567961216  -0.410703132741  -0.759290244052  -2.62553501954  -0.444980893394  0.190791284528  -0.184827513958  
2.26488900185  -0.288753395825  -0.971161945113  -2.50275106473  -0.513573305463  0.20000479284  -0.184705514192  
2.27294301987  -0.186550989625  -1.09137775304  -2.40907818989  -0.490418485946  0.205775565963  -0.179030979003  
2.28112411499  -0.0802121022703  -1.4058100231  -2.23931245109  -0.476270117227  0.209351632448  -0.16678417651  
2.28930306435  -0.589864351029  -1.29946743275  -2.26541707901  -0.457398853601  0.23740788098  0.151599246279  
2.29727602005  -0.785061226905  -1.23275917615  -2.30533035856  -0.505367853847  0.195945491332  -0.00135218443613  
2.30543708801  -0.867508371369  -0.920380581538  -2.44291490537  -0.465140435759  0.197598661906  -0.0497419050271  
2.31356620789  -0.855033838021  -0.979401243733  -2.26693032732  -0.500900647933  0.19958595534  -0.0732644938712  
2.32155203819  -1.04571814152  -1.04405207212  -2.32848531308  -0.52417174982  0.170743837432  0.207047930311  
2.32981014252  -0.863733863495  -1.34484143534  -2.24879637167  -0.478985935543  0.15650658354  0.207850682603  
2.33774399757  -0.972086667368  -1.24410532779  -2.32644862523  -0.44087476741  0.176910939876  0.194727515105  
2.34588718414  -0.973733251521  -1.44445304772  -2.27824064979  -0.484692521282  0.163803328582  0.185557441806  
2.35393810272  -0.7108595915  -1.58614476639  -2.40132015949  -0.454583503961  0.15961030118  0.179726706494  
2.36212515831  -0.99013472392  -1.57474187064  -2.33314284291  -0.490196108259  0.155385108265  0.17651493154  
2.37017321587  -0.872585307541  -1.80865567568  -2.3171364317  -0.398565220931  0.186238543247  0.165588179166  
2.3781850338  -0.771535974639  -1.88399573093  -2.1638799446  -0.399525521061  0.177933472401  0.113533398362  
2.38630318642  -0.925431860765  -1.8875169722  -2.24447095443  -0.407055247134  0.171380715167  0.0703480432933  
2.39441418648  -0.408347527671  -3.08959931056  -1.72347205533  -0.32178066308  0.0702607114229  -0.227964572825  
2.40251016617  -1.22404617387  -1.60100694115  -2.22058593058  -0.403206524534  0.206225939027  -0.0845639559622  
2.41064810753  -0.90803364748  -1.47902845782  -2.33911422069  -0.361354091639  0.158372935645  -0.211091533933  
2.41881203651  -0.888677597146  -1.58899943584  -2.14601571697  -0.339484383613  0.0931652157361  -0.0776486911912  
2.4267551899  -1.13714894071  -1.15749632753  -2.42005214396  -0.322591100867  0.0424592299751  0.023600349759  
2.43483901024  -0.93617687719  -1.69105332589  -2.24746874711  -0.337289709718  -0.154871723256  0.0837143779824  
2.44293904305  -1.06878172142  -1.47540085534  -2.36659910508  -0.338496979944  -0.210850774877  0.110962816174  
2.45101308823  -1.11122218278  -1.32429513252  -2.42641965289  -0.282623176424  -0.188797981893  0.115580199644  
2.4590921402  -1.04496218625  -1.76491997024  -2.24208376816  -0.327780750375  -0.20016964693  0.106127885186  
2.4672100544  -0.994800759601  -1.76065878485  -2.24134076276  -0.355037429864  -0.205393182536  0.0892397527202  
2.47529506683  -1.16964190286  -1.71088048246  -2.24844922948  -0.373521970612  -0.208052563327  -0.214240510319  
2.48343515396  -0.972229531367  -1.91811911479  -2.13542982343  -0.331265452772  -0.175946966915  -0.0481628567328  
2.49143099785  -1.27186334957  -2.23292688261  -1.98244130702  -0.371739395171  -0.187024710488  0.0145581739926  
2.49956321716  -1.17043904376  -2.38576469871  -1.90929375316  -0.398307364015  -0.219893729209  0.0517978866965  
2.50750303268  -1.53659717048  -2.35845266984  -1.899293568  -0.411004385135  -0.213438794733  0.0686754531115  
2.51584720612  -1.69060546332  -2.25281901738  -1.9134109524  -0.354336451925  -0.235207835909  -0.212316982642  
2.52376508713  -1.90677130018  -2.3775140712  -1.85230276885  -0.384849852639  -0.246758790789  -0.202910102541  
2.5317761898  -2.17578120758  -2.32805823364  -1.82797418288  -0.279383787961  -0.280660002033  -0.189491444325  
2.5398850441  -2.4430908896  -2.21730269701  -1.70961006983  -0.334929559935  -0.29764314472  -0.180110957629  
2.54795718193  -2.4267937128  -2.39302149407  -1.72341878126  -0.383709909224  -0.300394174543  -0.17414309185  
2.55601811409  -2.23520087828  -2.65441798201  -1.64041027617  -0.296430706169  -0.29482703337  -0.17085269789  
2.56407499313  -1.74985132275  -2.77267619611  -1.63744300453  -0.305640409918  -0.282618829121  0.119493287278  
2.57221913338  -1.84477161428  -2.70637878648  -1.68041200983  -0.312633432064  -0.302886706035  0.215981962934  
2.58031511307  -1.81095284513  -2.60079237557  -1.75095172744  -0.380899379443  -0.31006518181  0.048356402061  
2.58841204643  -1.70498040501  -2.44619675915  -1.81203537698  -0.361184410883  -0.280083526036  -0.0489890208413  
2.59659600258  -1.66258600255  -2.65944019599  -1.18355463918  -0.362326077308  -0.300284585065  0.202181409622  
2.60473513603  -1.65212288292  -2.77775957938  -1.05446538364  -0.34975010448  -0.295618772328  0.191657669779  
2.61274504662  -1.58035841857  -2.80665061659  -1.0151466482  -0.341040479301  -0.288810300547  -0.0225692405649  
2.62082600594  -1.95126801503  -2.73386498347  -1.0386057815  -0.33369953582  -0.314467251175  -0.158492126313  
2.62876105309  -1.14169612396  -2.79761042538  -1.55079656413  -0.39903534141  -0.289225802103  -0.193702851207  
2.63691711426  -1.10946645815  -2.67122880524  -1.68732634269  -0.308332722435  -0.275310083389  0.043982023748  
2.64498806  -1.08253736584  -2.63802962908  -2.22420430635  -0.378657563893  -0.293637249486  0.161235836659  
2.65312004089  -0.800720625025  -3.151049501  -2.15665611485  -0.367375547059  -0.272500203428  0.196385139526  
2.6611571312  -1.38615689891  -2.97583953075  -2.21697044138  -0.348647011383  -0.322629104295  -0.064444366711  
2.66923809052  -1.23503767954  -2.90554013588  -2.23271080629  -0.338385371186  -0.318393167873  -0.179457211074  
2.67733120918  -0.860644000263  -3.13252848648  -2.11341981139  -0.339236865766  -0.280953805531  0.0529983754585  
2.68558216095  -0.912444164768  -2.97359091695  -2.14291441712  -0.332668470467  -0.287384616694  0.147696709417  
2.69374704361  -1.16988274808  -3.1146994922  -2.19263088419  0.0487299987973  -0.292754441614  0.188958589135  
2.70183515549  -1.33394604173  -2.91087883533  -2.17160389362  0.0736372885265  -0.295373824802  0.187120319509  
2.7098710537  -1.12003761785  -3.28914651122  -1.91814271486  0.105758116571  -0.293390127108  -0.110965438213  
2.71789813042  -0.979079944471  -3.55771170427  -1.94555495437  -0.00434765606714  -0.290891985056  0.0459693377544  
2.72601604462  -0.898507515351  -3.63881849342  -1.96031930176  -0.0104032493768  -0.259902758264  0.0945294232362  
2.73406410217  -0.632083507648  -3.61990868073  -1.96338166012  0.0508833471792  -0.268248578461  0.113667041129  
2.7421810627  -0.479055195957  -3.80843829561  -1.32513078292  0.0233303342961  -0.216689703353  0.113129284469  
2.7502450943  -0.471504240772  -3.56771786726  -1.02622815663  0.0751283525884  -0.245752038823  0.100844740634  
2.75836610794  -0.256515800359  -3.64996543301  -0.699772026776  0.0384326774996  -0.207023963805  0.082818137052  
2.76661610603  -0.651793645264  -3.91097019959  -0.881540816099  0.00376497148348  -0.248065578249  0.0632577880233  
2.77483916283  -0.0373037454623  -3.47201837995  -0.875702528858  0.0635374594984  -0.240302599502  0.0448472698483  
2.78281998634  0.0525554914386  -3.70422708101  -0.966463220733  0.082252085106  -0.239005430849  0.0290721921242  
2.79086017609  0.24253627238  -3.81418449696  -1.01682730544  0.0310186888675  -0.180335002092  0.0165436619105  
2.7988960743  0.230761066229  -3.72122550425  -0.854671430093  0.127409741406  -0.20622627579  0.00728465628405  
2.80699515343  0.337899633941  -3.65109714273  -0.906319943225  0.180571453311  -0.196344151173  0.000963576408973  
2.8150780201  0.29820164974  -3.84723252543  -0.988770370275  0.135881314963  -0.222858923551  -0.00286513353675  
2.82322502136  0.156396976401  -3.78779379568  -0.70200154655  0.172895000822  -0.214009759246  -0.00482175698418  
2.83134412766  0.184010549538  -3.46430786775  -0.651627784006  0.134348219639  -0.20885501697  0.273479244666  
2.83943605423  0.0974037920357  -3.20076222575  -0.62849244548  0.167175129055  -0.179611703654  0.234593755674  
2.84764003754  -0.495718634629  -3.20491455825  -0.518104997254  0.240681725036  -0.197965368263  0.251398366879  
2.85573101044  -0.654724153532  -3.2302050023  -0.483267179506  0.216001269703  -0.181782841417  0.21210122022  
2.86382818222  -0.792523697655  -2.93495759405  -0.443602853687  0.202284430027  -0.175190863632  0.23105677625  
2.87189412117  -0.835140677203  -3.26058978726  -0.369469658769  0.293869822226  -0.174551188342  0.240887756713  
2.8798789978  -0.878368167241  -3.20229621947  -0.340547533849  0.167543549425  -0.177772641393  0.198481168406  
2.88789606094  -0.856385840129  -3.6451842992  -0.277086420083  0.189972964798  -0.211598509561  0.217015495757  
2.896007061  -0.627333103164  -3.66238067671  -0.403451527513  0.0842492902961  -0.203381868655  0.182368058867  
2.90416502953  -0.689904390864  -4.00743678209  -0.114186399748  0.137100885339  -0.200954488273  0.161558991063  
2.91224312782  -0.536748014271  -3.93105319582  -0.246950551658  0.174374472813  -0.198440528531  0.196962690739  
2.92038011551  -0.674645377544  -4.03771000361  -0.267881161516  0.131026763279  -0.199768365095  0.174560827167  
2.9284222126  -1.0288887224  -3.72983558705  -0.424463467839  0.111715300596  -0.203669432909  0.207601227087  
2.9366672039  -1.20292325938  -3.64704882515  -0.252178717803  0.223852743526  -0.235495617925  0.182667346862  
2.94482803345  -1.06371708396  -3.38523695475  -0.461395251325  0.169312569811  -0.223502611567  0.167659799197  
2.95273518562  -0.955640386564  -3.13315710798  -0.438112482363  0.198264109  -0.214933415502  0.205888005289  
2.96086502075  -1.08108353247  -3.21207948899  -0.338549920518  0.147449809065  -0.239738554515  0.184242061463  
2.9688270092  -0.726301956908  -2.79016243529  -0.516007300148  0.124571911928  -0.221572382369  0.171042210501  
2.97693419456  -0.471143445836  -3.0480200082  -0.412355272792  0.100168115676  -0.237909878156  0.164326338445  
2.98501110077  -0.398490587359  -2.68356651429  -0.436700257998  0.0426486483426  -0.247645986214  0.162210938299  
2.99318003654  -0.34637572259  -3.00259554355  -0.39012166598  0.0581729963754  -0.222930988385  0.163079110432  
3.00126004219  -0.612828237987  -2.88446140385  -0.331355217633  0.0859881584105  -0.237670305869  0.157262253166  
3.00933718681  -0.79824970327  -2.83608607505  -0.462731601963  0.16457895628  -0.246180939444  0.075139537924  
3.01773810387  -0.905336598109  -2.8160741607  -0.416499854253  0.0944355116467  -0.221082605883  0.0180378612704  
3.02584505081  -0.992072077669  -2.54695931845  -0.501466504971  0.11791938618  -0.26273092038  -0.0177448274645  
3.03376913071  -1.21924932437  -2.62355224901  -0.303177410089  0.0713140685197  -0.231441406224  -0.0368377233787  
3.04183602333  -1.34630966103  -2.44965400582  -0.312742820363  0.0497493967068  -0.239311648245  -0.0444001065204  
3.04982709885  -1.37646555452  -2.40255071998  -0.487826399927  0.0971024600922  -0.243553630488  -0.0442449677525  
3.05796003342  -1.36657044441  -2.13470573002  -0.558336946029  0.138586559784  -0.245356032762  -0.0394773431874  
3.06603121758  -1.28450626582  -2.30446953023  -0.500677578572  0.0954537880802  -0.2740078379  -0.0324476821478  
3.07401108742  -1.63221017132  -2.41154372078  -0.47171527899  0.0695603659544  -0.264646231163  -0.0248045990495  
3.08215403557  -1.57153261271  -2.27448157627  -0.560666126033  0.1209331281  -0.254152148919  -0.0176013178072  
3.09022307396  -1.43789519156  -2.50489065278  -0.513511162993  0.0855854761523  -0.245649422539  -0.0114227403292  
3.09832000732  -1.520978755  -2.64776998885  -0.487678326647  0.0644865130159  -0.241302511408  -0.00651123546396  
3.10638403893  -1.51026748583  -2.74563260686  -0.475458202931  0.0532918312488  -0.266915162551  -0.00287825760805  
3.11479115486  -2.04777819272  -3.26250488188  -0.407886542187  0.0368125150647  -0.286951810448  -0.00039563723206  
3.12271308899  -1.84656221729  -3.2960755991  -0.324482308536  0.0391904285578  -0.292559776464  0.00115991759446  
3.1307311058  -1.84878760328  -3.27423014981  -0.447394550574  0.0411576622481  -0.265434154801  0.00198588484724  
3.13879513741  -1.54628998529  -3.21445367619  -0.516374940997  0.106769347857  -0.301965772132  0.00227150432336  
3.14685606956  -1.27166269769  -3.39506599783  -0.453902638592  0.0815091627283  -0.264254555387  0.0022028914223  
3.15490317345  -1.10263415128  -3.23043111096  -0.688273666743  0.0667956108819  -0.267498767432  0.0019290836775  
3.16310119629  -0.95858063782  -3.32541671797  -0.703084580866  0.0538788302322  -0.239738197284  0.00156113607738  
3.17115902901  -0.658087045931  -3.33066019995  -0.680056574312  0.109287694676  -0.22079974608  0.00117559301978  
3.17938303947  -0.510191399283  -3.30836433816  -0.806608367982  0.140037004487  -0.239866559038  0.000820217215511  
3.1875140667  -0.464481293169  -3.25411333267  -0.868947297449  0.0956542465273  -0.253502418615  0.000520466081684  
3.19565701485  -0.275380787123  -3.20739815386  -1.0214919271  0.123310292536  -0.260673047197  0.000285731784334  
3.20376706123  -0.228986496699  -3.10944889386  -1.06275380064  0.201871886716  -0.236150051856  -3.10499978469e-05  
3.21178412437  0.293300709533  -2.33264485263  -1.2377204145  0.201972889862  -0.187258428738  0.228046728465  
3.21981501579  -0.0274630455315  -3.08682260806  -1.02640848533  0.224076734141  -0.16546377225  0.254178155841  
3.22795414925  0.0889829572364  -3.2947938324  -0.817079233333  0.178833753841  -0.182505205015  0.22017181145  
3.23601102829  0.03235335314  -3.14563393925  -0.939988386323  0.146899212481  -0.198431009326  0.195765676787  
3.24405002594  -0.0932785333017  -2.98639571118  -0.978962996372  0.18734710466  -0.211993406671  0.179714425549  
3.25213599205  -0.244654631113  -2.85431527355  -0.973861662557  0.210687325615  -0.251552647346  0.216038156293  
3.26022911072  -0.395022267245  -2.78495334475  -1.10056048296  0.216738214252  -0.218540235465  0.192180450967  
3.26826620102  -0.346344306258  -2.47562080151  -1.09880774129  0.22490511766  -0.253986002645  0.176815461803  
3.27636098862  -0.360260817579  -2.31596606653  -1.07443323406  0.163171203445  -0.247180428891  0.213857491703  
3.28464818001  -0.164989270182  -2.2456404013  -0.961843141093  0.168841821778  -0.235658919281  0.17585256273  
3.2927441597  -0.0162091483013  -2.0286829196  -1.00970418399  0.246187692851  -0.173570902823  0.167663450809  
3.30078220367  0.0275055069314  -2.22079462988  -0.926094200351  0.162610564158  -0.1953597982  0.164311347901  
3.30876207352  0.00405526431501  -2.57245955238  -0.722855605477  0.227321018184  -0.155092131945  0.209868584287  
3.31683421135  0.102921288592  -2.57773496934  -0.726186552059  0.208702313595  -0.13256255402  0.237869443075  
3.32496213913  -0.103125603621  -2.76979533997  -0.608360274509  0.250332721708  -0.155385026678  0.252370394875  
3.33304619789  -0.284475007466  -2.87457748146  -0.560261516682  0.209993121734  -0.146205276537  0.25727142502  
3.34125113487  -0.462397433736  -2.63677352953  -0.653969146988  0.245101245684  -0.145054110403  0.255894618775  
3.34924912453  -0.772149802601  -2.67430474034  -0.462011046714  0.204368412604  -0.150513720763  0.250899281285  
3.35734319687  -1.13825138782  -2.87576901001  -0.241419536616  0.231351372326  -0.188145517157  0.244259956756  
3.36539316177  -1.13364964034  -2.7572881144  -0.273289092691  0.190168142577  -0.182689405068  0.237334011392  
3.37365913391  -0.930135351162  -2.17656948714  -0.419660692583  0.120618210633  -0.178216282187  0.230966076946  
3.38173818588  -1.15050607725  -2.29472482925  -0.455961236867  0.129642762264  -0.237448204033  0.179859433483  
3.38985610008  -1.05746562896  -2.09537144229  -0.299992578036  0.151104247749  -0.213594603142  0.149425128595  
3.39779806137  -0.994392886018  -1.79355119139  -0.514258196765  0.165703316644  -0.196488073413  0.180346381674  
3.40586614609  -0.880928358233  -2.14878377218  -0.431794815745  0.166604222866  -0.242856333601  0.202718602233  
3.4140150547  -0.819036326137  -2.11179830489  -0.360065452288  0.177493411366  -0.212414001881  0.171860947262  
3.42208409309  -0.594809088401  -1.94385151622  -0.629286777996  0.120974490894  -0.218635823097  0.154436821133  
3.43020319939  -0.674478985839  -1.80103385172  -0.634223865304  0.154766994053  -0.194552809847  0.146940956636  
3.43834209442  -0.502589213168  -2.04366709004  -0.669650996871  0.228947152125  -0.206487322924  0.191866253746  
3.44660305977  -0.619919230482  -2.22384753035  -0.714820521138  0.150709418275  -0.215913099555  0.175719180632  
3.45473408699  -0.498618000551  -2.34455643612  -0.725318265843  0.161853792088  -0.190695033616  0.16671952746  
3.46283817291  -0.446562059341  -2.45734462697  -0.895701680723  0.103480253688  -0.20404835228  0.162980869356  
3.47084903717  -0.441558899257  -2.43649847378  -0.800285467873  0.198897385288  -0.184119428947  0.162793863083  
3.4788711071  -0.261745932364  -2.4447196469  -0.740206261873  0.196616702403  -0.199702304623  0.16475708282  
3.48700904846  -0.446402638027  -1.92007153463  -0.934937279718  0.202176395645  -0.183226620491  0.10405437402  
3.49506020546  -0.355783281391  -1.85874008826  -0.760870801233  0.202440462003  -0.200993755437  0.0381856795641  
3.50315403938  -0.557464230397  -1.60453641838  -0.778681639634  0.142904120889  -0.214496299466  -0.230695695679  
3.51124310493  -0.493007182562  -1.52666038045  -0.92017742814  0.222713715414  -0.191938431693  -0.12737488356  
3.5193901062  -0.467738250713  -1.52343642795  -0.846229078574  0.214107879514  -0.177968617978  0.226957017041  
3.52758812904  -0.470920786831  -1.57955276433  -0.791180688398  0.204651641069  -0.170655417328  0.217058642438  
3.5355360508  -0.490780209864  -1.68121017415  -0.7649433762  0.133978573858  -0.196916517842  0.199915821244  
3.54381203651  -0.543389146906  -1.57342878403  -1.02404706745  0.089387435556  -0.185529578884  0.233444565284  
3.55177903175  -0.760760909763  -1.73664005436  -0.887053016212  0.067844372382  -0.209364135992  0.251752387444  
3.55972719193  -0.711087111851  -1.66697388191  -1.05438317748  0.12054638626  -0.222401091872  0.213300670465  
3.56787204742  -0.844581226006  -1.84149267974  -0.858927249508  0.159517979942  -0.173177814509  0.232635506429  
3.57594799995  -0.908110606463  -1.99919512675  -0.753187961811  0.0609922232026  -0.200247611494  0.242527226187  
3.58403015137  -1.14771524241  -1.76644109215  -0.62726000423  0.135934608171  -0.161753856173  0.245687024005  
3.59226608276  -1.05042036483  -1.68870696885  -0.575659655893  0.1223333209  -0.194868143534  0.198774382412  
3.60027313232  -1.18062537403  -1.38922096253  -0.671329866805  0.180291452295  -0.218196457298  0.168867401049  
3.60838603973  -1.18174163666  -1.48745569804  -0.478053626142  0.153667268701  -0.174018754051  0.198047862784  
3.61668515205  -1.36515408539  -1.31392887357  -0.492709681142  0.200424048765  -0.205562780503  0.17179376323  
3.62489819527  -1.61377459613  -1.24549025713  -0.529781588239  0.226099842876  -0.226847771025  0.202829909805  
3.63284921646  -1.65321437912  -1.54394268906  -0.479892565549  0.108518141228  -0.23817551555  0.177186915624  
3.64094018936  -1.79312911939  -1.72247732814  -0.461193995053  0.0962085547143  -0.272669532571  0.116659371903  
3.64900112152  -1.7825279302  -1.83469208274  -0.462333074147  0.152950176685  -0.260845861824  0.220733513727  
3.65709114075  -1.68157427371  -1.96004064611  -0.522896685355  0.00393960877583  -0.306430529063  0.149278792727  
3.66523814201  -1.88900929632  -2.39299075998  -0.291438250643  0.156561343757  -0.332331247599  0.197632338789  
3.67331600189  -1.56611700946  -2.23389909573  -0.455212629266  0.0759698111038  -0.337512888143  0.182956509543  
3.6813762188  -1.46960950096  -2.31652852253  -0.459554617983  0.0238919444509  -0.363346883185  0.128425286777  
3.68955898285  -1.54905026367  -2.28590576714  -0.468702190903  0.0597392018274  -0.343706515252  0.189161628821  
3.6977159977  -1.55779175056  -2.00900568898  -0.623363059382  0.0295106375588  -0.323516096098  0.182810037237  
3.70578408241  -1.47330025744  -2.0674340856  -0.603284820203  0.0119105159359  -0.305158618286  0.178939180688  
3.71380519867  -1.58923459237  -1.80876909322  -0.703170230194  0.0731279409977  -0.291303396302  0.222632213598  
3.72187304497  -1.56739485063  -1.93017302819  -0.665603100821  -0.0119533981312  -0.309170431024  0.156855589443  
3.73000001907  -1.49201543038  -1.96892087623  -0.615111957826  0.063285424873  -0.259915370261  0.207819845768  
3.73804521561  -1.6138981397  -1.73960424754  -0.720002504983  0.0568538690424  -0.287506283046  0.193637477178  
3.74610710144  -1.59606457184  -1.86714733885  -0.671353115198  -0.0107622779672  -0.304458797671  0.183925761374  
3.75416707993  -1.35631474356  -1.65540083891  -0.563286351577  0.14406232897  -0.253497135897  0.269261545486  
3.76219511032  -1.3674820611  -1.60074458009  -0.701459629588  0.0504255804612  -0.30991588445  0.227104918322  
3.77027821541  -1.33812204486  -1.56002964926  -0.759488527908  0.113727834298  -0.315482151439  0.242740711786  
3.77843999863  -1.28208126966  -1.59476239681  -0.811363343414  0.0291674638756  -0.287331292053  0.203649814563  
3.78665113449  -1.22428163874  -1.60710823484  -0.806005665502  0.100140167949  -0.29694968621  0.269320529534  
3.79483318329  -1.19054856167  -1.43054554191  -0.936519187791  0.0249229992239  -0.302178188821  0.215344437324  
3.80278611183  -1.15355943339  -1.3424406032  -0.983760053936  0.0404986523866  -0.304122803282  0.225141515303  
3.8108420372  -0.949296046305  -1.1037865629  -1.09670531779  0.116753835396  -0.244393401893  0.27584049547  
3.81890702248  -0.804481816393  -1.28980058721  -1.03763537147  0.0362505170196  -0.237179608745  0.212146862814  
3.82703709602  -0.764456859375  -1.21173568398  -1.09417015678  -0.0106480089123  -0.264788086864  0.216456850349  
3.83511614799  -0.213159414667  -1.03468209738  -1.20621058234  0.0270344545667  -0.221700722334  0.21905137421  
3.84320402145  -0.892588518651  -1.10299965416  -1.12056393543  0.0540379812049  -0.263190829131  0.266061445538  
3.85137009621  -0.740226016611  -1.29356221308  -1.04706691737  0.00814629291097  -0.286754087242  0.201178095878  
3.85960102081  -0.312546678919  -1.214208628  -0.928302121845  0.0502777524953  -0.240345522581  0.251686775343  
3.86757421494  -0.502906829674  -1.20322963997  -1.0173939681  0.0122005373641  -0.244558700622  0.236183856187  
3.87577605247  -0.476789400563  -1.21870125467  -0.884938481147  0.0558784452648  -0.276712224419  0.179012379373  
3.8837351799  -0.917209778074  -1.01478033656  -0.945885956354  -0.0348248179095  -0.329649579663  0.190759821089  
3.89180898666  -0.614113222356  -0.990797935659  -0.94858583737  0.0321016806539  -0.268789800185  0.246277580928  
3.89983010292  -0.656323521307  -1.0261471859  -0.955670044074  0.0152906048138  -0.288767908286  0.188577741658  
3.90788507462  -0.520211405818  -1.12663424638  -0.950857977918  0.00494508321088  -0.299737227943  0.198965660505  
3.91596698761  -0.0938817625375  -1.29510189089  -0.950829057372  -0.062270284879  -0.273778672536  0.161328611868  
3.92404699326  0.465117449065  -1.22583681396  -1.07546189814  0.0069509803874  -0.196556462144  0.186658378423  
3.93214702606  -0.868416196093  -0.807075562049  -0.678787910899  -0.00553564992692  -0.337418999956  0.205004039033  
3.940335989  0.0579867442966  -0.900658606823  -0.917136198911  -0.051425878127  -0.209974364891  0.171486130685  
3.9483320713  -0.237781421439  -0.843346497192  -0.906925055382  -0.0831324847855  -0.194945876562  0.198205073863  
3.95659303665  -1.97857706506  -0.318808001754  -0.876532825473  -0.12514951045  -0.317362574361  0.207448996575  
3.96476602554  -1.72343779237  -0.182614489032  -0.832958157776  0.0891803816036  -0.293002126471  0.217809804993  
3.9727191925  -1.07599365887  -0.482365555375  -0.870419912828  -0.0315734316729  -0.244296776913  0.178166492994  
3.98084712029  -1.0787464027  -0.328056215121  -0.834430317059  0.0670537030824  -0.2462308066  0.200507853548  
3.98882913589  -1.25394451765  -0.263417262771  -0.842047883886  -0.0777596892463  -0.222423183208  0.169885645216  
3.99685120583  -1.14203307447  -0.262986173583  -0.837558583698  -0.217454806528  -0.266555184799  0.152811389445  
4.00497508049  -1.07747834978  -0.0263289019373  -0.802312827403  -0.287262909073  -0.266724794545  0.145697481499  
4.01300501823  -1.00059923578  -0.152747348911  -0.654666757501  0.0504943395763  -0.266989905798  0.190974926432  
4.0210981369  -0.999770281529  0.170668686447  -0.851836808936  -0.190050594637  -0.325161477684  0.129486151632  
4.02915120125  -0.966952226223  0.0817152501971  -0.844119772415  -0.278519083434  -0.301688751636  0.140270227644  
4.03732800484  -0.944416456815  -0.060607379779  -1.00069036653  -0.324995251164  -0.255294301068  0.196851088983  
4.04537916183  -0.932551420203  -0.19170512852  -1.08750755288  -0.336204173546  -0.255091044409  0.187182113841  
4.05367612839  -0.734976267883  -0.326675938954  -1.12224890795  -0.325649124243  -0.254979234492  0.180859487662  
4.06176614761  -0.825593782674  -0.460838211616  -1.30627791853  -0.481293011137  -0.258247510519  0.17723299964  
4.0698390007  -0.48474829792  -0.754526922353  -1.11310469616  -0.369303495539  -0.229085225224  0.221253290914  
4.07791304588  -0.537858725318  -0.709386679819  -1.75521943431  -0.419170020463  -0.21479926128  0.155818148481  
4.08594608307  -0.610290643542  -0.616109748235  -1.96290993319  -0.380524114306  -0.208965078313  0.0961279960763  
4.09400606155  -0.71102795916  -0.35694001794  -2.46883975504  -0.41763402943  -0.2092689325  0.212710052157  
4.10208320618  -0.599393453251  -0.162166575675  -2.23668845788  -0.366860167207  -0.18223873659  0.198167159113  
4.11013817787  -0.780312122725  0.1396692241  -2.37469196326  -0.397519217641  -0.200345482221  0.187761380917  
4.11831498146  -1.09774535577  0.316781464118  -2.28207763749  -0.410343821294  -0.217106850713  0.0109617000877  
4.12637114525  -1.08040991618  0.29306113772  -2.36880717436  -0.422782408614  -0.228707141311  0.143164112032  
4.13447713852  -1.05188970893  0.204511012239  -2.40252560395  -0.427754763074  -0.208404259947  0.235385102244  
4.14251112938  -1.02370348821  0.100602465477  -2.38925620649  -0.366410478157  -0.226052672865  0.210971292816  
4.15068101883  -0.774737915503  -0.30927024625  -2.26289458958  -0.454787608218  -0.237534456518  0.193292337267  
4.15880918503  -1.07676434021  -0.00897474302723  -2.24945870779  -0.432910715184  -0.276261541016  0.181539749099  
4.16687607765  -1.21890798284  -0.12018857959  -2.12636854402  -0.481060147382  -0.299131481464  0.174583640257  
4.17488002777  -0.693220586644  -0.322872613926  -2.20870689791  -0.513664022338  -0.24772720185  0.171240004699  
4.18324398994  -0.785456732285  -0.365325647848  -2.08932460662  -0.45861547324  -0.274218346579  0.170416790485  
4.19116711617  -0.681582402923  -0.203758528487  -2.15513702311  -0.478207120005  -0.259268188634  -0.142777764484  
4.19925904274  -0.640740818342  -0.141172144603  -2.3444237247  -0.430479521605  -0.248760831953  -0.0178102598455  
4.20742321014  -0.85977037659  0.12651211832  -2.43572037965  -0.512568039823  -0.243420889758  0.0173472311453  
4.21543812752  -0.58104280481  -0.0630883804476  -2.49292786163  -0.508702843341  -0.23761783093  0.232408086064  
4.22359108925  -0.833346933714  -0.138145631041  -2.34558340292  -0.493755352209  -0.266542154863  0.210876380368  
4.23187398911  -0.796681640226  -0.313238550104  -2.56713593322  -0.552589455646  -0.254468588955  0.149289971606  
4.239839077  -0.586460214299  -0.411794082254  -2.50122826047  -0.516360343555  -0.273237179667  0.203585395341  
4.24794507027  -0.484113852528  -0.475180247473  -2.43461337494  -0.487487759213  -0.284193240298  0.0434965796506  
4.25592303276  -0.454789122985  -0.510695182742  -2.37404976874  -0.46590874388  -0.231470136408  -0.0813339458318  
4.26400017738  -0.305979786933  -0.328160277479  -2.58973141552  -0.39173912639  -0.225777573235  0.138767135116  
4.27214407921  -0.0113706443478  -0.729049238821  -2.31762364183  -0.473806525225  -0.223445345423  0.200625718263  
4.28015899658  0.0638609503882  -0.710182006999  -2.39565217566  -0.403987990701  -0.223942720756  -0.0502772191727  
4.28828811646  0.00510356104043  -0.453197459436  -2.5641991718  -0.419322649752  -0.197511985153  0.12613580474  
4.29639410973  -0.0813260579104  -0.535114020253  -2.52259309674  -0.435174247221  -0.213095657026  0.177042512222  
4.30442500114  -0.223222075274  -0.343033142124  -2.59379125923  -0.442314200301  -0.196708660826  0.188305037424  
4.3125641346  -0.358769474639  -0.225928488685  -2.46485818899  -0.503828876869  -0.218151484119  -0.111123570282  
4.32069301605  -0.503657282498  0.0902018155918  -2.46565442847  -0.413051091991  -0.20440093644  -0.204940293825  
4.32878303528  -0.185440868123  -0.0590600498143  -2.33087760677  -0.361684600762  -0.166121762961  -0.00115721647443  
4.33686113358  -0.262382046302  0.0828590094908  -2.22121821194  -0.386854794078  -0.176286181893  0.0989134869629  
4.34499502182  -0.173575000622  0.312264671007  -2.29266355559  -0.466883737824  -0.185434735642  -0.136739522199  
4.35304617882  -0.191808173742  0.632258909174  -2.448356185  -0.452642177943  -0.194131965738  0.0625679786166  
4.36117315292  0.0329154247606  -0.0176158618711  -2.17564023315  -0.455291071501  -0.172443437246  -0.149849759138  
4.36927700043  0.181689478738  0.692373201645  -2.62582771951  -0.499400368682  -0.188046063839  0.0640074353375  
4.377379179  0.0491227840546  0.57939421797  -2.63256864637  -0.470616366679  -0.173780594299  -0.139779597369  
4.38563203812  0.158215308256  -0.125718669571  -2.52924179423  -0.464085860574  -0.166672700627  0.0785483118381  
4.39356899261  0.10682586439  -0.100765545342  -2.53948719295  -0.507291855192  -0.164880109056  0.161405366243  
4.40181303024  -0.0620502606359  0.570709139453  -2.89763037002  -0.582018662922  -0.166414857264  -0.0932917991462  
4.4098072052  -0.363222690822  0.46081507157  -2.81531301439  -0.50670676784  -0.143292675468  0.0921112536399  
4.4178621769  -0.360508264689  0.258175727612  -2.73662016016  -0.517486801178  -0.159764315935  0.152798400248  
4.42597913742  -0.371572269368  0.0612784306781  -2.65777790949  -0.521656211554  -0.144631173669  -0.113732068608  
4.43404817581  -0.154970924805  -0.0658482250876  -2.41810465719  -0.454799030862  -0.137933956896  0.0659213541282  
4.4420800209  -0.0566464194037  0.253174017943  -2.52959333524  -0.529016261687  -0.166024072736  -0.158942827237  
4.45021319389  0.0811259848413  -0.355599657984  -2.38413277473  -0.531042369808  -0.186810222711  -0.196001600242  
4.45831298828  0.154943890917  -0.725754271111  -2.28555431234  -0.466766913054  -0.171221930632  -0.231887293712  
4.46641421318  0.157675902409  -0.694152136692  -2.3546636928  -0.421609061847  -0.161580323933  -0.159726018626  
4.47444319725  0.167930272149  -0.898519626792  -2.28725157562  -0.40113241178  -0.157092122231  0.0576032714588  
4.48251700401  0.157746346692  -1.00705660724  -2.26830370309  -0.455224538436  -0.156085651857  -0.0353982617024  
4.49084115028  0.083119119364  -0.555229630845  -2.50324974514  -0.483476290829  -0.185251413171  -0.0454933366627  
4.49894618988  0.080276559494  -0.745119732973  -2.39660792476  -0.448420654279  -0.175430337524  -0.0467208390055  
4.50695419312  0.0954222523923  -1.08788134327  -2.21407733845  -0.431351794675  -0.169368605896  0.22798336271  
4.51497817039  0.0932394045634  -1.28424236335  -2.27437205998  -0.427360616682  -0.166146988035  0.0641693615749  
4.52304720879  0.0582744169821  -1.07000422574  -2.28114125345  -0.417572399572  -0.164247442826  0.21450596501  
4.53115010262  0.0594138428734  -1.2062397584  -2.35853888762  -0.547060397585  0.0477252403062  0.199654775835  
4.53931498528  0.615034923102  -1.46811375868  -2.2676606101  -0.506826034767  -0.0192782351756  0.188907092133  
4.54741501808  0.655293814166  -1.25617864821  -2.17991032696  -0.466063719099  -0.198032605842  0.181776324978  
4.55546212196  0.568650934907  -1.15768405095  -2.46797196547  -0.510291185349  -0.0940332904526  0.177568214152  
4.56353807449  0.506796283201  -1.00809884949  -2.46898697966  -0.468868540059  -0.0482773628555  0.175557787167  
4.57178211212  0.681534565045  -0.919790004399  -2.45813414669  -0.442053594641  -0.0148780009793  0.134181803808  
4.57989001274  0.559056255  -0.847594613373  -2.45608582315  -0.487197962104  -0.161291592798  0.0870697921958  
4.58798098564  0.478588482325  -0.78194432642  -2.43515732447  -0.453295915157  -0.185418877748  0.0496423811832  
4.59601616859  0.43040001916  -0.779552686578  -2.57382774978  -0.436558268921  -0.178086218944  0.0219699178161  
4.60408306122  0.409668084245  -0.783217250631  -2.64187364689  -0.427098366829  -0.0294003510747  0.00306363742978  
4.61216711998  0.316609163658  -0.810236410963  -2.67191405723  -0.484990824514  -0.108831752122  -0.224956774556  
4.6202340126  0.195351500794  -0.814283850956  -2.65328882356  -0.458911953921  -0.119436778036  -0.111590251468  
4.62838506699  0.127293542782  -1.06638808579  -2.50398693952  -0.446336698308  -0.114227790725  -0.0345700396849  
4.63647818565  0.0482416808862  -0.960757637891  -2.51579327517  -0.433626499699  -0.0994893959524  0.0153548581814  
4.64466500282  0.561378308733  -0.734747939162  -2.54914545317  -0.396622742047  0.109270354999  0.231543219191  
4.65274310112  0.697038342733  -0.560323510559  -2.65733101218  -0.523354679256  0.014414832668  -0.127165871618  
4.66084003448  0.784425788507  -0.701638450187  -2.56756110003  -0.483097880927  -0.0180826722257  -0.0267830372943  
4.66889715195  0.594711742406  -0.788747506586  -2.50055577763  -0.45367568796  0.134907018662  -0.00568626427106  
4.67686510086  0.666086921728  -0.658665472447  -2.57524212047  -0.492261280239  0.211379401458  0.00768929193311  
4.68485713005  0.720598256696  -0.83588576667  -2.48558129508  -0.458769651147  0.22062831752  0.0150733154408  
4.69306111336  0.76154476465  -1.23784044699  -2.33381666781  -0.56551290443  0.193592231133  0.0179101697104  
4.70100212097  0.737481903605  -1.19717951816  -2.34950175896  -0.560684104974  0.17505514853  -0.222326742933  
4.70905518532  0.508087620133  -1.35433569287  -2.24465572395  -0.492954989997  0.2185720541  -0.0819745324825  
4.71717810631  0.613630784556  -1.69546820272  -2.08086101708  -0.452874484621  0.216955946128  -0.208437010302  
4.72525620461  0.646784846418  -1.6339797485  -2.14186923548  -0.54613858665  0.184411717794  -0.193617806836  
4.73340201378  0.724736600422  -2.26539391909  -1.99051186093  -0.436748536356  0.162456713263  -0.0515241123493  
4.74144411087  0.659894550548  -1.55429262333  -2.24254085069  -0.464151705932  0.179555826934  0.0857500649438  
4.74973511696  0.658890314301  -1.5707226271  -2.18778393707  -0.493986961781  0.190347988597  -0.125302753424  
4.75780320168  0.6434318402  -1.57830458457  -2.32566118069  -0.516304935845  0.167947531071  -0.194247362693  
4.76590919495  0.873675106324  -1.74365025565  -2.12100857319  -0.405105128004  0.185151603703  -0.185513455602  
4.77385401726  0.758536918696  -1.82517363172  -2.18262261157  -0.402038343113  0.193886562076  -0.179363406029  
4.78191709518  0.893790766555  -1.85977273398  -2.24232795531  -0.466803553961  0.20039679593  -0.175412499907  
4.79002118111  0.920029840633  -1.55479079778  -2.38695219561  -0.441093310871  0.232505399848  0.140890044438  
4.79804110527  0.72366564984  -1.83216641621  -2.26137067744  -0.49729614045  0.18979967125  -0.0096212514444  
4.80611205101  0.81514958116  -1.93678483727  -2.16291242667  -0.407519923117  0.250098448191  0.218313311579  
4.81425309181  1.0724770911  -1.98435429885  -2.1232441193  -0.414334255332  0.229248446131  0.0215267813161  
4.82229113579  0.957832233186  -1.92687869926  -2.11582173589  -0.420181640527  0.239587937648  0.210988374092  
4.83037519455  1.05391795882  -1.61128055136  -2.23582988332  -0.421068230602  0.245330577088  -0.0092439834814  
4.83865618706  1.09441385351  -1.64305626996  -2.20495017542  -0.428934466909  0.245246715909  -0.103580754545  
4.84670209885  0.818243387572  -1.36624259558  -2.305308924  -0.428447699384  0.211735561866  -0.148907482117  
4.8548810482  1.11200380737  -1.44012843636  -2.084252315  -0.370298354674  0.221883487319  -0.160364694236  
4.86281514168  1.01779933075  -1.51534685293  -2.13326772791  -0.402431741566  0.225068811698  0.134202330497  
4.87084007263  0.898494769651  -1.28409663646  -2.27629126272  -0.358248527666  0.255177122816  -0.031035918334  
4.87896609306  0.828842496235  -1.38696111354  -2.10865613371  -0.397654896294  0.271244117408  0.20358084623  
4.8870010376  0.997874803662  -1.47906474987  -2.01602350791  -0.426484698605  0.27937730041  -0.00810797242669  
4.8950920105  0.837721778406  -1.45428349929  -1.81554119226  -0.378305473404  0.249770183455  -0.0899144898758  
4.90316915512  0.953646162896  -1.51878122985  -1.89504436018  -0.417089286171  0.25863641251  -0.129200990187  
4.91121912003  1.22629359169  -1.5575833003  -1.96308098477  -0.381852940559  0.264009920971  0.145801865079  
4.9192700386  1.09150123174  -1.29940941391  -2.00449349226  -0.473698387822  0.262938598305  -0.033053761371  
4.92734599113  0.989896068598  -1.40807954568  -2.07636079058  -0.417099173301  0.259732310746  -0.0930142282979  
4.93546199799  1.13658444425  -1.52413763023  -2.00397796391  -0.561424791007  0.257230754814  -0.230088859489  
4.94354104996  0.925403058088  -1.29913598052  -2.2135134759  -0.458475135504  0.281495412312  -0.160571890231  
4.95162606239  1.03334086057  -1.41612933128  -2.07491987386  -0.391322319684  0.296023194018  -0.129498308965  
4.9596722126  0.83787028784  -1.49286233342  -2.01129567574  -0.411443592282  0.270564592756  -0.0617713310553  
4.96794009209  0.938898799688  -1.60186910554  -2.14138072224  -0.431356350201  0.282627320163  0.236635682364  
4.97590303421  0.957011342892  -1.37218740944  -2.17852685828  -0.434019034889  0.25962585012  0.116249781626  
4.98399615288  0.968496884574  -1.4967095815  -2.09326648786  -0.441864846249  0.185838539733  0.0514707509814  
4.99202108383  0.935010847116  -1.32440954294  -2.15600256649  -0.440085460733  0.228863634371  0.00726018028611  
5.00015115738  0.898914871902  -1.25693686852  -2.20738381239  -0.500351313907  0.25836530423  -0.0195691731726  
5.00824117661  0.859788325769  -1.24251889778  -2.23685846104  -0.535411133447  0.219146015487  -0.0333288452159  
5.01627898216  0.831863085549  -1.26041272934  -2.24910180117  -0.551245217819  0.28170528534  -0.0380617824671  
5.02435708046  1.03913206036  -1.30270185822  -2.23845563964  -0.493315996282  0.293394726799  0.227530874682  
5.03249812126  0.90648223994  -1.34706047067  -2.23894480299  -0.513465733932  0.266550995101  0.0675203100801  
5.04073309898  1.05037912964  -1.41516626756  -2.23142935112  -0.523659166884  0.307307117066  -0.00766897813066  
5.04880714417  1.13370606055  -1.70219399594  -2.10385915788  -0.47015713911  0.301049832556  0.218961160341  
5.05685901642  0.8928751876  -1.60859824752  -2.15144426084  -0.489420926271  0.291761211789  0.0278003839794  
5.0648419857  0.99277633659  -1.80199541246  -2.06313068773  -0.44581466684  0.285255502042  0.211133305752  
5.07298517227  1.06025969747  -2.16929340853  -1.91856890924  -0.486273939777  0.278913899086  -0.00348261436146  
5.08100509644  1.04937357679  -2.06854889495  -1.9480920399  -0.443007541051  0.274136324539  -0.0989331659314  
5.08909106255  1.03726091585  -2.23287187455  -2.02365218837  -0.364556182545  0.241326081477  -0.145316598983  
5.09721899033  1.03564622595  -2.50722874332  -1.82533660935  -0.383089543459  0.250191069921  -0.157788768372  
5.105271101  1.00757731384  -2.61228570991  -1.87448698668  -0.342192148003  0.25722149649  0.135950274337  
5.11336398125  0.971685369433  -2.60423270148  -1.93533641867  -0.383773946072  0.262243370629  -0.0300518551242  
5.12145900726  0.951795471281  -2.78213652383  -2.02552966972  -0.362654989935  0.236609045355  -0.0828606424097  
5.12954902649  1.18591086988  -3.06268912654  -1.97476064733  -0.359232455462  0.223439694883  -0.10578128167  
5.13779807091  1.29200363207  -3.10714197726  -1.94985202468  -0.35990605984  0.217451421756  -0.108350411873  
5.14597702026  1.07228018229  -2.98213145388  -1.94541441092  -0.361985881813  0.214437174939  -0.0984375227801  
5.15391111374  1.14787464239  -2.79549889775  -1.93970929218  -0.305038874182  0.217578211941  0.204425905323  
5.16199302673  0.926851433646  -2.5834554902  -1.86583645831  -0.334609382335  0.219915823294  0.210704251147  
5.17010402679  1.01881034149  -2.57358088915  -1.57431100934  -0.358573998587  0.225565968567  0.0727929153045  
5.17823314667  1.05539892981  -2.79173589894  -1.3763300788  -0.314204292359  0.230778568729  -0.0430301127081  
5.18630003929  1.08217928841  -3.29067180974  -0.85731338102  -0.295789591328  0.263643348142  -0.106083712438  
5.19435119629  1.05018319429  -3.08142315176  -0.780173749551  -0.344400282935  0.254941824351  -0.132725187784  
5.2023961544  1.03277459554  -3.16337238642  -0.711022070916  -0.322386904292  0.248224294829  -0.134676102518  
5.21066904068  0.767866414729  -3.16121999761  -0.681526790125  -0.309519253742  0.270367582688  -0.121606410833  
5.21859002113  0.849747583355  -3.15452537472  -0.674451201016  -0.305497075913  0.285231575686  -0.100914127142  
5.22687101364  0.684042594041  -3.35129946192  -0.577155074819  -0.311369347625  0.261187307417  -0.0778427557233  
5.23504805565  0.835370789713  -3.46764319641  -0.543578115284  -0.37974059583  0.246587014932  -0.055785929336  
5.24289107323  0.450116157184  -3.39846951631  -0.530434656169  -0.296487546657  0.233624055746  -0.036669015377  
5.25101113319  0.749585255249  -3.62304393475  -0.440767982975  -0.214912271419  0.230381353841  -0.0213343614222  
5.25899410248  0.939388656889  -3.69063617793  -0.4125398864  -0.0917184648838  0.229671327067  -0.220705631692  
5.26716208458  1.0617155162  -3.92642498183  -0.462253664853  0.0848523363741  0.201567220709  -0.0992596848457  
5.27521514893  1.1206452349  -3.95324287886  -0.367547894826  0.0530126743654  0.27280841627  -0.0152811700567  
5.28340220451  0.597166430204  -3.3620922361  -0.718702003022  0.0417399701889  0.198642082395  0.0374048215127  
5.29147100449  0.58507128003  -3.44557835713  -0.698140408507  0.144094385597  0.241758432671  0.234520305335  
5.29959011078  0.363850661796  -3.40814430987  -0.539352074501  0.147728959303  0.210724951003  0.166214502201  
5.30778098106  0.24552604981  -3.11077910956  -0.710258775053  0.206452534073  0.221831429615  0.0929495386287  
5.31588816643  -0.0338475925422  -2.60401012781  -0.772466244438  0.244693174861  0.171390668455  0.0330175094214  
5.32390809059  -0.616513138372  -2.05163720401  -0.931362722358  0.202149801845  0.139672769524  -0.00636521516711  
5.33197999001  0.593618133744  -2.13422469586  -0.861888222062  0.336814146066  0.195794872434  -0.0285824063611  
5.3400580883  0.385178283482  -1.97770989128  -1.09343425909  0.350594449812  0.169043735895  -0.0388754339895  
5.34808301926  0.299709462426  -1.97262134121  -1.07086354439  0.221920392388  0.184302068678  -0.0409423242419  
5.35619711876  0.493643614051  -1.79548473641  -1.11844751773  0.257850673702  0.141859726634  -0.0378563784224  
5.36426615715  0.430400808354  -2.03751939875  -1.02230150463  0.204781610376  0.145974850598  -0.0320064059191  
5.37238907814  0.65135130739  -2.32618242957  -1.09678078003  0.159943641102  0.126755174461  0.2288481925  
5.38043117523  0.820207231991  -2.80135927655  -1.0072587234  0.124038149742  0.148454012226  0.0818864551425  
5.38854408264  0.703467286654  -3.13111664873  -1.09481451726  0.0930129801901  0.161423433765  -0.0384115532292  
5.39670705795  0.593515159738  -3.2566727431  -0.955226606941  0.0298459848141  0.150393514696  -0.0609572437225  
5.4048101902  0.536721055273  -3.30902601794  -1.00334774162  0.0546448927689  0.17464666505  -0.0680422771548  
5.41290712357  0.288957818862  -3.23240622968  -0.863565317704  0.082573564677  0.218114495071  -0.0651014714262  
5.42090415955  0.196939760479  -3.41551688515  -0.811336495091  0.155784946661  0.215353953591  0.228532954123  
5.42884707451  -0.0693464626642  -3.27335354973  -1.06906590614  0.0815488561859  0.180753217217  0.0540435213549  
5.43698120117  0.100810499008  -3.35988783098  -0.930087418083  0.0957744777462  0.189629914266  -0.015582836107  
5.44504213333  0.0235333461507  -3.35892020828  -0.983535870444  0.166115291617  0.193547463675  0.219636714138  
5.45312809944  0.296304434875  -3.6194771117  -0.911426012839  0.0798122332513  0.168953169025  0.203752239231  
5.46134400368  0.263488718742  -3.66260208519  -0.850029522589  0.0904050094129  0.181242322802  0.0430015878237  
5.46930217743  0.301096414228  -3.86164632882  -0.699270394669  0.0950773781747  0.161194662264  -0.0813987342161  
5.47737002373  0.121807527832  -3.86506706919  -0.616746394893  0.102375389579  0.14826100003  -0.146064777601  
5.48546004295  0.289749889636  -3.8147560782  -0.726650178948  0.166017414358  0.173568844635  0.114670019593  
5.49351406097  0.216345409652  -3.95901696685  -0.713559196416  0.0775450544566  0.16005250014  0.205864691705  
5.50181007385  0.438725741071  -3.95006425085  -0.697838848533  0.0853124229792  0.183814546526  -0.0300145324909  
5.5099132061  0.354656529154  -3.78453782727  -0.53955761248  0.0997208168258  0.139971861805  -0.131108499928  
5.51791214943  0.557086172242  -3.66179276276  -0.615966666501  0.10636303157  0.173712027247  -0.177900812825  
5.52590608597  0.449246751459  -3.49379126451  -0.67894224728  0.113553276359  0.165555699624  -0.18256558037  
5.53402400017  0.370087948915  -3.07006677694  -0.825660434894  0.186735044948  0.190144966599  -0.172926896148  
5.54209399223  0.616395577462  -3.3219920661  -0.689706963884  0.217571289444  0.149657972262  -0.146099456185  
5.55024719238  0.766012378588  -3.4774502115  -0.629029429379  0.108854635559  0.149772269647  -0.114570226572  
5.55830216408  0.581318157729  -3.15465105296  -0.52518796706  0.236093169131  0.185147242512  0.202816993584  
5.56640410423  0.695192875453  -3.03569868536  -0.657224632804  0.183281466978  0.178031103982  0.212541085269  
5.57450819016  0.776660220108  -3.14662936559  -0.469177361563  0.20615532109  0.173034996909  0.0851800851528  
5.58277606964  0.780620543218  -2.94557145414  -0.485533011203  0.222632520182  0.169968581601  0.206508329536  
5.5908741951  0.785946072286  -3.10702863904  -0.564579470819  0.217961893522  0.136577662355  0.00524505758178  
5.59892320633  0.723326553496  -2.61532028312  -0.534564673794  0.230872660707  0.196305087403  -0.103138996757  
5.60695099831  0.668339530102  -2.38059242428  -0.692480316906  0.228601361367  0.184321324425  -0.156635169024  
5.61504912376  0.926717423105  -3.0752943168  -0.60614192705  0.261913599836  0.205897270395  0.111811129393  
5.62315011024  1.0269578566  -3.21481983449  -0.522511566404  0.226720789437  0.189083369631  -0.065923167166  
5.63121914864  1.01767089653  -3.03640090069  -0.743965385404  0.257623209646  0.177207896258  -0.235854401452  
5.63937211037  0.72481224402  -2.60047845035  -0.835680803307  0.279808474449  0.196448814592  -0.164369704511  
5.64748215675  0.785130664002  -2.70448733677  -0.949096368319  0.158634493463  0.180633843084  -0.210665247892  
5.65551805496  0.579668297659  -2.71996628023  -0.979133959481  0.202980155247  0.197090639921  -0.192797970903  
5.66365408897  0.658358379181  -2.49750330921  -0.938452429099  0.180256537778  0.180014214759  -0.226173721549  
5.67188000679  0.702022196486  -2.42858679968  -1.05444292741  0.162362867293  0.168739034864  -0.198897070566  
5.67995810509  0.723487142732  -2.40313501239  -1.09011000723  0.211120228901  0.219677358131  -0.180185795345  
5.68797016144  0.728682475988  -2.46095525644  -1.10603987549  0.123792946027  0.221240543057  -0.214406613946  
5.69607615471  0.942143674525  -2.53104784727  -1.07491510537  0.132425853158  0.192579595959  -0.188882025028  
5.70411109924  0.599182043516  -2.54620907724  -1.03441191553  0.141683255587  0.198091902195  -0.172277925875  
5.71224808693  0.616946856203  -2.61618037751  -0.998482608299  0.0882459173306  0.202831492819  -0.208607372753  
5.72033309937  0.63033160461  -2.6502664998  -0.949239630731  0.121739248839  0.233588275143  -0.184951254333  
5.72850418091  0.415545106588  -2.65293723933  -0.909836509621  0.148324259534  0.219887009021  -0.124085312577  
5.73681616783  0.552168652486  -2.93126470574  -0.765103895027  0.161119311301  0.210728241543  -0.181040340751  
5.74488210678  0.42506918453  -3.07251443671  -0.692213996219  0.109502575282  0.230357144557  -0.172692478948  
5.75295114517  0.170371657232  -3.34483981149  -0.547105283114  0.0758330995746  0.238947317198  -0.168106020899  
5.76101613045  0.249742348254  -3.20670290837  -0.578168606642  0.126716930893  0.215261345145  -0.166282101965  
5.76910710335  0.358456181261  -3.31918316134  -0.505878681999  0.157315860358  0.198768302036  -0.15843946212  
5.77712011337  0.446901252084  -3.363887404  -0.642826891069  0.172884419629  0.188387178234  -0.0972860899067  
5.78522109985  0.271701926785  -3.07200782549  -0.864641917467  0.126624428449  0.181066277792  -0.0503694588806  
5.79328513145  0.464387493435  -3.33831809355  -0.61124221379  0.0924054535858  0.151091525123  -0.21671591185  
5.80135703087  0.566898042489  -3.20987296427  -0.723515452129  0.137280491294  0.164050788561  -0.0923788629754  
5.80948400497  0.655619148181  -3.32761915342  -0.684546854041  0.163208758363  0.174984311545  -0.000783286910673  
5.81776309013  0.7019978466  -3.39226566734  -0.833860719226  0.113640058459  0.183507402467  0.0554535332561  
5.82587718964  0.692105770733  -3.06119497972  -0.861964367827  0.156351554444  0.190057069293  0.234875645507  
5.83389520645  0.700167489885  -3.087238994  -0.76902625448  0.117329319599  0.165624599702  0.166184935814  
5.84204101562  0.694049798661  -3.02775551017  -0.550542369007  0.0994640866851  0.151635319347  -0.179112543616  
5.85010004044  0.678560994404  -2.95781016456  -0.566875707477  0.209989264165  0.202789374931  -0.0556146469377  
5.85824108124  0.659273104091  -2.92405410665  -0.615955862371  0.1546268434  0.17761968066  -0.0176485514284  
5.86630511284  0.614914016163  -2.63140967701  -0.770418745985  0.122981765405  0.161945022673  -0.217871897569  
5.87440013885  0.610517111664  -2.62862079436  -0.571396704553  0.227434072906  0.182337178474  -0.200103826592  
5.88261413574  0.582205418594  -2.45509532978  -0.755999328163  0.166614601714  0.19581660228  -0.186973306754  
5.89080309868  0.563902480276  -2.29350049054  -0.690116185646  0.253714967868  0.204003821351  -0.178031279622  
5.89891219139  0.794939821429  -2.56936269256  -0.720993271878  0.16922552435  0.180726848722  -0.218333365127  
5.9068441391  0.676123970741  -2.45152367568  -0.84394912012  0.180901807906  0.164167661322  -0.196040106586  
5.91497421265  0.837108744048  -2.68012298166  -0.808902739858  0.120064829156  0.185296797807  -0.226423991633  
5.9229722023  0.671973525885  -2.48420063915  -0.725186592446  0.155937376577  0.168777992954  -0.243142234267  
5.93109202385  0.565176550249  -2.40678911846  -0.833948311225  0.174565194822  0.187775239271  -0.204055726127  
5.93912601471  0.741686177833  -2.60724458347  -0.622220401538  0.185165020615  0.201647356106  -0.177708467258  
5.94722414017  0.60004356517  -2.50506471759  -0.78506502165  0.129197196154  0.207496633411  -0.207630714593  
5.95541214943  0.537199087716  -2.63500726176  -0.600563717197  0.156956039616  0.181027595235  -0.226058627433  
5.96342515945  0.691770929937  -2.48143556132  -0.610666699175  0.179276971819  0.194649629754  -0.235624356618  
5.97154903412  0.593561814961  -2.60845433701  -0.51695415311  0.188360105723  0.201055969275  -0.284752489443  
5.97987008095  0.532670835619  -2.67422719781  -0.47749251387  0.19232053862  0.175566999883  -0.310378493899  
5.98783612251  0.689081291836  -2.49185777047  -0.599827121149  0.134789175222  0.190282208152  -0.365159081136  
5.99586105347  0.591202668448  -2.6315620174  -0.732921983227  0.0902762257514  0.169057465014  -0.389654939354  
6.00394320488  0.506169928469  -2.40057369885  -0.757911356729  0.138130788378  0.156799934839  -0.439502151733  
6.01198506355  0.673762634208  -2.28744487363  -0.770336904984  0.169804577151  0.1813992905  -0.365135993651  
6.02009510994  0.563138544756  -2.25851972155  -0.945552076598  0.123282486152  0.195788302482  -0.354299628586  
6.02819800377  0.730037720612  -2.47175479449  -0.750136982964  0.156764940445  0.177369493902  -0.386774457026  
6.03630399704  0.81896053894  -2.64725571043  -0.929961743717  0.230321054716  0.194300684067  -0.307435925556  
6.04433917999  0.597619536052  -2.1783476555  -0.962013534548  0.169907469707  0.174371827779  -0.299675041197  
6.0525290966  0.721169807874  -2.44064431304  -0.880549729714  0.175836666316  0.192305698788  -0.293609051147  
6.06087207794  0.590487441592  -2.49182555739  -0.75041361467  0.185916887665  0.19085525709  -0.240085176772  
6.06886601448  0.668746252117  -2.38366893618  -0.862077413719  0.124753068983  0.173930642412  -0.303720668557  
6.07690119743  0.712574840275  -2.27503467529  -0.8993449828  0.211134604055  0.221018233931  -0.251838041894  
6.08495211601  0.730482633779  -2.24600953011  -0.935828162039  0.140873516478  0.191524252084  -0.312542683924  
6.09305715561  0.731442165461  -2.2143670265  -0.932137138566  0.158331158381  0.200457733628  -0.257971767217  
6.10110211372  0.747529465863  -2.44454429819  -0.80119183691  0.166244907854  0.205186947435  -0.270288638406  
6.1092300415  0.922926431209  -2.40150850777  -1.0020583755  0.108148013378  0.179845846933  -0.279366589323  
6.1172940731  0.776247210068  -2.03760994277  -1.05410522037  0.146326713949  0.219726322774  -0.239414322661  
6.12540006638  0.72447461594  -2.35568760441  -0.858889890046  0.0405021588049  0.185905549867  -0.262479432305  
6.133477211  0.859497823612  -2.33685078776  -0.991383810045  0.0400189423744  0.165766107532  -0.278825099893  
6.1417491436  0.949301407631  -2.52099025515  -0.917956052131  0.167709118669  0.240437994278  -0.243299811202  
6.14973711967  0.950973378875  -2.37615302115  -0.855723931044  0.0744012642908  0.228031701488  -0.222508766921  
6.15781903267  0.945054154227  -2.47812829901  -0.67360702973  0.137303549754  0.188404131608  -0.166720301562  
6.16583609581  0.891449687416  -2.28573035108  -0.700090746919  0.121149047455  0.191575961126  -0.230056061643  
6.17388820648  0.836269645337  -2.13962710238  -0.715658452182  0.173080265431  0.193923115704  -0.227938648725  
6.18201804161  1.01332177939  -2.32154399314  -0.618739740713  0.199498985385  0.196976689523  -0.228825736449  
6.19009613991  0.865839666425  -2.1131786984  -0.53208601464  0.222384155539  0.225868764519  -0.231443209195  
6.19815611839  0.758463158024  -2.00556475609  -0.515609398879  0.169115449777  0.21372215001  -0.28084127707  
6.20625400543  0.487198320925  -1.94318965416  -0.677328471299  0.189319096725  0.231626145289  -0.357083991245  
6.21424913406  0.537425324892  -1.86239595541  -0.459210915518  0.270991102803  0.214076711698  -0.35324911964  
6.22239303589  0.586039720707  -1.90474685741  -0.536092554351  0.186350900199  0.201406820313  -0.482264671613  
6.23054409027  0.427415668314  -1.90504477484  -0.5931031272  0.19108068896  0.220385877385  -0.505219996961  
6.23879313469  0.526123405986  -1.6704508721  -0.602279651417  0.200077235383  0.204617433029  -0.590688395016  
6.24680614471  0.181150872853  -1.30373695608  -0.899720871411  0.202352096083  0.191090413409  -0.570203110143  
6.25484514236  0.438734527548  -1.41007357435  -0.800820516112  0.200436739208  0.186549497829  -0.535498541591  
6.26288414001  0.398011922467  -1.28203137913  -0.866077814523  0.138849360655  0.183247485247  -0.495960774877  
6.27087521553  0.593452046942  -1.2472609759  -0.729578741163  0.16605089364  0.155488327061  -0.457684140213  
6.27896499634  0.700811245596  -1.08635135885  -0.79262790253  0.0631132685083  0.197970144044  -0.380303688304  
6.28705716133  0.758419601595  -1.03693743536  -0.809177138068  0.125148138048  0.168376397335  -0.329728572809  
6.2951631546  0.764654694473  -0.832486896021  -0.791239390368  0.114377629587  0.208476491121  -0.300601025105  
6.30320501328  0.95576338931  -0.86902177333  -0.942889144933  0.10225696763  0.206468152166  -0.331307588427  
6.31130504608  0.853061653998  -0.943582452904  -0.881613375362  0.0412009373709  0.202600998311  -0.308665450935  
6.31941199303  0.750686261259  -0.866719368854  -1.11447716234  0.00567813594042  0.228289528384  -0.254581405165  
6.32746815681  0.706153147338  -1.13507515054  -1.10692878574  0.0491108132477  0.214057599428  -0.22944471082  
6.33557105064  0.876787386855  -1.40399910636  -1.09127913546  0.0203262391264  0.233790224597  -0.268271249659  
6.34383606911  0.74265965631  -1.33486065264  -1.17711341015  0.0123787318232  0.213956234585  -0.299255783914  
6.35197520256  0.682747039774  -1.59001100456  -1.23312262778  0.0663219986538  0.228817776342  -0.366162950082  
6.36000704765  0.846255594064  -1.73507210556  -0.931343518862  0.0527209295096  0.267109819108  -0.361558300497  
6.3678150177  0.709991469411  -1.58863749046  -1.01493034908  0.0450320820688  0.228624963985  -0.44442332551  
6.37598514557  0.847544523199  -1.76177412186  -0.928216259827  0.100280824484  0.232321124137  -0.486853144516  
6.38403105736  0.698490107653  -1.61161931833  -1.00123326826  0.0779658671704  0.202993129174  -0.412685188347  
6.39223003387  0.805284912148  -1.52066389989  -0.880610099501  0.0682507254424  0.214955714553  -0.404507408295  
6.40031313896  0.642733517115  -1.21467581183  -0.925879788358  0.0665823484656  0.221214388525  -0.394725568371  
6.40838599205  0.771444724866  -1.3741253856  -0.996885213471  0.0563313014344  0.226272638145  -0.428914425787  
6.416670084  1.03975253333  -1.51074672331  -1.02155001315  0.112178632889  0.230195707089  -0.443759261703  
6.42469716072  0.786622981951  -1.5563842936  -0.894653297847  0.0302175976377  0.199700340937  -0.40151140272  
6.43266201019  0.796015666018  -1.36272183145  -0.922309885046  0.0440055679339  0.240106470507  -0.371570983823  
6.44075012207  0.818096134291  -1.5307475823  -0.970467492314  0.107566915775  0.20724785584  -0.30828368525  
6.44884610176  0.826544702147  -1.67721160989  -1.02195053833  0.023880667693  0.18630757639  -0.273775040664  
6.45695614815  0.796558212083  -1.4555435849  -1.12094465485  0.104777949044  0.203673492603  -0.304088825224  
6.46505117416  0.994920561275  -1.65422001617  -1.28392544746  0.0837828612543  0.217270835299  -0.371907658759  
6.47312903404  0.898730013679  -1.76327485371  -1.41747289324  0.00882451588378  0.195477111  -0.369038851324  
6.48125505447  1.01675292871  -1.76044612269  -1.00853461555  0.153954906434  0.212825147236  -0.410057231171  
6.48929905891  1.04335598645  -1.60283889492  -1.43866418825  -0.00554533284364  0.195215997389  -0.431004495936  
6.49752807617  0.884689300092  -1.86552960918  -0.731142843618  0.141502509753  0.183328503473  -0.437667018442  
6.5054090023  0.922532663704  -1.62942648096  -1.00531577195  0.0484466154102  0.179061872616  -0.522881746104  
6.51365208626  0.956481021701  -1.65847770689  -0.833470036689  0.114507363593  0.20712018908  -0.605959765631  
6.5217051506  0.958934459077  -1.67319616316  -0.750224249884  0.154424247283  0.19662799113  -0.59293692691  
6.52978420258  0.750897073877  -1.6672681833  -0.727289162806  0.113649053134  0.188802891809  -0.653541765982  
6.53785419464  0.795784930735  -1.44378500974  -0.848102355076  0.0868311916914  0.215192617561  -0.579919935525  
6.54593610764  0.652200592328  -1.52206151869  -0.800866111103  0.127677637096  0.201364816602  -0.561632460882  
6.55403709412  0.747171337367  -1.34691048567  -0.753309147041  0.0974860858651  0.222818368192  -0.580320518505  
6.56215620041  0.614735232909  -1.23868220393  -0.738916299467  0.0768686925033  0.205241444238  -0.621007593464  
6.57022619247  0.744551401582  -1.24991743875  -0.7592129902  0.0013314862686  0.195271226825  -0.628490854161  
6.57831811905  0.633647335992  -1.23139223289  -0.759405062737  0.0814142358118  0.216722111016  -0.615256842786  
6.58634805679  0.772912815686  -1.29686583805  -0.786288155052  0.0710000965183  0.202767838381  -0.590980859504  
6.59441208839  0.640606537803  -1.09655290117  -0.930518645937  0.0681522533237  0.192299409091  -0.518750130546  
6.60252118111  0.79185039482  -1.28624097797  -0.901862141759  0.0624778327189  0.187984610493  -0.511370666884  
6.61058521271  0.861201317787  -1.18763293827  -1.00073411162  0.0626670772781  0.243820071214  -0.501584766995  
6.61878919601  1.28121428833  -1.21390377807  -1.05513215364  0.0617839461173  0.222941944732  -0.57606786497  
6.6267580986  1.13363525644  -1.4654138453  -0.971327042812  -0.00136164365783  0.204656336193  -0.481452406638  
6.63480114937  0.986111351055  -1.38477619687  -1.02990090549  -0.0340481490338  0.221637898296  -0.336078756469  
6.64286804199  0.875957806932  -1.31682274361  -1.03091218116  0.0746430901133  0.231786353976  -0.298902823434  
6.6509771347  0.999715244986  -1.36932507055  -1.06146149942  -0.0406985193969  0.238202762287  -0.377665238539  
6.65906000137  1.05663064602  -1.34419260522  -1.08781694699  0.013934118036  0.240266683183  -0.389785917661  
6.66717100143  1.07116036074  -1.18545363786  -1.28652703331  -0.00905801781449  0.239483347649  -0.446630449758  
6.67522120476  0.865164973161  -1.04557450923  -1.42917050617  -0.0192622051318  0.264357473992  -0.394387321214  
6.6833691597  1.12097299956  -1.00962718844  -1.52410483414  -0.0227617948629  0.251500023933  -0.36640950579  
6.6915512085  1.05775778632  -0.949207400617  -1.56821831214  0.0414621983318  0.239107538645  -0.355972292322  
6.69946217537  0.999980298589  -0.935621328301  -1.60351811604  0.0212972777474  0.229797651055  -0.313236425887  
6.70775914192  0.951624056765  -0.950638475127  -1.62837237593  -0.0523870431571  0.223326345507  -0.253835640342  
6.71584510803  0.716710554962  -0.907511381477  -1.6056342237  0.0291281533397  0.217749287198  -0.188902596224  
6.72376704216  1.36079959753  -1.01203053242  -1.59640977041  0.0178990127105  0.220763183821  -0.345259011168  
6.73182010651  1.13214492139  -0.996512494458  -1.58176767497  0.0132288607465  0.246946416511  -0.361672362644  
6.73997712135  1.15813535909  -1.01419022386  -1.566381588  0.0102890364476  0.235249762585  -0.376513075177  
6.74799013138  1.14796844189  -1.02412300723  -1.55193977113  -0.0123292509517  0.22678442393  -0.344971218874  
6.7560710907  1.1184987538  -1.0283847604  -1.53960742662  -0.0643929508788  0.249936350372  -0.331030922288  
6.76415109634  1.078917903  -1.02877489674  -1.52983284199  -0.10643128145  0.263408476891  -0.285227779086  
6.7722890377  1.22694907508  -1.05296283592  -1.5228520882  -0.13871955418  0.242368345846  -0.26724272903  
6.78040218353  0.905525850162  -1.0109387746  -1.51760109867  -0.159706528445  0.282148314009  -0.26785684295  
6.78868508339  0.896920257277  -0.99518494561  -1.50045634601  0.0777841174088  0.283389155047  -0.296688644315  
6.79680514336  0.897075828416  -1.03443090021  -1.53203335284  -0.427708520888  0.216526406076  -0.403071039492  
6.80478310585  0.895080136884  -0.99175278164  -1.49816600998  0.0826659095246  0.203109833251  -0.423669594794  
6.81290602684  0.900684224245  -1.01546452399  -1.51829987752  -0.120456838519  0.225919658619  -0.432687524156  
6.82095217705  1.09300809106  -1.02332623658  -1.50484777494  0.0648322864823  0.214448965742  -0.38991929152  
6.82906103134  1.19578688113  -1.04268164282  -1.51091810569  0.0434822650242  0.237165756028  -0.362692566706  
6.83711600304  1.22835705322  -1.05083668066  -1.51514643631  0.0279851319915  0.194228377905  -0.391598712746  
6.84517908096  1.41410483245  -1.09376171137  -1.53103418032  -0.141922128486  0.227920869125  -0.409029179173  
6.85331511497  1.28306422911  -1.05259938641  -1.51313625359  0.034773189557  0.191027226531  -0.461627677451  
6.86135721207  1.14642318039  -0.493659815002  -1.9495028632  0.0307367127  0.198400905603  -0.487672639489  
6.86957001686  1.06900685234  -0.446833803391  -2.05542838244  0.0224964204398  0.205405034021  -0.538928069815  
6.87767601013  1.01261988158  -0.519699996244  -2.06205292031  0.0170480913702  0.268932121884  -0.513904903867  
6.88577508926  0.968923407396  -0.583905155355  -2.02079802602  -0.380130190581  0.220977289129  -0.575659401656  
6.89388203621  0.941968131987  -0.656942639368  -1.92987045877  -0.393269444752  0.247300988576  -0.598776830288  
6.90192008018  0.898591442076  -0.352648773629  -2.19737486257  -0.23271600861  0.234233247957  -0.596253057203  
6.9101190567  0.714113689857  -0.448390342255  -2.14506858029  -0.0964866293745  0.252494647684  -0.534693019231  
6.91822218895  1.00665691373  -0.553533872242  -2.09808652961  0.0963519492686  0.265845166991  -0.530238810983  
6.92615413666  0.77223074339  -0.339070098791  -2.20082691966  0.0655667247115  0.268876877778  -0.518424770013  
6.9342520237  0.862146982965  -0.494435060935  -2.14224150615  0.0383234986437  0.241144173446  -0.503438001651  
6.94235420227  0.900320728571  -0.321443785018  -2.19546137094  0.14543890695  0.280046832641  -0.488126474612  
6.95043706894  0.929491172399  -0.283772938616  -2.26275309771  0.0224036841147  0.245055421135  -0.474224581102  
6.95873999596  0.780063166834  -0.467778844239  -2.15027271771  0.0632806387622  0.22016375933  -0.418741065991  
6.96675515175  0.846835849739  -0.146813630924  -2.3256751156  0.0321747531835  0.207004878332  -0.47407720111  
6.97475218773  0.731756971236  -0.185171719554  -2.28997393926  0.0708955105253  0.228111422853  -0.374157416501  
6.9827401638  1.04342619596  -0.0688701525552  -2.38573319087  0.0338747873507  0.274633076613  -0.405710516863  
6.99091601372  0.863523589377  -0.212921067237  -2.29547050576  0.0695776625529  0.270491051401  -0.340851660949  
6.99893021584  0.952748978991  -0.372627367811  -2.24077073006  0.0285688796081  0.238338887297  -0.353052997244  
7.00712919235  0.815353099166  -0.457298666583  -2.20007597956  0.00343448192123  0.244754640456  -0.280326426719  
7.01514005661  0.910431225818  -0.282688629704  -2.27635488339  0.0535099719074  0.279157106292  -0.204582211686  
7.02328801155  0.99737225666  -0.454054808833  -2.21228432848  0.0204346612151  0.270399367344  -0.177152955266  
7.03135800362  0.633058208253  -0.269565556058  -2.28520137083  0.00470947867165  0.230890580756  -0.13771521588  
7.03961014748  0.852032204291  -0.473252518432  -2.20597718936  -0.00779740093495  0.238299280995  -0.181227970248  
7.04754900932  0.970412708436  -0.343705699261  -2.25824880747  0.0516386580061  0.301299112913  -0.183919458884  
7.05569005013  0.870871778227  -0.510525920833  -2.181511879  0.0250928498436  0.279685172931  -0.203915634134  
7.0636920929  0.982984657531  -0.39686209166  -2.25068054946  0.0107162354159  0.264843571918  -0.232189587514  
7.0717279911  1.07286205669  -0.563135179628  -2.15973881716  0.060982331963  0.283035001183  -0.306356859506  
7.07992219925  1.0882681856  -0.449675591754  -2.24796181961  -0.027914066751  0.23531840033  -0.402042647788  
7.087911129  1.10910825083  -0.595365071596  -2.15601550748  0.0379286231879  0.263055466083  -0.41450928793  
7.09600901604  1.07949725711  -0.450960546844  -2.23117040611  0.0220956862106  0.251960886627  -0.461723792237  
7.10409903526  1.43459703004  -0.420514290309  -2.27556880941  0.0106903673457  0.248005421866  -0.526638272831  
7.11221504211  1.19249239  -0.0995111139585  -2.3993595311  0.0702316010602  0.242528249385  -0.465385719325  
7.12030005455  1.0487806392  -0.200240978849  -2.35681955823  0.0410072981862  0.240056684813  -0.419084169763  
7.12840008736  0.926174603599  -0.0340106542704  -2.42021879376  0.085306588774  0.239370601155  -0.430592527772  
7.13656711578  0.857144405144  0.00680189776979  -2.45557194527  0.0484196093061  0.240053468979  -0.389560838538  
7.14485216141  1.02023261543  -0.0272698284695  -2.44497961464  0.083543095703  0.271703897809  -0.319505797632  
7.15281701088  0.920365576407  -0.082264186559  -2.4328512902  0.0420579411685  0.231843241228  -0.325459672609  
7.16085600853  0.867235850928  -0.155260378185  -2.40898016795  0.0144152470871  0.264778235206  -0.29039103437  
7.16895413399  1.03739845103  -0.257819951879  -2.3804038871  -0.00253555014771  0.258264103075  -0.276501843514  
7.17697906494  0.943082078116  -0.300109527485  -2.33923271948  0.0512182687366  0.309427217007  -0.232877943333  
7.18513703346  0.886239139943  -0.359303784536  -2.32014009164  0.0236524820654  0.281474522644  -0.262028105397  
7.19317317009  1.22455610565  -0.217490514326  -2.42008242097  0.008103491213  0.29315319097  -0.245771062891  
7.20130300522  1.04311287218  -0.311194932158  -2.19545694463  0.00344541092019  0.266256639646  -0.202151858111  
7.20934319496  1.12126333267  -0.447067701599  -2.22182829808  -0.00416901275636  0.27886927793  -0.276650825361  
7.21741008759  0.961586054113  -0.523856883187  -2.25591104495  -0.223529680998  0.284542783285  -0.24216262657  
7.22571611404  0.864072767531  -0.551554988161  -2.26538829344  -0.410208292755  0.286809339478  -0.273990480676  
