Ethan-CYM/ros_catkin_ws/test/伺服_gain2000_looktime003/ur_joint_actual_velocity.txt
time  shoulder_pan_joint  shoulder_lift_joint  elbow_joint  wrist_1_joint  wrist_2_joint  wrist_3_joint
0.152173042297  0.0  0.0  -0.0  -0.0185036435723  -0.0186234861612  0.417218834162  
0.160103082657  0.0  0.0  -0.0  0.0175688751042  0.0396917536855  0.371678769588  
0.168181180954  0.0  0.0  -0.0  0.0143810706213  -0.0233213026077  0.303392648697  
0.176284074783  0.0  0.0  -0.0  0.0  0.0402430295944  0.216986387968  
0.184377193451  0.0  0.0  -0.0  0.0185036435723  -0.0174250639975  0.171398386359  
0.192524194717  0.0  0.0  -0.0  0.00560861732811  0.0185036435723  0.237599253654  
0.200711011887  0.0  0.0  -0.0  0.00189350766595  0.0419927239418  0.225279465318  
0.208683013916  0.0  0.0  -0.0  0.0107858031988  -0.0418009795249  0.206991538405  
0.216767072678  0.0  0.0  -0.0  -0.0136620169505  0.0431911498308  0.189830124378  
0.224809169769  0.0  0.0  -0.0  0.0285464245826  -0.0168498214334  0.168138682842  
0.232856035233  0.0  0.0  -0.0  -0.0291216671467  -0.0306077115238  0.15749669075  
0.240958213806  0.0  0.0  -0.0  0.0185036435723  0.0468103848398  0.142804026604  
0.249056100845  0.0  0.0  -0.0  -0.0215955749154  -0.0431911498308  0.123413555324  
0.257148981094  0.0  0.0  -0.0  0.0161787047982  0.0185036435723  0.102968461812  
0.265242099762  0.0  0.0  -0.0  -0.0161787047982  0.00587227055803  0.0912478938699  
0.273313999176  0.0  0.0  -0.0  -0.00565655436367  -0.0494708828628  0.0726244077086  
0.281411170959  0.0  0.0  -0.0  0.00424241600558  0.0431911498308  0.0352336242795  
0.289546012878  0.0  0.0  -0.0  -0.0417770110071  -0.0323813781142  0.0529463067651  
0.297655105591  0.0  0.0  -0.0  0.0420646294951  -0.00469781644642  0.0614551082253  
0.305755138397  0.0  -0.0455080978572  -0.0191747602075  -0.050070092082  0.0751171261072  0.0497585050762  
0.313850164413  0.0  -0.0932916030288  0.00181521067861  -0.0513404197991  0.107690252364  0.064379259944  
0.321938037872  0.0213862489909  -0.138620734215  0.0258220098913  -0.0247354414314  0.179020360112  0.0716656669974  
0.330029010773  0.0115943383425  -0.153807148337  0.0237127877772  -0.0572606287897  0.233716368675  0.0869815051556  
0.338384151459  0.0171166695654  -0.16030099988  0.0206703916192  -0.0777296870947  0.292486995459  0.0539290159941  
0.34645819664  0.0159534011036  -0.160748407245  0.0126553419977  -0.09846239537  0.305238217115  0.0312788300216  
0.354535102844  0.00924223475158  -0.137930437922  0.00752928899601  -0.0958258658648  0.277290999889  0.0185036435723  
0.362679004669  0.00876925699413  -0.114626720548  -0.0  -0.131490916014  0.276715755463  0.0453243404627  
0.370764017105  0.00379660259932  -0.0916809216142  0.0126936910674  -0.146351367235  0.263772815466  0.0178804639727  
0.378859043121  -0.0054328488186  -0.0698472633958  0.00628932146356  -0.128063425422  0.229162365198  0.0309912059456  
0.386923074722  0.00116326881107  -0.040011331439  -0.000907605339307  -0.113993950188  0.197020664811  0.0100907180458  
0.394990205765  -0.00884595606476  -0.0497265458107  -0.0132050178945  -0.084273070097  0.167012169957  0.0515081994236  
0.40308713913  -0.00363042135723  -0.0509281642735  -0.00524110114202  -0.0934769585729  0.141437828541  0.0154117140919  
0.411154031754  0.00654498487711  -0.0548909455538  -0.0248504895717  -0.0646189451218  0.12108861655  0.0328367762268  
0.419284105301  -0.0119906170294  -0.0594545416534  -0.0143938530236  -0.0462830774486  0.094555541873  0.0478649958968  
0.427357196808  0.00911440234631  -0.0674695894122  -0.019609387964  -0.0704193115234  0.0726483762264  0.0129429632798  
0.435424089432  -0.0118372188881  -0.068773470819  -0.0133839827031  -0.0477211847901  0.061934478581  0.0524909086525  
0.443467140198  0.0133072836325  -0.0663191005588  -0.00752928899601  -0.0359766446054  0.0484402403235  -0.0289538893849  
0.451624155045  -0.0144066363573  -0.0630466118455  -0.0277906190604  -0.019558256492  0.0520355068147  0.0259098950773  
0.459715127945  -0.0132561512291  -0.0820935368538  -0.0199673175812  0.0285703931004  0.0313507318497  -0.0185036435723  
0.467801094055  -0.0104949856177  -0.107774935663  -0.0319579355419  0.0233452711254  0.023393208161  0.0143331335858  
0.475902080536  -0.012028966099  -0.130861341953  -0.0412896499038  0.0323813781142  0.0540248863399  -0.0185036435723  
0.484030008316  -0.00852637644857  -0.181290969253  -0.0483843125403  0.0596574731171  0.057763967663  0.0185036435723  
0.492119073868  -0.0113386744633  -0.187299057841  -0.0645422413945  0.0503097772598  0.061383202672  -0.0146686919034  
0.500247001648  -0.00337475771084  -0.260917365551  -0.0791789740324  0.0984863638878  0.0872451588511  0.0296010375023  
0.508355140686  -0.00337475771084  -0.297528356314  -0.085902929306  0.11634285748  0.103399895132  -0.0316623225808  
0.516422986984  -0.00221148901619  -0.324564784765  -0.0829500108957  0.163033396006  0.0909602716565  -0.0411777980626  
0.524695158005  0.00163624621928  -0.355819642544  -0.0858262255788  0.270531892776  0.114305540919  -0.0345145687461  
0.532739162445  0.00159789668396  -0.350131124258  -0.0910673290491  0.311949372292  0.128614708781  0.0431911498308  
0.540771007538  0.00118883512914  -0.34295976162  -0.0849058404565  0.334719419479  0.109200261533  -0.0259098950773  
0.548876047134  0.000945954816416  -0.321726918221  -0.0843817293644  0.376017063856  0.124012760818  0.0259098950773  
0.55696606636  -0.0152758928016  -0.296122223139  -0.0760854482651  0.380882650614  0.105245471001  -0.0306077115238  
0.565049171448  -0.012770390138  -0.270428031683  -0.0866187810898  0.379468500614  0.107738189399  0.00381098361686  
0.573165178299  -0.0291200689971  -0.251176565886  -0.0842411145568  0.376640230417  0.0981987416744  0.0402430295944  
0.581267118454  -0.0234187729657  -0.231234818697  -0.0772231519222  0.394041329622  0.0957299917936  -0.0594657249749  
0.589392185211  -0.0246715247631  -0.222491130233  -0.0719948336482  0.388983994722  0.0826432183385  0.0431911498308  
0.597531080246  -0.0168482232839  -0.204824790359  -0.0543924048543  0.384190291166  0.0807497128844  0.0111932661384  
0.605635166168  -0.0246459580958  -0.182479798794  -0.0473744422197  0.363841086626  0.0697961300611  0.0  
0.613701105118  -0.0171678029001  -0.153858274221  -0.0522192642093  0.326354414225  0.0433349572122  -0.0129429632798  
0.62180018425  -0.0305390022695  -0.139707297087  -0.0543412715197  0.31046333909  0.0460673607886  0.0315664485097  
0.629894018173  -0.0374419167638  -0.127972349524  -0.0546992011368  0.303128987551  0.0540009178221  0.0107138976455  
0.637959003448  -0.0484865754843  -0.107135780156  -0.0530757382512  0.301978498697  0.0167779158801  -0.0234411451966  
0.646056175232  -0.0544818863273  -0.100808106363  -0.0421589054167  0.274414807558  0.0486559532583  0.0504056513309  
0.654138088226  -0.0714962929487  -0.0885873958468  -0.0387713648379  0.280958175659  0.0270364116877  -0.00412257341668  
0.662243127823  -0.0870661959052  -0.0880504995584  -0.0403820462525  0.251021593809  0.0268206968904  0.0344426631927  
0.670384168625  -0.101255513728  -0.0840237960219  -0.0425296165049  0.233932077885  0.0164183881134  -0.0415852628648  
0.678513050079  -0.112491928041  -0.100629143417  -0.0365470945835  0.208885043859  0.0457078367472  0.0198458768427  
0.686684131622  -0.137278497219  -0.106113120914  -0.0446644090116  0.216986387968  0.0401711240411  0.00594417564571  
0.694715023041  -0.155903577805  -0.133980438113  -0.0368155390024  0.208046153188  0.0324532836676  -0.0591781064868  
0.702820062637  -0.17045083642  -0.15266944468  -0.049061819911  0.198794335127  0.026053706184  0.00328367785551  
0.710954189301  -0.203814923763  -0.194623813033  -0.0511966086924  0.187792807817  0.0225782804191  0.0259098950773  
0.719085216522  -0.210270419717  -0.247852951288  -0.0456103645265  0.198123216629  0.00994690693915  -0.0431911498308  
0.727168083191  -0.230122685432  -0.285793423653  -0.0536509789526  0.194959372282  0.00829308386892  0.0259098950773  
0.735316991806  -0.230544537306  -0.329984843731  -0.0379788093269  0.216459080577  0.0273000653833  -0.0149323446676  
0.743417024612  -0.228077381849  -0.366915434599  -0.027931233868  0.181441172957  0.0146686919034  0.0168737899512  
0.75150513649  -0.22077819705  -0.381424337626  -0.0263077709824  0.20059196651  -0.00186953914817  -0.0259098950773  
0.759730100632  -0.198970094323  -0.410646677017  -0.0175512973219  0.214733347297  -0.00186953914817  0.0215955749154  
0.767827033997  -0.18070293963  -0.410748928785  -0.0124124614522  0.246227890253  -0.0043862266466  -0.0202773101628  
0.77592420578  -0.166181251407  -0.413663506508  -0.0295035652816  0.239540696144  -0.0143810706213  0.0185036435723  
0.784008026123  -0.141433030367  -0.419582098722  -0.0419288091362  0.258931159973  -0.00517718540505  0.0319978818297  
0.792093992233  -0.115917816758  -0.419940024614  -0.0593778416514  0.271778255701  0.0  -0.00402669981122  
0.800197124481  -0.0983537361026  -0.399998277426  -0.0836275219917  0.256126850843  -0.0203252453357  0.0464268885553  
0.808323144913  -0.0821830257773  -0.410199254751  -0.0962700769305  0.267368078232  0.00306796166115  -0.0259098950773  
0.816408157349  -0.0586747676134  -0.388991981745  -0.122117653489  0.277434825897  0.00994690693915  0.0215955749154  
0.824500083923  -0.0520019493997  -0.397428870201  -0.12005956471  0.289371103048  0.00124635943212  -0.0153398085386  
0.832612991333  -0.0352176427841  -0.37656673789  -0.137380763888  0.326234579086  0.00874848477542  -0.044964812696  
0.840678215027  -0.0209004878998  -0.37656673789  -0.145536437631  0.364224582911  0.00774180982262  0.0427836850286  
0.848736047745  -0.0132178012282  -0.372923523188  -0.160160377622  0.396246433258  0.0215955749154  -0.0431911498308  
0.856827020645  -0.00884595606476  -0.360165923834  -0.177673324943  0.428268283606  0.00836498942226  0.0185036435723  
0.864923000336  0.000945954816416  -0.356535494328  -0.190878346562  0.475414216518  0.0352336242795  0.00390685768798  
0.872975111008  0.000945954816416  -0.365841656923  -0.224919945002  0.544467329979  0.0116726355627  -0.0465227626264  
0.88107919693  0.00253106839955  -0.365176916122  -0.234584018588  0.566446423531  -0.00613592332229  0.052442971617  
0.889172077179  0.00502378726378  -0.385860085487  -0.256967365742  0.597892999649  0.0129429632798  -0.0388768278062  
0.897267103195  0.00254385150038  -0.325728058815  -0.234494537115  0.574979186058  0.00299605634063  0.0259098950773  
0.90539598465  0.00254385150038  -0.397978544235  -0.278788238764  0.62893217802  0.037294909358  0.0799347832799  
0.913522005081  0.00377103616484  -0.405252158642  -0.272626727819  0.618218243122  0.0568531639874  -0.0428795590997  
0.921711206436  0.00494708819315  -0.407271921635  -0.28404211998  0.627589941025  0.0553671196103  0.0323813781142  
0.929744005203  0.00250550196506  -0.40691396594  -0.274326890707  0.581163048744  0.0519636012614  -0.0159150511026  
0.937823057175  0.00163624621928  -0.399167388678  -0.256200373173  0.557985544205  0.0781850889325  0.0259098950773  
0.945912122726  0.00121440144721  -0.408038884401  -0.258347928524  0.52701830864  0.0690051689744  -0.0166580732912  
0.954005002975  0.00095873803366  -0.417485654354  -0.249565899372  0.560693979263  0.0685257986188  0.0185036435723  
0.962091207504  0.000792556733359  -0.42128226161  -0.24068158865  0.524693369865  0.0775619074702  0.00711862975731  
0.970206022263  0.000677508185618  -0.428300231695  -0.235478833318  0.515513420105  0.086238488555  0.0185036435723  
0.978301048279  0.000588025955949  -0.43983066082  -0.204415723681  0.521601438522  0.0741104483604  -0.035473305732  
0.986390113831  0.00052411010256  -0.449047327042  -0.188756346703  0.517023444176  0.070035815239  -0.0101626226678  
0.994453191757  0.0190852787346  -0.480698466301  -0.163599058986  0.532315313816  0.061934478581  0.0  
1.00267505646  0.0148284817114  -0.481388747692  -0.143299371004  0.528600215912  0.0630370229483  0.0215955749154  
1.01073098183  0.0154037242755  -0.483370125294  -0.115393705666  0.526251316071  0.0343467891216  -0.0388049222529  
1.01883506775  0.0278673190624  -0.478116244078  -0.093598395586  0.520307123661  0.0414414517581  0.00237287674099  
1.02696299553  0.0222043730319  -0.461958318949  -0.0825537368655  0.530182123184  0.0233452711254  -0.0293613523245  
1.03505921364  0.0200695823878  -0.432237446308  -0.070831567049  0.521601438522  0.0215955749154  0.00318780401722  
1.04318618774  0.0266784839332  -0.411183565855  -0.0615509822965  0.516759812832  0.00862864218652  0.0578598417342  
1.05129313469  0.0205169934779  -0.39185538888  -0.0519508160651  0.485504925251  0.0396917536855  -0.0647148191929  
1.05935120583  0.0319962836802  -0.348878383636  -0.0432326942682  0.481118708849  0.0111692976207  0.0506453365088  
1.06742310524  0.0387713648379  -0.357813805342  -0.0334279984236  0.466306209564  0.00218112906441  -0.0259098950773  
1.07548809052  0.0484482273459  -0.359935820103  -0.0310503281653  0.43962931633  0.0129429632798  -0.00647148163989  
1.08373713493  0.0658461302519  -0.360945701599  -0.0189318805933  0.438167244196  0.00649545015767  -0.00932372733951  
1.09171414375  0.084611825645  -0.368807345629  -0.0296953115612  0.407200008631  0.00479369005188  -0.00414654193446  
1.09981513023  0.0979191064835  -0.358798116446  -0.0385924018919  0.410028278828  0.0357848964632  0.0577399991453  
1.10793304443  0.115265876055  -0.35456687212  -0.0555684566498  0.416164219379  0.0279711820185  0.00829308386892  
1.11602020264  0.139847919345  -0.354963153601  -0.0613081008196  0.402118712664  0.0371990352869  -0.00376304681413  
1.12407803535  0.119637720287  -0.300813645124  -0.0615637637675  0.332682102919  0.0274199079722  -0.0117685096338  
1.13220000267  0.148757785559  -0.330764621496  -0.0721737965941  0.359766453505  0.0549596585333  -0.00740625150502  
1.14028310776  0.159789666533  -0.34770232439  -0.0853915959597  0.398331671953  0.0713061392307  0.00270843482576  
1.14843201637  0.169530451298  -0.372424989939  -0.083729788661  0.376424521208  0.0907445549965  0.0185036435723  
1.15661406517  0.177673324943  -0.354899257421  -0.0846885219216  0.358472138643  0.074925377965  0.0334120206535  
1.16465306282  0.214118152857  -0.409061551094  -0.099708750844  0.419639647007  0.0946274399757  -0.010953581892  
1.17270898819  0.203917190433  -0.375953137875  -0.0920899808407  0.361779808998  0.093572832644  0.0215955749154  
1.18077802658  0.177123650908  -0.312791466713  -0.0907988846302  0.322351694107  0.0857351496816  0.00342748849653  
1.18884110451  0.239492759109  -0.39763340354  -0.128458112478  0.398475497961  0.10083527118  -0.052442971617  
1.19693017006  0.260099232197  -0.369753301144  -0.126553416252  0.402813792229  0.10761834681  0.0431911498308  
1.20499515533  0.242790818214  -0.313801348209  -0.128010705113  0.411730051041  0.104694195092  -0.0270603802055  
1.21308207512  0.242611855268  -0.299139052629  -0.128777682781  0.393010675907  0.106707543135  -0.0572126917541  
1.22117805481  0.245858773589  -0.279043883085  -0.133111178875  0.374411165714  0.0954423695803  -0.0161787047982  
1.22927904129  0.249080136418  -0.251202136278  -0.14391297102  0.389127790928  0.100020341575  -0.0547918789089  
1.23734211922  0.270824313164  -0.243366062641  -0.184614598751  0.407943040133  0.12895026803  -0.00862864218652  
1.24547719955  0.254052788019  -0.208007797599  -0.194010227919  0.397900253534  0.142372593284  0.0352575927973  
1.25363612175  0.236118003726  -0.167191132903  -0.187554717064  0.387977302074  0.12959741056  0.0107858031988  
1.26173400879  0.245206832886  -0.158677533269  -0.16905747354  0.36702889204  0.157856211066  0.0425439998507  
1.26982307434  0.243660077453  -0.165120258927  -0.185113132  0.406433016062  0.178253367543  0.00994690693915  
1.27791500092  0.226479485631  -0.160914584994  -0.173544362187  0.373044967651  0.169912353158  0.0242800414562  
1.28600406647  0.20372544229  -0.140653252602  -0.168085947633  0.362882345915  0.151696324348  0.00994690693915  
1.29410099983  0.208225116134  -0.15004889667  -0.172457799315  0.345505207777  0.148364707828  0.00208525522612  
1.30216002464  0.229649707675  -0.147684007883  -0.178593710065  0.360677242279  0.152343466878  0.00855673663318  
1.31022310257  0.230685144663  -0.130580112338  -0.191312968731  0.383231550455  0.139807969332  0.00762196723372  
1.31833600998  0.213773012161  -0.11644192785  -0.185432717204  0.354876875877  0.138130187988  0.0472418181598  
1.32642102242  0.217275604606  -0.0994403064251  -0.184691295028  0.34687140584  0.124707847834  0.0182639602572  
1.33455705643  0.222695663571  -0.0824258998036  -0.179999873042  0.330644786358  0.138993039727  0.00680703995749  
1.34267807007  0.227578833699  -0.0805212110281  -0.185215398669  0.326689988375  0.144146263599  -0.0154117140919  
1.35077619553  0.219704404473  -0.0601831823587  -0.18255649507  0.32177644968  0.140646874905  0.0522751919925  
1.35886406898  0.217774137855  -0.0568851232529  -0.170169606805  0.28783711791  0.137315258384  -0.0431911498308  
1.3669500351  0.21287818253  -0.0458660274744  -0.170795977116  0.259410530329  0.156873509288  0.00419447897002  
1.37501907349  0.183540806174  -0.0412385165691  -0.135974615812  0.201958164573  0.134942382574  -0.04050668329  
1.38307309151  0.172227695584  -0.0299126263708  -0.130158275366  0.205960899591  0.13357616961  0.00251668738201  
1.39114713669  0.206997931004  -0.0185739509761  -0.138441771269  0.211018234491  0.150402024388  -0.0325970947742  
1.3992421627  0.205348894  -0.0078360857442  -0.130784645677  0.198794335127  0.156250327826  0.00266049802303  
1.4073870182  0.224919945002  -0.00418009795249  -0.126157134771  0.196469396353  0.147765502334  0.0383015833795  
1.41545009613  0.241474151611  -0.00221148901619  -0.125543549657  0.186330735683  0.142923876643  -0.034634411335  
1.4236600399  0.255573987961  -0.00149563129526  -0.128176882863  0.175401121378  0.140359252691  0.0267967283726  
1.43173599243  0.258041143417  0.00907605327666  -0.136600986123  0.1657897681  0.12281434238  -0.0328847132623  
1.43983411789  0.255637913942  0.00396278360859  -0.142570734024  0.163321018219  0.12549880147  0.0259098950773  
1.44791913033  0.246868640184  0.00242880289443  -0.155379474163  0.15900669992  0.125426903367  -0.0215955749154  
1.45598006248  0.25109988451  0.00685178115964  -0.159904718399  0.157161131501  0.121951475739  0.0130628058687  
1.4640750885  0.240246966481  0.00239045335911  -0.169607147574  0.151049181819  0.129885032773  0.0734393298626  
1.47218608856  0.227655529976  0.00239045335911  -0.188142746687  0.15577095747  0.115791589022  0.0123677207157  
1.4802210331  0.22741265595  0.00214757304639  -0.209490641952  0.180937841535  0.111045829952  0.0422563776374  
1.48830699921  0.215345337987  0.00147006497718  -0.226620092988  0.154740318656  0.0996847897768  -0.0341550409794  
1.49639105797  0.221596315503  0.00112491927575  -0.249169617891  0.18033862114  0.0963771417737  0.01634648256  
1.50448513031  0.236923336983  0.0  -0.278660386801  0.174634128809  0.0963771417737  -0.0429994016886  
1.51266002655  0.260163158178  0.0  -0.304904252291  0.179403856397  0.0995649471879  -0.00994690693915  
1.52070713043  0.290344208479  0.0  -0.337872058153  0.20059196651  0.10675548017  -0.0431911498308  
1.52876901627  0.317214459181  0.0  -0.345043420792  0.204666599631  0.122287034988  -0.00795752555132  
1.53683519363  0.345644235611  0.000255663471762  -0.352636635303  0.229809507728  0.12485165894  -0.00158191774972  
1.54492402077  0.378215759993  0.000255663471762  -0.346692442894  0.223146274686  0.142396569252  -0.0134942373261  
1.55305218697  0.394169151783  0.000255663471762  -0.351268827915  0.24443025887  0.15900669992  -0.00546480668709  
1.56117200851  0.391165107489  0.000255663471762  -0.335379332304  0.231007933617  0.164543420076  -0.00546480668709  
1.56930708885  0.395690351725  0.000255663471762  -0.328412503004  0.247162669897  0.188392028213  -0.00330764614046  
1.57740712166  0.381411552429  -0.000255663471762  -0.307243585587  0.239468798041  0.200208470225  -0.00234890822321  
1.58565020561  0.36777189374  -0.000255663471762  -0.302539378405  0.222858652472  0.220341965556  -0.00182160222903  
1.59359407425  0.312919318676  -0.000255663471762  -0.260099232197  0.211018234491  0.201742455363  -0.00148604391143  
1.60170316696  0.351869642735  -0.000255663471762  -0.277458786964  0.216986387968  0.20780646801  -0.0437663905323  
1.60975313187  0.355512827635  0.0  -0.274761527777  0.240283712745  0.214613512158  0.0239684507251  
1.61781311035  0.366928219795  0.00102265388705  -0.28258484602  0.255935102701  0.218400523067  -0.0220270063728  
1.62586712837  0.400726914406  0.00102265388705  -0.292645186186  0.278657197952  0.212911754847  -0.00834102090448  
1.63396120071  0.411477565765  0.00170016207267  -0.286688238382  0.265354722738  0.205241844058  -0.0313747003675  
1.64202404022  0.419927239418  0.00170016207267  -0.279414594173  0.272521287203  0.198674485087  -0.00807736814022  
1.65015220642  0.476518362761  0.00170016207267  -0.310963481665  0.313075900078  0.203132614493  -0.0436705164611  
1.65824818611  0.413280010223  -0.000562459637877  -0.279900372028  0.294284641743  0.190740928054  -0.0355212427676  
1.66634607315  0.548704922199  0.0  -0.359692931175  0.381697565317  0.246922984719  -0.0342269465327  
1.67444205284  0.567624032497  -0.00750372279435  -0.371568500996  0.410843223333  0.270651757717  -0.0573804713786  
1.68254899979  0.58709281683  0.0107762152329  -0.385834515095  0.418968528509  0.301858663559  -0.0499742180109  
1.69060516357  0.580036520958  0.00250550196506  -0.389886796474  0.447994321585  0.300995796919  -0.0620782859623  
1.69874310493  0.557359158993  0.00250550196506  -0.380836308002  0.460841417313  0.316335618496  -0.0778495296836  
1.70679521561  0.532355248928  0.00227540498599  -0.377525448799  0.445357769728  0.306292831898  -0.0899056568742  
1.71488499641  0.515685975552  -0.00224983855151  -0.385975152254  0.450654804707  0.320434212685  -0.132018223405  
1.72297215462  0.47190362215  -0.00425679655746  -0.381219804287  0.429131150246  0.293014317751  -0.158719077706  
1.73103618622  0.47277289629  -0.00250550196506  -0.37556964159  0.403964281082  0.286422997713  -0.196349546313  
1.73911714554  0.470177918673  0.000485760596348  -0.375953137875  0.383495211601  0.272593200207  -0.221252769232  
1.74720621109  0.477643281221  0.00343867368065  -0.378727078438  0.386994600296  0.260872632265  -0.236760362983  
1.75529813766  0.476518362761  0.00343867368065  -0.398425966501  0.373092919588  0.266672968864  -0.246731236577  
1.76339006424  0.409214943647  0.00240323669277  -0.351422220469  0.336948484182  0.22944997251  -0.213702708483  
1.77148413658  0.345631450415  0.00240323669277  -0.300813645124  0.271059215069  0.196253672242  -0.191052526236  
1.77962207794  0.48988956213  -0.022523952648  -0.41431543231  0.363625377417  0.273480027914  -0.260656893253  
1.78767514229  0.488291651011  -0.0120673161  -0.416987121105  0.35346275568  0.297017037868  -0.273000657558  
1.79577302933  0.508846998215  0.0169121380895  -0.445161223412  0.384597748518  0.315161168575  -0.2861353755  
1.8038380146  0.491410762072  0.00837297830731  -0.43388646841  0.427213668823  0.317150533199  -0.284481555223  
1.81189918518  0.468707829714  0.00300404569134  -0.387726426125  0.423642367125  0.296274006367  -0.286422997713  
1.8200070858  0.44473940134  0.00182799377944  -0.364512205124  0.430353522301  0.296154171228  -0.306963950396  
1.82810211182  0.395345211029  -0.00653220154345  -0.356752812862  0.418968528509  0.262981832027  -0.300037056208  
1.83620810509  0.350501835346  0.0152758928016  -0.352905064821  0.403269171715  0.242416918278  -0.294428437948  
1.84431600571  0.346526265144  0.0130260540172  -0.327888399363  0.408638119698  0.224272787571  -0.287357747555  
1.85238099098  0.339099258184  0.011415373534  -0.309493422508  0.423306822777  0.216195419431  -0.300828039646  
1.86063313484  0.330240517855  0.0290561541915  -0.303319126368  0.418968528509  0.20004068315  -0.289347141981  
1.86865401268  0.323874473572  0.0229202304035  -0.307652622461  0.400536775589  0.196469396353  -0.323454231024  
1.8766682148  0.309250533581  0.0134351151064  -0.308112829924  0.384597748518  0.186210900545  -0.296369880438  
1.88473200798  0.279555231333  0.0251189358532  -0.299062341452  0.366645395756  0.169432982802  -0.2861353755  
1.89280414581  0.281702786684  0.0249144043773  -0.316294074059  0.346080452204  0.179883226752  -0.300061047077  
1.90088820457  0.262528032064  0.022613434121  -0.309403926134  0.312668442726  0.171566173434  -0.291791915894  
1.90897512436  0.246970906854  0.0358568020165  -0.307985007763  0.330956369638  0.177078917623  -0.305429965258  
1.91710400581  0.229854241014  0.0341822057962  -0.303562015295  0.323837727308  0.187193602324  -0.304686933756  
1.92519903183  0.226236611605  0.0415836647153  -0.302871733904  0.319571346045  0.171829819679  -0.296465754509  
1.93332219124  0.213261678815  0.0337859280407  -0.304456830025  0.297017037868  0.163872301579  -0.285656005144  
1.94145011902  0.205515086651  0.0377103611827  -0.321100533009  0.293325901031  0.143858641386  -0.300732165575  
1.94952321053  0.198573812842  0.0434755720198  -0.337501347065  0.2595064044  0.14683072269  -0.317845612764  
1.95763802528  0.196784168482  0.0482564792037  -0.349146813154  0.29344573617  0.14544056356  -0.311901450157  
1.96575808525  0.196707472205  0.0543540529907  -0.353237420321  0.270843505859  0.129070103168  -0.338722139597  
1.9738111496  0.193089842796  0.0587003342807  -0.359526753426  0.250853806734  0.132473632693  -0.335486412048  
1.98190903664  0.188321709633  0.0750500112772  -0.37340927124  0.229210302234  0.136212706566  -0.350298911333  
1.98997306824  0.17569193244  0.0753951594234  -0.371913641691  0.200496092439  0.123916894197  -0.380882650614  
1.99809503555  0.176216050982  0.0753951594234  -0.369088560343  0.21178522706  0.128854393959  -0.388240963221  
2.00618600845  0.164851799607  0.0968708917499  -0.354451835155  0.174370482564  0.130124717951  -0.381290107965  
2.0142800808  0.156389340758  0.10702072829  -0.34119567275  0.167275816202  0.142468467355  -0.359023422003  
2.02239513397  0.132638201118  0.127294838428  -0.323874473572  0.160516709089  0.126217857003  -0.332370519638  
2.03043699265  0.11292655766  0.146738052368  -0.312062829733  0.147142320871  0.120537340641  -0.31326764822  
2.03850102425  0.0958738029003  0.17619048059  -0.313878029585  0.151432678103  0.0975755602121  -0.310703039169  
2.04657506943  0.0779262259603  0.200146153569  -0.309493422508  0.169840440154  0.096449047327  -0.278441488743  
2.05462598801  0.0663191005588  0.224216863513  -0.309838563204  0.176983043551  0.0890667662024  -0.264755517244  
2.06269311905  0.0563737936318  0.245641455054  -0.307716548443  0.153469994664  0.0922066271305  -0.223697558045  
2.07078814507  0.0546736344695  0.28404211998  -0.311500370502  0.123317681253  0.0652660951018  -0.223937228322  
2.07887816429  0.0406249240041  0.302360415459  -0.312395185232  0.147645652294  0.0826432183385  -0.178157493472  
2.0869410038  0.0286982245743  0.316012829542  -0.311717689037  0.114928722382  0.0805579647422  -0.174106821418  
2.09503006935  0.0323414281011  0.32133063674  -0.308163970709  0.0975515916944  0.0730079039931  -0.132233947515  
2.10310912132  0.0222810711712  0.327121406794  -0.30145278573  0.0943877622485  0.0813489183784  -0.104502446949  
2.11117219925  0.0122846299782  0.34322822094  -0.297911852598  0.0209004897624  0.0823316276073  -0.0844168812037  
2.11923599243  0.00579077750444  0.342192769051  -0.289104253054  0.055726647377  0.0785925537348  -0.0887791439891  
2.1273150444  -0.0149690965191  0.353365272284  -0.286688238382  0.0275157820433  0.0856392756104  -0.0621501915157  
2.13561916351  -0.00685178115964  0.350936472416  -0.280053764582  0.0215236693621  0.0639957636595  -0.0303200893104  
2.14351820946  -0.0231631100178  0.372872382402  -0.291839838028  0.0107858031988  0.0629171803594  -0.0516999475658  
2.15159916878  -0.0176024306566  0.377960085869  -0.288759112358  0.00695085059851  0.0668480098248  -0.0392603240907  
2.15966010094  -0.0165925584733  0.382856041193  -0.294498741627  0.00496146921068  0.0511247068644  -0.0232493970543  
2.16775107384  -0.013614079915  0.398106366396  -0.299931585789  -0.0608558952808  0.0655537098646  -0.0197260342538  
2.17580604553  -0.00685178115964  0.391599744558  -0.297605067492  -0.0648346617818  0.0749014094472  -0.0440060757101  
2.18387508392  -0.0027867318131  0.399806529284  -0.308445185423  -0.0839135497808  0.064594976604  0.00299605634063  
2.19197702408  -0.00175129482523  0.400113344193  -0.314836770296  -0.111669011414  0.0575961880386  -0.00174969690852  
2.20006203651  -0.0011760519119  0.408153951168  -0.311717689037  -0.130699962378  0.0610716119409  0.0179044324905  
2.20812511444  -0.0011760519119  0.416053950787  -0.327888399363  -0.148628368974  0.0540488548577  -0.0674232542515  
2.21621203423  -0.0011760519119  0.422113180161  -0.324884355068  -0.158767014742  0.0718334466219  0.0533298030496  
2.22430205345  -0.0011760519119  0.442080497742  -0.331595510244  -0.189326792955  0.0597293786705  -0.0323813781142  
2.23238706589  -0.0193025916815  0.476045370102  -0.348558783531  -0.193137779832  0.0654338672757  0.0327888391912  
2.24049520493  -0.00963851250708  0.50960123539  -0.368807345629  -0.219886571169  0.0653140246868  -0.0431911498308  
2.24871110916  -0.0136396465823  0.533633589745  -0.375965923071  -0.274199068546  0.049015481025  0.0323813781142  
2.25668811798  -0.0128854392096  0.542044878006  -0.387726426125  -0.298023730516  0.0696283504367  -0.0323813781142  
2.264783144  -0.0072480593808  0.547260463238  -0.38996347785  -0.290186047554  0.0635643303394  -0.0349699705839  
2.27287006378  -0.0141637558118  0.544371426105  -0.384057670832  -0.333449095488  0.0626055970788  0.00366717297584  
2.28098917007  -0.0062765381299  0.538836300373  -0.384057670832  -0.332993686199  0.0664405450225  -0.0583871454  
2.28911209106  0.00112491927575  0.519789397717  -0.366928219795  -0.342341393232  0.0721690058708  0.0223385952413  
2.29721903801  -0.024185763672  0.511339724064  -0.359411716461  -0.339201509953  0.0827390924096  0.00680703995749  
2.30532598495  -0.0247610062361  0.507773220539  -0.357366412878  -0.369329869747  0.0715458244085  0.0163225159049  
2.31342101097  -0.0393593907356  0.512988746166  -0.364243745804  -0.372062265873  0.0774900019169  -0.0215955749154  
2.32146000862  -0.0462750867009  0.500921428204  -0.3586191535  -0.39329829812  0.075572527945  0.0136859854683  
2.32953119278  -0.0684411078691  0.515059649944  -0.36223679781  -0.416164219379  0.0598971582949  0.0721210688353  
2.33763003349  -0.0722249299288  0.495105087757  -0.349312990904  -0.404419660568  0.047217849642  0.0117685096338  
2.3457300663  -0.0864014700055  0.499374687672  -0.341758131981  -0.392531305552  0.0493750087917  0.0499262847006  
2.35380220413  -0.0985838323832  0.491870939732  -0.329997628927  -0.409405112267  0.0306077115238  0.012918994762  
2.36190104485  -0.0977657139301  0.481823384762  -0.33204293251  -0.388696372509  0.0259098950773  0.00615989184007  
2.37000918388  -0.122258268297  0.474843770266  -0.323989540339  -0.401663303375  0.015579492785  0.0259098950773  
2.37807011604  -0.128138527274  0.449443608522  -0.321662992239  -0.360868990421  0.0349939391017  -0.00218112906441  
2.3861720562  -0.137278497219  0.430626779795  -0.304980963469  -0.354157835245  0.0143810706213  0.021787321195  
2.39425706863  -0.148425430059  0.407105714083  -0.300519615412  -0.342724889517  0.0236568599939  -0.0321177244186  
2.40237808228  -0.135079801083  0.330841302872  -0.255139350891  -0.277219086885  -0.00313986698166  -0.00776577787474  
2.41047620773  -0.173186436296  0.361623197794  -0.26231071353  -0.285032808781  0.0608079582453  -0.0215955749154  
2.41854906082  -0.165171384811  0.353748768568  -0.267896980047  -0.261927217245  -0.00309193017893  -0.0452044978738  
2.42662715912  -0.176292747259  0.341604739428  -0.265135794878  -0.237527340651  -0.00599211268127  0.0417530424893  
2.43469405174  -0.193013131618  0.358389049768  -0.276295512915  -0.216986387968  0.00776577787474  -0.0218352582306  
2.44279313087  -0.196975916624  0.337603598833  -0.265238076448  -0.195055246353  -0.0215955749154  0.0364080779254  
2.45088601112  -0.21739064157  0.347638398409  -0.270249068737  -0.171566173434  -0.0498543791473  -0.0214038267732  
2.45898413658  -0.22926621139  0.356803953648  -0.27591201663  -0.1312032938  -0.0276835598052  0.0257900524884  
2.46709418297  -0.24346832931  0.337475776672  -0.267078846693  -0.126697227359  -0.048608019948  0.004889564123  
2.47515821457  -0.251611202955  0.333321243525  -0.260968476534  -0.119075261056  -0.0557506158948  -0.0302721541375  
2.48324418068  -0.271783053875  0.328949391842  -0.251304417849  -0.126960888505  -0.060328591615  -0.0167539473623  
2.49131417274  -0.276653438807  0.31104016304  -0.242420107126  -0.0999005064368  -0.0587946102023  -0.00647148163989  
2.4993481636  -0.305121570826  0.279619127512  -0.224753752351  -0.105221502483  -0.0594657249749  0.00158191774972  
2.50741910934  -0.31436380744  0.251406669617  -0.203405857086  -0.1095597893  -0.0772982537746  0.00158191774972  
2.5155069828  -0.350335657597  0.231068640947  -0.1867749542  -0.119482725859  -0.0884915217757  0.00340351997875  
2.52357411385  -0.376119315624  0.207445338368  -0.169607147574  -0.104023076594  -0.0971920713782  -0.0526586845517  
2.53167104721  -0.41431543231  0.18120148778  -0.154446303844  -0.106827385724  -0.117181755602  -0.0161787047982  
2.5397310257  -0.462789237499  0.159239992499  -0.134900823236  -0.0607600212097  -0.142108947039  -0.0348021909595  
2.54779815674  -0.513116598129  0.14580488205  -0.110318787396  -0.0721210688353  -0.175832554698  -0.0103304022923  
2.55589604378  -0.561449766159  0.119816683233  -0.0911184623837  -0.0755006223917  -0.199801012874  -0.00189350766595  
2.56398701668  -0.599083423615  0.0878843143582  -0.0633150562644  -0.0180722121149  -0.219814658165  -0.0215955749154  
2.57208919525  -0.614998459816  0.0589687786996  -0.0396406203508  -0.0185755491257  -0.236209079623  0.049231197685  
2.58018898964  -0.64411854744  0.036240298301  -0.0168865714222  -0.0117205725983  -0.255935102701  0.00299605634063  
2.58825421333  -0.667690694332  0.018944663927  -0.00527945067734  -0.00170175998937  -0.272928744555  0.00932372733951  
2.59635019302  -0.683017730713  0.00579077750444  0.00411618174985  -0.0185036435723  -0.278297692537  -0.0161787047982  
2.60444307327  -0.703841507435  0.00249271886423  0.00411618174985  0.0250949673355  -0.281629294157  0.0372230038047  
2.61251401901  -0.727145254612  -0.0171038862318  0.00953624770045  -0.0518677271903  -0.300684213638  -0.00299605634063  
2.62065601349  -0.750052690506  -0.0206320416182  0.00862864218652  -0.0208525527269  -0.320146590471  -0.0363841094077  
2.62868905067  -0.781371474266  -0.0155571224168  0.0101370569319  -0.00702275615185  -0.333449095488  0.00313986698166  
2.63678717613  -0.767693459988  -0.0150713613257  -0.00216035638005  -0.0578598417342  -0.341838032007  -0.0225543119013  
2.64489221573  -0.780655622482  -0.0039883502759  -0.0104310698807  0.0311589855701  -0.345169663429  0.0274918135256  
2.65299105644  -0.785474896431  -0.0039883502759  -0.0190085787326  -0.0629171803594  -0.353918135166  -0.0127751845866  
2.66107606888  -0.767463386059  -0.000613592332229  -0.0159278344363  -0.00925182178617  -0.355835616589  0.0259098950773  
2.66917419434  -0.784375548363  -0.0150713613257  -0.0259242765605  -0.0431911498308  -0.377838671207  -0.0259098950773  
2.67727017403  -0.77873814106  -0.00397556694224  -0.031804535538  -0.00925182178617  -0.385460615158  -0.00994690693915  
2.68541121483  -0.776130378246  -0.0284425616264  -0.0305262189358  -0.0291456356645  -0.381505817175  0.00565655436367  
2.69350719452  -0.776360452175  -0.0163241121918  -0.0321624651551  -0.0161787047982  -0.387569844723  0.00134223327041  
2.70166707039  -0.788095414639  -0.0325459614396  -0.0402925610542  0.0323813781142  -0.390565901995  0.0117685096338  
2.70972704887  -0.79207098484  -0.0286470912397  -0.0427980646491  0.0315904170275  -0.39610260725  0.00512924836949  
2.71779608727  -0.786932170391  -0.0521425642073  -0.0317534022033  0.0474335625768  -0.398930907249  -0.0327409021556  
2.72589302063  -0.791828095913  -0.0683004930615  -0.0204658601433  0.0185036435723  -0.398331671953  0.0443656034768  
2.73397421837  -0.795036673546  -0.0811475887895  -0.01128754206  0.0305597744882  -0.388648420572  -0.0246395673603  
2.7420771122  -0.775887489319  -0.100015550852  -0.00342589057982  0.04379035905  -0.383998543024  0.0259098950773  
2.75018405914  -0.75249427557  -0.126003742218  0.0131411021575  0.0356171168387  -0.361396312714  -0.0162745788693  
2.75830316544  -0.738777935505  -0.135028660297  0.0143427206203  0.0627973377705  -0.356434822083  0.0259098950773  
2.76640605927  -0.719104647636  -0.150700837374  0.0286982245743  0.049446914345  -0.336469113827  0.0365998260677  
2.77465105057  -0.720434069633  -0.179284006357  0.0239301007241  0.0460673607886  -0.336948484182  -0.0421605035663  
2.78261899948  -0.669467568398  -0.179041132331  0.0233037248254  0.0657454580069  -0.329422384501  0.0317821651697  
2.79071521759  -0.635847806931  -0.205924138427  0.0125658595935  0.0778974667192  -0.327960312366  -0.0323813781142  
2.79878115654  -0.601358830929  -0.223296478391  0.00916553568095  0.0730558410287  -0.297616243362  0.0161787047982  
2.80689120293  -0.57607370615  -0.230685144663  0.0189190972596  0.120944805443  -0.283522814512  0.0313027985394  
2.81498503685  -0.541853129864  -0.245270743966  0.0129621382803  0.163776427507  -0.279280394316  -0.0445094145834  
2.82309818268  -0.505088746548  -0.266848742962  0.0125147271901  0.178517028689  -0.277578622103  0.038469363004  
2.83121204376  -0.475508481264  -0.280769616365  0.030155505985  0.217441782355  -0.266481250525  -0.0414654202759  
2.8393201828  -0.440380334854  -0.284438401461  0.0364831760526  0.215332567692  -0.260728806257  0.0426878109574  
2.84741711617  -0.416296839714  -0.283581912518  0.0450990349054  0.247330442071  -0.24119451642  0.0659372061491  
2.855479002  -0.426306039095  -0.290459275246  0.0561948306859  0.294787973166  -0.235681772232  0.0693886652589  
2.86368298531  -0.429016083479  -0.304904252291  0.0697961300611  0.31348335743  -0.216051608324  0.0631808340549  
2.87168002129  -0.435356527567  -0.296122223139  0.0809302702546  0.330764621496  -0.199225768447  0.0822836905718  
2.87977719307  -0.436443120241  -0.30795943737  0.100411824882  0.394041329622  -0.184628978372  0.0888031125069  
2.88783621788  -0.438871920109  -0.318070918322  0.120443060994  0.374554991722  -0.168618053198  0.0808455869555  
2.89594221115  -0.439076453447  -0.338485658169  0.143363296986  0.402118712664  -0.171781882644  0.0924942493439  
2.90403699875  -0.430064320564  -0.357660412788  0.155315563083  0.36551886797  -0.177606225014  0.0775139704347  
2.91213417053  -0.432966083288  -0.388020455837  0.190418154001  0.37803041935  -0.173699364066  0.0625336915255  
2.92024612427  -0.430460572243  -0.416757017374  0.205348894  0.392147809267  -0.166365012527  0.0712342336774  
2.92832016945  -0.423877239227  -0.446260601282  0.225623011589  0.381505817175  -0.16030099988  0.0522032864392  
2.93643903732  -0.450415104628  -0.463172733784  0.23198902607  0.379875987768  -0.158910825849  0.0668000727892  
2.94461607933  -0.451782912016  -0.480839073658  0.246293410659  0.422971248627  -0.17796574533  0.0556307733059  
2.95264101028  -0.460910111666  -0.486872732639  0.243954077363  0.415181517601  -0.176359862089  0.0430713072419  
2.96070814133  -0.46653470397  -0.483600229025  0.251879662275  0.430689096451  -0.168114706874  0.0546960048378  
2.9687640667  -0.469947814941  -0.485671103001  0.262655854225  0.416331976652  -0.180506408215  0.0407463647425  
2.9768550396  -0.468477755785  -0.468771755695  0.259779661894  0.403029501438  -0.177941784263  0.0315664485097  
2.98495006561  -0.448484867811  -0.472466081381  0.267436772585  0.381433933973  -0.192993968725  0.0287142042071  
2.99305200577  -0.425283402205  -0.457612037659  0.269303113222  0.334527671337  -0.20910076797  0.015579492785  
3.00116920471  -0.421601831913  -0.463338911533  0.277151972055  0.317845612764  -0.205241844058  0.0161787047982  
3.00925898552  -0.414123684168  -0.455451697111  0.286151349545  0.310870796442  -0.209148705006  0.00925182178617  
3.01738405228  -0.415644884109  -0.452690511942  0.285090327263  0.32683378458  -0.220222130418  0.00431432109326  
3.02548217773  -0.42071980238  -0.451795697212  0.291290163994  0.301714867353  -0.212096825242  -0.000695085094776  
3.03363108635  -0.428440839052  -0.434615105391  0.28533321619  0.299174189568  -0.228994578123  -0.0112172346562  
3.04168820381  -0.448063015938  -0.43478128314  0.300366222858  0.273048579693  -0.226429954171  -0.00647148163989  
3.04975819588  -0.468810111284  -0.422535032034  0.30377933383  0.246060118079  -0.228850767016  -0.00359526765533  
3.05785608292  -0.485990703106  -0.417293906212  0.296607971191  0.248720616102  -0.229665696621  -0.00246875034645  
3.06591820717  -0.493417710066  -0.395166248083  0.288017690182  0.250853806734  -0.232014596462  0.0  
3.07394313812  -0.504270613194  -0.389912366867  0.284438401461  0.238342270255  -0.246395677328  -0.0045540058054  
3.08206415176  -0.539564967155  -0.380248278379  0.289756208658  0.222283408046  -0.247330442071  -0.0045540058054  
3.09013199806  -0.553358018398  -0.36090734601  0.284438401461  0.234387487173  -0.250494271517  -0.00402669981122  
3.09823298454  -0.570193469524  -0.353352487087  0.287327378988  0.218400523067  -0.250086814165  -0.00268446654081  
3.10632300377  -0.589534401894  -0.357034027576  0.290983378887  0.203324362636  -0.252100169659  0.000551274395548  
3.11442613602  -0.611585378647  -0.357992768288  0.295623660088  0.197140514851  -0.263772815466  0.000551274395548  
3.12246417999  -0.660123050213  -0.38787984848  0.312062829733  0.182567685843  -0.272617161274  0.000551274395548  
3.1306180954  -0.680141508579  -0.404178380966  0.323490977287  0.170679330826  -0.288412362337  0.000551274395548  
3.13867616653  -0.717915832996  -0.420413017273  0.32232773304  0.1614754498  -0.29032984376  0.000551274395548  
3.14676403999  -0.72878152132  -0.436443120241  0.32060199976  0.175137475133  -0.304950594902  0.000551274395548  
3.15482616425  -0.739506602287  -0.462571918964  0.32813128829  0.181992441416  -0.300899922848  0.000551274395548  
3.16295814514  -0.733984231949  -0.470101207495  0.318249881268  0.179883226752  -0.308593809605  0.000551274395548  
3.17105507851  -0.721584558487  -0.487179517746  0.311589866877  0.181057676673  -0.291887789965  0.000551274395548  
3.17918419838  -0.706257581711  -0.492765784264  0.306860089302  0.20413929224  -0.28666266799  0.000551274395548  
3.18732619286  -0.696478426456  -0.496958643198  0.296480149031  0.222091659904  -0.286518871784  0.000551274395548  
3.19542312622  -0.684666752815  -0.50322240591  0.290459275246  0.229665696621  -0.288843810558  0.000551274395548  
3.2035741806  -0.656505465508  -0.501624524593  0.269776105881  0.246994882822  -0.299677550793  0.000551274395548  
3.21159815788  -0.629175007343  -0.511339724064  0.245603114367  0.286542832851  -0.290665388107  0.000551274395548  
3.21968317032  -0.566754758358  -0.479586333036  0.211075767875  0.305214256048  -0.266145676374  0.0438143275678  
3.22777700424  -0.554367899895  -0.502340376377  0.203111842275  0.350107163191  -0.23980435729  0.0505494624376  
3.23584914207  -0.524212360382  -0.520428538322  0.210487738252  0.361779808998  -0.235250338912  0.0447251275182  
3.24390721321  -0.497175961733  -0.520428538322  0.200734168291  0.36551886797  -0.228395372629  0.0419687591493  
3.25200104713  -0.476646184921  -0.517181634903  0.187388539314  0.392315596342  -0.226429954171  0.0331723354757  
3.26012516022  -0.455413341522  -0.521067738533  0.173390969634  0.412904500961  -0.242081359029  0.0552712492645  
3.26819109917  -0.444394230843  -0.522192656994  0.153116852045  0.432438790798  -0.228850767016  0.0386611111462  
3.2762761116  -0.425986468792  -0.508041679859  0.137278497219  0.453914523125  -0.242848336697  0.0315664485097  
3.2843952179  -0.414801210165  -0.496153324842  0.120660372078  0.433349579573  -0.243519455194  0.0568291954696  
3.29246711731  -0.392788559198  -0.48391982913  0.110983513296  0.47551009059  -0.246227890253  0.0459954552352  
3.30062699318  -0.337424635887  -0.440789401531  0.0927547067404  0.490011006594  -0.217897191644  0.0260297376662  
3.30868601799  -0.3038816154  -0.428108483553  0.0901597216725  0.471267670393  -0.210083469748  0.0117685096338  
3.31678414345  -0.279913157225  -0.437580823898  0.0975483953953  0.501036524773  -0.18323880434  0.0461152978241  
3.32484102249  -0.255356669426  -0.434832423925  0.102303735912  0.496674239635  -0.153661742806  0.0543604455888  
3.33294200897  -0.245398581028  -0.451629519463  0.111635453999  0.526970386505  -0.149539157748  0.0742063224316  
3.34105801582  -0.243084833026  -0.472146511078  0.121082216501  0.52440571785  -0.128998205066  0.0867657884955  
3.34913921356  -0.2418448627  -0.472261548042  0.121798075736  0.552017390728  -0.10471816361  0.103927202523  
3.35722398758  -0.252429336309  -0.486553162336  0.13628141582  0.546768307686  -0.09867811203  0.111309483647  
3.36532521248  -0.275426268578  -0.506520450115  0.163215562701  0.564361155033  -0.0995409786701  0.124060697854  
3.37345099449  -0.29074048996  -0.511416435242  0.183540806174  0.552520751953  -0.0957779288292  0.127679944038  
3.38148403168  -0.29074048996  -0.487320154905  0.188833042979  0.522632062435  -0.0940761715174  0.132329821587  
3.38959002495  -0.312446326017  -0.486974984407  0.191926568747  0.506573200226  -0.112771563232  0.107929937541  
3.39770102501  -0.32133063674  -0.482743769884  0.205144375563  0.490466415882  -0.113202996552  0.0913197994232  
3.40580821037  -0.327083051205  -0.463402837515  0.201923012733  0.481118708849  -0.111045829952  0.08058193326  
3.41392421722  -0.323989540339  -0.46653470397  0.214667826891  0.47304135561  -0.129789158702  0.090361058712  
3.42202305794  -0.32016736269  -0.457854926586  0.22913838923  0.472106575966  -0.132018223405  0.0710904225707  
3.43014717102  -0.313980311155  -0.436443120241  0.220893234015  0.4432964921  -0.130963608623  0.0443895719945  
3.43824315071  -0.317355066538  -0.420029520988  0.218080937862  0.438886314631  -0.134271264076  0.0289299208671  
3.44638109207  -0.304661363363  -0.418546676636  0.210487738252  0.462854743004  -0.129741221666  0.0520355068147  
3.45451617241  -0.306936770678  -0.417984217405  0.208084493876  0.442193955183  -0.138226062059  0.0355452112854  
3.46262001991  -0.294971734285  -0.422803461552  0.207164108753  0.451877206564  -0.135925084352  0.023608924821  
3.47069716454  -0.282111853361  -0.42954018712  0.197078183293  0.428603827953  -0.125235155225  0.0169696640223  
3.47876620293  -0.272984683514  -0.435164779425  0.193371072412  0.457845360041  -0.1261459589  0.0129429632798  
3.48685908318  -0.253784358501  -0.438335031271  0.190942257643  0.463046491146  -0.124588005245  0.00496146921068  
3.49494504929  -0.248760551214  -0.420911550522  0.176676243544  0.472753733397  -0.120105907321  0.00306796166115  
3.50303506851  -0.2279112041  -0.408563017845  0.174873813987  0.478314399719  -0.122622594237  0.00186953914817  
3.51113009453  -0.22774502635  -0.391165107489  0.165976718068  0.457437872887  -0.129645347595  -0.0384453944862  
3.51922702789  -0.2186178267  -0.368283241987  0.15217089653  0.48155015707  -0.12777581811  0.0187672972679  
3.52734017372  -0.210487738252  -0.350131124258  0.147620081902  0.485313177109  -0.111980602145  0.008101336658  
3.53542518616  -0.204019442201  -0.33453565836  0.143401637673  0.485768586397  -0.112747594714  0.0314466059208  
3.54352498055  -0.20077252388  -0.324360251427  0.144206985831  0.459427267313  -0.109895348549  0.0100427810103  
3.55162215233  -0.19470050931  -0.301542282104  0.12898221612  0.431743711233  -0.110758207738  0.0458756163716  
3.5596780777  -0.205553427339  -0.294498741627  0.126936912537  0.399625986814  -0.113682359457  0.0701316893101  
3.56777715683  -0.202217027545  -0.288835793734  0.109155520797  0.400009483099  -0.121831633151  0.0633006766438  
3.5758562088  -0.215038537979  -0.280309438705  0.110830113292  0.406265228987  -0.108289457858  0.0763155445457  
3.58397102356  -0.225904241204  -0.292530149221  0.118180438876  0.36702889204  -0.112244255841  0.0934769585729  
3.59206604958  -0.25109988451  -0.282738238573  0.126476719975  0.377095639706  -0.0906247124076  0.0972400084138  
3.60018920898  -0.259562343359  -0.278149068356  0.132983356714  0.361612021923  -0.0992773249745  0.0937406122684  
3.60828018188  -0.273841142654  -0.268127053976  0.129710868001  0.376160860062  -0.107210882008  0.0730079039931  
3.6164021492  -0.288132727146  -0.252838402987  0.142506822944  0.363385677338  -0.0961134880781  0.0745418816805  
3.62452220917  -0.311244696379  -0.238022685051  0.149511992931  0.384190291166  -0.09846239537  0.0639238581061  
3.63268899918  -0.348712176085  -0.225738063455  0.155443385243  0.401950925589  -0.11193266511  0.070251531899  
3.64078402519  -0.377078056335  -0.220803752542  0.167804718018  0.373764008284  -0.118595898151  0.0568531639874  
3.64887905121  -0.420029520988  -0.220969930291  0.175998732448  0.366285860538  -0.144961193204  0.0143810706213  
3.6569621563  -0.453227430582  -0.223526567221  0.185688376427  0.373883873224  -0.1657897681  0.0674951598048  
3.66505002975  -0.483702510595  -0.231413796544  0.196886435151  0.310583174229  -0.189830124378  0.0107858031988  
3.67317199707  -0.528891026974  -0.259434521198  0.224255219102  0.344162970781  -0.221324667335  0.0490394495428  
3.68125915527  -0.540498137474  -0.27010846138  0.226121559739  0.314729720354  -0.258499741554  0.0224344693124  
3.68938398361  -0.562319040298  -0.288426756859  0.236923336983  0.289011567831  -0.299965173006  -0.00345145701431  
3.69749999046  -0.581915616989  -0.301209926605  0.24442705512  0.275828927755  -0.314010679722  0.0507651790977  
3.70565319061  -0.604120016098  -0.300072222948  0.240246966481  0.258379906416  -0.333017647266  0.00807736814022  
3.71369218826  -0.624611437321  -0.306323200464  0.244235306978  0.224704220891  -0.335126876831  0.00198938138783  
3.72175717354  -0.643939554691  -0.297911852598  0.236118003726  0.230360776186  -0.339776754379  0.0293853208423  
3.72985506058  -0.669467568398  -0.30450797081  0.23756249249  0.191172361374  -0.35065844655  -0.0021092237439  
3.73792600632  -0.686545908451  -0.306323200464  0.242420107126  0.201502770185  -0.337499767542  0.0493750087917  
3.74599003792  -0.71096175909  -0.295393586159  0.236475929618  0.189111083746  -0.341406613588  0.00968325417489  
3.75405716896  -0.735901713371  -0.29710650444  0.238163307309  0.155027940869  -0.356314986944  0.0302002485842  
3.76212000847  -0.741206765175  -0.284566223621  0.242381751537  0.189925998449  -0.342413276434  0.0735352039337  
3.77018713951  -0.755063712597  -0.279031097889  0.237473011017  0.166796445847  -0.364632040262  0.0596814416349  
3.77829909325  -0.755562245846  -0.272498905659  0.232027381659  0.19282618165  -0.371534943581  0.0813489183784  
3.78639101982  -0.760381519794  -0.266273498535  0.221289515495  0.164016112685  -0.368323177099  0.0739666372538  
3.79448008537  -0.766312897205  -0.26297545433  0.21287818253  0.184844687581  -0.377095639706  0.102489098907  
3.80266308784  -0.778508067131  -0.24034923315  0.19888061285  0.152870774269  -0.381290107965  0.0979590564966  
3.81071209908  -0.778444111347  -0.227987900376  0.190507635474  0.154141113162  -0.387785553932  0.102968461812  
3.81881713867  -0.769968867302  -0.205642908812  0.16610455513  0.17106282711  -0.364008873701  0.132162034512  
3.82694101334  -0.750052690506  -0.196605205536  0.150547429919  0.14769358933  -0.358352303505  0.119075261056  
3.83502721786  -0.740235209465  -0.175244525075  0.133060052991  0.120753057301  -0.356914192438  0.121040679514  
3.84311699867  -0.687530219555  -0.140372022986  0.113361179829  0.120129875839  -0.336325287819  0.124971501529  
3.85123515129  -0.705822944641  -0.126003742218  0.105895809829  0.114089824259  -0.340304076672  0.138873204589  
3.85936021805  -0.68920481205  -0.123587720096  0.0967302769423  0.0984144583344  -0.346272200346  0.131083458662  
3.86742305756  -0.656735539436  -0.105243869126  0.0912718623877  0.0992533564568  -0.331172078848  0.147334069014  
3.8754940033  -0.643287658691  -0.0893671661615  0.0794474259019  0.0823795646429  -0.32599490881  0.147501841187  
3.88356304169  -0.614142000675  -0.0762132778764  0.0821830257773  0.0903370901942  -0.338242769241  0.128710582852  
3.89165711403  -0.626183748245  -0.0551210455596  0.0769291371107  0.0302002485842  -0.360677242279  0.119482725859  
3.8997399807  -0.601358830929  -0.0405610091984  0.067098878324  0.0540967918932  -0.347638398409  0.142228782177  
3.90781998634  -0.593164801598  -0.0255407802761  0.0564249269664  0.0274199079722  -0.355595946312  0.117685094476  
3.9158911705  -0.570193469524  -0.0147645650432  0.0542773529887  0.0241841673851  -0.363529503345  0.115168407559  
3.9239552021  -0.525516271591  -0.0062765381299  0.052820071578  -0.0261495802552  -0.353247016668  0.0960655510426  
3.93206620216  -0.467621266842  0.0117988688871  0.0393210425973  0.0431911498308  -0.32565933466  0.0921826586127  
3.94012904167  -0.498709946871  0.0184461195022  0.0594928897917  -0.026964507997  -0.367148727179  0.0949150621891  
3.94822001457  -0.434627890587  0.00837297830731  0.0504807531834  0.0323813781142  -0.334407836199  0.0782809630036  
3.95635914803  -0.43242919445  0.00728640891612  0.0525132752955  -0.0294332578778  -0.306196957827  0.0781850889325  
3.96445798874  -0.523317575455  0.0292734671384  0.0474511384964  -0.00592020712793  -0.353247016668  0.112412035465  
3.97251319885  -0.548883914948  0.0150713613257  0.0490234717727  0.00373907829635  -0.354061961174  0.0950828418136  
3.98070502281  -0.574731469154  0.021872010082  0.0439357683063  -0.00151001242921  -0.338051021099  0.083458147943  
3.988697052  -0.574731469154  0.0402286462486  0.048371527344  0.0452524349093  -0.331771284342  0.090145342052  
3.99675321579  -0.595836520195  0.0468375459313  0.0558113344014  -0.0276356246322  -0.313723057508  0.0720731317997  
4.00484418869  -0.589304327965  0.0520658642054  0.0518485531211  0.00388288893737  -0.316143870354  0.0486799217761  
4.01294517517  -0.581826150417  0.0675590708852  0.0481414310634  -0.0440540127456  -0.317581981421  0.0300324689597  
4.02100515366  -0.584536194801  0.0674440264702  0.0570768713951  0.0393082611263  -0.31465780735  0.0508610531688  
4.02909111977  -0.586453676224  0.0930487215519  0.0555301047862  -0.0259098950773  -0.348333507776  0.0143810706213  
4.03720021248  -0.589611113071  0.111878335476  0.0496626272798  0.0185036435723  -0.347806185484  0.0  
4.04529309273  -0.597293794155  0.125543549657  0.038605183363  -0.0215955749154  -0.336948484182  0.0430952757597  
4.05338311195  -0.587872564793  0.134453415871  0.0274710394442  0.00299605634063  -0.33105224371  0.00862864218652  
4.0615041256  -0.572315454483  0.137879312038  0.0220254082233  -0.0161787047982  -0.328199982643  0.021307952702  
4.06969404221  -0.563942492008  0.139758437872  0.00607200758532  -0.0695324763656  -0.319115966558  0.0143810706213  
4.07776212692  -0.535845041275  0.12613157928  0.00104822020512  -0.0250709988177  -0.306196957827  0.0471938811243  
4.08582115173  -0.533697485924  0.122411668301  -0.015033012256  -0.0594657249749  -0.285656005144  -0.004889564123  
4.09390902519  -0.523969471455  0.121861994267  -0.0125658595935  -0.0497345365584  -0.273767650127  -0.00740625150502  
4.10197210312  -0.518677294254  0.129915386438  -0.0392443425953  -0.0713780447841  -0.264156281948  0.0256941784173  
4.11003613472  -0.502340376377  0.144206985831  -0.0351153761148  -0.0727442502975  -0.234243676066  0.00690291402861  
4.11816120148  -0.492458969355  0.166245177388  -0.052717808634  -0.0863822996616  -0.229977279902  0.0323813781142  
4.12622404099  -0.499591976404  0.193089842796  -0.0548014640808  -0.102489098907  -0.223290085793  -0.0319499447942  
4.13434410095  -0.507811546326  0.215255856514  -0.0661657080054  -0.114233635366  -0.220509752631  0.0312548615038  
4.14242100716  -0.513934731483  0.235210388899  -0.0766479074955  -0.133935704827  -0.210443004966  0.0  
4.15049600601  -0.517411708832  0.256200373173  -0.0856472626328  -0.112891405821  -0.212911754847  0.0305118374527  
4.15861606598  -0.508885383606  0.254512995481  -0.0855066478252  -0.154740318656  -0.216986387968  0.0469781644642  
4.16674518585  -0.518050909042  0.270824313164  -0.0865165218711  -0.157304942608  -0.232829526067  0.0192466657609  
4.17480707169  -0.525107204914  0.267769128084  -0.0831545442343  -0.189662352204  -0.250134766102  0.0313986688852  
4.18294215202  -0.500652968884  0.26297545433  -0.091310210526  -0.22106102109  -0.241026744246  0.00862864218652  
4.19102811813  -0.498709946871  0.258462995291  -0.0835252553225  -0.226429954171  -0.257612913847  0.0168737899512  
4.1991519928  -0.48643809557  0.272869616747  -0.0843817293644  -0.251381099224  -0.256414473057  -0.0591781064868  
4.20724201202  -0.482782125473  0.286419779062  -0.0953369066119  -0.247522190213  -0.262981832027  0.0259098950773  
4.21533298492  -0.484469503164  0.30739697814  -0.108183994889  -0.291384458542  -0.256869882345  -0.0161787047982  
4.22342014313  -0.461357504129  0.317687422037  -0.127499371767  -0.306556493044  -0.249176010489  0.0323813781142  
4.23152208328  -0.469091325998  0.3247821033  -0.127818956971  -0.321488827467  -0.260561019182  0.0293613523245  
4.23959803581  -0.45621868968  0.327658295631  -0.143606171012  -0.350490659475  -0.262790083885  -0.00330764614046  
4.24771809578  -0.440035194159  0.330087095499  -0.14715988934  -0.356674522161  -0.272305577993  0.050070092082  
4.25578999519  -0.428440839052  0.329038888216  -0.156504392624  -0.363529503345  -0.28019118309  -0.0315904170275  
4.26388120651  -0.4186617136  0.329703599215  -0.159355044365  -0.355428159237  -0.26576218009  0.00431432109326  
4.2719771862  -0.393964618444  0.338242769241  -0.17479711771  -0.324436962605  -0.261136263609  0.00994690693915  
4.28006911278  -0.358274012804  0.319835007191  -0.170795977116  -0.345840781927  -0.250662058592  0.028138961643  
4.28817105293  -0.327658295631  0.322238236666  -0.180549547076  -0.311949372292  -0.252291917801  -0.0476732477546  
4.29625511169  -0.300072222948  0.331685006618  -0.190584331751  -0.303009152412  -0.229210302234  0.0415373258293  
4.30431604385  -0.272984683514  0.332963317633  -0.197269931436  -0.306820124388  -0.221540391445  -0.00318780401722  
4.3123819828  -0.256200373173  0.339354902506  -0.217850849032  -0.305477917194  -0.207422971725  0.0378222167492  
4.3204741478  -0.246101662517  0.349952161312  -0.220305219293  -0.337907224894  -0.20694360137  -0.0323813781142  
4.3285741806  -0.242228358984  0.371210575104  -0.229100033641  -0.307611107826  -0.198123216629  -0.00328367785551  
4.33675098419  -0.218899056315  0.378215759993  -0.232462003827  -0.289466977119  -0.176407799125  -0.0129429632798  
4.34484004974  -0.211139678955  0.39547303319  -0.229176729918  -0.288532197475  -0.167875036597  0.0103064337745  
4.35293698311  -0.186608761549  0.425769150257  -0.232781589031  -0.307611107826  -0.155099838972  -0.0267008543015  
4.36103415489  -0.167191132903  0.464693933725  -0.245986610651  -0.314897507429  -0.14349912107  0.0323813781142  
4.36912202835  -0.137828171253  0.465307503939  -0.235708937049  -0.320314377546  -0.140862584114  -0.0323813781142  
4.37721204758  -0.104706972837  0.520198464394  -0.262655854225  -0.349100500345  -0.129980906844  0.0348740965128  
4.38533520699  -0.0826560035348  0.550775825977  -0.272741794586  -0.348405390978  -0.124588005245  -0.0215955749154  
4.39345312119  -0.0555428899825  0.541802048683  -0.283364593983  -0.351545274258  -0.112531878054  0.0291456356645  
4.40154504776  -0.0347446650267  0.554086685181  -0.289168179035  -0.378246128559  -0.0944596678019  -0.0045540058054  
4.40961503983  -0.0172700677067  0.597817897797  -0.320844858885  -0.425176352262  -0.0904809013009  -0.0418489165604  
4.41770410538  -0.0107634318992  0.612058341503  -0.345260739326  -0.426039218903  -0.0726723447442  0.0641635432839  
4.42580199242  -0.00502378726378  0.620674192905  -0.363221079111  -0.4476108253  -0.0615749508142  -0.00390685768798  
4.4338760376  -0.00244158622809  0.637893140316  -0.366570293903  -0.455304682255  -0.0481526181102  -0.00584830204025  
4.44194412231  -0.00764433760196  0.649078428745  -0.353518664837  -0.439988851547  -0.0239924192429  0.00206128670834  
4.45005917549  0.00963851250708  0.6913651824  -0.363681286573  -0.469182431698  -0.0408422388136  -0.04335892573  
4.45816707611  0.00342589057982  0.668713390827  -0.359526753426  -0.476588666439  -0.0413216091692  -0.0117685096338  
4.46625614166  0.00342589057982  0.653475821018  -0.350501835346  -0.452979743481  -0.0257421154529  -0.0590582638979  
4.4743180275  0.00706909503788  0.650574028492  -0.346104413271  -0.431336253881  -0.0254065580666  -0.00862864218652  
4.48244309425  0.00697961263359  0.633610785007  -0.334037095308  -0.407511591911  -0.0143810706213  0.0287142042071  
4.49055409431  0.00342589057982  0.617286682129  -0.32524228096  -0.407943040133  -0.00608798628673  -0.0278992764652  
4.49866604805  0.00198139180429  0.625135540962  -0.335494399071  -0.416595637798  -0.026533074677  0.0252627469599  
4.50674819946  0.00139336590655  0.61084395647  -0.3367215693  -0.400440901518  -0.00807736814022  -0.0341790094972  
4.51485109329  0.00107378652319  0.584485054016  -0.324360251427  -0.386155724525  -0.0346583798528  0.0519156642258  
4.52296304703  0.00104822020512  0.562907040119  -0.314299881458  -0.367628097534  -0.00925182178617  -0.0312548615038  
4.53104805946  0.00104822020512  0.562446832657  -0.302424311638  -0.349843502045  -0.0273480024189  0.0414174832404  
4.53917717934  0.00104822020512  0.550673544407  -0.3038816154  -0.391668468714  0.0612154230475  0.00371510977857  
4.5472381115  0.0207982230932  0.525695204735  -0.294217526913  -0.382680296898  -0.0360006131232  0.0185036435723  
4.55536007881  0.0140487076715  0.514970123768  -0.283262342215  -0.377239435911  0.0246875043958  0.00580036500469  
4.56346011162  0.0129621382803  0.503861546516  -0.288938075304  -0.391428768635  -0.0128950262442  0.0215955749154  
4.57158207893  0.0176279954612  0.494874984026  -0.294741630554  -0.386706978083  -0.0437184534967  0.00587227055803  
4.5797560215  0.0246587414294  0.492407858372  -0.304584681988  -0.379252791405  0.0494229458272  0.0039308257401  
4.5878431797  0.0186250843108  0.493660598993  -0.3042139709  -0.388696372509  -0.049231197685  0.0039308257401  
4.59591317177  0.0143043715507  0.497482776642  -0.304009437561  -0.373452425003  0.00270843482576  0.00349939381704  
4.60397911072  0.0122718466446  0.50203359127  -0.313405066729  -0.359095335007  -0.0431911498308  -0.000790958874859  
4.6120660305  0.00685178115964  0.507210731506  -0.324884355068  -0.355595946312  0.0259098950773  0.0  
4.62016415596  0.00502378726378  0.509716272354  -0.337833702564  -0.370504319668  -0.0185036435723  -0.0654818043113  
4.62828421593  0.0046019423753  0.51105850935  -0.344787746668  -0.359574705362  0.0126553419977  0.028498487547  
4.63635420799  0.0024160197936  0.499144583941  -0.342333376408  -0.357225775719  0.00419447897002  -0.0312548615038  
4.64442515373  0.0024160197936  0.496089398861  -0.346794724464  -0.346200317144  -0.0524190030992  0.0259098950773  
4.65248012543  0.0183694195002  0.483370125294  -0.340850532055  -0.366261899471  0.0259098950773  0.0051052798517  
4.66055011749  0.0125658595935  0.504040539265  -0.351268827915  -0.332514315844  -0.0185036435723  0.0349220335484  
4.6686091423  0.0381961241364  0.515455901623  -0.370047301054  -0.374626874924  0.0301283430308  0.0215955749154  
4.6767001152  0.0350898094475  0.519124686718  -0.370903789997  -0.372206062078  0.0089881690219  -0.0235609877855  
4.68477606773  0.0429258979857  0.530770123005  -0.376272708178  -0.391141146421  0.0588185787201  0.00997087545693  
4.69287514687  0.0490362532437  0.528047323227  -0.37427854538  -0.380690902472  0.0404108092189  0.0327409021556  
4.70093798637  0.0518102012575  0.514982938766  -0.366327404976  -0.423067122698  0.0401711240411  -0.0370312556624  
4.70899415016  0.0544435344636  0.513500094414  -0.359795212746  -0.436369627714  0.0366717278957  -0.0117685096338  
4.71708321571  0.0484226606786  0.501356065273  -0.344365924597  -0.429994016886  0.0590342953801  -0.00479369005188  
4.72515106201  0.0550954788923  0.47452417016  -0.327389866114  -0.416811347008  0.0669199153781  -0.0359766446054  
4.73324799538  0.0581506565213  0.460079193115  -0.313967525959  -0.452572286129  0.0614071711898  -0.0161787047982  
4.74137711525  0.0605411082506  0.410825639963  -0.289526104927  -0.409884482622  0.0498064421117  0.0021092237439  
4.74947500229  0.0616276785731  0.418175965548  -0.288247793913  -0.413551658392  0.0510048642755  0.00925182178617  
4.7575750351  0.0639286488295  0.400126099586  -0.28158774972  -0.421557098627  0.059561599046  -0.0267248228192  
4.76572012901  0.0643377155066  0.38426220417  -0.285358786583  -0.43512326479  0.0521074123681  -0.00817324128002  
4.7737300396  0.0792428925633  0.368807345629  -0.269303113222  -0.389703035355  0.0535215511918  -0.00313986698166  
4.78180003166  0.0821830257773  0.352470457554  -0.260099232197  -0.373236715794  0.0541926659644  -0.0211401730776  
4.78989601135  0.095157943666  0.345362991095  -0.248364284635  -0.377838671207  0.0572845973074  -0.00615989184007  
4.79796004295  0.105921372771  0.343892931938  -0.257389187813  -0.359934210777  0.0847284719348  0.0441978238523  
4.80604600906  0.101498395205  0.324884355068  -0.250486284494  -0.381433933973  0.0717375725508  -0.0418009795249  
4.81411600113  0.110676713288  0.3038816154  -0.24124404788  -0.344162970781  0.105101659894  0.0446292571723  
4.82220411301  0.127729475498  0.286291956902  -0.226479485631  -0.338794052601  0.103591643274  -0.0410579554737  
4.83029103279  0.133801475167  0.274761527777  -0.219320908189  -0.330956369638  0.120369561017  0.0259098950773  
4.83840918541  0.14825925231  0.272933542728  -0.220177382231  -0.318588644266  0.130172654986  -0.0163225159049  
4.8465051651  0.159725755453  0.26559600234  -0.219014108181  -0.318133234978  0.148196935654  -0.0277794338763  
4.85460615158  0.161540970206  0.273355394602  -0.224753752351  -0.309648424387  0.132713317871  -0.011528824456  
4.86269807816  0.184716850519  0.26911136508  -0.212226241827  -0.283570736647  0.141605600715  0.00651941867545  
4.8707780838  0.190942257643  0.267078846693  -0.206269294024  -0.282420247793  0.148820117116  0.052442971617  
4.87883400917  0.194841131568  0.27690911293  -0.211139678955  -0.254832565784  0.160372897983  -0.0540009178221  
4.88689303398  0.197551161051  0.273956179619  -0.200184494257  -0.259698152542  0.180602282286  0.0431911498308  
4.89495801926  0.207100197673  0.27010846138  -0.193281576037  -0.264060407877  0.194408103824  -0.0215955749154  
4.90304708481  0.207585960627  0.267960876226  -0.168290480971  -0.247522190213  0.204594701529  -0.0330524928868  
4.91111207008  0.220893234015  0.261096328497  -0.155085459352  -0.258379906416  0.2119050771  -0.0132305845618  
4.91917419434  0.240528196096  0.261863321066  -0.148156985641  -0.24045149982  0.220989122987  0.0161787047982  
4.92723417282  0.24987269938  0.272153764963  -0.145127370954  -0.277770370245  0.224776133895  -0.0317821651697  
4.93533301353  0.258565247059  0.266733705997  -0.145638689399  -0.257804661989  0.233452707529  0.024447819218  
4.94343209267  0.276410549879  0.265698254108  -0.136012971401  -0.328966975212  0.23323699832  -0.0340351983905  
4.95151519775  0.279414594173  0.275311201811  -0.144820570946  -0.306820124388  0.256486386061  0.00304399314336  
4.95957612991  0.29336103797  0.273470431566  -0.140180274844  -0.297520369291  0.267679661512  -0.0253825895488  
4.96775698662  0.28855457902  0.270824313164  -0.133533030748  -0.300444543362  0.272665083408  0.0146686919034  
4.97577214241  0.300813645124  0.264330476522  -0.131986260414  -0.294428437948  0.286087423563  -0.00707069318742  
4.98383712769  0.306029170752  0.27753546834  -0.133021697402  -0.297256737947  0.278081953526  -0.00376304681413  
4.99191904068  0.309966385365  0.275170594454  -0.131283193827  -0.297520369291  0.248912364244  0.0313027985394  
5.00002717972  0.313878029585  0.283518016338  -0.130618467927  -0.30734744668  0.254640817642  -0.0458516478539  
5.00811219215  0.31798145175  0.293501675129  -0.134236112237  -0.334575593472  0.258667528629  0.0309912059456  
5.01617217064  0.323989540339  0.301542282104  -0.140320897102  -0.366909056902  0.246132016182  -0.0323813781142  
5.0242600441  0.324360251427  0.305121570826  -0.142609089613  -0.395071983337  0.263077706099  0.0114329513162  
5.0323472023  0.335085332394  0.311896651983  -0.148911193013  -0.403796494007  0.285727888346  0.0678546875715  
5.04043221474  0.333449095488  0.315910577774  -0.15289953351  -0.424816817045  0.278201818466  -0.0395958796144  
5.04852509499  0.345362991095  0.316703110933  -0.153461992741  -0.437975496054  0.29517146945  0.0259098950773  
5.05673098564  0.360958456993  0.307192444801  -0.146213933825  -0.427213668823  0.320146590471  -0.0169696640223  
5.06476616859  0.3586191535  0.304980963469  -0.145638689399  -0.431863546371  0.323981553316  -0.00419447897002  
5.07283210754  0.371082752943  0.296607971191  -0.134236112237  -0.412209421396  0.327744603157  0.0578119046986  
5.08091115952  0.373230308294  0.271783053875  -0.117784157395  -0.427069842815  0.324868381023  -0.0323813781142  
5.08895206451  0.379455715418  0.26592835784  -0.105895809829  -0.410363852978  0.332370519638  0.0172333158553  
5.09705710411  0.383827567101  0.247763469815  -0.0985326990485  -0.366645395756  0.314058601856  -0.0323813781142  
5.10514211655  0.381922870874  0.214220419526  -0.0778623074293  -0.350993990898  0.306436657906  0.0143810706213  
5.11322903633  0.381028056145  0.186953917146  -0.0653092339635  -0.299533724785  0.306292831898  0.0626774951816  
5.12133002281  0.383865922689  0.162116199732  -0.0539322085679  -0.284361690283  0.316143870354  -0.0431911498308  
5.12943315506  0.389682263136  0.132254719734  -0.0517590679228  -0.254473030567  0.301235496998  0.0185036435723  
5.13756513596  0.399742633104  0.0936367437243  -0.037825409323  -0.231918722391  0.283211201429  -0.0259098950773  
5.14575910568  0.408038884401  0.0567445084453  -0.0256558284163  -0.206440269947  0.276500046253  -0.0314945429564  
5.15381121635  0.412615269423  0.0307051818818  -0.0168482232839  -0.184652939439  0.261951208115  0.0435027368367  
5.16187810898  0.422803461552  0.0120800985023  -0.00837297830731  -0.138609543443  0.247090756893  0.00994690693915  
5.1699821949  0.418546676636  0.00478090671822  -0.00538171594962  -0.133480295539  0.246395677328  0.0456598997116  
5.17807102203  0.427200883627  -0.0108656976372  0.000664725026581  -0.122334972024  0.234147801995  -0.0254065580666  
5.18614220619  0.435164779425  -0.0117477364838  0.000664725026581  -0.0934529900551  0.238102585077  0.0198938138783  
5.19420218468  0.437580823898  -0.0300404578447  0.0230224952102  -0.0665364190936  0.249439671636  -0.0478889644146  
5.20230507851  0.435701698065  -0.0232909414917  0.0199289675802  -0.0747575983405  0.254281282425  0.00313986698166  
5.21042299271  0.443831771612  -0.032430909574  0.0269980616868  -0.0456359311938  0.252651453018  -0.0431911498308  
5.2185151577  0.435164779425  -0.0373140834272  0.0325203947723  -0.0291456356645  0.257612913847  0.0315904170275  
5.22660899162  0.43853956461  -0.0465818829834  0.0389375463128  -0.0190549176186  0.274582564831  -0.0259098950773  
5.2346830368  0.427916735411  -0.0667920783162  0.052104216069  -0.0107858031988  0.272233664989  -0.00527305901051  
5.24274110794  0.43388646841  -0.0844584256411  0.0667537301779  -0.0535215511918  0.269812852144  0.0342509150505  
5.25083613396  0.40661996603  -0.101293869317  0.0809941887856  0.0221228804439  0.262334704399  -0.0416331999004  
5.25893616676  0.410160899162  -0.127141445875  0.0977912768722  0.00726244039834  0.249439671636  0.0390206389129  
5.26703906059  0.410646677017  -0.146891444921  0.114115387201  0.0505254939198  0.252603501081  -0.0323813781142  
5.2751250267  0.420029520988  -0.177826732397  0.13064403832  0.0392842926085  0.230193004012  0.0259098950773  
5.28321313858  0.425986468792  -0.199788212776  0.152733355761  0.0523231290281  0.261639595032  0.0402190610766  
5.29135704041  0.407386958599  -0.201028183103  0.145025104284  0.0425919368863  0.236161142588  -0.0370312556624  
5.29945516586  0.407668173313  -0.219704404473  0.144066363573  0.0890188291669  0.239780381322  0.0383495204151  
5.30751919746  0.391152322292  -0.230033203959  0.1519408077  0.10493388027  0.229761570692  -0.00373907829635  
5.31573104858  0.371082752943  -0.232244700193  0.149013459682  0.162865623832  0.225639000535  0.025837989524  
5.3237221241  0.340786635876  -0.218004241586  0.144973963499  0.207303136587  0.199681162834  -0.0330524928868  
5.33183717728  0.286943882704  -0.189715072513  0.124866038561  0.217897191644  0.171158701181  0.0114089827985  
5.33990311623  0.315910577774  -0.168418318033  0.110267654061  0.302361994982  0.174106821418  0.0275637190789  
5.34799003601  0.291558623314  -0.137879312038  0.0850848034024  0.356866270304  0.151121079922  -0.0468103848398  
5.3560590744  0.280565083027  -0.108005031943  0.0756891667843  0.361899644136  0.138705417514  0.0259098950773  
5.36413121223  0.283006668091  -0.0741040557623  0.0554534085095  0.395359605551  0.114784911275  -0.0168737899512  
5.37224602699  0.277906179428  -0.055849686265  0.0414174832404  0.387282222509  0.0970482602715  -0.00412257341668  
5.38033604622  0.289756208658  -0.0469781644642  0.0261288061738  0.382105052471  0.0753088742495  0.0584350824356  
5.38842201233  0.300021082163  -0.0531907863915  0.0285448264331  0.375034362078  0.0614311397076  -0.0284265819937  
5.39649319649  0.302283704281  -0.051401142031  0.0216419119388  0.36551886797  0.0320937559009  0.0259098950773  
5.40455412865  0.286560386419  -0.0857239589095  0.0146239502355  0.314058601856  0.0231295544654  0.0108097717166  
5.41270899773  0.282303601503  -0.100961506367  0.00956181343645  0.300947874784  0.0412736721337  -0.0116246985272  
5.42071914673  0.265365898609  -0.114498883486  0.0146878659725  0.297520369291  0.0605203397572  -0.0448210015893  
5.42878198624  0.246868640184  -0.140269756317  0.0259881913662  0.321177244186  0.0636602044106  0.0636602044106  
5.43684005737  0.213031589985  -0.144820570946  0.0111852772534  0.301834702492  0.0590103268623  -0.042735747993  
5.44492816925  0.196477383375  -0.157527044415  0.0188040491194  0.298263400793  0.0643313229084  0.0160828307271  
5.45299005508  0.169671058655  -0.167945340276  0.00899935420603  0.334240049124  0.0653140246868  0.073942668736  
5.46108913422  0.162180125713  -0.189472198486  0.0239428840578  0.305477917194  0.0507651790977  0.0171853788197  
5.46917319298  0.149614259601  -0.212123975158  0.0292351171374  0.309097141027  0.0551993437111  -0.00994690693915  
5.47724413872  0.140755519271  -0.234494537115  0.0457381941378  0.308953344822  0.0485600829124  -0.00822117831558  
5.48530721664  0.1230763942  -0.260879009962  0.0619344748557  0.308569848537  0.0305358059704  -0.0360964871943  
5.49340105057  0.120443060994  -0.286943882704  0.0659100413322  0.340184211731  0.0419447906315  0.0431911498308  
5.50150704384  0.106534965336  -0.31409534812  0.0755996853113  0.311565905809  0.0235849563032  -0.00371510977857  
5.50963521004  0.103735454381  -0.338690191507  0.0836914405227  0.320745795965  0.0454921200871  0.0161787047982  
5.51777720451  0.092128328979  -0.364627242088  0.102712802589  0.312500655651  0.0161787047982  -0.0215955749154  
5.5258231163  0.0954647362232  -0.378330796957  0.108516357839  0.309504598379  0.045180529356  -0.0334120206535  
5.53391718864  0.0874369069934  -0.393210411072  0.111226394773  0.30734744668  0.0107858031988  -0.0143810706213  
5.54201102257  0.083729788661  -0.38253647089  0.104706972837  0.345025837421  0.0474814996123  0.00824514683336  
5.55013799667  0.0918854475021  -0.399320781231  0.108299046755  0.368395090103  -0.00275637186132  -0.00891626346856  
5.55820202827  0.0985838323832  -0.406274825335  0.12005956471  0.35118573904  0.0213319212198  -0.00328367785551  
5.56631207466  0.0911951586604  -0.403551995754  0.134849697351  0.401950925589  0.0129429632798  0.0764593556523  
5.57442212105  0.0992485582829  -0.39719876647  0.133929312229  0.394472748041  0.00254065566696  0.00906007457525  
5.58251404762  0.107557624578  -0.410339862108  0.144871711731  0.411730051041  -0.00419447897002  0.0190069805831  
5.59063911438  0.113489016891  -0.404536306858  0.151212155819  0.429994016886  0.041561294347  0.00685497699305  
5.59873700142  0.121005520225  -0.4186617136  0.153640955687  0.445717304945  -0.026748791337  -0.0283067412674  
5.60683107376  0.127499371767  -0.400918662548  0.158677533269  0.455304682255  0.0623419396579  -0.0113610457629  
5.61492800713  0.129583030939  -0.385310411453  0.147837400436  0.465299546719  -0.00342748849653  0.00692688208073  
5.62301707268  0.145127370954  -0.407911062241  0.152784496546  0.503984630108  0.0511007383466  0.0549356900156  
5.63110208511  0.154216200113  -0.411746025085  0.166922673583  0.514698505402  0.0101146865636  -0.0505494624376  
5.63920211792  0.165120258927  -0.401826262474  0.163343384862  0.540200948715  0.0379899926484  -0.00891626346856  
5.64733910561  0.163931414485  -0.384581774473  0.155034333467  0.564025580883  0.0444854460657  -0.0185036435723  
5.65540719032  0.172023162246  -0.385399907827  0.136012971401  0.539649665356  0.0289299208671  -0.0422803461552  
5.6634721756  0.164187073708  -0.381858944893  0.122820727527  0.560885727406  0.0415373258293  -0.0143810706213  
5.67158699036  0.169325917959  -0.368564456701  0.114856816828  0.536797404289  0.0340591669083  -0.0574284084141  
5.67981410027  0.173544362187  -0.358644723892  0.100961506367  0.528887808323  0.0242800414562  -0.035689022392  
5.68786811829  0.175768628716  -0.346794724464  0.083026714623  0.543772220612  0.0564217343926  -0.0399314388633  
5.69597005844  0.178159087896  -0.33566057682  0.0708571299911  0.509089887142  0.0662008598447  -0.0598252527416  
5.70405316353  0.192655205727  -0.321599066257  0.0606817230582  0.504248261452  0.050285808742  -0.046019423753  
5.71215200424  0.186608761549  -0.315910577774  0.0554150566459  0.4879976511  0.0558944270015  -0.0308473967016  
5.72026920319  0.190584331751  -0.312075614929  0.0534720160067  0.449312567711  0.0683580189943  -0.0580995231867  
5.72839808464  0.188833042979  -0.313660740852  0.0488828569651  0.440707892179  0.0834821164608  -0.049446914345  
5.73664021492  0.177366539836  -0.311973363161  0.0451629534364  0.442673325539  0.0928777456284  -0.0161787047982  
5.7447180748  0.178440317512  -0.324551999569  0.0544179677963  0.443224579096  0.0908643975854  -0.0542645715177  
5.75282120705  0.165912806988  -0.34379068017  0.0657055154443  0.421269476414  0.100883208215  -0.0157233029604  
5.76092100143  0.147837400436  -0.362057834864  0.084522344172  0.400536775589  0.123749114573  -0.0237287655473  
5.76899719238  0.13946442306  -0.375838071108  0.0969092398882  0.400992184877  0.121160522103  -0.0161787047982  
5.77705216408  0.133878171444  -0.393990188837  0.110715068877  0.408949702978  0.115551903844  -0.00539290159941  
5.78514003754  0.130580112338  -0.414609462023  0.116518624127  0.423570454121  0.10493388027  -0.0123916892335  
5.79320502281  0.11292655766  -0.416143417358  0.110088691115  0.412904500961  0.103759422898  0.00189350766595  
5.80129098892  0.110152609646  -0.441300719976  0.1230763942  0.400896310806  0.0797670036554  -0.0525148771703  
5.80940008163  0.109155520797  -0.445161223412  0.1230763942  0.405186653137  0.0777776241302  0.0265810117126  
5.81755709648  0.112070083618  -0.46653470397  0.133711993694  0.419447898865  0.0659851431847  -0.0215955749154  
5.8257420063  0.117784157395  -0.480327755213  0.132165238261  0.40257409215  0.0680224597454  0.0259098950773  
5.83382606506  0.120404712856  -0.474281311035  0.126400023699  0.418632954359  0.0746617242694  0.0264132320881  
5.84193921089  0.125326231122  -0.48988956213  0.128522023559  0.399625986814  0.0569490380585  -0.00467384792864  
5.85003614426  0.127729475498  -0.497738420963  0.142315074801  0.384406000376  0.0392363555729  -0.0183598324656  
5.85812616348  0.129634156823  -0.507364153862  0.150649696589  0.42045456171  0.0630849599838  -0.00807736814022  
5.86621499062  0.129340156913  -0.512260138988  0.155443385243  0.408326536417  0.0528744012117  -0.00402669981122  
5.87430405617  0.127563282847  -0.497763991356  0.147735133767  0.397133260965  0.0341790094972  -0.0493270717561  
5.88242721558  0.127729475498  -0.500768065453  0.154101163149  0.429131150246  0.0446292571723  -0.0144769446924  
5.89054608345  0.126783519983  -0.487614154816  0.147620081902  0.417314708233  0.0491353236139  -0.0405306518078  
5.8987569809  0.130452290177  -0.476275473833  0.149230763316  0.458636313677  0.0566134825349  -0.00994690693915  
5.90672898293  0.141433030367  -0.481887280941  0.146316200495  0.4432964921  0.0513164512813  -0.0483443662524  
5.91482710838  0.13750860095  -0.470804274082  0.137329638004  0.454705476761  0.0312069226056  -0.0283786449581  
5.92287802696  0.147939667106  -0.476927429438  0.137981578708  0.436920881271  0.0470980070531  -0.0536413937807  
5.93097615242  0.146162807941  -0.468707829714  0.140806660056  0.437735825777  0.02940928936  -0.0777536556125  
5.93903803825  0.14391297102  -0.459708482027  0.134376719594  0.442026168108  0.0465227626264  -0.0676150023937  
5.94713807106  0.157642096281  -0.469794422388  0.144922837615  0.448761314154  0.0511486753821  -0.0543844141066  
5.95523905754  0.152055844665  -0.464693933725  0.140269756317  0.429994016886  0.0544802881777  -0.0698680356145  
5.96334314346  0.14726215601  -0.469321429729  0.153461992741  0.43512326479  0.0448210015893  -0.0846805348992  
5.97143602371  0.155903577805  -0.468707829714  0.156504392624  0.438526779413  0.0562060177326  -0.0900974050164  
5.97952508926  0.151314422488  -0.479586333036  0.164327695966  0.445357769728  0.0612154230475  -0.128231212497  
5.9876730442  0.149396955967  -0.491768687963  0.175768628716  0.453315317631  0.0477451533079  -0.159965440631  
5.99572014809  0.157335296273  -0.48643809557  0.176062643528  0.442385703325  0.0539529845119  -0.205553427339  
6.00380706787  0.151263296604  -0.488087117672  0.173838376999  0.414366573095  0.0475534051657  -0.258931159973  
6.01186919212  0.148591607809  -0.48090299964  0.17045083642  0.41928011179  0.0304878689349  -0.327792525291  
6.01996517181  0.155673488975  -0.468234866858  0.16739565134  0.425703644753  0.0431911498308  -0.339297384024  
6.02807807922  0.153116852045  -0.461741000414  0.154446303844  0.405186653137  0.0453243404627  -0.361899644136  
6.03616499901  0.163995325565  -0.469794422388  0.158306822181  0.413240045309  0.0320697873831  -0.398595333099  
6.04423213005  0.16938982904  -0.476045370102  0.147837400436  0.450846552849  0.0473616570234  -0.390422105789  
6.05239105225  0.163854718208  -0.459491163492  0.13856959343  0.437999457121  0.0368395075202  -0.396821677685  
6.06050610542  0.172304391861  -0.469794422388  0.133980438113  0.447035580873  0.0455879941583  -0.392099887133  
6.06869506836  0.167740806937  -0.475636333227  0.138019919395  0.46570700407  0.0453243404627  -0.376951813698  
6.07677507401  0.1705147475  -0.467378377914  0.135258764029  0.444782555103  0.0330045558512  -0.388840168715  
6.08482408524  0.173684984446  -0.462341815233  0.125517979264  0.478314399719  0.0586507990956  -0.369545578957  
6.0929172039  0.177826732397  -0.457254111767  0.117451801896  0.448545575142  0.0514362938702  -0.390278279781  
6.10100507736  0.185688376427  -0.455630660057  0.110791765153  0.452188789845  0.0539290159941  -0.372781306505  
6.10910511017  0.187976568937  -0.467378377914  0.114959076047  0.453363239765  0.0616468563676  -0.367819845676  
6.11719107628  0.201565086842  -0.461792141199  0.106061987579  0.434212446213  0.0579077787697  -0.366525560617  
6.12527418137  0.20412170887  -0.445122897625  0.0945060029626  0.436920881271  0.0712582021952  -0.349268257618  
6.1333630085  0.202600523829  -0.454173386097  0.0969092398882  0.389511287212  0.0608558952808  -0.346439987421  
6.14146208763  0.212558612227  -0.455247163773  0.0896867439151  0.367628097534  0.052442971617  -0.350107163191  
6.14952301979  0.224664270878  -0.461510926485  0.0901085883379  0.400896310806  0.0817084461451  -0.34128677845  
6.1576731205  0.23912204802  -0.459708482027  0.0911184623837  0.357393562794  0.0811092406511  -0.32124915719  
6.16572713852  0.248479321599  -0.474767059088  0.100271210074  0.370240658522  0.0744460076094  -0.279040694237  
6.17379808426  0.256110876799  -0.472261548042  0.104873158038  0.357273727655  0.0766750723124  -0.28869998455  
6.18187618256  0.26287317276  -0.473015755415  0.105192735791  0.377239435911  0.0753328427672  -0.276476085186  
6.18996119499  0.276142120361  -0.480979681015  0.115393705666  0.399697899818  0.0791917592287  -0.266361385584  
6.19806408882  0.274199068546  -0.470177918673  0.126310542226  0.42079013586  0.085687212646  -0.26317358017  
6.20612406731  0.273227542639  -0.470650881529  0.138198882341  0.415181517601  0.0943877622485  -0.274199068546  
6.21418213844  0.259651809931  -0.458660274744  0.138441771269  0.432103216648  0.108121678233  -0.313171774149  
6.22227311134  0.255573987961  -0.453368037939  0.148796141148  0.469182431698  0.110254876316  -0.34267693758  
6.23040509224  0.25109988451  -0.453521430492  0.15087980032  0.453363239765  0.103327989578  -0.430425435305  
6.23850798607  0.235018640757  -0.450811386108  0.155558437109  0.461919993162  0.112459972501  -0.496027082205  
6.24656105042  0.233868151903  -0.439421594143  0.15741199255  0.4620398283  0.114521257579  -0.594753146172  
6.25463604927  0.211139678955  -0.410927891731  0.139042571187  0.468367487192  0.110063128173  -0.661073863506  
6.26273012161  0.215562656522  -0.400918662548  0.133929312229  0.47304135561  0.100523680449  -0.715530157089  
6.27077698708  0.206371545792  -0.37427854538  0.126783519983  0.451038300991  0.0973358750343  -0.748366951942  
6.27883911133  0.214782878757  -0.355065435171  0.130324453115  0.451997041702  0.0799108147621  -0.77931022644  
6.28693008423  0.224638715386  -0.32232773304  0.127179786563  0.399098664522  0.0831465572119  -0.768644273281  
6.29502105713  0.233612492681  -0.298908948898  0.120200179517  0.399098664522  0.0743980705738  -0.752321720123  
6.30310416222  0.241665899754  -0.266963809729  0.114064253867  0.373883873224  0.0816605091095  -0.73360234499  
6.31116819382  0.26387026906  -0.241653114557  0.0973694324493  0.359023422003  0.0773941278458  -0.728185474873  
6.31925916672  0.269533216953  -0.220420256257  0.0941992029548  0.320146590471  0.0846086293459  -0.710832357407  
6.32735919952  0.273470431566  -0.189881265163  0.0758553519845  0.278417527676  0.0945076048374  -0.672195196152  
6.33545517921  0.270325779915  -0.176216050982  0.063545152545  0.263868659735  0.100787334144  -0.635163962841  
6.34355711937  0.279299557209  -0.167740806937  0.0533058345318  0.238821640611  0.105245471001  -0.62030351162  
6.35163116455  0.276295512915  -0.153231903911  0.0396917536855  0.206104710698  0.112316161394  -0.610716104507  
6.35973715782  0.274863809347  -0.155443385243  0.0276116542518  0.220078319311  0.115935400128  -0.628980100155  
6.36774611473  0.279798090458  -0.157578185201  0.0343228206038  0.19929766655  0.147334069014  -0.632072031498  
6.375852108  0.276538401842  -0.153525918722  0.0263972524554  0.189830124378  0.13357616961  -0.680440366268  
6.38398003578  0.285051971674  -0.162563621998  0.0297592282295  0.198914170265  0.145512461662  -0.733123004436  
6.3920481205  0.282482564449  -0.159789666533  0.0228179655969  0.199225768447  0.138681456447  -0.736622393131  
6.40020704269  0.291430801153  -0.153346955776  0.0275605227798  0.187193602324  0.131538853049  -0.752489507198  
6.40831518173  0.288835793734  -0.132472023368  0.018957445398  0.187409311533  0.14251640439  -0.757858455181  
6.41641807556  0.297528356314  -0.127563282847  0.0153781576082  0.182471811771  0.150905370712  -0.78403198719  
6.42450618744  0.314836770296  -0.120340794325  0.0118755679578  0.199225768447  0.139879882336  -0.821135163307  
6.43260121346  0.30593970418  -0.115393705666  0.0173723325133  0.167587414384  0.145776122808  -0.823220431805  
6.44065999985  0.31492626667  -0.105346135795  0.0129877040163  0.161379575729  0.159102573991  -0.818786263466  
6.44875717163  0.315539866686  -0.105346135795  0.0142788048834  0.183502465487  0.142588317394  -0.789784431458  
6.45686602592  0.320627570152  -0.108183994889  0.00752928899601  0.15835955739  0.134750634432  -0.756420314312  
6.46496105194  0.318339377642  -0.0977401435375  0.00538171594962  0.176551610231  0.12959741056  -0.748846292496  
6.47304916382  0.328655391932  -0.101958595216  0.00290178041905  0.174538254738  0.12777581811  -0.765792012215  
6.48114204407  0.332669317722  -0.107723802328  0.0027867318131  0.145800083876  0.129453599453  -0.765528321266  
6.48920202255  0.344212502241  -0.11020373553  0.0137546947226  0.197140514851  0.131730601192  -0.78825044632  
6.49730420113  0.357034027576  -0.106547750533  0.00388608477078  0.152295529842  0.118571929634  -0.810517132282  
6.50531816483  0.355180472136  -0.120404712856  0.0272537264973  0.188511863351  0.114497289062  -0.841388523579  
6.51340198517  0.365573197603  -0.115534320474  0.0125658595935  0.168953612447  0.100044310093  -0.905048727989  
6.52154111862  0.371082752943  -0.113936424255  0.0198394861072  0.187313437462  0.110566467047  -0.989153981209  
6.52962708473  0.377934515476  -0.117183350027  0.0234571229666  0.215260654688  0.099445104599  -1.0436103344  
6.53772616386  0.36920362711  -0.117720246315  0.0334024317563  0.212552219629  0.0956580862403  -1.14300751686  
6.54581618309  0.369778871536  -0.108120083809  0.0332362502813  0.211018234491  0.109224230051  -1.18250751495  
6.55390501022  0.362402975559  -0.110740631819  0.0349491946399  0.226861387491  0.104382604361  -1.21973049641  
6.56202411652  0.364384353161  -0.100654706359  0.037723146379  0.220341965556  0.112268224359  -1.27924418449  
6.57008600235  0.352905064821  -0.0919877141714  0.0448561571538  0.208837106824  0.109751537442  -1.35002303123  
6.57817602158  0.354477405548  -0.0844839960337  0.0476045385003  0.174082860351  0.10567689687  -1.4062050581  
6.58621716499  0.349632591009  -0.076443374157  0.0491640865803  0.188104405999  0.116486668587  -1.4604216814  
6.59428811073  0.3586191535  -0.0682237967849  0.0500077754259  0.182471811771  0.106563732028  -1.49937045574  
6.60238909721  0.352866709232  -0.0522703975439  0.0429258979857  0.179236069322  0.101410515606  -1.49970591068  
6.61044621468  0.359411716461  -0.0493047013879  0.0422100387514  0.166173264384  0.100523680449  -1.52525627613  
6.61853408813  0.366097301245  -0.0346040502191  0.0337475799024  0.166412949562  0.121951475739  -1.53211128712  
6.62659621239  0.396866410971  -0.0210283212364  0.0231631100178  0.161379575729  0.114497289062  -1.58163011074  
6.63470816612  0.399525314569  -0.0255279969424  0.0268957968801  0.13542175293  0.117493346334  -1.57393622398  
6.64279007912  0.402874499559  -0.0170271862298  0.0199417509139  0.103327989578  0.117061913013  -1.50068867207  
6.65087008476  0.400522381067  -0.0103415874764  0.0177686102688  0.129980906844  0.134942382574  -1.45344686508  
6.65893411636  0.412500232458  -0.0132433678955  0.00752928899601  0.0692448541522  0.132162034512  -1.44249331951  
6.66702318192  0.42227935791  -0.00685178115964  0.00502378726378  0.08079764992  0.143906578422  -1.42365407944  
6.67508506775  0.427724987268  -0.0027867318131  0.00242880289443  0.0624857507646  0.153302207589  -1.43822693825  
6.68317508698  0.425475150347  -0.00144449865911  0.00153398083057  0.0331004299223  0.166796445847  -1.40527021885  
6.69126319885  0.445723682642  -0.00144449865911  0.00153398083057  0.025358621031  0.170391723514  -1.37940835953  
6.69934201241  0.450057178736  0.00354093895294  -0.0026461170055  0.047217849642  0.170463621616  -1.35472083092  
6.70742511749  0.454978704453  0.00259498413652  -0.00471699098125  0.0323813781142  0.175401121378  -1.30589711666  
6.71553301811  0.458072245121  0.00167459575459  0.000741424039006  0.00908404309303  0.174370482564  -1.2375150919  
6.72362613678  0.441134542227  0.00144449865911  0.000741424039006  0.00186953914817  0.164543420076  -1.15892255306  
6.73171210289  0.476045370102  0.00144449865911  -0.000741424039006  0.0215955749154  0.167108044028  -1.1640996933  
6.7397711277  0.474767059088  0.0  -0.00550954788923  -0.00230097118765  0.175065562129  -1.15005421638  
6.74786520004  0.494171917439  0.0  0.000715857720934  0.0215955749154  0.184581041336  -1.14257609844  
6.7559530735  0.498198628426  0.0  0.000715857720934  -0.00232493970543  0.178612887859  -1.11189639568  
6.76405119896  0.508297324181  0.0  0.000715857720934  0.0232493970543  0.189206957817  -1.08605849743  
6.77215409279  0.516465783119  0.0  0.000715857720934  -0.0185036435723  0.201862290502  -1.04243588448  
6.78028321266  0.528699278831  0.0  0.000715857720934  0.0257181469351  0.19251459837  -1.00645923615  
6.78838014603  0.515213012695  0.0  0.000715857720934  0.00448210025206  0.22062958777  -0.963867306709  
6.79650020599  0.518549442291  0.000498543784488  -0.0  -0.0302721541375  0.210634738207  -0.928082406521  
6.80467319489  0.516759812832  0.000498543784488  -0.0  -0.0647867247462  0.207974240184  -0.94119310379  
6.81272912025  0.517181634903  -0.0012783173006  -0.0  0.0647867247462  0.20382770896  -0.955670058727  
6.82081913948  0.513103783131  -0.0012783173006  -0.0  -0.0293613523245  0.197140514851  -0.964730143547  
6.82890605927  0.525107204914  0.0027228158433  -0.0  0.0323813781142  0.194623813033  -0.965161561966  
6.83697509766  0.537238419056  0.0027228158433  -0.0  0.0241122618318  0.193665087223  -0.955286562443  
6.84505701065  0.550405085087  0.001879126532  -0.0  0.0215955749154  0.181728795171  -0.957132160664  
6.85314798355  0.573376476765  0.00122718466446  -0.0  -0.0267008543015  0.18690598011  -0.962812662125  
6.86123418808  0.583730816841  0.00122718466446  0.00072864087997  0.0323094725609  0.167587414384  -1.00902378559  
6.86932301521  0.588690698147  0.000472977408208  -0.0149179631844  -0.00369114149362  0.16396817565  -1.04205238819  
6.87750601768  0.590237498283  0.0133839827031  -0.00829627923667  0.0300324689597  0.149994567037  -1.0963408947  
6.88562107086  0.588051557541  0.00775938620791  -0.0127192577347  -0.00369114149362  0.179188132286  -1.11726534367  
6.89372301102  0.587067246437  0.0154548566788  -0.00547119835392  -0.00263652950525  0.169960290194  -1.1906567812  
6.90178513527  0.586249113083  0.00752928899601  -0.00470420764759  -0.0264851376414  0.1816329211  -1.2520159483  
6.90988111496  0.581826150417  0.0246203914285  -0.0166948251426  0.0309672392905  0.1823759377  -1.29885029793  
6.91799902916  0.569426476955  0.018126539886  -0.0130260540172  -0.0153637770563  0.184772789478  -1.32816374302  
6.92608118057  0.579844772816  0.00965129584074  -0.0122462799773  0.0552712492645  0.200376242399  -1.35915493965  
6.93416619301  0.562907040119  0.0264356024563  -0.0197627861053  0.0485840514302  0.207183286548  -1.37322449684  
6.94223213196  0.568378269672  0.0216674786061  -0.0144833354279  0.0414174832404  0.213247299194  -1.39750444889  
6.9503390789  0.569426476955  0.0307690985501  -0.0246459580958  0.090576775372  0.224057078362  -1.40747535229  
6.95845317841  0.572110950947  0.0368155390024  -0.0293885152787  0.0591301694512  0.224344700575  -1.41344356537  
6.96654319763  0.562907040119  0.0315105244517  -0.0269852783531  0.0813249498606  0.210706651211  -1.40028488636  
6.97460818291  0.560120284557  0.0517846345901  -0.0409956388175  0.0642354488373  0.200256407261  -1.42044234276  
6.98268413544  0.547464966774  0.0579461269081  -0.0446771904826  0.0785446166992  0.198554649949  -1.37161850929  
6.99077916145  0.561424195766  0.0743469372392  -0.0604260601103  0.0719772577286  0.221396580338  -1.3803910017  
6.99884319305  0.555633425713  0.0796136036515  -0.0635068044066  0.0838176757097  0.225950583816  -1.32972168922  
7.00693917274  0.562907040119  0.0797030851245  -0.0628165155649  0.0745658501983  0.223074376583  -1.30910885334  
7.01505017281  0.554623544216  0.081467166543  -0.0603621453047  0.0615270137787  0.218184813857  -1.24990677834  
7.02317118645  0.555633425713  0.092128328979  -0.0668048635125  0.0716656669974  0.240211814642  -1.16745531559  
7.03123116493  0.559378862381  0.0890603661537  -0.0692592337728  0.0575961880386  0.237287655473  -1.08677744865  
7.03931903839  0.537928700447  0.0958226695657  -0.0763922482729  0.0482724606991  0.238821640611  -1.00231266022  
7.04738116264  0.538606226444  0.092984803021  -0.0749349594116  0.0250709988177  0.234651133418  -0.943494081497  
7.05544519424  0.546237766743  0.0970498546958  -0.0804572924972  0.0571407862008  0.2595064044  -0.879642128944  
7.06363105774  0.54410302639  0.0932660326362  -0.0772742852569  0.0383734889328  0.265834093094  -0.830602705479  
7.0716791153  0.551389396191  0.0995297878981  -0.0800098851323  0.0311829540879  0.259386569262  -0.795105397701  
7.0797431469  0.552821099758  0.092716358602  -0.0766734778881  0.0591062009335  0.278441488743  -0.791821718216  
7.08781504631  0.561424195766  0.0982514694333  -0.0807257443666  0.0142132909968  0.26036927104  -0.819745004177  
7.09591412544  0.567048788071  0.0944676548243  -0.0775938630104  0.0509089902043  0.265354722738  -0.82916456461  
7.10400414467  0.567330002785  0.0998749360442  -0.0811475887895  0.0185036435723  0.262502461672  -0.868448853493  
7.11210298538  0.597293794155  0.105346135795  -0.0865165218711  0.0330524928868  0.252100169659  -0.933043837547  
7.12020301819  0.60512983799  0.123434320092  -0.0970498546958  0.049015481025  0.262598335743  -0.946466207504  
7.12833213806  0.609795749187  0.128611505032  -0.104758106172  0.0458756163716  0.255383849144  -0.951715290546  
7.13638806343  0.601959645748  0.142417341471  -0.118704549968  0.0653859302402  0.246827110648  -0.966935217381  
